; generated by SuperSlicer 2.4 on 2023-02-05 at 16:34:56 UTC

; 

; external perimeters extrusion width = 0.43mm
; perimeters extrusion width = 0.48mm
; infill extrusion width = 0.46mm
; solid infill extrusion width = 0.48mm
; top infill extrusion width = 0.46mm
; first layer extrusion width = 0.58mm

; object:{"name":"4_tofwer_ver","id":"4_tofwer_ver.stl id:0 copy 0","object_center":[115.494237,115.500190,0.000000],"boundingbox_center":[115.494237,115.500190,10.641657],"boundingbox_size":[30.618027,21.541778,21.283314]}
; Total objects to print: 1
M486 T1
; plater:{"center":[115.494237,115.500190,0.000000],"boundingbox_center":[115.494237,115.500190,10.641657],"boundingbox_size":[30.618027,21.541778,21.283314]}

;TYPE:Custom
G90 ; use absolute coordinates
M83 ; extruder relative mode
M140 S60 ; set final bed temp
M104 S150 ; set temporary nozzle temp to prevent oozing during homing and auto bed leveling
G4 S10 ; allow partial nozzle warmup
G28 ; home all axis
;G29 ; auto bed levelling
G1 Z10 F240
G1 X2 Y10 F3000
G1 Z0 F240
M104 S210 ; set final nozzle temp
M190 S60 ; wait for bed temp to stabilize
M109 S210 ; wait for nozzle temp to stabilize
G1 Z0.28 F240
G92 E0
G1 Y100 E7.1 F1500 ; prime the nozzle
G1 X2.3 F5000
G92 E0
G1 Y10 E10 F1200 ; prime the nozzle
G92 E0
;start
M107
G21 ; set units to millimeters
G90 ; use absolute coordinates
M82 ; use absolute distances for extrusion
G92 E0
; Filament gcode
;_TOOLCHANGE 0
M107
;LAYER_CHANGE
;Z:0.2
;HEIGHT:0.2
;BEFORE_LAYER_CHANGE
;0.2


G1 E-2 F3000
G1 Z0.15 F9000
;AFTER_LAYER_CHANGE
;0.2
G92 E0
M204 S500
G1 X99.522 Y109.717
G1 E2 F3000
;TYPE:Skirt
;WIDTH:0.48
G1 F1200
G1 X98.435 Y110.773 E2.05505
G1 X97.513 Y112.046 E2.11218
G1 X97.143 Y112.776 E2.14193
G1 X96.857 Y113.576 E2.17279
G1 X96.648 Y114.76 E2.2165
G1 X96.657 Y115.663 E2.24933
G1 X96.754 Y116.293 E2.27249
G1 X100.052 Y126.048 E2.64674
G1 X100.646 Y127.122 E2.69134
G1 X101.663 Y128.208 E2.7454
G1 X102.332 Y128.687 E2.7753
G1 X103.377 Y129.214 E2.81786
G1 X104.146 Y129.478 E2.84741
G1 X105.169 Y129.703 E2.88547
G1 X106.43 Y129.82 E2.9315
G1 X107.419 Y129.808 E2.96743
G1 X108.708 Y129.668 E3.01455
G1 X110.17 Y129.352 E3.06891
G1 X128.021 Y123.266 E3.75434
G1 X129.436 Y122.593 E3.81131
G1 X130.568 Y121.897 E3.8596
G1 X131.75 Y120.965 E3.91431
G1 X132.495 Y120.215 E3.95273
G1 X133.456 Y118.902 E4.01185
G1 X133.972 Y117.816 E4.05554
G1 X134.307 Y116.476 E4.10573
G1 X134.331 Y115.236 E4.15082
G1 X134.069 Y113.988 E4.19716
G1 X130.992 Y105.01 E4.54207
G1 X130.54 Y104.143 E4.57761
G1 X129.99 Y103.423 E4.61055
G1 X129.372 Y102.83 E4.6417
G1 X128.692 Y102.341 E4.67213
G1 X127.618 Y101.797 E4.71588
G1 X126.817 Y101.525 E4.7466
G1 X125.785 Y101.299 E4.78502
G1 X124.531 Y101.182 E4.83079
G1 X122.731 Y101.259 E4.89626
G1 X120.464 Y101.72 E4.98034
G1 X103.505 Y107.487 E5.63135
G1 X102.089 Y108.079 E5.68712
G1 X100.765 Y108.813 E5.74214
G1 X99.571 Y109.682 E5.79583
G1 X99.826 Y110.034 F9000
G1 F1200
G1 X99.81 Y110.046 E5.79656
G1 X98.771 Y111.053 E5.84914
G1 X97.897 Y112.255 E5.90315
G1 X97.549 Y112.939 E5.93103
G1 X97.281 Y113.683 E5.95978
G1 X97.083 Y114.803 E6.00112
G1 X97.179 Y116.189 E6.05162
G1 X100.451 Y125.87 E6.42303
G1 X101.008 Y126.877 E6.46484
G1 X101.931 Y127.863 E6.5139
G1 X102.552 Y128.309 E6.5417
G1 X103.553 Y128.814 E6.58243
G1 X104.56 Y129.136 E6.62086
G1 X105.715 Y129.334 E6.66345
G1 X106.674 Y129.388 E6.69837
G1 X107.886 Y129.334 E6.74246
G1 X110.063 Y128.928 E6.82294
G1 X127.847 Y122.865 E7.50579
G1 X129.218 Y122.213 E7.56098
G1 X130.329 Y121.532 E7.60833
G1 X131.465 Y120.634 E7.66095
G1 X132.161 Y119.933 E7.69686
G1 X133.073 Y118.692 E7.75284
G1 X133.567 Y117.653 E7.79466
G1 X133.872 Y116.432 E7.84036
G1 X133.894 Y115.264 E7.88284
G1 X133.655 Y114.129 E7.92498
G1 X130.593 Y105.188 E8.26847
G1 X130.18 Y104.391 E8.30111
G1 X129.673 Y103.724 E8.33155
G1 X129.103 Y103.174 E8.36033
G1 X128.471 Y102.718 E8.38864
G1 X127.443 Y102.198 E8.43052
G1 X126.687 Y101.942 E8.45952
G1 X125.727 Y101.732 E8.49523
G1 X124.506 Y101.618 E8.53981
G1 X122.791 Y101.692 E8.60221
G1 X120.594 Y102.137 E8.68366
G1 X103.66 Y107.895 E9.33372
G1 X102.287 Y108.468 E9.38777
G1 X101.007 Y109.177 E9.44095
G1 X99.875 Y109.999 E9.4918
G92 E0
G1 E-1.4 F3000
;WIPE_START
G1 F7200
G1 X99.81 Y110.046 E-1.43171
G1 X98.833 Y110.992 E-1.97
;WIPE_END
G1 E-2 F3000
; printing object 4_tofwer_ver.stl id:0 copy 0
M486 S0
; acceleration to travel
M204 S1500
G1 X102.059 Y112.877 F9000
; decel to extrusion
M204 S500
G1 X102.453 Y113.107
; end travel
G1 E0 F3000
;TYPE:Internal perimeter
;WIDTH:0.576
G1 F1200
G1 X102.816 Y112.831 E0.02024
G1 X103.225 Y112.559 E0.04198
G1 X103.645 Y112.314 E0.06355
G1 X104.101 Y112.082 E0.08622
G1 X104.577 Y111.872 E0.10931
G1 X105.079 Y111.682 E0.13309
G1 X121.248 Y106.169 E0.89031
G1 X121.775 Y106.005 E0.91475
G1 X122.319 Y105.868 E0.93965
G1 X122.81 Y105.772 E0.96181
G1 X123.317 Y105.702 E0.98451
G1 X123.825 Y105.663 E1.00708
G1 X124.528 Y105.671 E1.03823
G1 X125.174 Y105.739 E1.06704
G1 X125.517 Y105.814 E1.0826
G1 X125.87 Y105.924 E1.09897
G1 X126.151 Y106.046 E1.11257
G1 X126.384 Y106.182 E1.12452
G1 X126.567 Y106.325 E1.13483
G1 X126.695 Y106.459 E1.14304
G1 X126.802 Y106.616 E1.15147
G1 X126.883 Y106.797 E1.16022
G1 X129.816 Y115.399 E1.5631
G1 X129.863 Y115.594 E1.57199
G1 X129.874 Y115.767 E1.57966
G1 X129.855 Y115.964 E1.58846
G1 X129.797 Y116.189 E1.59872
G1 X129.696 Y116.438 E1.61065
G1 X129.548 Y116.708 E1.62429
G1 X129.352 Y116.991 E1.63957
G1 X129.092 Y117.3 E1.65745
G1 X128.798 Y117.594 E1.6759
G1 X128.466 Y117.881 E1.69532
G1 X128.087 Y118.166 E1.71635
G1 X127.672 Y118.438 E1.73837
G1 X127.225 Y118.695 E1.76121
G1 X126.752 Y118.932 E1.78466
G1 X126.258 Y119.146 E1.80852
G1 X125.739 Y119.339 E1.83306
G1 X109.566 Y124.853 E2.59045
G1 X109.054 Y125.012 E2.61424
G1 X108.549 Y125.139 E2.63732
G1 X108.076 Y125.232 E2.65866
G1 X107.554 Y125.303 E2.68204
G1 X107.104 Y125.338 E2.70205
G1 X106.644 Y125.344 E2.72241
G1 X106.214 Y125.321 E2.74152
G1 X105.791 Y125.265 E2.76044
G1 X105.452 Y125.191 E2.77581
G1 X105.134 Y125.092 E2.79058
G1 X104.844 Y124.965 E2.80462
G1 X104.636 Y124.843 E2.81528
G1 X104.463 Y124.709 E2.82498
G1 X104.323 Y124.559 E2.83408
G1 X104.239 Y124.435 E2.84071
G1 X104.161 Y124.26 E2.8492
G1 X101.17 Y115.488 E3.26003
G1 X101.124 Y115.301 E3.26858
G1 X101.114 Y115.136 E3.2759
G1 X101.132 Y114.947 E3.28432
G1 X101.187 Y114.731 E3.29418
G1 X101.284 Y114.491 E3.30566
G1 X101.426 Y114.23 E3.31882
G1 X101.616 Y113.955 E3.33363
G1 X101.853 Y113.671 E3.35002
G1 X102.128 Y113.391 E3.36743
G1 X102.408 Y113.147 E3.3839
G1 X102.113 Y112.691 F9000
;TYPE:External perimeter
G1 F1200
G1 X102.504 Y112.393 E3.40572
G1 X102.94 Y112.103 E3.42893
G1 X103.388 Y111.842 E3.45188
G1 X103.87 Y111.597 E3.47588
G1 X104.374 Y111.375 E3.50025
G1 X104.897 Y111.176 E3.52508
G1 X121.082 Y105.658 E4.28302
G1 X121.629 Y105.487 E4.30843
G1 X122.202 Y105.343 E4.33464
G1 X122.722 Y105.242 E4.3581
G1 X123.26 Y105.167 E4.38219
G1 X123.807 Y105.126 E4.40652
G1 X124.559 Y105.134 E4.43984
G1 X125.26 Y105.208 E4.47106
G1 X125.654 Y105.293 E4.48896
G1 X126.058 Y105.419 E4.50769
G1 X126.395 Y105.566 E4.52398
G1 X126.686 Y105.736 E4.53894
G1 X126.929 Y105.926 E4.55262
G1 X127.114 Y106.12 E4.56449
G1 X127.273 Y106.353 E4.57699
G1 X127.383 Y106.6 E4.589
G1 X130.332 Y115.249 E4.99401
G1 X130.397 Y115.513 E5.00607
G1 X130.414 Y115.777 E5.01779
G1 X130.385 Y116.059 E5.03034
G1 X130.309 Y116.357 E5.04399
G1 X130.183 Y116.669 E5.05891
G1 X130.006 Y116.991 E5.0752
G1 X129.779 Y117.318 E5.09285
G1 X129.488 Y117.663 E5.11285
G1 X129.164 Y117.988 E5.13318
G1 X128.804 Y118.299 E5.15429
G1 X128.396 Y118.606 E5.17689
G1 X127.953 Y118.896 E5.20038
G1 X127.479 Y119.169 E5.2246
G1 X126.979 Y119.419 E5.24939
G1 X126.459 Y119.645 E5.27455
G1 X125.919 Y119.845 E5.30005
G1 X109.733 Y125.364 E6.05809
G1 X109.199 Y125.53 E6.08286
G1 X108.666 Y125.664 E6.10722
G1 X108.164 Y125.762 E6.12988
G1 X107.611 Y125.838 E6.15465
G1 X107.128 Y125.875 E6.17611
G1 X106.634 Y125.882 E6.19802
G1 X106.164 Y125.856 E6.21887
G1 X105.698 Y125.795 E6.23969
G1 X105.314 Y125.711 E6.25711
G1 X104.945 Y125.596 E6.27426
G1 X104.6 Y125.444 E6.29097
G1 X104.335 Y125.29 E6.30458
G1 X104.1 Y125.108 E6.31774
G1 X103.901 Y124.895 E6.33063
G1 X103.767 Y124.697 E6.34124
G1 X103.66 Y124.457 E6.35289
G1 X100.654 Y115.639 E6.76586
G1 X100.591 Y115.382 E6.77756
G1 X100.574 Y115.127 E6.78892
G1 X100.602 Y114.854 E6.80108
G1 X100.675 Y114.564 E6.81431
G1 X100.797 Y114.261 E6.82879
G1 X100.968 Y113.948 E6.84459
G1 X101.187 Y113.63 E6.86174
G1 X101.454 Y113.31 E6.8802
G1 X101.759 Y113 E6.89947
G1 X102.068 Y112.73 E6.91763
;WIPE_START
G1 X102.485 Y112.837 F9000
;WIPE_END
G92 E0
G1 E-1.4 F3000
;WIPE_START
G1 F7200
G1 X102.62 Y112.556 E-1.52356
G1 X103.046 Y112.273 E-1.72588
G1 X103.484 Y112.018 E-1.92624
G1 X103.582 Y111.968 E-1.97
;WIPE_END
G1 E-2 F3000
; acceleration to travel
M204 S1500
G1 X123.324 Y106.708 F9000
; decel to extrusion
M204 S500
G1 X125.736 Y106.065
; end travel
G1 E0 F3000
;TYPE:Solid infill
;WIDTH:0.576836
G1 F1200
G1 X126.347 Y106.677 E0.03842
G1 X126.465 Y106.823 E0.04671
G1 X126.517 Y106.94 E0.05239
G1 X126.859 Y107.948 E0.09967
G1 X125.053 Y106.143 E0.21302
G1 X124.498 Y106.063 E0.23793
G1 X124.21 Y106.06 E0.25071
G1 X127.248 Y109.098 E0.44144
G1 X127.638 Y110.247 E0.49531
G1 X123.474 Y106.083 E0.7567
G1 X123.365 Y106.092 E0.76156
G1 X122.814 Y106.183 E0.78635
G1 X128.027 Y111.397 E1.11363
G1 X128.416 Y112.546 E1.1675
G1 X122.178 Y106.308 E1.55912
G1 X121.886 Y106.381 E1.57251
G1 X121.592 Y106.481 E1.58629
G1 X128.806 Y113.695 E2.03918
G1 X129.195 Y114.845 E2.09305
G1 X121.025 Y106.674 E2.60598
G1 X120.457 Y106.867 E2.63257
G1 X129.464 Y115.874 E3.198
G1 X129.464 Y115.896 E3.19899
G1 X129.339 Y116.27 E3.21649
G1 X129.247 Y116.417 E3.22417
G1 X119.89 Y107.06 E3.81158
G1 X119.323 Y107.253 E3.83817
G1 X128.935 Y116.865 E4.4416
G1 X128.571 Y117.261 E4.46547
G1 X118.756 Y107.445 E5.08165
G1 X118.189 Y107.638 E5.10824
G1 X128.157 Y117.606 E5.73399
G1 X127.856 Y117.848 E5.75114
G1 X127.725 Y117.934 E5.75809
G1 X117.622 Y107.831 E6.39233
G1 X117.055 Y108.024 E6.41892
G1 X127.25 Y118.219 E7.05896
G1 X126.756 Y118.485 E7.08388
G1 X116.488 Y108.217 E7.72847
G1 X115.921 Y108.41 E7.75506
G1 X126.238 Y118.727 E8.40276
G1 X126.116 Y118.78 E8.40864
G1 X125.68 Y118.929 E8.42912
G1 X115.353 Y108.603 E9.07738
G1 X114.786 Y108.795 E9.10397
G1 X125.113 Y119.122 E9.75225
G1 X124.546 Y119.315 E9.77883
G1 X114.219 Y108.988 E10.42713
G1 X113.652 Y109.181 E10.45372
G1 X123.98 Y119.509 E11.10205
G1 X123.413 Y119.702 E11.12863
G1 X113.085 Y109.374 E11.77698
G1 X112.518 Y109.567 E11.80357
G1 X122.846 Y119.895 E12.45195
G1 X122.279 Y120.088 E12.47853
G1 X111.951 Y109.76 E13.12693
G1 X111.384 Y109.952 E13.15352
G1 X121.713 Y120.281 E13.80195
G1 X121.146 Y120.475 E13.82852
G1 X110.817 Y110.145 E14.47698
G1 X110.249 Y110.338 E14.50356
G1 X120.579 Y120.668 E15.15204
G1 X120.013 Y120.861 E15.17862
G1 X109.682 Y110.531 E15.82712
G1 X109.115 Y110.724 E15.85371
G1 X119.446 Y121.054 E16.50223
G1 X118.879 Y121.248 E16.52881
G1 X108.548 Y110.917 E17.17736
G1 X107.981 Y111.11 E17.20395
G1 X118.312 Y121.441 E17.85252
G1 X117.746 Y121.634 E17.8791
G1 X107.414 Y111.302 E18.5277
G1 X106.847 Y111.495 E18.55429
G1 X117.179 Y121.827 E19.20291
G1 X116.612 Y122.021 E19.22949
G1 X106.28 Y111.688 E19.87813
G1 X105.713 Y111.881 E19.90472
G1 X116.045 Y122.214 E20.55339
G1 X115.479 Y122.407 E20.57997
G1 X105.147 Y112.076 E21.22855
G1 X104.731 Y112.233 E21.2483
G1 X104.605 Y112.293 E21.25451
G1 X114.912 Y122.6 E21.90156
G1 X114.345 Y122.794 E21.92814
G1 X104.09 Y112.538 E22.57197
G1 X103.834 Y112.659 E22.58454
G1 X103.598 Y112.806 E22.59687
G1 X113.779 Y122.987 E23.23599
G1 X113.212 Y123.18 E23.26257
G1 X103.129 Y113.098 E23.89551
G1 X103.045 Y113.15 E23.89994
G1 X102.702 Y113.43 E23.91958
G1 X112.645 Y123.373 E24.54379
G1 X112.078 Y123.566 E24.57037
G1 X102.299 Y113.787 E25.18431
G1 X101.937 Y114.185 E25.20819
G1 X111.512 Y123.76 E25.80927
G1 X110.945 Y123.953 E25.83585
G1 X101.645 Y114.653 E26.41969
G1 X101.523 Y115.014 E26.43663
G1 X101.518 Y115.24 E26.44665
G1 X101.541 Y115.309 E26.44989
G1 X110.378 Y124.146 E27.00464
G1 X109.812 Y124.339 E27.03122
G1 X101.931 Y116.459 E27.52593
G1 X102.321 Y117.609 E27.57981
G1 X109.245 Y124.533 E28.01448
G1 X108.947 Y124.634 E28.02844
G1 X108.652 Y124.7 E28.04184
G1 X102.71 Y118.758 E28.41487
G1 X103.1 Y119.908 E28.46875
G1 X108.032 Y124.84 E28.77835
G1 X108.007 Y124.845 E28.77949
G1 X107.518 Y124.912 E28.80138
G1 X107.352 Y124.92 E28.80877
G1 X103.49 Y121.058 E29.05122
G1 X103.88 Y122.207 E29.1051
G1 X106.622 Y124.95 E29.2773
G1 X106.25 Y124.93 E29.29384
G1 X105.867 Y124.879 E29.31102
G1 X105.765 Y124.852 E29.3157
G1 X103.9 Y122.988 E29.43276
M106 S84.15
;LAYER_CHANGE
;Z:0.52
;HEIGHT:0.32
;BEFORE_LAYER_CHANGE
;0.52


G92 E0
G1 E-1.4 F3000
;WIPE_START
G1 F7200
G1 X104.918 Y124.006 E-1.97
;WIPE_END
G1 E-2 F3000
; stop printing object 4_tofwer_ver.stl id:0 copy 0
M486 S-1
G1 Z0.47 F9000
;AFTER_LAYER_CHANGE
;0.52
; printing object 4_tofwer_ver.stl id:0 copy 0
M486 S0
G1 X103.958 Y124.593
G1 E0 F3000
;TYPE:Internal perimeter
;WIDTH:0.476
G1 F2400
G1 X103.862 Y124.378 E0.0128
G1 X100.861 Y115.578 E0.51661
G1 X100.806 Y115.349 E0.5294
G1 X100.791 Y115.129 E0.54134
G1 X100.816 Y114.889 E0.55441
G1 X100.882 Y114.628 E0.56899
G1 X100.995 Y114.349 E0.58529
G1 X101.155 Y114.057 E0.60339
G1 X101.364 Y113.755 E0.62329
G1 X101.622 Y113.448 E0.64498
G1 X101.899 Y113.166 E0.6664
G1 X102.241 Y112.866 E0.69109
G1 X102.621 Y112.575 E0.717
G1 X103.071 Y112.277 E0.74626
G1 X103.484 Y112.036 E0.77216
G1 X103.957 Y111.795 E0.80094
G1 X104.451 Y111.577 E0.83019
G1 X104.966 Y111.381 E0.86002
G1 X121.149 Y105.863 E1.78659
G1 X121.679 Y105.698 E1.81668
G1 X122.301 Y105.543 E1.85143
G1 X122.734 Y105.459 E1.87534
G1 X123.253 Y105.386 E1.90371
G1 X123.847 Y105.341 E1.93599
G1 X124.329 Y105.336 E1.96215
G1 X124.796 Y105.364 E1.98746
G1 X125.232 Y105.423 E2.01131
G1 X125.554 Y105.492 E2.02916
G1 X125.992 Y105.626 E2.05398
G1 X126.302 Y105.762 E2.07233
G1 X126.568 Y105.918 E2.08906
G1 X126.786 Y106.089 E2.10407
G1 X126.919 Y106.229 E2.11456
G1 X127.086 Y106.464 E2.13018
G1 X127.182 Y106.679 E2.14293
G1 X130.125 Y115.31 E2.63705
G1 X130.182 Y115.544 E2.65013
G1 X130.197 Y115.769 E2.66235
G1 X130.173 Y116.014 E2.67571
G1 X130.106 Y116.28 E2.69056
G1 X129.992 Y116.564 E2.70714
G1 X129.831 Y116.862 E2.72551
G1 X129.621 Y117.168 E2.74558
G1 X129.309 Y117.538 E2.77182
G1 X128.998 Y117.847 E2.79559
G1 X128.668 Y118.131 E2.81921
G1 X128.271 Y118.43 E2.84612
G1 X127.857 Y118.701 E2.87291
G1 X127.374 Y118.98 E2.90313
G1 X126.885 Y119.224 E2.93278
G1 X126.374 Y119.446 E2.96293
G1 X125.847 Y119.641 E2.99343
G1 X109.672 Y125.157 E3.91951
G1 X109.115 Y125.328 E3.95108
G1 X108.59 Y125.459 E3.98042
G1 X108.173 Y125.541 E4.00344
G1 X107.552 Y125.626 E4.03742
G1 X107.153 Y125.656 E4.05911
G1 X106.667 Y125.666 E4.08543
G1 X106.211 Y125.643 E4.1102
G1 X105.696 Y125.573 E4.13836
G1 X105.387 Y125.507 E4.15548
G1 X105.036 Y125.398 E4.17536
G1 X104.664 Y125.232 E4.19747
G1 X104.463 Y125.115 E4.21009
G1 X104.254 Y124.953 E4.22439
G1 X104.05 Y124.73 E4.24078
G1 X103.992 Y124.643 E4.24645
G1 X103.542 Y124.619 F9000
;TYPE:External perimeter
;WIDTH:0.428
G1 F1500
G1 X103.498 Y124.52 E4.25162
G1 X100.487 Y115.688 E4.69775
G1 X100.418 Y115.408 E4.7115
G1 X100.4 Y115.122 E4.72521
G1 X100.43 Y114.821 E4.73968
G1 X100.511 Y114.506 E4.75518
G1 X100.641 Y114.182 E4.77191
G1 X100.823 Y113.851 E4.78995
G1 X101.054 Y113.518 E4.80934
G1 X101.333 Y113.185 E4.83008
G1 X101.631 Y112.883 E4.85039
G1 X101.994 Y112.564 E4.87348
G1 X102.395 Y112.257 E4.89761
G1 X102.865 Y111.945 E4.92458
G1 X103.297 Y111.694 E4.94849
G1 X103.79 Y111.443 E4.97492
G1 X104.303 Y111.216 E5.00174
G1 X104.833 Y111.014 E5.02887
G1 X121.028 Y105.492 E5.84682
G1 X121.574 Y105.322 E5.87415
G1 X122.217 Y105.162 E5.90584
G1 X122.67 Y105.074 E5.92789
G1 X123.211 Y104.998 E5.95401
G1 X123.83 Y104.951 E5.9837
G1 X124.339 Y104.946 E6.00804
G1 X124.833 Y104.975 E6.0317
