; generated by SuperSlicer 2.4 on 2023-02-05 at 16:33:46 UTC

; 

; external perimeters extrusion width = 0.43mm
; perimeters extrusion width = 0.48mm
; infill extrusion width = 0.46mm
; solid infill extrusion width = 0.48mm
; top infill extrusion width = 0.46mm
; first layer extrusion width = 0.58mm

; external perimeters extrusion width = 0.43mm
; perimeters extrusion width = 0.48mm
; infill extrusion width = 0.46mm
; solid infill extrusion width = 0.48mm
; top infill extrusion width = 0.46mm
; first layer extrusion width = 0.58mm

; object:{"name":"D6_14mm","id":"D6_14mm.stl id:0 copy 0","object_center":[101.494996,108.044854,0.000000],"boundingbox_center":[101.494996,108.044854,7.000000],"boundingbox_size":[19.498199,19.498199,14.000001]}
; object:{"name":"New_York_Twin_Towers","id":"New_York_Twin_Towers.stl id:1 copy 0","object_center":[126.776889,114.058188,0.000000],"boundingbox_center":[126.776889,114.058188,15.508804],"boundingbox_size":[24.701002,23.555604,31.017701]}
; Total objects to print: 2
M486 T2
; plater:{"center":[115.436644,112.065873,0.000000],"boundingbox_center":[115.436644,112.065873,15.508804],"boundingbox_size":[47.381493,27.540236,31.017701]}

;TYPE:Custom
G90 ; use absolute coordinates
M83 ; extruder relative mode
M140 S60 ; set final bed temp
M104 S150 ; set temporary nozzle temp to prevent oozing during homing and auto bed leveling
G4 S10 ; allow partial nozzle warmup
G28 ; home all axis
;G29 ; auto bed levelling
G1 Z10 F240
G1 X2 Y10 F3000
G1 Z0 F240
M104 S210 ; set final nozzle temp
M190 S60 ; wait for bed temp to stabilize
M109 S210 ; wait for nozzle temp to stabilize
G1 Z0.28 F240
G92 E0
G1 Y100 E7.1 F1500 ; prime the nozzle
G1 X2.3 F5000
G92 E0
G1 Y10 E10 F1200 ; prime the nozzle
G92 E0
;start
M107
G21 ; set units to millimeters
G90 ; use absolute coordinates
M82 ; use absolute distances for extrusion
G92 E0
; Filament gcode
;_TOOLCHANGE 0
M107
;LAYER_CHANGE
;Z:0.2
;HEIGHT:0.2
;BEFORE_LAYER_CHANGE
;0.2


G1 E-2 F3000
G1 Z0.15 F9000
;AFTER_LAYER_CHANGE
;0.2
G92 E0
M204 S500
G1 X90.039 Y103.714
G1 E2 F3000
;TYPE:Skirt
;WIDTH:0.48
G1 F1200
G1 X88.907 Y105.13 E2.0659
G1 X88.686 Y106.707 E2.12376
G1 X89.249 Y108.196 E2.18162
G1 X97.164 Y119.501 E2.68316
G1 X98.599 Y120.64 E2.74976
G1 X118.576 Y128.681 E3.5324
G1 X120.547 Y128.82 E3.60421
G1 X121.951 Y128.069 E3.66207
G1 X141.159 Y110.489 E4.6084
G1 X142.098 Y108.937 E4.67429
G1 X142.111 Y107.345 E4.73216
G1 X141.36 Y105.942 E4.79002
G1 X136.15 Y100.249 E5.07048
G1 X134.192 Y99.23 E5.1507
G1 X103.605 Y95.243 E6.27172
G1 X101.343 Y95.799 E6.35637
G1 X90.088 Y103.679 E6.85573
G92 E0
G1 E-1.4 F3000
;WIPE_START
G1 F7200
G1 X89.179 Y104.796 E-1.97
;WIPE_END
G1 E-2 F3000
; printing object D6_14mm.stl id:0 copy 0
M486 S0
; acceleration to travel
M204 S1500
G1 X92.615 Y106.362 F9000
; decel to extrusion
M204 S500
G1 X93.035 Y106.553
; end travel
G1 E0 F3000
;TYPE:Internal perimeter
;WIDTH:0.576
G1 F1200
G1 X102.987 Y99.585 E0.53853
G1 X109.955 Y109.537 E1.07705
G1 X100.003 Y116.505 E1.61558
G1 X93.069 Y106.602 E2.15144
G1 X92.286 Y106.421 F9000
;TYPE:External perimeter
G1 F1200
G1 X103.119 Y98.836 E2.7376
G1 X103.183 Y98.928 E2.74257
G1 X110.704 Y109.669 E3.32377
G1 X99.871 Y117.254 E3.90993
G1 X92.321 Y106.47 E4.49344
;WIPE_START
G1 X92.685 Y106.386 F9000
;WIPE_END
G92 E0
G1 E-1.4 F3000
;WIPE_START
G1 F7200
G1 X93.864 Y105.56 E-1.97
;WIPE_END
G1 E-2 F3000
; acceleration to travel
M204 S1500
G1 X101.384 Y100.837 F9000
; decel to extrusion
M204 S500
G1 X102.303 Y100.26
; end travel
G1 E0 F3000
;TYPE:Solid infill
;WIDTH:0.577257
G1 F1200
G1 X104.566 Y102.524 E0.1422
G1 X106.341 Y105.059 E0.27967
G1 X102.022 Y100.739 E0.55104
G1 X101.575 Y101.052 E0.57528
G1 X108.116 Y107.594 E0.98624
G1 X109.409 Y109.44 E1.08637
G1 X109.288 Y109.525 E1.09296
G1 X101.128 Y101.365 E1.60559
G1 X100.681 Y101.678 E1.62983
G1 X108.841 Y109.838 E2.14247
G1 X108.394 Y110.151 E2.16671
G1 X100.234 Y101.991 E2.67935
G1 X99.787 Y102.304 E2.70359
G1 X107.947 Y110.464 E3.21623
G1 X107.5 Y110.777 E3.24047
G1 X99.34 Y102.617 E3.7531
G1 X98.893 Y102.93 E3.77734
G1 X107.053 Y111.09 E4.28998
G1 X106.606 Y111.403 E4.31422
G1 X98.446 Y103.243 E4.82686
G1 X97.999 Y103.556 E4.8511
G1 X106.159 Y111.716 E5.36374
G1 X105.712 Y112.029 E5.38798
G1 X97.552 Y103.869 E5.90062
G1 X97.105 Y104.182 E5.92486
G1 X105.265 Y112.342 E6.43749
G1 X104.818 Y112.655 E6.46173
G1 X96.658 Y104.495 E6.97437
G1 X96.211 Y104.808 E6.99861
G1 X104.371 Y112.968 E7.51125
G1 X103.924 Y113.281 E7.53549
G1 X95.764 Y105.121 E8.04813
G1 X95.317 Y105.434 E8.07237
G1 X103.477 Y113.594 E8.585
G1 X103.03 Y113.907 E8.60924
G1 X94.87 Y105.747 E9.12188
G1 X94.423 Y106.06 E9.14612
G1 X102.583 Y114.22 E9.65876
G1 X102.136 Y114.533 E9.683
G1 X93.976 Y106.373 E10.19564
G1 X93.581 Y106.649 E10.21705
G1 X93.788 Y106.945 E10.23308
G1 X101.689 Y114.846 E10.72944
G1 X101.242 Y115.159 E10.75368
G1 X95.563 Y109.48 E11.11046
G1 X97.338 Y112.015 E11.24793
G1 X100.795 Y115.472 E11.46512
G1 X100.348 Y115.785 E11.48935
G1 X98.172 Y113.609 E11.62606
G92 E0
G1 E-1.4 F3000
;WIPE_START
G1 F7200
G1 X99.19 Y114.627 E-1.97
;WIPE_END
G1 E-2 F3000
; acceleration to travel
M204 S1500
G1 X103.327 Y102.791 F9000
; decel to extrusion
M204 S500
G1 X103.833 Y101.345
; end travel
G1 E0 F3000
;TYPE:Gap fill
;WIDTH:0.15812
G1 F1200
G1 X103.674 Y101.155 E0.00237
;WIDTH:0.206108
G1 X103.514 Y100.965 E0.00574
;WIDTH:0.254096
G1 X103.355 Y100.775 E0.01009
;WIDTH:0.302084
G1 X103.196 Y100.586 E0.01543
;WIDTH:0.350072
G1 X103.036 Y100.396 E0.02175
;WIDTH:0.39806
G1 X102.877 Y100.206 E0.02907
G1 X102.824 Y100.135 E0.03169
;WIDTH:0.434276
G1 X102.77 Y100.064 E0.03459
G92 E0
G1 E-1.4 F3000
;WIPE_START
G1 F7200
G1 X102.824 Y100.135 E-1.43517
;WIPE_END
G1 E-2 F3000
; stop printing object D6_14mm.stl id:0 copy 0
M486 S-1
; printing object New_York_Twin_Towers.stl id:1 copy 0
M486 S1
; acceleration to travel
M204 S1500
G1 X115.909 Y116.438 F9000
; decel to extrusion
M204 S500
G1 X117.508 Y118.43
; end travel
G1 E0 F3000
;TYPE:Internal perimeter
;WIDTH:0.576
G1 F1200
G1 X120.592 Y115.607 E0.18532
G1 X122.276 Y114.066 E0.2865
G1 X123.293 Y115.177 E0.35328
G1 X118.525 Y119.541 E0.63978
G1 X117.549 Y118.474 E0.70389
G92 E0
G1 E-1.4 F3000
;WIPE_START
G1 F7200
G1 X118.597 Y117.487 E-1.97
;WIPE_END
G1 E-2 F3000
; acceleration to travel
M204 S1500
G1 X129.598 Y112.902 F9000
; decel to extrusion
M204 S500
G1 X130.942 Y112.341
; end travel
G1 E0 F3000
G1 F1200
G1 X135.712 Y107.976 E0.2866
G1 X136.718 Y109.072 E0.35252
G1 X134.572 Y111.035 E0.48142
G1 X131.947 Y113.439 E0.6392
G1 X130.983 Y112.386 E0.70247
G92 E0
G1 E-1.4 F3000
;WIPE_START
G1 F7200
G1 X132.036 Y111.404 E-1.97
;WIPE_END
G1 E-2 F3000
; acceleration to travel
M204 S1500
G1 X137.867 Y108.457 F9000
; decel to extrusion
M204 S500
G1 X138.579 Y108.097
; end travel
G1 E0 F3000
;TYPE:External perimeter
G1 F1200
G1 X119.796 Y125.288 E1.12865
G1 X114.975 Y120.02 E1.44518
G1 X133.758 Y102.829 E2.57383
G1 X133.83 Y102.908 E2.57856
G1 X138.539 Y108.052 E2.8877
;WIPE_START
G1 X138.189 Y108.183 F9000
;WIPE_END
G92 E0
G1 E-1.4 F3000
;WIPE_START
G1 F7200
G1 X137.126 Y109.155 E-1.97
;WIPE_END
G1 E-2 F3000
G1 X135.128 Y108.729 F9000
G1 E0 F3000
;TYPE:Solid infill
;WIDTH:0.622521
G1 F1200
G1 X135.789 Y109.391 E0.04478
G1 X135.392 Y109.754 E0.07055
G1 X134.894 Y109.256 E0.10425
G1 X134.498 Y109.619 E0.13002
G1 X134.995 Y110.117 E0.16373
G1 X134.598 Y110.48 E0.18949
G1 X134.101 Y109.983 E0.2232
G1 X133.704 Y110.346 E0.24897
G1 X134.201 Y110.843 E0.28267
G1 X133.805 Y111.206 E0.30844
G1 X133.307 Y110.709 E0.34214
G1 X132.91 Y111.072 E0.36791
G1 X133.408 Y111.569 E0.40161
G1 X133.011 Y111.933 E0.42738
G1 X132.514 Y111.435 E0.46108
G1 X132.117 Y111.798 E0.48685
G1 X132.614 Y112.296 E0.52055
G1 X132.217 Y112.659 E0.54632
G1 X131.556 Y111.998 E0.5911
G92 E0
G1 E-1.4 F3000
;WIPE_START
G1 F7200
G1 X132.217 Y112.659 E-1.77003
G1 X132.59 Y112.318 E-1.97
;WIPE_END
G1 E-2 F3000
; acceleration to travel
M204 S1500
G1 X135.235 Y108.899 F9000
; decel to extrusion
M204 S500
G1 X135.558 Y108.481
; end travel
G1 E0 F3000
;TYPE:Gap fill
;WIDTH:0.420288
G1 F1200
G1 X135.621 Y108.548 E0.00289
G1 X135.684 Y108.616 E0.00578
G1 X135.89 Y108.83 E0.01511
;WIDTH:0.385939
G1 X136.095 Y109.045 E0.02358
G1 X136.155 Y109.106 E0.02603
G1 X136.216 Y109.167 E0.02848
G92 E0
G1 E-1.4 F3000
;WIPE_START
G1 F7200
G1 X136.155 Y109.106 E-1.43397
G1 X136.095 Y109.045 E-1.46793
G1 X135.89 Y108.83 E-1.58556
;WIPE_END
G1 E-2 F3000
; acceleration to travel
M204 S1500
G1 X133.469 Y104.154 F9000
; decel to extrusion
M204 S500
G1 X133.173 Y103.582
; end travel
G1 E0 F3000
;TYPE:Solid infill
;WIDTH:0.587582
G1 F1200
G1 X137.836 Y108.245 E0.29816
G1 X137.439 Y108.608 E0.32248
G1 X132.94 Y104.109 E0.61018
G1 X132.543 Y104.472 E0.63451
G1 X135.609 Y107.538 E0.83057
G1 X135.213 Y107.901 E0.85489
G1 X132.147 Y104.835 E1.05095
G1 X131.75 Y105.199 E1.07527
G1 X134.816 Y108.265 E1.27133
G1 X134.419 Y108.628 E1.29565
G1 X131.353 Y105.562 E1.49172
G1 X130.956 Y105.925 E1.51604
G1 X134.022 Y108.991 E1.7121
G1 X133.625 Y109.354 E1.73642
G1 X130.559 Y106.288 E1.93248
G1 X130.163 Y106.651 E1.9568
G1 X133.229 Y109.717 E2.15286
G1 X132.832 Y110.08 E2.17719
G1 X129.766 Y107.014 E2.37325
G1 X129.369 Y107.378 E2.39757
G1 X132.435 Y110.444 E2.59363
G1 X132.038 Y110.807 E2.61795
G1 X128.972 Y107.741 E2.81401
G1 X128.575 Y108.104 E2.83833
G1 X131.641 Y111.17 E3.03439
G1 X131.245 Y111.533 E3.05872
G1 X128.179 Y108.467 E3.25478
G1 X127.782 Y108.83 E3.2791
G1 X130.848 Y111.896 E3.47516
G1 X130.451 Y112.259 E3.49948
G1 X127.385 Y109.193 E3.69554
G1 X126.988 Y109.557 E3.71987
G1 X131.487 Y114.056 E4.00757
G1 X131.091 Y114.419 E4.03189
G1 X126.591 Y109.92 E4.31959
G1 X126.195 Y110.283 E4.34391
G1 X130.694 Y114.782 E4.63162
G1 X130.297 Y115.145 E4.65594
G1 X125.798 Y110.646 E4.94364
G1 X125.401 Y111.009 E4.96796
G1 X129.9 Y115.508 E5.25566
G1 X129.503 Y115.872 E5.27999
G1 X125.004 Y111.372 E5.56769
G1 X124.607 Y111.736 E5.59201
G1 X129.107 Y116.235 E5.87971
G1 X128.71 Y116.598 E5.90403
G1 X124.211 Y112.099 E6.19174
G1 X123.814 Y112.462 E6.21606
G1 X128.313 Y116.961 E6.50376
G1 X127.916 Y117.324 E6.52808
G1 X123.417 Y112.825 E6.81578
G1 X123.02 Y113.188 E6.84011
G1 X127.519 Y117.687 E7.12781
G1 X127.123 Y118.051 E7.15213
G1 X122.623 Y113.551 E7.43983
G1 X122.468 Y113.694 E7.44939
G1 X123.847 Y115.202 E7.5418
G1 X123.673 Y115.361 E7.55248
G1 X126.726 Y118.414 E7.74768
G1 X126.329 Y118.777 E7.772
G1 X123.276 Y115.724 E7.9672
G1 X122.88 Y116.088 E7.99152
G1 X125.932 Y119.14 E8.18671
G1 X125.535 Y119.503 E8.21104
G1 X122.483 Y116.451 E8.40623
G1 X122.086 Y116.814 E8.43056
G1 X125.139 Y119.866 E8.62575
G1 X124.742 Y120.23 E8.65007
G1 X121.689 Y117.177 E8.84527
G1 X121.293 Y117.54 E8.86959
G1 X124.345 Y120.593 E9.06479
G1 X123.948 Y120.956 E9.08911
G1 X120.896 Y117.903 E9.28431
G1 X120.499 Y118.267 E9.30863
G1 X123.551 Y121.319 E9.50383
G1 X123.155 Y121.682 E9.52815
G1 X120.102 Y118.63 E9.72335
G1 X119.705 Y118.993 E9.74767
G1 X122.758 Y122.045 E9.94286
G1 X122.361 Y122.408 E9.96719
G1 X119.309 Y119.356 E10.16238
G1 X118.912 Y119.719 E10.1867
G1 X121.964 Y122.772 E10.3819
G1 X121.567 Y123.135 E10.40622
G1 X117.068 Y118.636 E10.69393
G1 X116.672 Y118.999 E10.71825
G1 X121.171 Y123.498 E11.00595
G1 X120.774 Y123.861 E11.03027
G1 X116.275 Y119.362 E11.31797
G1 X115.878 Y119.725 E11.3423
G1 X120.377 Y124.224 E11.63
G1 X119.98 Y124.587 E11.65432
G1 X115.318 Y119.925 E11.95248
G92 E0
G1 E-1.4 F3000
;WIPE_START
G1 F7200
G1 X116.336 Y120.943 E-1.97
;WIPE_END
G1 E-2 F3000
; acceleration to travel
M204 S1500
G1 X129.038 Y113.42 F9000
; decel to extrusion
M204 S500
G1 X130.59 Y112.501
; end travel
G1 E0 F3000
;TYPE:Gap fill
;WIDTH:0.387991
G1 F1200
G1 X130.63 Y112.584 E0.00263
;WIDTH:0.356785
G1 X130.654 Y112.636 E0.00413
G1 X131.217 Y113.224 E0.02536
;WIDTH:0.256298
G1 X131.779 Y113.811 E0.03979
G1 X131.817 Y113.85 E0.04074
G1 X131.854 Y113.888 E0.04169
G92 E0
G1 E-1.4 F3000
;WIPE_START
G1 F7200
G1 X131.817 Y113.85 E-1.42113
G1 X131.779 Y113.811 E-1.44226
G1 X131.217 Y113.224 E-1.76427
;WIPE_END
G1 E-2 F3000
; acceleration to travel
M204 S1500
G1 X136.557 Y109.447 F9000
; decel to extrusion
M204 S500
G1 X137.21 Y108.986
; end travel
G1 E0 F3000
;WIDTH:0.352714
G1 F1200
G1 X137.158 Y108.93 E0.00195
G1 X137.107 Y108.875 E0.0039
G1 X136.547 Y108.29 E0.02475
;WIDTH:0.275913
G1 X135.987 Y107.705 E0.04044
G1 X135.935 Y107.66 E0.04177
G1 X135.88 Y107.613 E0.04317
G92 E0
G1 E-1.4 F3000
;WIPE_START
G1 F7200
G1 X135.935 Y107.66 E-1.42871
G1 X135.987 Y107.705 E-1.45577
G1 X136.547 Y108.29 E-1.77628
;WIPE_END
G1 E-2 F3000
G1 X138.126 Y108.077 F9000
G1 E0 F3000
;WIDTH:0.15812
G1 F1200
G1 X137.393 Y107.311 E0.01015
;WIDTH:0.212132
G1 X136.66 Y106.545 E0.02507
;WIDTH:0.266144
G1 X135.928 Y105.779 E0.04475
;WIDTH:0.320156
G1 X135.195 Y105.013 E0.06918
;WIDTH:0.374168
G1 X134.462 Y104.247 E0.09838
;WIDTH:0.437922
G1 X133.729 Y103.481 E0.1332
G1 X133.663 Y103.41 E0.13636
G1 X133.598 Y103.34 E0.13953
G92 E0
G1 E-1.4 F3000
;WIPE_START
G1 F7200
G1 X133.663 Y103.41 E-1.43813
G1 X133.729 Y103.481 E-1.47625
G1 X134.462 Y104.247 E-1.89587
;WIPE_END
G1 E-2 F3000
; acceleration to travel
M204 S1500
G1 X123.829 Y114.415 F9000
; decel to extrusion
M204 S500
G1 X122.53 Y115.658
; end travel
G1 E0 F3000
;TYPE:Solid infill
;WIDTH:0.622832
G1 F1200
G1 X121.855 Y114.983 E0.04572
G1 X121.458 Y115.346 E0.0715
G1 X121.969 Y115.857 E0.10614
G1 X121.573 Y116.22 E0.13192
G1 X121.062 Y115.709 E0.16656
G1 X120.665 Y116.073 E0.19234
G1 X121.176 Y116.584 E0.22697
G1 X120.779 Y116.947 E0.25275
G1 X120.268 Y116.436 E0.28739
G1 X119.871 Y116.799 E0.31317
G1 X120.382 Y117.31 E0.34781
G1 X119.985 Y117.673 E0.37359
G1 X119.474 Y117.162 E0.40822
G1 X119.078 Y117.525 E0.434
G1 X119.589 Y118.036 E0.46864
G1 X119.192 Y118.399 E0.49442
G1 X118.681 Y117.888 E0.52906
G1 X118.284 Y118.252 E0.55484
G1 X118.959 Y118.926 E0.60056
G92 E0
G1 E-1.4 F3000
;WIPE_START
G1 F7200
G1 X118.284 Y118.252 E-1.7776
G1 X118.643 Y117.923 E-1.97
;WIPE_END
G1 E-2 F3000
; acceleration to travel
M204 S1500
G1 X122.341 Y115.56 F9000
; decel to extrusion
M204 S500
G1 X122.792 Y115.271
; end travel
G1 E0 F3000
;TYPE:Gap fill
;WIDTH:0.383744
G1 F1200
G1 X122.733 Y115.211 E0.00242
G1 X122.673 Y115.15 E0.00483
G1 X122.46 Y114.928 E0.01354
;WIDTH:0.420242
G1 X122.248 Y114.706 E0.02319
G1 X122.185 Y114.638 E0.02608
G1 X122.123 Y114.571 E0.02896
M106 S84.15
;LAYER_CHANGE
;Z:0.52
;HEIGHT:0.32
;BEFORE_LAYER_CHANGE
;0.52


G92 E0
G1 E-1.4 F3000
;WIPE_START
G1 F7200
G1 X122.185 Y114.638 E-1.43642
G1 X122.248 Y114.706 E-1.47284
G1 X122.46 Y114.928 E-1.59452
;WIPE_END
G1 E-2 F3000
; stop printing object New_York_Twin_Towers.stl id:1 copy 0
M486 S-1
G1 Z0.47 F9000
;AFTER_LAYER_CHANGE
;0.52
G92 E0
; printing object D6_14mm.stl id:0 copy 0
M486 S0
; acceleration to travel
M204 S1500
G1 X111.782 Y110.223
; decel to extrusion
M204 S500
G1 X110.403 Y109.616
; end travel
G1 E2 F3000
;TYPE:Internal perimeter
;WIDTH:0.476
G1 F2400
G1 X99.924 Y116.952 E2.69319
G1 X92.587 Y106.474 E3.38638
G1 X103.066 Y99.137 E4.07957
G1 X110.368 Y109.566 E4.76951
G1 X110.946 Y109.711 F9000
;TYPE:External perimeter
;WIDTH:0.428
G1 F1500
G1 X99.829 Y117.496 E5.41832
G1 X92.044 Y106.378 E6.06713
G1 X103.161 Y98.594 E6.71595
G1 X110.912 Y109.662 E7.36189
;WIPE_START
G1 X110.548 Y109.746 F9000
;WIPE_END
G92 E0
G1 E-1.4 F3000
;WIPE_START
G1 F7200
G1 X109.368 Y110.572 E-1.97
;WIPE_END
G1 E-2 F3000
; acceleration to travel
M204 S1500
G1 X107.635 Y111.445 F9000
; decel to extrusion
M204 S500
G1 X107.412 Y111.558
; end travel
G1 E0 F3000
;TYPE:Solid infill
;WIDTH:0.483105
G1 F2400
G1 X109.754 Y109.216 E0.18217
G1 X109.513 Y108.871 E0.2053
G1 X106.183 Y112.201 E0.46428
G1 X104.229 Y113.569 E0.59547
G1 X109.271 Y108.527 E0.98765
G1 X109.03 Y108.182 E1.01078
G1 X102.275 Y114.937 E1.53618
G1 X100.321 Y116.305 E1.66737
G1 X108.789 Y107.838 E2.32598
G1 X108.548 Y107.493 E2.34911
G1 X99.797 Y116.244 E3.02973
G1 X99.556 Y115.899 E3.05287
G1 X108.306 Y107.149 E3.73349
G1 X108.065 Y106.804 E3.75662
G1 X99.315 Y115.555 E4.43724
