; generated by SuperSlicer 2.4 on 2023-02-05 at 16:35:24 UTC

; 

; external perimeters extrusion width = 0.43mm
; perimeters extrusion width = 0.48mm
; infill extrusion width = 0.46mm
; solid infill extrusion width = 0.48mm
; top infill extrusion width = 0.46mm
; first layer extrusion width = 0.58mm

; object:{"name":"ffffff","id":"ffffff.stl id:0 copy 0","object_center":[115.500000,115.500000,0.000000],"boundingbox_center":[115.500000,115.500000,11.790887],"boundingbox_size":[26.329429,26.329429,23.581774]}
; Total objects to print: 1
M486 T1
; plater:{"center":[115.500000,115.500000,0.000000],"boundingbox_center":[115.500000,115.500000,11.790887],"boundingbox_size":[26.329429,26.329429,23.581774]}

;TYPE:Custom
G90 ; use absolute coordinates
M83 ; extruder relative mode
M140 S60 ; set final bed temp
M104 S150 ; set temporary nozzle temp to prevent oozing during homing and auto bed leveling
G4 S10 ; allow partial nozzle warmup
G28 ; home all axis
;G29 ; auto bed levelling
G1 Z10 F240
G1 X2 Y10 F3000
G1 Z0 F240
M104 S210 ; set final nozzle temp
M190 S60 ; wait for bed temp to stabilize
M109 S210 ; wait for nozzle temp to stabilize
G1 Z0.28 F240
G92 E0
G1 Y100 E7.1 F1500 ; prime the nozzle
G1 X2.3 F5000
G92 E0
G1 Y10 E10 F1200 ; prime the nozzle
G92 E0
;start
M107
G21 ; set units to millimeters
G90 ; use absolute coordinates
M82 ; use absolute distances for extrusion
G92 E0
; Filament gcode
;_TOOLCHANGE 0
M107
;LAYER_CHANGE
;Z:0.2
;HEIGHT:0.2
;BEFORE_LAYER_CHANGE
;0.2


G1 E-2 F3000
G1 Z0.15 F9000
;AFTER_LAYER_CHANGE
;0.2
G92 E0
M204 S500
G1 X100.537 Y103.511
G1 E2 F3000
;TYPE:Skirt
;WIDTH:0.48
G1 F1200
G1 X99.704 Y104.642 E2.05106
G1 X99.18 Y105.769 E2.09622
G1 X98.96 Y106.502 E2.12404
G1 X98.81 Y107.455 E2.1591
G1 X98.789 Y108.338 E2.19119
G1 X101.406 Y126.664 E2.86398
G1 X101.756 Y127.906 E2.91088
G1 X102.129 Y128.708 E2.94303
G1 X102.551 Y129.386 E2.97206
G1 X103.511 Y130.463 E3.02449
G1 X104.642 Y131.296 E3.07554
G1 X105.769 Y131.82 E3.1207
G1 X106.618 Y132.063 E3.1528
G1 X107.572 Y132.203 E3.18786
G1 X108.338 Y132.211 E3.21568
G1 X126.664 Y129.594 E3.88846
G1 X127.906 Y129.244 E3.93536
G1 X128.708 Y128.871 E3.96752
G1 X129.386 Y128.449 E3.99654
G1 X130.385 Y127.578 E4.04472
G1 X131.296 Y126.358 E4.10005
G1 X131.82 Y125.231 E4.14521
G1 X132.063 Y124.382 E4.1773
G1 X132.203 Y123.428 E4.21236
G1 X132.173 Y122.186 E4.25752
G1 X129.5 Y103.901 E4.9291
G1 X129.203 Y102.983 E4.96416
G1 X128.628 Y101.882 E5.00932
G1 X128.103 Y101.172 E5.04141
G1 X127.43 Y100.481 E5.07647
G1 X126.529 Y99.807 E5.11737
G1 X125.675 Y99.358 E5.15242
G1 X124.498 Y98.96 E5.19758
G1 X123.545 Y98.81 E5.23264
G1 X121.981 Y98.849 E5.28951
G1 X103.901 Y101.5 E5.95361
G1 X102.656 Y101.943 E6.00165
G1 X101.452 Y102.67 E6.05277
G1 X100.581 Y103.47 E6.09575
G1 X100.875 Y103.79 F9000
G1 F1200
G1 X100.078 Y104.868 E6.14448
G1 X99.596 Y105.904 E6.186
G1 X99.344 Y106.791 E6.2195
G1 X99.221 Y107.927 E6.26103
G1 X99.259 Y108.751 E6.291
G1 X101.834 Y126.573 E6.94545
G1 X102.168 Y127.76 E6.99027
G1 X102.903 Y129.127 E7.04668
G1 X103.795 Y130.131 E7.09548
G1 X104.868 Y130.922 E7.14394
G1 X105.904 Y131.404 E7.18547
G1 X106.698 Y131.633 E7.21549
G1 X107.61 Y131.767 E7.24899
G1 X108.751 Y131.741 E7.29047
G1 X126.573 Y129.166 E7.94492
G1 X127.76 Y128.832 E7.98974
G1 X129.127 Y128.097 E8.04615
G1 X130.062 Y127.283 E8.09121
G1 X130.922 Y126.132 E8.14343
G1 X131.404 Y125.096 E8.18496
G1 X131.633 Y124.302 E8.21498
G1 X131.767 Y123.39 E8.24847
G1 X131.741 Y122.248 E8.29
G1 X129.08 Y104.02 E8.95951
G1 X128.796 Y103.142 E8.99301
G1 X128.267 Y102.13 E9.03454
G1 X127.778 Y101.465 E9.06455
G1 X127.136 Y100.803 E9.09805
G1 X126.303 Y100.181 E9.13584
G1 X125.487 Y99.752 E9.16933
G1 X124.404 Y99.387 E9.21086
G1 X123.494 Y99.244 E9.24436
G1 X122.044 Y99.282 E9.29707
G1 X104.02 Y101.92 E9.95911
G1 X102.854 Y102.333 E10.00404
G1 X101.711 Y103.022 E10.05256
G1 X100.919 Y103.749 E10.09163
G92 E0
G1 E-1.4 F3000
;WIPE_START
G1 F7200
G1 X100.869 Y103.795 E-1.42673
G1 X100.078 Y104.868 E-1.95455
G1 X100.061 Y104.903 E-1.97
;WIPE_END
G1 E-2 F3000
; printing object ffffff.stl id:0 copy 0
M486 S0
; acceleration to travel
M204 S1500
G1 X103.49 Y106.295 F9000
; decel to extrusion
M204 S500
G1 X103.909 Y106.465
; end travel
G1 E0 F3000
;TYPE:Internal perimeter
;WIDTH:0.576
G1 F1200
G1 X104.249 Y106.178 E0.01973
G1 X104.644 Y105.961 E0.03971
G1 X105.072 Y105.826 E0.05957
G1 X122.592 Y103.288 E0.8443
G1 X123.079 Y103.267 E0.86588
G1 X123.362 Y103.3 E0.87853
G1 X123.8 Y103.428 E0.89877
G1 X124.075 Y103.559 E0.91224
G1 X124.169 Y103.616 E0.91713
G1 X124.538 Y103.91 E0.93804
G1 X124.735 Y104.129 E0.95108
G1 X124.898 Y104.367 E0.96388
G1 X125.093 Y104.78 E0.98412
G1 X125.172 Y105.063 E0.99716
G1 X127.73 Y122.765 E1.78993
G1 X127.721 Y123.221 E1.81017
G1 X127.667 Y123.51 E1.82321
G1 X127.578 Y123.785 E1.83601
G1 X127.372 Y124.183 E1.85588
G1 X127.09 Y124.538 E1.87598
G1 X126.87 Y124.736 E1.88909
G1 X126.628 Y124.902 E1.90212
G1 X126.361 Y125.038 E1.91537
G1 X126.081 Y125.137 E1.92854
G1 X125.761 Y125.205 E1.94305
G1 X108.227 Y127.731 E2.72826
G1 X107.933 Y127.734 E2.74131
G1 X107.482 Y127.665 E2.76155
G1 X107.215 Y127.578 E2.77397
G1 X106.812 Y127.37 E2.79408
G1 X106.458 Y127.086 E2.8142
G1 X106.264 Y126.87 E2.82706
G1 X106.098 Y126.628 E2.84009
G1 X105.962 Y126.361 E2.85334
G1 X105.863 Y126.081 E2.86651
G1 X105.795 Y125.761 E2.88102
G1 X103.269 Y108.227 E3.66623
G1 X103.266 Y107.938 E3.67904
G1 X103.334 Y107.487 E3.69928
G1 X103.422 Y107.215 E3.71194
G1 X103.63 Y106.812 E3.73206
G1 X103.871 Y106.512 E3.74913
G1 X103.522 Y106.088 F9000
;TYPE:External perimeter
G1 F1200
G1 X103.943 Y105.733 E3.77355
G1 X104.432 Y105.464 E3.79826
G1 X104.952 Y105.301 E3.8224
G1 X122.542 Y102.753 E4.61024
G1 X123.098 Y102.728 E4.63494
G1 X123.47 Y102.772 E4.65152
G1 X123.993 Y102.924 E4.67566
G1 X124.33 Y103.086 E4.69224
G1 X124.477 Y103.174 E4.69983
G1 X124.908 Y103.517 E4.72425
G1 X125.158 Y103.796 E4.74083
G1 X125.366 Y104.099 E4.75713
G1 X125.598 Y104.591 E4.78127
G1 X125.699 Y104.951 E4.79785
G1 X128.268 Y122.731 E5.59411
G1 X128.258 Y123.275 E5.61825
G1 X128.189 Y123.643 E5.63483
G1 X128.076 Y123.993 E5.65112
G1 X127.826 Y124.477 E5.67527
G1 X127.483 Y124.908 E5.69969
G1 X127.203 Y125.159 E5.71634
G1 X126.903 Y125.365 E5.73249
G1 X126.574 Y125.533 E5.74886
G1 X126.227 Y125.655 E5.76516
G1 X125.855 Y125.734 E5.78201
G1 X108.269 Y128.268 E6.56957
G1 X107.895 Y128.272 E6.58615
G1 X107.357 Y128.189 E6.61029
G1 X107.007 Y128.076 E6.62658
G1 X106.518 Y127.822 E6.65101
G1 X106.088 Y127.478 E6.67543
G1 X105.841 Y127.203 E6.6918
G1 X105.635 Y126.903 E6.70795
G1 X105.467 Y126.574 E6.72432
G1 X105.345 Y126.227 E6.74062
G1 X105.266 Y125.855 E6.75747
G1 X102.732 Y108.269 E7.54502
G1 X102.728 Y107.902 E7.56132
G1 X102.809 Y107.363 E7.58546
G1 X102.924 Y107.007 E7.60204
G1 X103.178 Y106.518 E7.62647
G1 X103.485 Y106.135 E7.64823
;WIPE_START
G1 X103.906 Y106.199 F9000
;WIPE_END
G92 E0
G1 E-1.4 F3000
;WIPE_START
G1 F7200
G1 X104.057 Y105.898 E-1.53314
G1 X104.511 Y105.649 E-1.73806
G1 X104.996 Y105.496 E-1.93948
G1 X105.073 Y105.485 E-1.97
;WIPE_END
G1 E-2 F3000
; acceleration to travel
M204 S1500
G1 X122.795 Y104.967 F9000
; decel to extrusion
M204 S500
G1 X124.96 Y104.904
; end travel
G1 E0 F3000
;TYPE:Solid infill
;WIDTH:0.57747
G1 F1200
G1 X124.211 Y104.154 E0.0471
G1 X123.87 Y103.896 E0.0661
G1 X123.66 Y103.796 E0.07643
G1 X123.283 Y103.686 E0.09386
G1 X123.064 Y103.66 E0.10367
G1 X122.961 Y103.665 E0.10826
G1 X124.846 Y105.55 E0.22674
G1 X124.975 Y106.438 E0.26663
G1 X122.268 Y103.732 E0.43671
G1 X121.604 Y103.828 E0.46652
G1 X125.103 Y107.326 E0.68638
G1 X125.231 Y108.215 E0.72627
G1 X120.941 Y103.924 E0.99592
G1 X120.277 Y104.02 E1.02572
G1 X125.36 Y109.103 E1.34515
G1 X125.488 Y109.991 E1.38504
G1 X119.613 Y104.116 E1.75425
G1 X118.949 Y104.213 E1.78406
G1 X125.616 Y110.88 E2.20305
G1 X125.745 Y111.768 E2.24294
G1 X118.285 Y104.309 E2.71171
G1 X117.622 Y104.405 E2.74152
G1 X125.873 Y112.656 E3.26008
G1 X126.001 Y113.544 E3.29996
G1 X116.958 Y104.501 E3.8683
G1 X116.294 Y104.597 E3.89811
G1 X126.13 Y114.433 E4.51623
G1 X126.258 Y115.321 E4.55611
G1 X115.63 Y104.693 E5.22402
G1 X114.966 Y104.789 E5.25382
G1 X126.386 Y116.209 E5.97151
G1 X126.515 Y117.097 E6.01139
G1 X114.303 Y104.886 E6.77886
G1 X113.639 Y104.982 E6.80866
G1 X126.643 Y117.986 E7.62591
G1 X126.771 Y118.874 E7.6658
G1 X112.975 Y105.078 E8.53283
G1 X112.311 Y105.174 E8.56263
G1 X126.899 Y119.762 E9.47945
G1 X127.028 Y120.651 E9.51933
G1 X111.647 Y105.27 E10.48593
G1 X110.984 Y105.366 E10.51573
G1 X127.156 Y121.539 E11.53211
G1 X127.284 Y122.427 E11.57199
G1 X110.32 Y105.463 E12.63815
G1 X109.656 Y105.559 E12.66796
G1 X127.322 Y123.224 E13.77817
G1 X127.286 Y123.413 E13.78671
G1 X127.215 Y123.633 E13.79699
G1 X127.132 Y123.794 E13.80505
G1 X108.992 Y105.655 E14.94504
G1 X108.328 Y105.751 E14.97485
G1 X126.822 Y124.245 E16.13711
G1 X126.811 Y124.258 E16.13787
G1 X126.426 Y124.562 E16.1597
G1 X126.393 Y124.576 E16.16125
G1 X107.665 Y105.847 E17.33828
G1 X107.001 Y105.943 E17.36809
G1 X125.844 Y124.786 E18.55229
G1 X125.692 Y124.818 E18.55917
G1 X125.188 Y124.891 E18.58179
G1 X106.337 Y106.039 E19.76653
G1 X105.673 Y106.136 E19.79633
G1 X124.524 Y124.987 E20.98104
G1 X123.86 Y125.082 E21.01087
G1 X105.029 Y106.251 E22.19433
G1 X104.799 Y106.324 E22.20504
G1 X104.503 Y106.486 E22.22002
G1 X123.196 Y125.178 E23.39475
G1 X122.531 Y125.274 E23.42458
G1 X104.105 Y106.847 E24.5826
G1 X103.961 Y107.027 E24.59284
G1 X103.812 Y107.314 E24.60722
G1 X121.867 Y125.369 E25.7419
G1 X121.203 Y125.465 E25.77172
G1 X103.664 Y107.926 E26.87396
G1 X103.658 Y107.965 E26.87571
G1 X103.661 Y108.197 E26.886
G1 X103.743 Y108.765 E26.91152
G1 X120.539 Y125.561 E27.96705
G1 X119.874 Y125.656 E27.99688
G1 X103.871 Y109.653 E29.00262
G1 X103.999 Y110.541 E29.04249
G1 X119.21 Y125.752 E29.99845
G1 X118.546 Y125.848 E30.02827
G1 X104.127 Y111.429 E30.93445
G1 X104.255 Y112.317 E30.97431
G1 X117.882 Y125.944 E31.83071
G1 X117.217 Y126.039 E31.86053
G1 X104.383 Y113.205 E32.66714
G1 X104.511 Y114.092 E32.707
G1 X116.553 Y126.135 E33.46382
G1 X115.889 Y126.231 E33.49365
G1 X104.638 Y114.98 E34.20068
G1 X104.766 Y115.868 E34.24055
G1 X115.225 Y126.326 E34.8978
G1 X114.56 Y126.422 E34.92762
G1 X104.894 Y116.756 E35.53509
G1 X105.022 Y117.644 E35.57496
G1 X113.896 Y126.518 E36.13264
G1 X113.232 Y126.613 E36.16246
G1 X105.15 Y118.532 E36.67036
G1 X105.278 Y119.42 E36.71022
G1 X112.568 Y126.709 E37.16834
G1 X111.903 Y126.805 E37.19816
G1 X105.406 Y120.308 E37.60649
G1 X105.534 Y121.195 E37.64635
G1 X111.239 Y126.901 E38.0049
G1 X110.575 Y126.996 E38.03472
G1 X105.662 Y122.083 E38.34348
G1 X105.79 Y122.971 E38.38334
G1 X109.91 Y127.092 E38.64232
G1 X109.246 Y127.188 E38.67214
G1 X105.918 Y123.859 E38.88133
G1 X106.046 Y124.747 E38.92119
G1 X108.582 Y127.283 E39.0806
G1 X108.197 Y127.339 E39.09789
G1 X107.961 Y127.342 E39.10838
G1 X107.866 Y127.327 E39.11265
G1 X105.901 Y125.362 E39.23615
G1 X106.233 Y126.14 F9000
;TYPE:Gap fill
;WIDTH:0.15812
G1 F1200
G1 X106.332 Y126.285 E39.23783
;WIDTH:0.271233
G1 X106.43 Y126.431 E39.24115
G1 X106.591 Y126.612 E39.24577
;WIDTH:0.328946
G1 X106.753 Y126.794 E39.25155
G1 X106.89 Y126.917 E39.25593
;WIDTH:0.288624
G1 X107.027 Y127.04 E39.25969
G1 X107.106 Y127.098 E39.26169
;WIDTH:0.24847
G1 X107.185 Y127.156 E39.26337
;WIDTH:0.208315
G1 X107.264 Y127.213 E39.26472
;WIDTH:0.16816
G1 X107.344 Y127.271 E39.26574
G1 X107.397 Y127.304 E39.26639
M106 S84.15
;LAYER_CHANGE
;Z:0.52
;HEIGHT:0.32
;BEFORE_LAYER_CHANGE
;0.52


G92 E0
G1 E-1.4 F3000
;WIPE_START
G1 F7200
G1 X107.344 Y127.271 E-1.42482
G1 X107.264 Y127.213 E-1.46365
;WIPE_END
G1 E-2 F3000
; stop printing object ffffff.stl id:0 copy 0
M486 S-1
G1 Z0.47 F9000
;AFTER_LAYER_CHANGE
;0.52
; printing object ffffff.stl id:0 copy 0
M486 S0
G1 X106.975 Y127.82
G1 E0 F3000
;TYPE:Internal perimeter
;WIDTH:0.476
G1 F2400
G1 X106.773 Y127.724 E0.01212
G1 X106.636 Y127.641 E0.02079
G1 X106.505 Y127.55 E0.02945
G1 X106.239 Y127.323 E0.04838
G1 X106.01 Y127.068 E0.06695
G1 X105.822 Y126.794 E0.08496
G1 X105.666 Y126.488 E0.10354
G1 X105.553 Y126.168 E0.12193
G1 X105.479 Y125.817 E0.14138
G1 X102.948 Y108.252 E1.10306
G1 X102.944 Y107.913 E1.12145
G1 X102.985 Y107.566 E1.14038
G1 X103.018 Y107.42 E1.14851
G1 X103.126 Y107.088 E1.16743
G1 X103.276 Y106.773 E1.18635
G1 X103.359 Y106.636 E1.19502
G1 X103.45 Y106.505 E1.20368
G1 X103.677 Y106.239 E1.22261
G1 X103.937 Y106.006 E1.24153
G1 X104.066 Y105.911 E1.2502
G1 X104.2 Y105.825 E1.25886
G1 X104.521 Y105.662 E1.27832
G1 X104.66 Y105.607 E1.28645
G1 X104.996 Y105.513 E1.30538
G1 X122.569 Y102.967 E2.2676
G1 X122.738 Y102.949 E2.27679
G1 X123.087 Y102.944 E2.29572
G1 X123.434 Y102.985 E2.31464
G1 X123.58 Y103.018 E2.32277
G1 X123.912 Y103.126 E2.34169
G1 X124.227 Y103.276 E2.36062
G1 X124.356 Y103.354 E2.36875
G1 X124.643 Y103.569 E2.38821
G1 X124.754 Y103.67 E2.39633
G1 X124.988 Y103.93 E2.41526
G1 X125.18 Y104.209 E2.43365
G1 X125.338 Y104.521 E2.45257
G1 X125.393 Y104.66 E2.4607
G1 X125.487 Y104.996 E2.47962
G1 X128.052 Y122.748 E3.45157
G1 X128.056 Y123.097 E3.47049
G1 X128.043 Y123.246 E3.47862
G1 X127.979 Y123.59 E3.49754
G1 X127.874 Y123.912 E3.51593
G1 X127.724 Y124.227 E3.53485
G1 X127.646 Y124.356 E3.54298
G1 X127.431 Y124.643 E3.56244
G1 X127.33 Y124.754 E3.57057
G1 X127.068 Y124.99 E3.58969
G1 X126.794 Y125.178 E3.60769
G1 X126.488 Y125.334 E3.62627
G1 X126.168 Y125.447 E3.64466
G1 X125.817 Y125.521 E3.66411
G1 X108.252 Y128.052 E4.62579
G1 X107.903 Y128.056 E4.64472
G1 X107.754 Y128.043 E4.65285
G1 X107.41 Y127.979 E4.67178
G1 X107.088 Y127.874 E4.69016
G1 X107.029 Y127.846 E4.69371
G1 X106.806 Y128.172 F9000
;TYPE:External perimeter
;WIDTH:0.428
G1 F1500
G1 X106.587 Y128.068 E4.70532
G1 X106.423 Y127.968 E4.71449
G1 X106.266 Y127.859 E4.72366
G1 X105.966 Y127.603 E4.7425
G1 X105.703 Y127.31 E4.76133
G1 X105.486 Y126.994 E4.77966
G1 X105.307 Y126.642 E4.79849
G1 X105.177 Y126.274 E4.81716
G1 X105.095 Y125.886 E4.83616
G1 X102.559 Y108.283 E5.68635
G1 X102.554 Y107.892 E5.70501
G1 X102.6 Y107.501 E5.72385
G1 X102.641 Y107.317 E5.73285
G1 X102.763 Y106.943 E5.75168
G1 X102.932 Y106.587 E5.77051
G1 X103.032 Y106.423 E5.77969
G1 X103.141 Y106.266 E5.78886
G1 X103.397 Y105.966 E5.80769
G1 X103.69 Y105.703 E5.82652
G1 X103.845 Y105.589 E5.83569
G1 X104.006 Y105.486 E5.84486
G1 X104.361 Y105.306 E5.86386
G1 X104.536 Y105.237 E5.87287
G1 X104.915 Y105.13 E5.8917
G1 X122.52 Y102.58 E6.74206
G1 X122.714 Y102.559 E6.75139
G1 X123.108 Y102.554 E6.77023
G1 X123.499 Y102.6 E6.78906
G1 X123.683 Y102.641 E6.79806
G1 X124.057 Y102.763 E6.8169
G1 X124.413 Y102.932 E6.83573
G1 X124.574 Y103.03 E6.84473
G1 X124.892 Y103.268 E6.86373
G1 X125.031 Y103.395 E6.87274
G1 X125.295 Y103.688 E6.89157
G1 X125.516 Y104.01 E6.91023
G1 X125.694 Y104.361 E6.92907
G1 X125.763 Y104.536 E6.93807
G1 X125.87 Y104.915 E6.9569
G1 X128.441 Y122.717 E7.81676
G1 X128.446 Y123.111 E7.83559
G1 X128.43 Y123.299 E7.84459
G1 X128.358 Y123.686 E7.86343
G1 X128.237 Y124.057 E7.88209
G1 X128.068 Y124.413 E7.90092
G1 X127.97 Y124.574 E7.90993
G1 X127.732 Y124.892 E7.92893
G1 X127.605 Y125.031 E7.93793
G1 X127.31 Y125.297 E7.95693
G1 X126.994 Y125.514 E7.97527
G1 X126.642 Y125.693 E7.9941
G1 X126.274 Y125.823 E8.01276
G1 X125.886 Y125.905 E8.03176
G1 X108.283 Y128.441 E8.88195
G1 X107.889 Y128.446 E8.90078
G1 X107.701 Y128.43 E8.90979
G1 X107.314 Y128.358 E8.92862
G1 X106.943 Y128.237 E8.94729
G1 X106.861 Y128.198 E8.95164
;WIPE_START
G1 X106.775 Y127.774 F9000
;WIPE_END
G92 E0
G1 E-1.4 F3000
;WIPE_START
G1 F7200
G1 X106.532 Y127.801 E-1.49682
G1 X106.388 Y127.7 E-1.56628
G1 X106.106 Y127.459 E-1.71313
G1 X105.86 Y127.186 E-1.85869
G1 X105.701 Y126.954 E-1.97
;WIPE_END
G1 E-2 F3000
; acceleration to travel
M204 S1500
G1 X124.081 Y125.39 F9000
; decel to extrusion
M204 S500
G1 X126.456 Y125.188
; end travel
G1 E0 F3000
;TYPE:Solid infill
;WIDTH:0.483779
G1 F2400
G1 X127.153 Y124.491 E0.05431
G1 X127.391 Y124.191 E0.07539
G1 X127.594 Y123.796 E0.09988
G1 X127.684 Y123.519 E0.11589
