; generated by SuperSlicer 2.4 on 2023-02-05 at 16:36:36 UTC

; 

; external perimeters extrusion width = 0.43mm
; perimeters extrusion width = 0.48mm
; infill extrusion width = 0.46mm
; solid infill extrusion width = 0.48mm
; top infill extrusion width = 0.46mm
; first layer extrusion width = 0.58mm

; object:{"name":"Stringing_Test-sd","id":"Stringing_Test-sd.stl id:0 copy 0","object_center":[112.605194,117.140149,0.000000],"boundingbox_center":[112.605194,117.140149,13.942091],"boundingbox_size":[54.791727,53.044754,27.884182]}
; Total objects to print: 1
M486 T1
; plater:{"center":[112.605194,117.140149,0.000000],"boundingbox_center":[112.605194,117.140149,13.942091],"boundingbox_size":[54.791727,53.044754,27.884182]}

;TYPE:Custom
G90 ; use absolute coordinates
M83 ; extruder relative mode
M140 S60 ; set final bed temp
M104 S150 ; set temporary nozzle temp to prevent oozing during homing and auto bed leveling
G4 S10 ; allow partial nozzle warmup
G28 ; home all axis
;G29 ; auto bed levelling
G1 Z10 F240
G1 X2 Y10 F3000
G1 Z0 F240
M104 S210 ; set final nozzle temp
M190 S60 ; wait for bed temp to stabilize
M109 S210 ; wait for nozzle temp to stabilize
G1 Z0.28 F240
G92 E0
G1 Y100 E7.1 F1500 ; prime the nozzle
G1 X2.3 F5000
G92 E0
G1 Y10 E10 F1200 ; prime the nozzle
G92 E0
;start
M107
G21 ; set units to millimeters
G90 ; use absolute coordinates
M82 ; use absolute distances for extrusion
G92 E0
; Filament gcode
;_TOOLCHANGE 0
M107
;LAYER_CHANGE
;Z:0.2
;HEIGHT:0.2
;BEFORE_LAYER_CHANGE
;0.2


G1 E-2 F3000
G1 Z0.15 F9000
;AFTER_LAYER_CHANGE
;0.2
G92 E0
M204 S500
G1 X83.492 Y102.152
G1 E2 F3000
;TYPE:Skirt
;WIDTH:0.48
G1 F1200
G1 X82.958 Y102.814 E2.03089
G1 X82.373 Y103.987 E2.07854
G1 X82.112 Y105.257 E2.12567
G1 X82.099 Y105.736 E2.14307
G1 X82.181 Y106.552 E2.17287
G1 X82.386 Y107.35 E2.20282
G1 X94.944 Y143.406 E3.59041
G1 X95.353 Y144.264 E3.62498
G1 X96.144 Y145.291 E3.67208
G1 X97.17 Y146.084 E3.71921
G1 X97.931 Y146.448 E3.74986
G1 X98.378 Y146.593 E3.76696
G1 X99.68 Y146.77 E3.81471
G1 X100.542 Y146.696 E3.84613
G1 X101.41 Y146.472 E3.87873
G1 X136.813 Y133.35 E5.2509
G1 X137.618 Y132.955 E5.2835
G1 X138.658 Y132.128 E5.33178
G1 X139.192 Y131.467 E5.36267
G1 X139.777 Y130.293 E5.41032
G1 X140.005 Y129.398 E5.44389
G1 X143.066 Y108.324 E6.21783
G1 X143.111 Y107.47 E6.2489
G1 X143.029 Y106.654 E6.2787
G1 X142.638 Y105.424 E6.32564
G1 X141.946 Y104.325 E6.37282
G1 X141.469 Y103.811 E6.3983
G1 X125.85 Y88.83 E7.18487
G1 X124.979 Y88.196 E7.22399
G1 X124.218 Y87.832 E7.25465
G1 X122.935 Y87.534 E7.30254
G1 X121.607 Y87.584 E7.35082
G1 X120.739 Y87.809 E7.38342
G1 X85.337 Y100.93 E8.75559
G1 X84.532 Y101.326 E8.78818
G1 X83.539 Y102.115 E8.83428
G92 E0
G1 E-1.4 F3000
;WIPE_START
G1 F7200
G1 X82.958 Y102.814 E-1.75968
G1 X82.721 Y103.289 E-1.97
;WIPE_END
G1 E-2 F3000
; printing object Stringing_Test-sd.stl id:0 copy 0
M486 S0
; acceleration to travel
M204 S1500
G1 X97.497 Y136.702 F9000
; decel to extrusion
M204 S500
G1 X99.303 Y140.785
; end travel
G1 E0 F3000
;TYPE:Internal perimeter
;WIDTH:0.576
G1 F1200
G1 X99.537 Y140.732 E0.01066
G1 X99.782 Y140.744 E0.0215
G1 X100.021 Y140.822 E0.03264
G1 X100.238 Y140.963 E0.04413
G1 X100.417 Y141.16 E0.05592
G1 X100.542 Y141.399 E0.06788
G1 X100.603 Y141.662 E0.07983
G1 X100.595 Y141.928 E0.09162
G1 X100.523 Y142.176 E0.10311
G1 X100.392 Y142.391 E0.11425
G1 X100.214 Y142.56 E0.12509
G1 X100.002 Y142.673 E0.13575
G1 X99.768 Y142.725 E0.14641
G1 X99.523 Y142.713 E0.15726
G1 X99.284 Y142.635 E0.16839
G1 X99.067 Y142.494 E0.17988
G1 X98.888 Y142.297 E0.19168
G1 X98.763 Y142.058 E0.20363
G1 X98.702 Y141.796 E0.21558
G1 X98.71 Y141.53 E0.22737
G1 X98.782 Y141.281 E0.23886
G1 X98.913 Y141.066 E0.25
G1 X99.09 Y140.898 E0.26085
G1 X99.25 Y140.813 E0.26884
G1 X99.114 Y140.276 F9000
;TYPE:External perimeter
G1 F1200
G1 X99.491 Y140.192 E0.28595
G1 X99.88 Y140.211 E0.30321
G1 X100.254 Y140.333 E0.32067
G1 X100.589 Y140.551 E0.33837
G1 X100.861 Y140.85 E0.35631
G1 X101.049 Y141.211 E0.37435
G1 X101.142 Y141.607 E0.39239
G1 X101.131 Y142.012 E0.41032
G1 X101.019 Y142.395 E0.42803
G1 X100.814 Y142.732 E0.44549
G1 X100.531 Y143 E0.46274
G1 X100.191 Y143.181 E0.47985
G1 X99.814 Y143.265 E0.49697
G1 X99.425 Y143.246 E0.51422
G1 X99.051 Y143.125 E0.53168
G1 X98.716 Y142.907 E0.54939
G1 X98.444 Y142.607 E0.56732
G1 X98.255 Y142.246 E0.58536
G1 X98.163 Y141.85 E0.6034
G1 X98.174 Y141.446 E0.62133
G1 X98.286 Y141.062 E0.63904
G1 X98.491 Y140.726 E0.6565
G1 X98.773 Y140.458 E0.67375
G1 X99.061 Y140.304 E0.68821
;WIPE_START
G1 X99.41 Y140.545 F9000
;WIPE_END
G1 X100.439 Y141.736
;TYPE:Solid infill
;WIDTH:0.519392
G1 F1200
G1 X99.943 Y141.239 E0.71626
G1 X99.85 Y141.179 E0.72069
G1 X99.71 Y141.133 E0.72657
G1 X99.571 Y141.126 E0.73214
G1 X99.44 Y141.156 E0.7375
G1 X99.322 Y141.219 E0.74286
G1 X99.24 Y141.296 E0.74736
G1 X100.085 Y142.141 E0.79512
G1 X99.983 Y142.238 E0.80075
G1 X99.865 Y142.301 E0.8061
G1 X99.734 Y142.331 E0.81146
G1 X99.595 Y142.324 E0.81703
G1 X99.466 Y142.282 E0.82245
G1 X98.867 Y141.683 E0.85632
G92 E0
G1 E-1.4 F3000
;WIPE_START
G1 F7200
G1 X99.466 Y142.282 E-1.7354
G1 X99.595 Y142.324 E-1.78907
G1 X99.734 Y142.331 E-1.84422
G1 X99.865 Y142.301 E-1.89729
G1 X99.983 Y142.238 E-1.95036
G1 X100.019 Y142.204 E-1.97
;WIPE_END
G1 E-2 F3000
; acceleration to travel
M204 S1500
G1 X115.936 Y135.76 F9000
; decel to extrusion
M204 S500
G1 X117.881 Y134.973
; end travel
G1 E0 F3000
;TYPE:Internal perimeter
;WIDTH:0.576
G1 F1200
G1 X117.82 Y134.71 E0.01195
G1 X117.827 Y134.444 E0.02375
G1 X117.9 Y134.195 E0.03523
G1 X118.03 Y133.981 E0.04637
G1 X118.208 Y133.812 E0.05722
G1 X118.42 Y133.699 E0.06788
G1 X118.655 Y133.647 E0.07853
G1 X118.899 Y133.659 E0.08938
G1 X119.138 Y133.736 E0.10052
G1 X119.355 Y133.878 E0.112
G1 X119.534 Y134.075 E0.1238
G1 X119.659 Y134.314 E0.13575
G1 X119.72 Y134.576 E0.1477
G1 X119.713 Y134.842 E0.1595
G1 X119.64 Y135.091 E0.17098
G1 X119.509 Y135.306 E0.18212
G1 X119.332 Y135.474 E0.19297
G1 X119.12 Y135.587 E0.20363
G1 X118.885 Y135.64 E0.21428
G1 X118.641 Y135.628 E0.22513
G1 X118.402 Y135.55 E0.23627
G1 X118.184 Y135.409 E0.24775
G1 X118.006 Y135.212 E0.25955
G1 X117.909 Y135.026 E0.26884
G1 X117.373 Y135.161 F9000
;TYPE:External perimeter
G1 F1200
G1 X117.281 Y134.764 E0.28688
G1 X117.292 Y134.36 E0.30482
G1 X117.404 Y133.977 E0.32252
G1 X117.608 Y133.64 E0.33998
G1 X117.891 Y133.372 E0.35723
G1 X118.231 Y133.191 E0.37435
G1 X118.608 Y133.106 E0.39146
G1 X118.997 Y133.126 E0.40871
G1 X119.372 Y133.247 E0.42617
G1 X119.706 Y133.465 E0.44388
G1 X119.978 Y133.765 E0.46181
G1 X120.167 Y134.125 E0.47985
G1 X120.259 Y134.522 E0.4979
G1 X120.248 Y134.926 E0.51583
G1 X120.136 Y135.31 E0.53354
G1 X119.931 Y135.646 E0.551
G1 X119.649 Y135.914 E0.56825
G1 X119.308 Y136.096 E0.58536
G1 X118.931 Y136.18 E0.60247
G1 X118.543 Y136.161 E0.61972
G1 X118.168 Y136.039 E0.63718
G1 X117.833 Y135.821 E0.65489
G1 X117.561 Y135.522 E0.67282
G1 X117.401 Y135.214 E0.68821
;WIPE_START
G1 X117.641 Y134.864 F9000
;WIPE_END
G1 X119.557 Y134.65
;TYPE:Solid infill
;WIDTH:0.519392
G1 F1200
G1 X119.06 Y134.154 E0.71626
G1 X118.967 Y134.093 E0.72069
G1 X118.827 Y134.048 E0.72657
G1 X118.688 Y134.041 E0.73214
G1 X118.557 Y134.07 E0.7375
G1 X118.439 Y134.133 E0.74286
G1 X118.357 Y134.211 E0.74736
G1 X119.202 Y135.056 E0.79512
G1 X119.1 Y135.153 E0.80075
G1 X118.982 Y135.216 E0.8061
G1 X118.851 Y135.245 E0.81146
G1 X118.712 Y135.238 E0.81703
G1 X118.583 Y135.197 E0.82245
G1 X117.984 Y134.597 E0.85632
G92 E0
G1 E-1.4 F3000
;WIPE_START
G1 F7200
G1 X118.583 Y135.197 E-1.7354
G1 X118.712 Y135.238 E-1.78907
G1 X118.851 Y135.245 E-1.84422
G1 X118.982 Y135.216 E-1.89729
G1 X119.1 Y135.153 E-1.95036
G1 X119.136 Y135.119 E-1.97
;WIPE_END
G1 E-2 F3000
; acceleration to travel
M204 S1500
G1 X132.53 Y129.61 F9000
; decel to extrusion
M204 S500
G1 X134.166 Y128.937
; end travel
G1 E0 F3000
;TYPE:Internal perimeter
;WIDTH:0.576
G1 F1200
G1 X134.105 Y128.674 E0.01195
G1 X134.112 Y128.408 E0.02375
G1 X134.185 Y128.16 E0.03523
G1 X134.315 Y127.945 E0.04637
G1 X134.493 Y127.776 E0.05722
G1 X134.705 Y127.663 E0.06788
G1 X134.94 Y127.611 E0.07853
G1 X135.184 Y127.623 E0.08938
G1 X135.423 Y127.701 E0.10052
G1 X135.64 Y127.842 E0.112
G1 X135.819 Y128.039 E0.1238
G1 X135.944 Y128.278 E0.13575
G1 X136.005 Y128.541 E0.1477
G1 X135.998 Y128.807 E0.1595
G1 X135.925 Y129.055 E0.17098
G1 X135.795 Y129.27 E0.18212
G1 X135.617 Y129.438 E0.19297
G1 X135.405 Y129.551 E0.20363
G1 X135.17 Y129.604 E0.21428
G1 X134.926 Y129.592 E0.22513
G1 X134.687 Y129.514 E0.23627
G1 X134.47 Y129.373 E0.24775
G1 X134.291 Y129.176 E0.25955
G1 X134.194 Y128.99 E0.26884
G1 X133.658 Y129.125 F9000
;TYPE:External perimeter
G1 F1200
G1 X133.566 Y128.729 E0.28688
G1 X133.577 Y128.324 E0.30482
G1 X133.689 Y127.941 E0.32252
G1 X133.894 Y127.604 E0.33998
G1 X134.176 Y127.337 E0.35723
G1 X134.517 Y127.155 E0.37435
G1 X134.893 Y127.071 E0.39146
G1 X135.282 Y127.09 E0.40871
G1 X135.657 Y127.211 E0.42617
G1 X135.992 Y127.429 E0.44388
G1 X136.263 Y127.729 E0.46181
G1 X136.452 Y128.09 E0.47985
G1 X136.544 Y128.486 E0.4979
G1 X136.533 Y128.891 E0.51583
G1 X136.421 Y129.274 E0.53354
G1 X136.216 Y129.611 E0.551
G1 X135.934 Y129.878 E0.56825
G1 X135.593 Y130.06 E0.58536
G1 X135.217 Y130.144 E0.60247
G1 X134.828 Y130.125 E0.61972
G1 X134.453 Y130.003 E0.63718
G1 X134.118 Y129.786 E0.65489
G1 X133.846 Y129.486 E0.67282
G1 X133.686 Y129.178 E0.68821
;WIPE_START
G1 X133.926 Y128.828 F9000
;WIPE_END
G1 X135.842 Y128.614
;TYPE:Solid infill
;WIDTH:0.519392
G1 F1200
G1 X135.345 Y128.118 E0.71626
G1 X135.253 Y128.058 E0.72069
G1 X135.113 Y128.012 E0.72657
G1 X134.973 Y128.005 E0.73214
G1 X134.843 Y128.035 E0.7375
G1 X134.724 Y128.098 E0.74286
G1 X134.643 Y128.175 E0.74736
G1 X135.487 Y129.02 E0.79512
G1 X135.386 Y129.117 E0.80075
G1 X135.267 Y129.18 E0.8061
G1 X135.136 Y129.21 E0.81146
G1 X134.997 Y129.203 E0.81703
G1 X134.868 Y129.161 E0.82245
G1 X134.269 Y128.562 E0.85632
G92 E0
G1 E-1.4 F3000
;WIPE_START
G1 F7200
G1 X134.868 Y129.161 E-1.7354
G1 X134.997 Y129.203 E-1.78907
G1 X135.136 Y129.21 E-1.84423
G1 X135.267 Y129.18 E-1.89729
G1 X135.386 Y129.117 E-1.95036
G1 X135.421 Y129.083 E-1.97
;WIPE_END
G1 E-2 F3000
; acceleration to travel
M204 S1500
G1 X123.811 Y115.999 F9000
; decel to extrusion
M204 S500
G1 X122.393 Y114.4
; end travel
G1 E0 F3000
;TYPE:Internal perimeter
;WIDTH:0.576
G1 F1200
G1 X122.181 Y114.513 E0.01066
G1 X121.946 Y114.566 E0.02131
G1 X121.702 Y114.554 E0.03216
G1 X121.463 Y114.476 E0.0433
G1 X121.245 Y114.335 E0.05478
G1 X121.067 Y114.137 E0.06658
G1 X120.942 Y113.899 E0.07853
G1 X120.881 Y113.636 E0.09048
G1 X120.888 Y113.37 E0.10228
G1 X120.961 Y113.121 E0.11376
G1 X121.091 Y112.907 E0.1249
G1 X121.269 Y112.738 E0.13575
G1 X121.481 Y112.625 E0.14641
G1 X121.716 Y112.572 E0.15706
G1 X121.96 Y112.585 E0.16791
G1 X122.199 Y112.662 E0.17905
G1 X122.416 Y112.804 E0.19053
G1 X122.595 Y113.001 E0.20233
G1 X122.72 Y113.24 E0.21428
G1 X122.781 Y113.502 E0.22623
G1 X122.774 Y113.768 E0.23803
G1 X122.701 Y114.017 E0.24951
G1 X122.57 Y114.232 E0.26065
G1 X122.436 Y114.359 E0.26884
G1 X122.71 Y114.84 F9000
;TYPE:External perimeter
G1 F1200
G1 X122.369 Y115.022 E0.28595
G1 X121.992 Y115.106 E0.30307
G1 X121.604 Y115.087 E0.32032
G1 X121.229 Y114.965 E0.33778
G1 X120.894 Y114.747 E0.35549
G1 X120.622 Y114.448 E0.37342
G1 X120.434 Y114.087 E0.39146
G1 X120.342 Y113.69 E0.4095
G1 X120.353 Y113.286 E0.42743
G1 X120.465 Y112.902 E0.44514
G1 X120.669 Y112.566 E0.4626
G1 X120.952 Y112.298 E0.47985
G1 X121.292 Y112.117 E0.49697
G1 X121.669 Y112.032 E0.51408
G1 X122.058 Y112.051 E0.53133
G1 X122.433 Y112.173 E0.54879
G1 X122.767 Y112.391 E0.5665
G1 X123.039 Y112.691 E0.58443
G1 X123.228 Y113.051 E0.60247
G1 X123.32 Y113.448 E0.62052
G1 X123.309 Y113.852 E0.63845
G1 X123.197 Y114.236 E0.65616
G1 X122.992 Y114.572 E0.67362
G1 X122.753 Y114.799 E0.68821
;WIPE_START
G1 X122.353 Y114.66 F9000
;WIPE_END
G1 X122.618 Y113.576
;TYPE:Solid infill
;WIDTH:0.519393
G1 F1200
G1 X122.121 Y113.08 E0.71626
G1 X122.028 Y113.019 E0.72069
G1 X121.888 Y112.974 E0.72657
G1 X121.749 Y112.967 E0.73214
G1 X121.618 Y112.996 E0.7375
G1 X121.5 Y113.059 E0.74286
G1 X121.418 Y113.137 E0.74736
G1 X122.263 Y113.982 E0.79512
G1 X122.161 Y114.079 E0.80075
G1 X122.043 Y114.142 E0.8061
G1 X121.912 Y114.171 E0.81146
G1 X121.773 Y114.164 E0.81703
G1 X121.644 Y114.122 E0.82245
G1 X121.045 Y113.523 E0.85632
G92 E0
G1 E-1.4 F3000
;WIPE_START
G1 F7200
G1 X121.644 Y114.122 E-1.7354
G1 X121.773 Y114.164 E-1.78907
G1 X121.912 Y114.171 E-1.84422
G1 X122.043 Y114.142 E-1.89729
G1 X122.161 Y114.079 E-1.95036
G1 X122.197 Y114.045 E-1.97
;WIPE_END
G1 E-2 F3000
; acceleration to travel
M204 S1500
G1 X135.591 Y108.536 F9000
; decel to extrusion
M204 S500
G1 X137.227 Y107.863
; end travel
G1 E0 F3000
;TYPE:Internal perimeter
;WIDTH:0.576
G1 F1200
G1 X137.166 Y107.6 E0.01195
G1 X137.173 Y107.334 E0.02375
G1 X137.246 Y107.085 E0.03523
G1 X137.376 Y106.871 E0.04637
G1 X137.554 Y106.702 E0.05722
G1 X137.766 Y106.589 E0.06788
G1 X138.001 Y106.537 E0.07853
G1 X138.245 Y106.549 E0.08938
G1 X138.484 Y106.626 E0.10052
G1 X138.701 Y106.768 E0.112
G1 X138.88 Y106.965 E0.1238
G1 X139.005 Y107.204 E0.13575
G1 X139.066 Y107.466 E0.1477
G1 X139.059 Y107.732 E0.1595
G1 X138.986 Y107.981 E0.17098
G1 X138.856 Y108.196 E0.18212
G1 X138.678 Y108.364 E0.19297
G1 X138.466 Y108.477 E0.20363
G1 X138.231 Y108.53 E0.21428
G1 X137.987 Y108.518 E0.22513
G1 X137.748 Y108.44 E0.23627
G1 X137.531 Y108.299 E0.24775
G1 X137.352 Y108.102 E0.25955
G1 X137.255 Y107.916 E0.26884
G1 X136.719 Y108.051 F9000
;TYPE:External perimeter
G1 F1200
G1 X136.627 Y107.655 E0.28688
G1 X136.638 Y107.25 E0.30482
G1 X136.75 Y106.867 E0.32252
G1 X136.955 Y106.53 E0.33998
G1 X137.237 Y106.262 E0.35723
G1 X137.578 Y106.081 E0.37435
G1 X137.954 Y105.996 E0.39146
G1 X138.343 Y106.016 E0.40871
G1 X138.718 Y106.137 E0.42617
G1 X139.053 Y106.355 E0.44388
G1 X139.324 Y106.655 E0.46181
G1 X139.513 Y107.016 E0.47985
G1 X139.605 Y107.412 E0.4979
G1 X139.594 Y107.816 E0.51583
G1 X139.482 Y108.2 E0.53354
G1 X139.277 Y108.536 E0.551
G1 X138.995 Y108.804 E0.56825
G1 X138.654 Y108.986 E0.58536
G1 X138.278 Y109.07 E0.60247
G1 X137.889 Y109.051 E0.61972
G1 X137.514 Y108.929 E0.63718
G1 X137.179 Y108.711 E0.65489
G1 X136.907 Y108.412 E0.67282
G1 X136.747 Y108.104 E0.68821
;WIPE_START
G1 X136.987 Y107.754 F9000
;WIPE_END
G1 X138.903 Y107.54
;TYPE:Solid infill
;WIDTH:0.519392
G1 F1200
G1 X138.406 Y107.044 E0.71626
G1 X138.314 Y106.983 E0.72069
G1 X138.174 Y106.938 E0.72657
G1 X138.034 Y106.931 E0.73214
G1 X137.904 Y106.96 E0.7375
G1 X137.785 Y107.023 E0.74286
G1 X137.704 Y107.101 E0.74736
G1 X138.548 Y107.946 E0.79512
G1 X138.447 Y108.043 E0.80075
G1 X138.328 Y108.106 E0.8061
G1 X138.197 Y108.135 E0.81146
G1 X138.058 Y108.129 E0.81703
G1 X137.929 Y108.087 E0.82245
G1 X137.33 Y107.488 E0.85632
G92 E0
G1 E-1.4 F3000
;WIPE_START
G1 F7200
G1 X137.929 Y108.087 E-1.7354
G1 X138.058 Y108.129 E-1.78907
G1 X138.197 Y108.135 E-1.84422
G1 X138.328 Y108.106 E-1.89729
G1 X138.447 Y108.043 E-1.95036
G1 X138.482 Y108.009 E-1.97
;WIPE_END
G1 E-2 F3000
; acceleration to travel
M204 S1500
G1 X124.896 Y94.825 F9000
; decel to extrusion
M204 S500
G1 X123.237 Y93.214
; end travel
G1 E0 F3000
;TYPE:Internal perimeter
;WIDTH:0.576
G1 F1200
G1 X123.059 Y93.383 E0.01085
G1 X122.847 Y93.496 E0.02151
G1 X122.612 Y93.548 E0.03216
G1 X122.368 Y93.536 E0.04301
G1 X122.129 Y93.459 E0.05415
G1 X121.912 Y93.317 E0.06563
G1 X121.733 Y93.12 E0.07743
G1 X121.608 Y92.881 E0.08938
G1 X121.547 Y92.619 E0.10133
G1 X121.554 Y92.353 E0.11313
G1 X121.627 Y92.104 E0.12461
G1 X121.757 Y91.889 E0.13575
G1 X121.935 Y91.721 E0.1466
G1 X122.147 Y91.608 E0.15726
G1 X122.382 Y91.555 E0.16791
G1 X122.626 Y91.567 E0.17876
G1 X122.865 Y91.645 E0.1899
G1 X123.082 Y91.786 E0.20138
G1 X123.261 Y91.983 E0.21318
G1 X123.386 Y92.222 E0.22513
G1 X123.447 Y92.485 E0.23708
G1 X123.44 Y92.751 E0.24888
G1 X123.367 Y93 E0.26036
G1 X123.268 Y93.163 E0.26884
G1 X123.658 Y93.555 F9000
;TYPE:External perimeter
G1 F1200
