; generated by SuperSlicer 2.4 on 2023-02-05 at 16:35:59 UTC

; 

; external perimeters extrusion width = 0.43mm
; perimeters extrusion width = 0.48mm
; infill extrusion width = 0.46mm
; solid infill extrusion width = 0.48mm
; top infill extrusion width = 0.46mm
; first layer extrusion width = 0.58mm

; object:{"name":"Stringing_test","id":"Stringing_test.stl id:0 copy 0","object_center":[115.500000,115.500000,0.000000],"boundingbox_center":[115.500000,115.500000,16.000000],"boundingbox_size":[30.661791,19.502881,32.000000]}
; Total objects to print: 1
M486 T1
; plater:{"center":[115.500000,115.500000,0.000000],"boundingbox_center":[115.500000,115.500000,16.000000],"boundingbox_size":[30.661791,19.502881,32.000000]}

;TYPE:Custom
G90 ; use absolute coordinates
M83 ; extruder relative mode
M140 S60 ; set final bed temp
M104 S150 ; set temporary nozzle temp to prevent oozing during homing and auto bed leveling
G4 S10 ; allow partial nozzle warmup
G28 ; home all axis
;G29 ; auto bed levelling
G1 Z10 F240
G1 X2 Y10 F3000
G1 Z0 F240
M104 S210 ; set final nozzle temp
M190 S60 ; wait for bed temp to stabilize
M109 S210 ; wait for nozzle temp to stabilize
G1 Z0.28 F240
G92 E0
G1 Y100 E7.1 F1500 ; prime the nozzle
G1 X2.3 F5000
G92 E0
G1 Y10 E10 F1200 ; prime the nozzle
G92 E0
;start
M107
G21 ; set units to millimeters
G90 ; use absolute coordinates
M82 ; use absolute distances for extrusion
G92 E0
; Filament gcode
;_TOOLCHANGE 0
M107
;LAYER_CHANGE
;Z:0.2
;HEIGHT:0.2
;BEFORE_LAYER_CHANGE
;0.2


G1 E-2 F3000
G1 Z0.15 F9000
;AFTER_LAYER_CHANGE
;0.2
G92 E0
M204 S500
G1 X98.815 Y114.653
G1 E2 F3000
;TYPE:Skirt
;WIDTH:0.48
G1 F1200
G1 X97.127 Y116.179 E2.08271
G1 X96.65 Y117.809 E2.14443
G1 X96.961 Y119.479 E2.20616
G1 X100.131 Y126.605 E2.48963
G1 X101.658 Y128.293 E2.57234
G1 X103.288 Y128.77 E2.63407
G1 X104.957 Y128.459 E2.69579
G1 X132.185 Y116.347 E3.77882
G1 X133.873 Y114.821 E3.86153
G1 X134.35 Y113.191 E3.92325
G1 X134.039 Y111.521 E3.98498
G1 X130.869 Y104.395 E4.26846
G1 X129.342 Y102.707 E4.35116
G1 X127.712 Y102.23 E4.41289
G1 X126.043 Y102.541 E4.47461
G1 X98.87 Y114.628 E5.55546
G1 X99.048 Y115.028 F9000
G1 F1200
G1 X98.993 Y115.052 E5.55764
G1 X97.611 Y116.226 E5.62354
G1 X97.093 Y117.731 E5.6814
G1 X97.36 Y119.301 E5.73927
G1 X100.531 Y126.428 E6.02274
G1 X101.704 Y127.81 E6.08864
G1 X103.21 Y128.327 E6.1465
G1 X104.78 Y128.06 E6.20437
G1 X132.007 Y115.948 E7.2874
G1 X133.389 Y114.774 E7.35329
G1 X133.907 Y113.269 E7.41116
G1 X133.64 Y111.699 E7.46902
G1 X130.469 Y104.572 E7.7525
G1 X129.296 Y103.19 E7.81839
G1 X127.79 Y102.673 E7.87626
G1 X126.22 Y102.94 E7.93412
G1 X99.103 Y115.003 E9.01279
G92 E0
G1 E-1.4 F3000
;WIPE_START
G1 F7200
G1 X98.993 Y115.052 E-1.4475
G1 X97.987 Y115.907 E-1.97
;WIPE_END
G1 E-2 F3000
; printing object Stringing_test.stl id:0 copy 0
M486 S0
; acceleration to travel
M204 S1500
G1 X101.02 Y118.139 F9000
; decel to extrusion
M204 S500
G1 X101.391 Y118.411
; end travel
G1 E0 F3000
;TYPE:Internal perimeter
;WIDTH:0.576
G1 F1200
G1 X127.11 Y106.97 E1.24774
G1 X129.609 Y112.589 E1.52031
G1 X103.89 Y124.03 E2.76805
G1 X101.415 Y118.466 E3.03796
G1 X100.681 Y118.139 F9000
;TYPE:External perimeter
G1 F1200
G1 X127.382 Y106.261 E4.33333
G1 X127.416 Y106.336 E4.33699
G1 X130.319 Y112.861 E4.65354
G1 X103.618 Y124.739 E5.94892
G1 X100.706 Y118.194 E6.26647
;WIPE_START
G1 X101.079 Y118.181 F9000
;WIPE_END
G92 E0
G1 E-1.4 F3000
;WIPE_START
G1 F7200
G1 X102.395 Y117.596 E-1.97
;WIPE_END
G1 E-2 F3000
; acceleration to travel
M204 S1500
G1 X125.125 Y110.068 F9000
; decel to extrusion
M204 S500
G1 X127.902 Y109.148
; end travel
G1 E0 F3000
;TYPE:Solid infill
;WIDTH:0.573638
G1 F1200
G1 X126.448 Y107.694 E0.09078
G1 X125.922 Y107.928 E0.11619
G1 X128.056 Y110.061 E0.24939
G1 X128.665 Y111.43 E0.31553
G1 X125.396 Y108.162 E0.51958
G1 X124.87 Y108.396 E0.54499
G1 X128.934 Y112.46 E0.79869
G1 X128.408 Y112.694 E0.8241
G1 X124.344 Y108.63 E1.0778
G1 X123.818 Y108.864 E1.10322
G1 X127.882 Y112.928 E1.35692
G1 X127.356 Y113.162 E1.38233
G1 X123.292 Y109.098 E1.63603
G1 X122.766 Y109.332 E1.66144
G1 X126.83 Y113.396 E1.91514
G1 X126.304 Y113.63 E1.94055
G1 X122.24 Y109.566 E2.19425
G1 X121.714 Y109.8 E2.21967
G1 X125.778 Y113.864 E2.47337
G1 X125.252 Y114.098 E2.49878
G1 X121.188 Y110.034 E2.75248
G1 X120.662 Y110.268 E2.77789
G1 X124.726 Y114.331 E3.03159
G1 X124.2 Y114.565 E3.057
G1 X120.136 Y110.502 E3.3107
G1 X119.61 Y110.736 E3.33612
G1 X123.674 Y114.799 E3.58982
G1 X123.148 Y115.033 E3.61523
G1 X119.085 Y110.97 E3.86893
G1 X118.559 Y111.204 E3.89434
G1 X122.622 Y115.267 E4.14804
G1 X122.096 Y115.501 E4.17345
G1 X118.033 Y111.438 E4.42715
G1 X117.507 Y111.672 E4.45257
G1 X121.57 Y115.735 E4.70627
G1 X121.044 Y115.969 E4.73168
G1 X116.981 Y111.906 E4.98538
G1 X116.455 Y112.14 E5.01079
G1 X120.518 Y116.203 E5.26449
G1 X119.992 Y116.437 E5.2899
G1 X115.929 Y112.374 E5.5436
G1 X115.403 Y112.607 E5.56902
G1 X119.467 Y116.671 E5.82272
G1 X118.941 Y116.905 E5.84813
G1 X114.877 Y112.841 E6.10183
G1 X114.351 Y113.075 E6.12724
G1 X118.415 Y117.139 E6.38094
G1 X117.889 Y117.373 E6.40635
G1 X113.825 Y113.309 E6.66005
G1 X113.299 Y113.543 E6.68546
G1 X117.363 Y117.607 E6.93916
G1 X116.837 Y117.841 E6.96458
G1 X112.773 Y113.777 E7.21828
G1 X112.247 Y114.011 E7.24369
G1 X116.311 Y118.075 E7.49739
G1 X115.785 Y118.309 E7.5228
G1 X111.721 Y114.245 E7.7765
G1 X111.195 Y114.479 E7.80191
G1 X115.259 Y118.543 E8.05561
G1 X114.733 Y118.777 E8.08103
G1 X110.669 Y114.713 E8.33473
G1 X110.143 Y114.947 E8.36014
G1 X114.207 Y119.011 E8.61384
G1 X113.681 Y119.245 E8.63925
G1 X109.617 Y115.181 E8.89295
G1 X109.091 Y115.415 E8.91836
G1 X113.155 Y119.479 E9.17206
G1 X112.629 Y119.713 E9.19748
G1 X108.565 Y115.649 E9.45118
G1 X108.039 Y115.883 E9.47659
G1 X112.103 Y119.947 E9.73029
G1 X111.577 Y120.181 E9.7557
G1 X107.513 Y116.117 E10.0094
G1 X106.987 Y116.351 E10.03481
G1 X111.051 Y120.415 E10.28851
G1 X110.525 Y120.649 E10.31393
G1 X106.461 Y116.585 E10.56763
G1 X105.935 Y116.819 E10.59304
G1 X109.999 Y120.883 E10.84674
G1 X109.473 Y121.117 E10.87215
G1 X105.409 Y117.053 E11.12585
G1 X104.883 Y117.287 E11.15126
G1 X108.947 Y121.351 E11.40496
G1 X108.421 Y121.585 E11.43038
G1 X104.357 Y117.521 E11.68408
G1 X103.831 Y117.755 E11.70949
G1 X107.895 Y121.819 E11.96319
G1 X107.369 Y122.053 E11.9886
G1 X103.305 Y117.989 E12.2423
G1 X102.779 Y118.223 E12.26771
G1 X106.843 Y122.287 E12.52141
G1 X106.317 Y122.521 E12.54683
G1 X102.253 Y118.457 E12.80053
G1 X101.909 Y118.61 E12.81718
G1 X102.118 Y119.082 E12.83997
G1 X105.791 Y122.755 E13.06926
G1 X105.265 Y122.989 E13.09467
G1 X102.727 Y120.451 E13.2531
G1 X103.336 Y121.82 E13.31924
G1 X104.739 Y123.223 E13.40682
G1 X104.213 Y123.457 E13.43224
G1 X103.49 Y122.733 E13.4774
M106 S84.15
;LAYER_CHANGE
;Z:0.52
;HEIGHT:0.32
;BEFORE_LAYER_CHANGE
;0.52


G92 E0
G1 E-1.4 F3000
;WIPE_START
G1 F7200
G1 X104.213 Y123.457 E-1.80501
G1 X104.594 Y123.287 E-1.97
;WIPE_END
G1 E-2 F3000
; stop printing object Stringing_test.stl id:0 copy 0
M486 S-1
G1 Z0.47 F9000
;AFTER_LAYER_CHANGE
;0.52
; printing object Stringing_test.stl id:0 copy 0
M486 S0
G1 X103.727 Y124.454
G1 E0 F3000
;TYPE:Internal perimeter
;WIDTH:0.476
G1 F2400
G1 X100.967 Y118.249 E0.36804
G1 X127.273 Y106.546 E1.92829
G1 X130.033 Y112.751 E2.29634
G1 X103.782 Y124.429 E3.85333
G1 X103.529 Y124.969 F9000
;TYPE:External perimeter
;WIDTH:0.428
G1 F1500
G1 X100.452 Y118.051 E4.21531
G1 X127.471 Y106.031 E5.62901
G1 X130.548 Y112.949 E5.99099
G1 X103.584 Y124.945 E7.40181
;WIPE_START
G1 X103.571 Y124.571 F9000
;WIPE_END
G92 E0
G1 E-1.4 F3000
;WIPE_START
G1 F7200
G1 X102.986 Y123.255 E-1.97
;WIPE_END
G1 E-2 F3000
; acceleration to travel
M204 S1500
G1 X101.507 Y119.246 F9000
; decel to extrusion
M204 S500
G1 X101.316 Y118.728
; end travel
G1 E0 F3000
;TYPE:Solid infill
;WIDTH:0.484067
G1 F2400
G1 X101.863 Y118.181 E0.04264
G1 X102.918 Y117.711 E0.10629
G1 X101.631 Y118.998 E0.2066
G1 X101.812 Y119.404 E0.23105
G1 X103.973 Y117.242 E0.39954
G1 X105.029 Y116.773 E0.46318
G1 X101.992 Y119.809 E0.69984
G1 X102.172 Y120.215 E0.7243
G1 X106.084 Y116.303 E1.02914
G1 X107.139 Y115.834 E1.09278
G1 X102.353 Y120.62 E1.4658
G1 X102.533 Y121.025 E1.49026
G1 X108.194 Y115.364 E1.93146
G1 X109.249 Y114.895 E1.9951
G1 X102.713 Y121.431 E2.50448
G1 X102.894 Y121.836 E2.52893
G1 X110.304 Y114.426 E3.10649
G1 X111.359 Y113.956 E3.17013
G1 X103.074 Y122.242 E3.81587
G1 X103.254 Y122.647 E3.84032
G1 X112.415 Y113.487 E4.55424
G1 X113.47 Y113.017 E4.61788
G1 X103.435 Y123.052 E5.39997
G1 X103.615 Y123.458 E5.42442
G1 X114.525 Y112.548 E6.2747
G1 X115.58 Y112.079 E6.33834
G1 X103.795 Y123.863 E7.25679
G1 X103.881 Y124.055 E7.26833
G1 X104.437 Y123.807 E7.30193
G1 X116.635 Y111.609 E8.25257
G1 X117.69 Y111.14 E8.31621
G1 X105.493 Y123.338 E9.26685
G1 X106.548 Y122.868 E9.33049
G1 X118.745 Y110.671 E10.28113
G1 X119.801 Y110.201 E10.34477
G1 X107.603 Y122.399 E11.29541
G1 X108.658 Y121.929 E11.35906
G1 X120.856 Y109.732 E12.3097
G1 X121.911 Y109.262 E12.37334
G1 X109.713 Y121.46 E13.32398
G1 X110.768 Y120.991 E13.38762
G1 X122.966 Y108.793 E14.33826
G1 X124.021 Y108.324 E14.40191
G1 X111.823 Y120.521 E15.35255
G1 X112.879 Y120.052 E15.41619
G1 X125.076 Y107.854 E16.36683
G1 X126.131 Y107.385 E16.43047
G1 X113.934 Y119.582 E17.38111
G1 X114.989 Y119.113 E17.44475
G1 X127.131 Y106.971 E18.39106
G1 X127.311 Y107.376 E18.41552
G1 X116.044 Y118.644 E19.29365
G1 X117.099 Y118.174 E19.35729
G1 X127.492 Y107.782 E20.16724
G1 X127.672 Y108.187 E20.1917
G1 X118.154 Y117.705 E20.93347
G1 X119.209 Y117.236 E20.99711
G1 X127.852 Y108.593 E21.67071
G1 X128.033 Y108.998 E21.69516
G1 X120.265 Y116.766 E22.30058
G1 X121.32 Y116.297 E22.36422
G1 X128.213 Y109.404 E22.90146
G1 X128.393 Y109.809 E22.92591
G1 X122.375 Y115.827 E23.39497
G1 X123.43 Y115.358 E23.45862
G1 X128.574 Y110.214 E23.8595
G1 X128.754 Y110.62 E23.88395
G1 X124.485 Y114.889 E24.21666
G1 X125.54 Y114.419 E24.2803
G1 X128.934 Y111.025 E24.54482
G1 X129.115 Y111.431 E24.56928
G1 X126.595 Y113.95 E24.76562
G1 X127.651 Y113.481 E24.82927
G1 X129.295 Y111.836 E24.95744
G1 X129.475 Y112.241 E24.98189
G1 X128.355 Y113.362 E25.06924
M106 S170.85
;LAYER_CHANGE
;Z:0.84
;HEIGHT:0.32
;BEFORE_LAYER_CHANGE
;0.84


G92 E0
G1 E-1.4 F3000
;WIPE_START
G1 F7200
G1 X129.373 Y112.344 E-1.97
;WIPE_END
G1 E-2 F3000
; stop printing object Stringing_test.stl id:0 copy 0
M486 S-1
G1 Z0.79 F9000
;AFTER_LAYER_CHANGE
;0.84
; printing object Stringing_test.stl id:0 copy 0
M486 S0
G1 X130.033 Y112.751
G1 E0 F3000
;TYPE:Internal perimeter
;WIDTH:0.476
G1 F1875
G1 X103.727 Y124.454 E1.56025
G1 X100.967 Y118.249 E1.92829
G1 X127.273 Y106.546 E3.48854
G1 X130.009 Y112.697 E3.85333
G1 X130.548 Y112.949 F9000
;TYPE:External perimeter
;WIDTH:0.428
G1 F1500
G1 X103.529 Y124.969 E5.26703
G1 X100.452 Y118.051 E5.62901
G1 X127.471 Y106.031 E7.0427
G1 X130.524 Y112.895 E7.40181
;WIPE_START
G1 X130.151 Y112.907 F9000
;WIPE_END
G92 E0
G1 E-1.4 F3000
;WIPE_START
G1 F7200
G1 X128.835 Y113.493 E-1.97
;WIPE_END
G1 E-2 F3000
; acceleration to travel
M204 S1500
G1 X127.992 Y108.828 F9000
; decel to extrusion
M204 S500
G1 X127.884 Y108.225
; end travel
G1 E0 F3000
;TYPE:Solid infill
;WIDTH:0.483888
G1 F1875
G1 X126.763 Y107.104 E0.08732
G1 X126.357 Y107.284 E0.11177
G1 X128.002 Y108.929 E0.23989
G1 X128.471 Y109.984 E0.30351
G1 X125.952 Y107.465 E0.49978
G1 X125.547 Y107.645 E0.52423
G1 X128.941 Y111.039 E0.78865
G1 X129.41 Y112.094 E0.85227
G1 X125.141 Y107.825 E1.18485
G1 X124.736 Y108.006 E1.2093
G1 X129.422 Y112.692 E1.57442
G1 X129.017 Y112.873 E1.59886
G1 X124.33 Y108.186 E1.96399
G1 X123.925 Y108.366 E1.98843
G1 X128.611 Y113.053 E2.35355
G1 X128.206 Y113.233 E2.378
G1 X123.519 Y108.547 E2.74312
G1 X123.114 Y108.727 E2.76756
G1 X127.801 Y113.414 E3.13269
G1 X127.395 Y113.594 E3.15713
G1 X122.709 Y108.907 E3.52225
G1 X122.303 Y109.088 E3.5467
G1 X126.99 Y113.774 E3.91182
G1 X126.584 Y113.955 E3.93626
G1 X121.898 Y109.268 E4.30139
G1 X121.492 Y109.449 E4.32583
G1 X126.179 Y114.135 E4.69096
G1 X125.774 Y114.315 E4.7154
G1 X121.087 Y109.629 E5.08052
G1 X120.682 Y109.809 E5.10497
G1 X125.368 Y114.496 E5.47009
G1 X124.963 Y114.676 E5.49453
G1 X120.276 Y109.99 E5.85966
G1 X119.871 Y110.17 E5.8841
G1 X124.557 Y114.857 E6.24922
G1 X124.152 Y115.037 E6.27367
G1 X119.465 Y110.35 E6.63879
G1 X119.06 Y110.531 E6.66323
G1 X123.747 Y115.217 E7.02836
G1 X123.341 Y115.398 E7.0528
G1 X118.655 Y110.711 E7.41792
G1 X118.249 Y110.891 E7.44237
G1 X122.936 Y115.578 E7.80749
G1 X122.53 Y115.758 E7.83194
G1 X117.844 Y111.072 E8.19706
G1 X117.438 Y111.252 E8.2215
G1 X122.125 Y115.939 E8.58663
G1 X121.72 Y116.119 E8.61107
G1 X117.033 Y111.432 E8.97619
G1 X116.627 Y111.613 E9.00064
G1 X121.314 Y116.299 E9.36576
G1 X120.909 Y116.48 E9.3902
G1 X116.222 Y111.793 E9.75533
G1 X115.817 Y111.973 E9.77977
G1 X120.503 Y116.66 E10.14489
G1 X120.098 Y116.84 E10.16934
G1 X115.411 Y112.154 E10.53446
G1 X115.006 Y112.334 E10.55891
G1 X119.692 Y117.021 E10.92403
G1 X119.287 Y117.201 E10.94847
G1 X114.6 Y112.514 E11.3136
G1 X114.195 Y112.695 E11.33804
G1 X118.882 Y117.381 E11.70316
G1 X118.476 Y117.562 E11.72761
G1 X113.79 Y112.875 E12.09273
G1 X113.384 Y113.055 E12.11717
G1 X118.071 Y117.742 E12.4823
G1 X117.665 Y117.922 E12.50674
G1 X112.979 Y113.236 E12.87186
G1 X112.573 Y113.416 E12.89631
G1 X117.26 Y118.103 E13.26143
G1 X116.855 Y118.283 E13.28587
G1 X112.168 Y113.597 E13.651
G1 X111.763 Y113.777 E13.67544
G1 X116.449 Y118.463 E14.04056
G1 X116.044 Y118.644 E14.06501
G1 X111.357 Y113.957 E14.43013
G1 X110.952 Y114.138 E14.45458
G1 X115.638 Y118.824 E14.8197
G1 X115.233 Y119.005 E14.84414
G1 X110.546 Y114.318 E15.20927
G1 X110.141 Y114.498 E15.23371
G1 X114.828 Y119.185 E15.59883
G1 X114.422 Y119.365 E15.62328
G1 X109.736 Y114.679 E15.9884
G1 X109.33 Y114.859 E16.01284
G1 X114.017 Y119.546 E16.37797
G1 X113.611 Y119.726 E16.40241
G1 X108.925 Y115.039 E16.76753
G1 X108.519 Y115.22 E16.79198
G1 X113.206 Y119.906 E17.1571
G1 X112.8 Y120.087 E17.18155
G1 X108.114 Y115.4 E17.54667
G1 X107.708 Y115.58 E17.57111
G1 X112.395 Y120.267 E17.93624
G1 X111.99 Y120.447 E17.96068
G1 X107.303 Y115.761 E18.3258
G1 X106.898 Y115.941 E18.35025
G1 X111.584 Y120.628 E18.71537
G1 X111.179 Y120.808 E18.73981
G1 X106.492 Y116.121 E19.10494
G1 X106.087 Y116.302 E19.12938
G1 X110.773 Y120.988 E19.4945
G1 X110.368 Y121.169 E19.51895
G1 X105.681 Y116.482 E19.88407
G1 X105.276 Y116.662 E19.90851
G1 X109.963 Y121.349 E20.27364
G1 X109.557 Y121.529 E20.29808
G1 X104.871 Y116.843 E20.66321
G1 X104.465 Y117.023 E20.68765
G1 X109.152 Y121.71 E21.05277
G1 X108.746 Y121.89 E21.07722
G1 X104.06 Y117.203 E21.44234
G1 X103.654 Y117.384 E21.46678
G1 X108.341 Y122.07 E21.83191
G1 X107.936 Y122.251 E21.85635
G1 X103.249 Y117.564 E22.22147
G1 X102.844 Y117.745 E22.24592
G1 X107.53 Y122.431 E22.61104
G1 X107.125 Y122.611 E22.63548
G1 X102.438 Y117.925 E23.00061
G1 X102.033 Y118.105 E23.02505
G1 X106.719 Y122.792 E23.39017
G1 X106.314 Y122.972 E23.41462
G1 X101.627 Y118.286 E23.77974
G1 X101.366 Y118.402 E23.7955
G1 X101.533 Y118.777 E23.8181
G1 X105.908 Y123.153 E24.15902
G1 X105.503 Y123.333 E24.18346
G1 X102.002 Y119.832 E24.45623
G1 X102.471 Y120.887 E24.51985
G1 X105.098 Y123.513 E24.72446
G1 X104.692 Y123.694 E24.7489
G1 X102.941 Y121.942 E24.88536
G1 X103.41 Y122.997 E24.94898
G1 X104.287 Y123.874 E25.01729
G1 X103.881 Y124.054 E25.04173
G1 X103.528 Y123.701 E25.06924
M106 S255
;LAYER_CHANGE
;Z:1.16
;HEIGHT:0.32
;BEFORE_LAYER_CHANGE
;1.16


G92 E0
G1 E-1.4 F3000
;WIPE_START
G1 F7200
G1 X103.881 Y124.054 E-1.59767
G1 X104.287 Y123.874 E-1.77331
G1 X103.935 Y123.523 E-1.97
;WIPE_END
G1 E-2 F3000
; stop printing object Stringing_test.stl id:0 copy 0
M486 S-1
G1 Z1.11 F9000
;AFTER_LAYER_CHANGE
;1.16
; printing object Stringing_test.stl id:0 copy 0
M486 S0
G1 X103.727 Y124.454
G1 E0 F3000
;TYPE:Internal perimeter
;WIDTH:0.476
G1 F1874
G1 X100.967 Y118.249 E0.36804
G1 X127.273 Y106.546 E1.92829
G1 X130.033 Y112.751 E2.29634
G1 X103.782 Y124.429 E3.85333
G1 X103.529 Y124.969 F9000
;TYPE:External perimeter
;WIDTH:0.428
G1 F1500
