; generated by SuperSlicer 2.4 on 2023-02-05 at 16:36:54 UTC

; 

; external perimeters extrusion width = 0.43mm
; perimeters extrusion width = 0.48mm
; infill extrusion width = 0.46mm
; solid infill extrusion width = 0.48mm
; top infill extrusion width = 0.46mm
; first layer extrusion width = 0.58mm

; object:{"name":"stringing-test","id":"stringing-test.stl id:0 copy 0","object_center":[115.500000,115.500000,0.000000],"boundingbox_center":[115.500000,115.500000,7.253754],"boundingbox_size":[25.049265,8.626277,14.507509]}
; Total objects to print: 1
M486 T1
; plater:{"center":[115.500000,115.500000,0.000000],"boundingbox_center":[115.500000,115.500000,7.253754],"boundingbox_size":[25.049265,8.626277,14.507509]}

;TYPE:Custom
G90 ; use absolute coordinates
M83 ; extruder relative mode
M140 S60 ; set final bed temp
M104 S150 ; set temporary nozzle temp to prevent oozing during homing and auto bed leveling
G4 S10 ; allow partial nozzle warmup
G28 ; home all axis
;G29 ; auto bed levelling
G1 Z10 F240
G1 X2 Y10 F3000
G1 Z0 F240
M104 S210 ; set final nozzle temp
M190 S60 ; wait for bed temp to stabilize
M109 S210 ; wait for nozzle temp to stabilize
G1 Z0.28 F240
G92 E0
G1 Y100 E7.1 F1500 ; prime the nozzle
G1 X2.3 F5000
G92 E0
G1 Y10 E10 F1200 ; prime the nozzle
G92 E0
;start
M107
G21 ; set units to millimeters
G90 ; use absolute coordinates
M82 ; use absolute distances for extrusion
G92 E0
; Filament gcode
;_TOOLCHANGE 0
M107
;LAYER_CHANGE
;Z:0.2
;HEIGHT:0.2
;BEFORE_LAYER_CHANGE
;0.2


G1 E-2 F3000
G1 Z0.15 F9000
;AFTER_LAYER_CHANGE
;0.2
G92 E0
M204 S500
G1 X100.501 Y112.456
G1 E2 F3000
;TYPE:Skirt
;WIDTH:0.48
G1 F1200
G1 X99.614 Y113.905 E2.06172
G1 X99.477 Y115.598 E2.12345
G1 X100.2 Y120.259 E2.29489
G1 X101.231 Y122.288 E2.3776
G1 X102.68 Y123.175 E2.43932
G1 X104.372 Y123.311 E2.50105
G1 X128.471 Y119.575 E3.38732
G1 X130.499 Y118.544 E3.47003
G1 X131.386 Y117.095 E3.53175
G1 X131.523 Y115.402 E3.59348
G1 X130.8 Y110.741 E3.76492
G1 X129.769 Y108.712 E3.84762
G1 X128.32 Y107.825 E3.90935
G1 X126.628 Y107.689 E3.97107
G1 X102.529 Y111.425 E4.85735
G1 X100.554 Y112.429 E4.93787
G1 X100.921 Y112.678 F9000
G1 F1200
G1 X100.062 Y113.946 E4.99354
G1 X99.909 Y115.531 E5.0514
G1 X100.632 Y120.192 E5.22284
G1 X101.403 Y121.833 E5.28874
G1 X102.721 Y122.727 E5.3466
G1 X104.305 Y122.88 E5.40446
G1 X128.404 Y119.143 E6.29074
G1 X130.045 Y118.372 E6.35663
G1 X130.938 Y117.054 E6.4145
G1 X131.091 Y115.469 E6.47236
G1 X130.368 Y110.808 E6.6438
G1 X129.597 Y109.167 E6.7097
G1 X128.279 Y108.273 E6.76756
G1 X126.695 Y108.12 E6.82542
G1 X102.596 Y111.857 E7.7117
G1 X100.955 Y112.629 E7.77761
G92 E0
G1 E-1.4 F3000
;WIPE_START
G1 F7200
G1 X100.147 Y113.82 E-1.97
;WIPE_END
G1 E-2 F3000
; printing object stringing-test.stl id:0 copy 0
M486 S0
; acceleration to travel
M204 S1500
G1 X103.062 Y115.119 F9000
; decel to extrusion
M204 S500
G1 X103.418 Y115.278
; end travel
G1 E0 F3000
;TYPE:External perimeter
;WIDTH:0.576
G1 F1200
G1 X126.947 Y111.63 E1.0554
G1 X127.491 Y115.134 E1.21257
G1 X127.582 Y115.722 E1.23897
G1 X104.053 Y119.37 E2.29437
G1 X103.427 Y115.337 E2.47527
;WIPE_START
G1 X103.791 Y115.422 F9000
;WIPE_END
G92 E0
G1 E-1.4 F3000
;WIPE_START
G1 F7200
G1 X105.214 Y115.202 E-1.97
;WIPE_END
G1 E-2 F3000
; acceleration to travel
M204 S1500
G1 X124.639 Y113.329 F9000
; decel to extrusion
M204 S500
G1 X127.012 Y113.1
; end travel
G1 E0 F3000
;TYPE:Solid infill
;WIDTH:0.570009
G1 F1200
G1 X126.074 Y112.162 E0.05819
G1 X125.416 Y112.264 E0.08739
G1 X126.875 Y113.723 E0.17788
G1 X127.014 Y114.622 E0.21781
G1 X124.758 Y112.366 E0.35776
G1 X124.1 Y112.468 E0.38696
G1 X127.041 Y115.409 E0.5694
G1 X126.383 Y115.511 E0.5986
G1 X123.442 Y112.57 E0.78103
G1 X122.784 Y112.672 E0.81024
G1 X125.725 Y115.613 E0.99267
G1 X125.067 Y115.715 E1.02187
G1 X122.126 Y112.774 E1.20431
G1 X121.468 Y112.876 E1.23351
G1 X124.409 Y115.817 E1.41594
G1 X123.751 Y115.919 E1.44515
G1 X120.811 Y112.978 E1.62758
G1 X120.153 Y113.08 E1.65679
G1 X123.093 Y116.021 E1.83922
G1 X122.436 Y116.123 E1.86842
G1 X119.495 Y113.182 E2.05086
G1 X118.837 Y113.284 E2.08006
G1 X121.778 Y116.225 E2.26249
G1 X121.12 Y116.327 E2.2917
G1 X118.179 Y113.386 E2.47413
G1 X117.521 Y113.488 E2.50334
G1 X120.462 Y116.429 E2.68577
G1 X119.804 Y116.531 E2.71497
G1 X116.863 Y113.59 E2.8974
G1 X116.205 Y113.692 E2.92661
G1 X119.146 Y116.633 E3.10904
G1 X118.488 Y116.735 E3.13825
G1 X115.547 Y113.794 E3.32068
G1 X114.889 Y113.896 E3.34988
G1 X117.83 Y116.837 E3.53232
G1 X117.172 Y116.939 E3.56152
G1 X114.231 Y113.998 E3.74395
G1 X113.573 Y114.1 E3.77316
G1 X116.514 Y117.041 E3.95559
G1 X115.856 Y117.143 E3.9848
G1 X112.915 Y114.202 E4.16723
G1 X112.257 Y114.304 E4.19643
G1 X115.198 Y117.245 E4.37886
G1 X114.54 Y117.347 E4.40807
G1 X111.599 Y114.406 E4.5905
G1 X110.941 Y114.508 E4.61971
G1 X113.882 Y117.449 E4.80214
G1 X113.224 Y117.551 E4.83134
G1 X110.283 Y114.61 E5.01378
G1 X109.626 Y114.712 E5.04298
G1 X112.566 Y117.653 E5.22541
G1 X111.908 Y117.755 E5.25462
G1 X108.968 Y114.814 E5.43705
G1 X108.31 Y114.916 E5.46626
G1 X111.25 Y117.857 E5.64869
G1 X110.593 Y117.959 E5.67789
G1 X107.652 Y115.018 E5.86032
G1 X106.994 Y115.12 E5.88953
G1 X109.935 Y118.061 E6.07196
G1 X109.277 Y118.163 E6.10117
G1 X106.336 Y115.223 E6.2836
G1 X105.678 Y115.325 E6.3128
G1 X108.619 Y118.265 E6.49524
G1 X107.961 Y118.367 E6.52444
G1 X105.02 Y115.427 E6.70687
G1 X104.362 Y115.529 E6.73608
G1 X107.303 Y118.469 E6.91851
G1 X106.645 Y118.571 E6.94772
G1 X103.9 Y115.827 E7.11797
G1 X104.04 Y116.726 E7.1579
G1 X105.987 Y118.673 E7.27869
G1 X105.329 Y118.775 E7.3079
G1 X104.179 Y117.626 E7.37922
G1 X104.319 Y118.525 E7.41915
G1 X104.874 Y119.08 E7.45357
M106 S84.15
;LAYER_CHANGE
;Z:0.52
;HEIGHT:0.32
;BEFORE_LAYER_CHANGE
;0.52


G92 E0
G1 E-1.4 F3000
;WIPE_START
G1 F7200
G1 X104.319 Y118.525 E-1.7106
G1 X104.218 Y117.877 E-1.97
;WIPE_END
G1 E-2 F3000
; stop printing object stringing-test.stl id:0 copy 0
M486 S-1
G1 Z0.47 F9000
;AFTER_LAYER_CHANGE
;0.52
; printing object stringing-test.stl id:0 copy 0
M486 S0
G1 X104.31 Y117.832
G1 E0 F3000
;TYPE:External perimeter
;WIDTH:0.428
G1 F900
M106 S255
G1 X104.33 Y117.871 E0.0021
G1 X104.479 Y118.083 E0.01447
G1 X104.658 Y118.269 E0.02683
G1 X104.864 Y118.426 E0.0392
G1 X105.091 Y118.549 E0.05157
G1 X105.335 Y118.636 E0.06394
G1 X105.589 Y118.686 E0.0763
G1 X105.847 Y118.695 E0.08867
G1 X106.104 Y118.666 E0.10104
G1 X106.354 Y118.597 E0.11341
G1 X106.59 Y118.491 E0.12577
G1 X106.807 Y118.35 E0.13814
G1 X107 Y118.178 E0.15051
G1 X107.164 Y117.978 E0.16288
G1 X107.296 Y117.756 E0.17524
G1 X107.393 Y117.516 E0.18761
G1 X107.452 Y117.264 E0.19998
G1 X107.471 Y117.006 E0.21235
G1 X107.452 Y116.748 E0.22471
G1 X107.392 Y116.496 E0.23708
G1 X107.296 Y116.256 E0.24945
G1 X107.163 Y116.034 E0.26181
G1 X106.999 Y115.834 E0.27418
G1 X106.805 Y115.662 E0.28655
G1 X106.588 Y115.522 E0.29892
G1 X106.352 Y115.416 E0.31128
G1 X106.102 Y115.348 E0.32365
G1 X105.845 Y115.318 E0.33602
G1 X105.587 Y115.328 E0.34839
G1 X105.333 Y115.378 E0.36075
G1 X105.09 Y115.465 E0.37312
G1 X104.862 Y115.589 E0.38549
G1 X104.657 Y115.746 E0.39786
G1 X104.477 Y115.932 E0.41022
G1 X104.329 Y116.144 E0.42259
G1 X104.214 Y116.376 E0.43496
G1 X104.136 Y116.623 E0.44733
G1 X104.097 Y116.878 E0.45969
G1 X104.097 Y117.137 E0.47206
G1 X104.137 Y117.393 E0.48443
G1 X104.215 Y117.639 E0.4968
G1 X104.284 Y117.778 E0.5042
M106 S84.15
;WIPE_START
G1 X104.089 Y118.165 F9000
;WIPE_END
G1 X104.168 Y117.906
G1 F900
M106 S255
G1 X104.088 Y117.754 E0.5124
G1 X104.005 Y117.527 E0.52397
G1 X103.953 Y117.29 E0.53554
G1 X103.931 Y117.049 E0.54712
G1 X103.942 Y116.807 E0.55869
G1 X103.983 Y116.569 E0.57026
G1 X104.056 Y116.338 E0.58184
G1 X104.158 Y116.118 E0.59341
G1 X104.288 Y115.914 E0.60498
G1 X104.443 Y115.728 E0.61656
G1 X104.622 Y115.565 E0.62813
G1 X104.82 Y115.426 E0.6397
G1 X105.034 Y115.314 E0.65128
G1 X105.262 Y115.231 E0.66285
G1 X105.498 Y115.178 E0.67442
G1 X105.739 Y115.157 E0.686
G1 X105.981 Y115.167 E0.69757
G1 X106.22 Y115.209 E0.70914
G1 X106.451 Y115.281 E0.72072
G1 X106.67 Y115.383 E0.73229
G1 X106.874 Y115.513 E0.74386
G1 X107.06 Y115.668 E0.75544
G1 X107.224 Y115.847 E0.76701
G1 X107.363 Y116.045 E0.77858
G1 X107.475 Y116.26 E0.79016
G1 X107.558 Y116.487 E0.80173
G1 X107.611 Y116.723 E0.8133
G1 X107.632 Y116.964 E0.82488
G1 X107.622 Y117.206 E0.83645
G1 X107.58 Y117.445 E0.84802
G1 X107.507 Y117.676 E0.8596
G1 X107.405 Y117.895 E0.87117
G1 X107.275 Y118.1 E0.88274
G1 X107.12 Y118.285 E0.89432
G1 X106.942 Y118.449 E0.90589
G1 X106.744 Y118.588 E0.91746
G1 X106.529 Y118.7 E0.92904
G1 X106.302 Y118.783 E0.94061
G1 X106.065 Y118.836 E0.95218
G1 X105.824 Y118.857 E0.96376
G1 X105.582 Y118.847 E0.97533
G1 X105.344 Y118.805 E0.9869
G1 X105.113 Y118.733 E0.99848
G1 X104.893 Y118.63 E1.01005
G1 X104.689 Y118.501 E1.02162
G1 X104.503 Y118.345 E1.0332
G1 X104.34 Y118.167 E1.04477
G1 X104.196 Y117.959 E1.05684
M106 S84.15
;WIPE_START
G1 X104.382 Y117.569 F9000
;WIPE_END
G92 E0
G1 E-1.4 F3000
;WIPE_START
G1 F7200
G1 X104.198 Y117.47 E-1.48276
G1 X104.151 Y117.26 E-1.56822
G1 X104.132 Y117.045 E-1.65366
G1 X104.141 Y116.829 E-1.73912
G1 X104.178 Y116.616 E-1.82457
G1 X104.243 Y116.41 E-1.91002
G1 X104.307 Y116.273 E-1.97
;WIPE_END
G1 E-2 F3000
; acceleration to travel
M204 S1500
G1 X121.456 Y114.587 F9000
; decel to extrusion
M204 S500
G1 X123.573 Y114.379
; end travel
G1 E0 F3000
G1 F900
M106 S255
G1 X123.651 Y114.626 E0.01237
G1 X123.766 Y114.858 E0.02474
G1 X123.915 Y115.069 E0.0371
G1 X124.095 Y115.255 E0.04947
G1 X124.301 Y115.412 E0.06184
G1 X124.528 Y115.536 E0.07421
G1 X124.772 Y115.623 E0.08657
G1 X125.026 Y115.672 E0.09894
G1 X125.284 Y115.682 E0.11131
G1 X125.541 Y115.652 E0.12367
G1 X125.79 Y115.583 E0.13604
G1 X126.026 Y115.477 E0.14841
G1 X126.244 Y115.336 E0.16078
G1 X126.437 Y115.164 E0.17314
G1 X126.601 Y114.965 E0.18551
G1 X126.733 Y114.742 E0.19788
G1 X126.83 Y114.502 E0.21025
G1 X126.888 Y114.25 E0.22261
G1 X126.908 Y113.992 E0.23498
G1 X126.888 Y113.734 E0.24735
G1 X126.829 Y113.482 E0.25972
G1 X126.732 Y113.242 E0.27208
G1 X126.6 Y113.02 E0.28445
G1 X126.435 Y112.821 E0.29682
G1 X126.242 Y112.649 E0.30919
G1 X126.025 Y112.508 E0.32155
G1 X125.789 Y112.402 E0.33392
G1 X125.539 Y112.334 E0.34629
G1 X125.282 Y112.305 E0.35866
G1 X125.024 Y112.315 E0.37102
G1 X124.77 Y112.364 E0.38339
G1 X124.526 Y112.452 E0.39576
G1 X124.299 Y112.575 E0.40813
G1 X124.093 Y112.732 E0.42049
G1 X123.914 Y112.919 E0.43286
G1 X123.765 Y113.13 E0.44523
G1 X123.651 Y113.362 E0.4576
G1 X123.573 Y113.609 E0.46996
G1 X123.533 Y113.865 E0.48233
G1 X123.534 Y114.123 E0.4947
G1 X123.564 Y114.32 E0.5042
M106 S84.15
;WIPE_START
G1 X123.289 Y114.66 F9000
;WIPE_END
G1 X123.42 Y114.413
G1 F900
M106 S255
G1 X123.389 Y114.277 E0.51089
G1 X123.368 Y114.036 E0.52246
G1 X123.378 Y113.794 E0.53403
G1 X123.42 Y113.555 E0.54561
G1 X123.493 Y113.324 E0.55718
G1 X123.595 Y113.105 E0.56875
G1 X123.725 Y112.9 E0.58033
G1 X123.88 Y112.715 E0.5919
G1 X124.058 Y112.551 E0.60347
G1 X124.256 Y112.412 E0.61505
G1 X124.471 Y112.3 E0.62662
G1 X124.698 Y112.217 E0.63819
G1 X124.935 Y112.164 E0.64977
G1 X125.176 Y112.143 E0.66134
G1 X125.418 Y112.153 E0.67291
G1 X125.656 Y112.195 E0.68449
G1 X125.887 Y112.267 E0.69606
G1 X126.107 Y112.37 E0.70763
G1 X126.311 Y112.499 E0.71921
G1 X126.497 Y112.655 E0.73078
G1 X126.66 Y112.833 E0.74235
G1 X126.8 Y113.031 E0.75393
G1 X126.912 Y113.246 E0.7655
G1 X126.995 Y113.473 E0.77707
G1 X127.047 Y113.71 E0.78865
G1 X127.069 Y113.951 E0.80022
G1 X127.058 Y114.193 E0.81179
G1 X127.017 Y114.431 E0.82337
G1 X126.944 Y114.662 E0.83494
G1 X126.842 Y114.882 E0.84651
G1 X126.712 Y115.086 E0.85809
G1 X126.557 Y115.272 E0.86966
G1 X126.378 Y115.435 E0.88123
G1 X126.18 Y115.574 E0.89281
G1 X125.966 Y115.686 E0.90438
G1 X125.738 Y115.769 E0.91595
G1 X125.502 Y115.822 E0.92753
G1 X125.261 Y115.843 E0.9391
G1 X125.019 Y115.833 E0.95067
G1 X124.78 Y115.791 E0.96224
G1 X124.549 Y115.719 E0.97382
G1 X124.33 Y115.617 E0.98539
G1 X124.126 Y115.487 E0.99697
G1 X123.94 Y115.332 E1.00854
G1 X123.776 Y115.153 E1.02011
G1 X123.637 Y114.955 E1.03168
G1 X123.525 Y114.74 E1.04326
G1 X123.442 Y114.513 E1.05483
G1 X123.433 Y114.472 E1.05685
M106 S84.15
;WIPE_START
G1 X123.714 Y114.143 F9000
;WIPE_END
M106 S170.85
;LAYER_CHANGE
;Z:0.84
;HEIGHT:0.32
;BEFORE_LAYER_CHANGE
;0.84


G92 E0
G1 E-1.4 F3000
;WIPE_START
G1 F7200
G1 X123.568 Y114.031 E-1.47279
G1 X123.578 Y113.815 E-1.55824
G1 X123.615 Y113.603 E-1.64369
G1 X123.68 Y113.397 E-1.72914
G1 X123.771 Y113.201 E-1.81459
G1 X123.886 Y113.019 E-1.90005
G1 X124 Y112.883 E-1.97
;WIPE_END
G1 E-2 F3000
; stop printing object stringing-test.stl id:0 copy 0
M486 S-1
G1 Z0.79 F9000
;AFTER_LAYER_CHANGE
;0.84
G92 E0
; printing object stringing-test.stl id:0 copy 0
M486 S0
; acceleration to travel
M204 S1500
G1 X109.27 Y116.323
; decel to extrusion
M204 S500
G1 X107.452 Y116.748
; end travel
G1 E2 F3000
G1 F900
M106 S255
G1 X107.392 Y116.496 E2.01237
G1 X107.296 Y116.256 E2.02474
G1 X107.163 Y116.034 E2.0371
G1 X106.999 Y115.834 E2.04947
G1 X106.805 Y115.662 E2.06184
G1 X106.588 Y115.522 E2.0742
G1 X106.352 Y115.416 E2.08657
G1 X106.102 Y115.348 E2.09894
G1 X105.845 Y115.318 E2.11131
G1 X105.587 Y115.328 E2.12367
G1 X105.333 Y115.378 E2.13604
G1 X105.09 Y115.465 E2.14841
G1 X104.862 Y115.589 E2.16078
G1 X104.657 Y115.746 E2.17314
G1 X104.477 Y115.932 E2.18551
G1 X104.329 Y116.144 E2.19788
G1 X104.214 Y116.376 E2.21025
G1 X104.136 Y116.623 E2.22261
G1 X104.097 Y116.878 E2.23498
G1 X104.097 Y117.137 E2.24735
G1 X104.137 Y117.393 E2.25972
G1 X104.215 Y117.639 E2.27208
G1 X104.33 Y117.871 E2.28445
G1 X104.479 Y118.083 E2.29682
G1 X104.658 Y118.269 E2.30919
G1 X104.864 Y118.426 E2.32155
G1 X105.091 Y118.549 E2.33392
G1 X105.335 Y118.636 E2.34629
G1 X105.589 Y118.686 E2.35866
G1 X105.847 Y118.695 E2.37102
G1 X106.104 Y118.666 E2.38339
G1 X106.354 Y118.597 E2.39576
G1 X106.59 Y118.491 E2.40813
G1 X106.807 Y118.35 E2.42049
G1 X107 Y118.178 E2.43286
G1 X107.164 Y117.978 E2.44523
G1 X107.296 Y117.756 E2.4576
G1 X107.393 Y117.516 E2.46996
G1 X107.452 Y117.264 E2.48233
G1 X107.471 Y117.006 E2.4947
G1 X107.456 Y116.808 E2.5042
M106 S170.85
;WIPE_START
G1 X107.757 Y116.489 F9000
;WIPE_END
G1 X107.611 Y116.723
G1 F900
M106 S255
G1 X107.632 Y116.964 E2.51577
G1 X107.622 Y117.206 E2.52734
G1 X107.58 Y117.445 E2.53892
G1 X107.507 Y117.676 E2.55049
G1 X107.405 Y117.895 E2.56206
G1 X107.275 Y118.1 E2.57364
G1 X107.12 Y118.285 E2.58521
G1 X106.942 Y118.449 E2.59678
G1 X106.744 Y118.588 E2.60836
G1 X106.529 Y118.7 E2.61993
G1 X106.302 Y118.783 E2.6315
G1 X106.065 Y118.836 E2.64308
G1 X105.824 Y118.857 E2.65465
G1 X105.582 Y118.847 E2.66622
G1 X105.344 Y118.805 E2.6778
G1 X105.113 Y118.733 E2.68937
G1 X104.893 Y118.63 E2.70094
G1 X104.689 Y118.501 E2.71252
G1 X104.503 Y118.345 E2.72409
G1 X104.34 Y118.167 E2.73566
G1 X104.2 Y117.969 E2.74724
G1 X104.088 Y117.754 E2.75881
G1 X104.005 Y117.527 E2.77038
G1 X103.953 Y117.29 E2.78196
G1 X103.931 Y117.049 E2.79353
G1 X103.942 Y116.807 E2.8051
G1 X103.983 Y116.569 E2.81668
G1 X104.056 Y116.338 E2.82825
G1 X104.158 Y116.118 E2.83982
G1 X104.288 Y115.914 E2.8514
G1 X104.443 Y115.728 E2.86297
G1 X104.622 Y115.565 E2.87454
G1 X104.82 Y115.426 E2.88612
G1 X105.034 Y115.314 E2.89769
G1 X105.262 Y115.231 E2.90926
G1 X105.498 Y115.178 E2.92084
G1 X105.739 Y115.157 E2.93241
G1 X105.981 Y115.167 E2.94398
G1 X106.22 Y115.209 E2.95556
G1 X106.451 Y115.281 E2.96713
G1 X106.67 Y115.383 E2.9787
G1 X106.874 Y115.513 E2.99028
G1 X107.06 Y115.668 E3.00185
G1 X107.224 Y115.847 E3.01342
G1 X107.363 Y116.045 E3.025
G1 X107.475 Y116.26 E3.03657
G1 X107.558 Y116.487 E3.04814
G1 X107.598 Y116.665 E3.05685
M106 S170.85
;WIPE_START
G1 X107.294 Y116.967 F9000
;WIPE_END
G92 E0
G1 E-1.4 F3000
;WIPE_START
G1 F7200
G1 X107.422 Y117.185 E-1.5001
G1 X107.385 Y117.397 E-1.58555
G1 X107.32 Y117.603 E-1.671
G1 X107.229 Y117.799 E-1.75645
G1 X107.114 Y117.981 E-1.8419
G1 X106.975 Y118.147 E-1.92735
G1 X106.896 Y118.22 E-1.97
;WIPE_END
G1 E-2 F3000
; acceleration to travel
M204 S1500
G1 X121.741 Y114.801 F9000
