; generated by SuperSlicer 2.4 on 2022-12-29 at 12:45:51 UTC

; 

; external perimeters extrusion width = 0.43mm
; perimeters extrusion width = 0.48mm
; infill extrusion width = 0.46mm
; solid infill extrusion width = 0.48mm
; top infill extrusion width = 0.46mm
; first layer extrusion width = 0.58mm

; object:{"name":"Quest_2_IPD_Expander_69mm_v1","id":"Quest_2_IPD_Expander_69mm_v1.stl id:0 copy 0","object_center":[115.500000,115.500000,0.000000],"boundingbox_center":[115.500000,115.500000,3.750000],"boundingbox_size":[126.487976,53.618393,7.500000]}
; Total objects to print: 1
M486 T1
; plater:{"center":[115.500000,115.500000,0.000000],"boundingbox_center":[115.500000,115.500000,3.750000],"boundingbox_size":[126.487976,53.618393,7.500000]}

;TYPE:Custom
G90 ; use absolute coordinates
M83 ; extruder relative mode
M140 S60 ; set final bed temp
M104 S150 ; set temporary nozzle temp to prevent oozing during homing and auto bed leveling
G4 S10 ; allow partial nozzle warmup
G28 ; home all axis
;G29 ; auto bed levelling
G1 Z10 F240
G1 X2 Y10 F3000
G1 Z0 F240
M104 S215 ; set final nozzle temp
M190 S60 ; wait for bed temp to stabilize
M109 S215 ; wait for nozzle temp to stabilize
G1 Z0.28 F240
G92 E0
G1 Y140 E10 F1500 ; prime the nozzle
G1 X2.3 F5000
G92 E0
G1 Y10 E10 F1200 ; prime the nozzle
G92 E0
;start
M107
G21 ; set units to millimeters
G90 ; use absolute coordinates
M82 ; use absolute distances for extrusion
G92 E0
; Filament gcode
;_TOOLCHANGE 0
M107
;LAYER_CHANGE
;Z:0.2
;HEIGHT:0.2
;BEFORE_LAYER_CHANGE
;0.2


G1 E-6 F3000
G1 Z0.15 F9000
;AFTER_LAYER_CHANGE
;0.2
G92 E0
M204 S500
G1 X61.663 Y91.215
G1 E6 F3000
;TYPE:Skirt
;WIDTH:0.48
G1 F1200
G1 X59.135 Y93.268 E6.11834
G1 X56.562 Y95.824 E6.25016
G1 X55.321 Y97.271 E6.31943
G1 X54.16 Y98.792 E6.38897
G1 X52.969 Y100.564 E6.46656
G1 X51.384 Y103.441 E6.58595
G1 X50.279 Y106.084 E6.69007
G1 X49.486 Y108.686 E6.78893
G1 X48.924 Y111.496 E6.89307
G1 X48.681 Y113.626 E6.97099
G1 X48.58 Y115.997 E7.05724
G1 X48.66 Y118.596 E7.15175
G1 X48.958 Y121.405 E7.25439
G1 X49.374 Y123.739 E7.34057
G1 X49.991 Y126.213 E7.43325
G1 X50.888 Y128.906 E7.53638
G1 X51.923 Y131.316 E7.63172
G1 X53.305 Y133.884 E7.73772
G1 X54.826 Y136.16 E7.8372
G1 X56.627 Y138.34 E7.93997
G1 X57.915 Y139.644 E8.00657
G1 X59.313 Y140.866 E8.07407
G1 X60.603 Y141.841 E8.13283
G1 X62.17 Y142.853 E8.20063
G1 X63.393 Y143.525 E8.25133
G1 X64.802 Y144.181 E8.30782
G1 X67.414 Y145.103 E8.40848
G1 X69.272 Y145.549 E8.47792
G1 X70.942 Y145.811 E8.53938
G1 X72.586 Y145.951 E8.59934
G1 X74.091 Y145.986 E8.65404
G1 X156.986 Y145.985 E11.66671
G1 X160.058 Y145.811 E11.77853
G1 X161.728 Y145.549 E11.83999
G1 X163.813 Y145.038 E11.918
G1 X166.379 Y144.104 E12.01723
G1 X168.633 Y142.968 E12.10898
G1 X170.397 Y141.841 E12.18505
G1 X171.876 Y140.711 E12.25269
G1 X173.085 Y139.644 E12.31131
G1 X174.373 Y138.34 E12.3779
G1 X175.425 Y137.125 E12.43632
G1 X177.05 Y134.908 E12.53621
G1 X178.452 Y132.549 E12.63595
G1 X179.645 Y130.06 E12.73626
G1 X180.754 Y127.065 E12.85234
G1 X181.578 Y123.964 E12.96895
G1 X182.042 Y121.405 E13.06348
G1 X182.324 Y118.828 E13.15769
G1 X182.42 Y116.23 E13.25216
G1 X182.319 Y113.626 E13.34688
G1 X182.046 Y111.289 E13.43238
G1 X181.514 Y108.686 E13.52895
G1 X180.721 Y106.084 E13.62781
G1 X180.17 Y104.671 E13.68292
G1 X179.072 Y102.363 E13.77582
G1 X177.919 Y100.386 E13.85897
G1 X176.948 Y98.942 E13.92225
G1 X175.792 Y97.412 E13.99193
G1 X174.438 Y95.824 E14.06778
G1 X171.865 Y93.268 E14.1996
G1 X170.294 Y91.944 E14.27426
G1 X167.496 Y89.961 E14.39888
G1 X165.521 Y88.807 E14.48203
G1 X163.478 Y87.797 E14.56487
G1 X161.186 Y86.866 E14.65476
G1 X158.305 Y85.979 E14.76433
G1 X156.481 Y85.563 E14.83231
G1 X153.251 Y85.109 E14.95084
G1 X151.5 Y85.02 E15.01457
G1 X79.5 Y85.02 E17.63128
G1 X77.951 Y85.093 E17.68766
G1 X76.218 Y85.279 E17.751
G1 X72.856 Y85.938 E17.87548
G1 X69.814 Y86.866 E17.99109
G1 X67.523 Y87.797 E18.08098
G1 X65.479 Y88.807 E18.16381
G1 X63.695 Y89.841 E18.23876
G1 X61.712 Y91.181 E18.32574
G92 E0
G1 E-4.2 F3000
;WIPE_START
G1 F7200
G1 X61.656 Y91.219 E-4.22702
G1 X59.135 Y93.268 E-5.51268
G1 X58.423 Y93.975 E-5.91
;WIPE_END
G1 E-6 F3000
; acceleration to travel
M204 S1500
G1 X63.369 Y94.287 F9000
; decel to extrusion
M204 S500
G1 X63.974 Y94.325
; end travel
G1 E0 F3000
;WIDTH:0.576
G1 F1200
G1 X65.683 Y93.167 E0.09151
G1 X67.403 Y92.171 E0.17961
G1 X69.198 Y91.292 E0.26822
G1 X71.061 Y90.536 E0.35734
G1 X72.316 Y90.114 E0.41601
G1 X73.748 Y89.709 E0.482
G1 X75.204 Y89.378 E0.54818
G1 X76.664 Y89.129 E0.61381
G1 X78.155 Y88.964 E0.68032
G1 X79.662 Y88.892 E0.74719
G1 X81.155 Y88.921 E0.81338
G1 X81.926 Y88.978 E0.84766
G1 X83.26 Y89.155 E0.90728
G1 X84.593 Y89.441 E0.96772
G1 X85.947 Y89.852 E1.03047
G1 X87.21 Y90.354 E1.09068
G1 X88.141 Y90.805 E1.13654
G1 X89.038 Y91.314 E1.18226
G1 X90.131 Y92.036 E1.24033
G1 X91.174 Y92.836 E1.29858
G1 X92.171 Y93.702 E1.35713
G1 X93.097 Y94.598 E1.41423
G1 X93.971 Y95.527 E1.47078
G1 X94.805 Y96.493 E1.52733
G1 X95.597 Y97.483 E1.58355
G1 X96.361 Y98.514 E1.64041
G1 X97.857 Y100.751 E1.75972
G1 X99.218 Y103.071 E1.87893
G1 X100.445 Y105.449 E1.99755
G1 X101.549 Y107.901 E2.11673
G1 X102.277 Y109.749 E2.20477
G1 X102.82 Y111.305 E2.27783
G1 X103.405 Y113.253 E2.36796
G1 X103.884 Y115.25 E2.459
G1 X104.234 Y117.285 E2.55054
G1 X104.361 Y118.445 E2.60226
G1 X104.41 Y119.138 E2.63304
G1 X104.659 Y119.357 E2.64777
G1 X105.063 Y119.665 E2.67029
G1 X106.001 Y120.241 E2.71905
G1 X107.02 Y120.711 E2.76881
G1 X107.8 Y120.99 E2.80552
G1 X108.623 Y121.227 E2.8435
G1 X109.476 Y121.423 E2.88231
G1 X110.345 Y121.581 E2.92143
G1 X112.162 Y121.813 E3.00264
G1 X114.019 Y121.943 E3.08514
G1 X115.497 Y122.014 E3.15076
G1 X116.226 Y121.976 E3.18311
G1 X117.011 Y121.975 E3.21791
G1 X118.841 Y121.847 E3.29921
G1 X120.661 Y121.615 E3.38051
G1 X121.53 Y121.456 E3.4197
G1 X122.385 Y121.26 E3.45859
G1 X123.211 Y121.023 E3.49665
G1 X123.993 Y120.743 E3.53347
G1 X125.016 Y120.271 E3.5834
G1 X125.957 Y119.693 E3.63235
G1 X126.363 Y119.384 E3.65497
G1 X126.585 Y119.188 E3.66812
G1 X126.639 Y118.444 E3.70116
G1 X126.772 Y117.243 E3.75471
G1 X127.12 Y115.233 E3.84517
G1 X127.597 Y113.245 E3.93577
G1 X128.185 Y111.288 E4.02636
G1 X128.723 Y109.749 E4.09862
G1 X129.443 Y107.919 E4.1858
G1 X130.543 Y105.475 E4.30458
G1 X131.775 Y103.084 E4.42382
G1 X133.139 Y100.758 E4.54332
G1 X134.651 Y98.497 E4.66387
G1 X135.404 Y97.483 E4.71986
G1 X136.192 Y96.497 E4.77583
G1 X137.037 Y95.519 E4.83312
G1 X137.917 Y94.584 E4.89003
G1 X138.835 Y93.697 E4.94659
G1 X139.82 Y92.841 E5.00445
G1 X140.877 Y92.031 E5.06348
G1 X141.962 Y91.314 E5.12114
G1 X142.867 Y90.802 E5.16723
G1 X143.773 Y90.362 E5.21186
G1 X145.021 Y89.864 E5.27143
G1 X146.385 Y89.446 E5.33467
G1 X147.74 Y89.155 E5.3961
G1 X149.05 Y88.98 E5.45468
G1 X149.83 Y88.921 E5.48935
G1 X151.356 Y88.892 E5.55701
G1 X152.87 Y88.966 E5.6242
G1 X154.336 Y89.129 E5.68959
G1 X155.796 Y89.378 E5.75522
G1 X157.285 Y89.718 E5.82294
G1 X158.684 Y90.114 E5.88739
G1 X159.916 Y90.528 E5.94496
G1 X161.793 Y91.288 E6.03474
G1 X163.622 Y92.185 E6.12504
G1 X165.365 Y93.198 E6.2144
G1 X166.996 Y94.303 E6.30172
G1 X167.92 Y95.007 E6.35323
G1 X169.24 Y96.119 E6.42972
G1 X170.456 Y97.262 E6.50369
G1 X171.605 Y98.468 E6.57753
G1 X172.717 Y99.771 E6.65346
G1 X173.756 Y101.14 E6.72965
G1 X174.706 Y102.555 E6.80516
G1 X175.613 Y104.114 E6.88514
G1 X176.155 Y105.186 E6.93837
G1 X176.631 Y106.251 E6.99009
G1 X177.056 Y107.342 E7.04198
G1 X177.428 Y108.455 E7.094
G1 X177.743 Y109.578 E7.14568
G1 X178.007 Y110.725 E7.19789
G1 X178.225 Y111.938 E7.25252
G1 X178.463 Y114.02 E7.3454
G1 X178.546 Y116.143 E7.43958
G1 X178.465 Y118.471 E7.54283
G1 X178.22 Y120.767 E7.64515
G1 X177.808 Y123.064 E7.74862
G1 X177.261 Y125.229 E7.84761
G1 X177.053 Y125.915 E7.87936
G1 X176.518 Y127.455 E7.95165
G1 X176.055 Y128.6 E8.00636
G1 X175.55 Y129.708 E8.06034
G1 X175 Y130.788 E8.11409
G1 X174.408 Y131.831 E8.16725
G1 X173.779 Y132.829 E8.21952
G1 X173.102 Y133.798 E8.2719
G1 X172.374 Y134.736 E8.32455
G1 X171.578 Y135.656 E8.37849
G1 X170.509 Y136.747 E8.4462
G1 X169.345 Y137.776 E8.51504
G1 X168.107 Y138.715 E8.58391
G1 X166.774 Y139.567 E8.65403
G1 X165.77 Y140.112 E8.70467
G1 X164.744 Y140.589 E8.75482
G1 X163.72 Y140.992 E8.8036
G1 X162.636 Y141.345 E8.85416
G1 X161.051 Y141.734 E8.92648
G1 X159.662 Y141.956 E8.98884
G1 X158.282 Y142.077 E9.05022
G1 X156.912 Y142.11 E9.11096
G1 X155.533 Y142.062 E9.17216
G1 X154.167 Y141.942 E9.23292
G1 X152.171 Y141.647 E9.32236
G1 X150.198 Y141.233 E9.41171
G1 X148.423 Y140.762 E9.49309
G1 X146.689 Y140.221 E9.57363
G1 X145.004 Y139.623 E9.65288
G1 X143.335 Y138.965 E9.73243
G1 X141.182 Y138.012 E9.83676
G1 X139.07 Y136.956 E9.94144
G1 X137.013 Y135.799 E10.04605
G1 X135.047 Y134.544 E10.14942
G1 X133.698 Y133.575 E10.22305
G1 X132.356 Y132.488 E10.29961
G1 X131.177 Y131.394 E10.37091
G1 X130.792 Y130.992 E10.39557
G1 X121.007 Y130.966 E10.8293
G1 X109.988 Y130.966 E11.31773
G1 X100.208 Y130.992 E11.75119
G1 X99.823 Y131.394 E11.77586
G1 X98.644 Y132.488 E11.84715
G1 X97.332 Y133.552 E11.92201
G1 X95.953 Y134.544 E11.99734
G1 X93.98 Y135.803 E12.10105
G1 X91.924 Y136.96 E12.20562
G1 X89.829 Y138.007 E12.30945
G1 X87.686 Y138.956 E12.41336
G1 X86.005 Y139.62 E12.49346
G1 X84.296 Y140.226 E12.57382
G1 X82.56 Y140.767 E12.65446
G1 X80.802 Y141.233 E12.73505
G1 X78.829 Y141.647 E12.8244
G1 X76.872 Y141.937 E12.91209
G1 X75.446 Y142.063 E12.97557
G1 X74.087 Y142.11 E13.03583
G1 X72.726 Y142.078 E13.09617
G1 X71.329 Y141.955 E13.15836
G1 X69.895 Y141.723 E13.22273
G1 X68.383 Y141.35 E13.29174
G1 X67.288 Y140.995 E13.34281
G1 X66.225 Y140.576 E13.39341
G1 X65.208 Y140.101 E13.44319
G1 X64.218 Y139.562 E13.49316
G1 X62.902 Y138.721 E13.56238
G1 X61.663 Y137.783 E13.63127
G1 X60.498 Y136.754 E13.70014
G1 X59.411 Y135.644 E13.76903
G1 X58.622 Y134.73 E13.82255
G1 X57.898 Y133.797 E13.87487
G1 X57.225 Y132.834 E13.92697
G1 X56.586 Y131.82 E13.98008
G1 X55.986 Y130.761 E14.03403
G1 X55.437 Y129.681 E14.08774
G1 X54.938 Y128.584 E14.14118
G1 X54.489 Y127.474 E14.19423
G1 X53.95 Y125.925 E14.26692
G1 X53.746 Y125.254 E14.29803
G1 X53.183 Y123.027 E14.39986
G1 X52.777 Y120.747 E14.50247
G1 X52.533 Y118.452 E14.60481
G1 X52.454 Y116.104 E14.70894
G1 X52.536 Y114.03 E14.80093
G1 X52.77 Y111.973 E14.89271
G1 X52.997 Y110.706 E14.94975
G1 X53.259 Y109.571 E15.00138
G1 X53.574 Y108.449 E15.05306
G1 X53.946 Y107.336 E15.10508
G1 X54.374 Y106.239 E15.15725
G1 X54.848 Y105.18 E15.20868
G1 X55.387 Y104.114 E15.26163
G1 X56.308 Y102.532 E15.34278
G1 X57.249 Y101.133 E15.41748
G1 X58.269 Y99.789 E15.49229
G1 X59.395 Y98.468 E15.56924
G1 X60.545 Y97.262 E15.64308
G1 X61.765 Y96.114 E15.71737
G1 X63.06 Y95.024 E15.79238
G1 X63.926 Y94.362 E15.84072
G1 X64.252 Y94.789 F9000
G1 F1200
G1 X64.294 Y94.757 E15.84304
G1 X65.961 Y93.628 E15.93228
G1 X67.648 Y92.65 E16.01873
G1 X69.409 Y91.786 E16.10566
G1 X71.241 Y91.043 E16.19329
G1 X72.468 Y90.629 E16.25071
G1 X73.875 Y90.231 E16.31549
G1 X75.302 Y89.906 E16.38038
G1 X76.731 Y89.662 E16.44463
G1 X78.189 Y89.5 E16.50968
G1 X79.661 Y89.43 E16.57497
G1 X81.137 Y89.458 E16.64045
G1 X81.863 Y89.511 E16.67271
G1 X83.178 Y89.686 E16.7315
G1 X84.469 Y89.964 E16.79002
G1 X85.78 Y90.363 E16.85078
G1 X87.002 Y90.85 E16.90906
G1 X87.884 Y91.277 E16.95251
G1 X88.75 Y91.767 E16.99661
G1 X89.811 Y92.469 E17.05302
G1 X90.828 Y93.247 E17.10976
G1 X91.802 Y94.094 E17.16699
G1 X92.71 Y94.971 E17.22293
G1 X93.568 Y95.883 E17.27844
G1 X94.388 Y96.832 E17.33405
G1 X95.168 Y97.808 E17.3894
G1 X95.918 Y98.818 E17.44518
G1 X97.397 Y101.03 E17.56314
G1 X98.751 Y103.337 E17.68168
G1 X99.964 Y105.689 E17.79901
G1 X101.057 Y108.115 E17.91695
G1 X101.775 Y109.941 E18.0039
G1 X102.307 Y111.465 E18.07547
G1 X102.884 Y113.385 E18.16435
G1 X103.356 Y115.35 E18.25389
G1 X103.701 Y117.351 E18.34394
G1 X103.827 Y118.498 E18.39506
G1 X103.889 Y119.395 E18.43491
G1 X104.318 Y119.773 E18.46026
G1 X104.759 Y120.109 E18.48482
G1 X105.746 Y120.716 E18.53619
G1 X106.816 Y121.209 E18.58842
G1 X107.635 Y121.502 E18.62695
G1 X108.489 Y121.747 E18.66633
G1 X109.368 Y121.949 E18.70633
G1 X110.263 Y122.112 E18.74663
G1 X112.109 Y122.348 E18.82915
G1 X113.987 Y122.479 E18.91259
G1 X115.498 Y122.552 E18.97966
G1 X116.234 Y122.514 E19.01232
G1 X117.031 Y122.512 E19.04762
G1 X118.894 Y122.382 E19.13041
G1 X120.743 Y122.146 E19.21303
G1 X121.639 Y121.983 E19.25339
G1 X122.52 Y121.78 E19.29346
G1 X123.376 Y121.535 E19.33294
G1 X124.196 Y121.241 E19.37158
G1 X125.27 Y120.746 E19.42397
G1 X126.261 Y120.137 E19.47553
G1 X126.704 Y119.8 E19.5002
G1 X127.105 Y119.445 E19.52395
G1 X127.173 Y118.498 E19.56604
G1 X127.302 Y117.327 E19.61827
G1 X127.644 Y115.35 E19.70721
G1 X128.114 Y113.393 E19.79642
G1 X128.698 Y111.448 E19.88641
G1 X129.225 Y109.941 E19.9572
G1 X129.936 Y108.133 E20.04328
G1 X131.03 Y105.702 E20.16146
G1 X132.249 Y103.337 E20.27942
G1 X133.598 Y101.037 E20.39761
G1 X135.094 Y98.802 E20.51681
G1 X135.832 Y97.808 E20.5717
G1 X136.608 Y96.836 E20.62682
G1 X137.44 Y95.874 E20.68316
G1 X138.304 Y94.957 E20.73902
G1 X139.203 Y94.089 E20.79442
G1 X140.153 Y93.263 E20.85025
G1 X141.196 Y92.463 E20.9085
G1 X142.25 Y91.767 E20.96449
G1 X143.124 Y91.274 E21.00896
G1 X143.999 Y90.85 E21.05204
G1 X145.209 Y90.367 E21.10983
G1 X146.531 Y89.964 E21.17108
G1 X147.822 Y89.686 E21.22959
G1 X149.113 Y89.514 E21.28735
G1 X149.863 Y89.458 E21.32065
G1 X151.339 Y89.43 E21.38612
G1 X152.819 Y89.501 E21.45179
G1 X154.269 Y89.662 E21.51646
G1 X155.698 Y89.906 E21.58072
G1 X157.146 Y90.237 E21.64654
G1 X158.532 Y90.629 E21.71039
G1 X159.737 Y91.034 E21.76674
G1 X161.582 Y91.782 E21.85501
G1 X163.36 Y92.654 E21.94279
G1 X165.071 Y93.648 E22.03049
G1 X166.688 Y94.744 E22.11706
G1 X167.589 Y95.431 E22.16729
G1 X168.877 Y96.516 E22.24194
G1 X170.072 Y97.638 E22.3146
G1 X171.211 Y98.833 E22.38779
G1 X172.303 Y100.114 E22.46239
G1 X173.314 Y101.446 E22.53653
G1 X174.246 Y102.832 E22.61055
G1 X175.145 Y104.377 E22.68979
G1 X175.667 Y105.411 E22.74111
G1 X176.133 Y106.452 E22.79169
G1 X176.548 Y107.518 E22.84241
G1 X176.912 Y108.606 E22.89325
G1 X177.224 Y109.717 E22.94436
G1 X177.479 Y110.827 E22.99486
G1 X177.695 Y112.025 E23.04883
G1 X177.928 Y114.071 E23.14011
G1 X178.008 Y116.135 E23.23164
G1 X177.93 Y118.424 E23.33318
G1 X177.689 Y120.681 E23.43381
G1 X177.285 Y122.942 E23.53559
G1 X176.741 Y125.091 E23.63388
G1 X176.54 Y125.754 E23.66456
G1 X176.012 Y127.273 E23.73583
G1 X175.559 Y128.393 E23.7894
G1 X175.069 Y129.469 E23.84183
G1 X174.529 Y130.528 E23.89452
G1 X173.943 Y131.561 E23.94713
G1 X173.328 Y132.537 E23.99828
G1 X172.665 Y133.484 E24.04952
G1 X171.954 Y134.401 E24.10096
G1 X171.188 Y135.286 E24.15286
G1 X170.145 Y136.351 E24.21891
G1 X168.997 Y137.367 E24.28688
G1 X167.791 Y138.28 E24.35392
G1 X166.509 Y139.099 E24.42134
G1 X165.521 Y139.635 E24.47118
G1 X164.54 Y140.092 E24.51916
G1 X163.546 Y140.483 E24.5665
G1 X162.479 Y140.831 E24.61626
G1 X160.955 Y141.205 E24.6858
G1 X159.605 Y141.421 E24.7464
G1 X158.261 Y141.54 E24.8062
G1 X156.908 Y141.572 E24.86621
G1 X155.558 Y141.525 E24.92605
G1 X154.222 Y141.407 E24.98552
G1 X152.257 Y141.117 E25.07355
G1 X150.316 Y140.708 E25.16151
G1 X148.567 Y140.245 E25.2417
G1 X146.864 Y139.713 E25.32078
G1 X145.197 Y139.122 E25.39918
G1 X143.537 Y138.467 E25.47827
G1 X141.405 Y137.523 E25.5816
G1 X139.327 Y136.485 E25.68457
G1 X137.296 Y135.342 E25.78789
G1 X135.343 Y134.095 E25.89061
G1 X134.018 Y133.143 E25.9629
G1 X132.715 Y132.088 E26.03725
G1 X131.548 Y131.006 E26.10779
G1 X131.022 Y130.456 E26.14152
G1 X121.007 Y130.429 E26.58542
G1 X109.987 Y130.429 E27.07391
G1 X99.978 Y130.456 E27.51755
G1 X99.452 Y131.006 E27.55128
G1 X98.285 Y132.088 E27.62182
G1 X97 Y133.129 E27.69515
G1 X95.657 Y134.095 E27.76846
G1 X93.698 Y135.346 E27.87151
G1 X91.667 Y136.488 E27.97479
G1 X89.595 Y137.523 E28.07747
G1 X87.473 Y138.463 E28.18031
G1 X85.812 Y139.118 E28.25946
G1 X84.131 Y139.714 E28.33851
G1 X82.416 Y140.249 E28.41815
G1 X80.684 Y140.708 E28.49756
G1 X78.743 Y141.117 E28.58551
G1 X76.802 Y141.404 E28.6725
