; generated by SuperSlicer 2.4 on 2022-12-29 at 12:44:26 UTC

; 

; external perimeters extrusion width = 0.43mm
; perimeters extrusion width = 0.48mm
; infill extrusion width = 0.46mm
; solid infill extrusion width = 0.48mm
; top infill extrusion width = 0.46mm
; first layer extrusion width = 0.58mm

; object:{"name":"Tablet_Stand","id":"Tablet_Stand.stl id:0 copy 0","object_center":[116.492498,116.814315,0.000000],"boundingbox_center":[116.492498,116.814315,11.991701],"boundingbox_size":[120.586792,90.370583,23.983402]}
; Total objects to print: 1
M486 T1
; plater:{"center":[116.492498,116.814315,0.000000],"boundingbox_center":[116.492498,116.814315,11.991701],"boundingbox_size":[120.586792,90.370583,23.983402]}

;TYPE:Custom
G90 ; use absolute coordinates
M83 ; extruder relative mode
M140 S60 ; set final bed temp
M104 S150 ; set temporary nozzle temp to prevent oozing during homing and auto bed leveling
G4 S10 ; allow partial nozzle warmup
G28 ; home all axis
;G29 ; auto bed levelling
G1 Z10 F240
G1 X2 Y10 F3000
G1 Z0 F240
M104 S215 ; set final nozzle temp
M190 S60 ; wait for bed temp to stabilize
M109 S215 ; wait for nozzle temp to stabilize
G1 Z0.28 F240
G92 E0
G1 Y140 E10 F1500 ; prime the nozzle
G1 X2.3 F5000
G92 E0
G1 Y10 E10 F1200 ; prime the nozzle
G92 E0
;start
M107
G21 ; set units to millimeters
G90 ; use absolute coordinates
M82 ; use absolute distances for extrusion
G92 E0
; Filament gcode
;_TOOLCHANGE 0
M107
;LAYER_CHANGE
;Z:0.2
;HEIGHT:0.2
;BEFORE_LAYER_CHANGE
;0.2


G1 E-6 F3000
G1 Z0.15 F9000
;AFTER_LAYER_CHANGE
;0.2
G92 E0
M204 S500
G1 X87.715 Y69.413
G1 E6 F3000
;TYPE:Skirt
;WIDTH:0.48
G1 F1200
G1 X86.815 Y70.586 E6.05376
G1 X86.394 Y71.314 E6.0843
G1 X51.502 Y155.551 E9.398
G1 X51.285 Y156.363 E9.42853
G1 X51.092 Y157.83 E9.48229
G1 X51.092 Y158.67 E9.51283
G1 X51.285 Y160.136 E9.56659
G1 X51.502 Y160.948 E9.59712
G1 X52.068 Y162.314 E9.65088
G1 X52.488 Y163.042 E9.68142
G1 X53.389 Y164.216 E9.73518
G1 X53.983 Y164.81 E9.76572
G1 X55.157 Y165.71 E9.81948
G1 X55.884 Y166.13 E9.85001
G1 X57.251 Y166.696 E9.90377
G1 X58.062 Y166.914 E9.93431
G1 X59.825 Y167.118 E9.99878
G1 X170.223 Y167.118 E14.01103
G1 X172.116 Y166.947 E14.08011
G1 X174.342 Y166.337 E14.16399
G1 X176.406 Y165.304 E14.24786
G1 X178.228 Y163.888 E14.33173
G1 X179.74 Y162.144 E14.41561
G1 X180.882 Y160.138 E14.49948
G1 X181.61 Y157.949 E14.58336
G1 X181.898 Y155.659 E14.66723
G1 X181.734 Y153.357 E14.75111
G1 X181.123 Y151.131 E14.83498
G1 X180.09 Y149.068 E14.91885
G1 X178.734 Y147.318 E14.99932
G1 X100.458 Y69.02 E19.02304
G1 X99.068 Y67.918 E19.08751
G1 X98.34 Y67.498 E19.11804
G1 X96.973 Y66.932 E19.1718
G1 X96.162 Y66.715 E19.20234
G1 X94.695 Y66.522 E19.2561
G1 X93.855 Y66.522 E19.28663
G1 X92.389 Y66.715 E19.34039
G1 X91.577 Y66.932 E19.37093
G1 X90.21 Y67.498 E19.42469
G1 X89.483 Y67.918 E19.45523
G1 X88.309 Y68.819 E19.50899
G1 X87.757 Y69.371 E19.53734
G92 E0
G1 E-4.2 F3000
;WIPE_START
G1 F7200
G1 X86.815 Y70.586 E-4.80908
G1 X86.394 Y71.314 E-5.14167
G1 X85.652 Y73.107 E-5.91
;WIPE_END
G1 E-6 F3000
; acceleration to travel
M204 S1500
G1 X90.163 Y72.013 F9000
; decel to extrusion
M204 S500
G1 X90.714 Y71.879
; end travel
G1 E0 F3000
;WIDTH:0.576
G1 F1200
G1 X90.837 Y71.763 E0.00752
G1 X91.672 Y71.123 E0.05417
G1 X91.817 Y71.033 E0.06169
G1 X92.862 Y70.594 E0.11194
G1 X93.025 Y70.545 E0.1195
G1 X94.151 Y70.391 E0.16988
G1 X94.398 Y70.391 E0.18083
G1 X95.444 Y70.529 E0.2276
G1 X95.61 Y70.568 E0.23513
G1 X96.662 Y70.997 E0.28551
G1 X96.877 Y71.122 E0.29653
G1 X97.786 Y71.828 E0.34756
G1 X175.776 Y149.823 E5.2366
G1 X176.728 Y151.001 E5.30371
G1 X177.448 Y152.371 E5.37235
G1 X177.888 Y153.856 E5.44099
G1 X178.029 Y155.398 E5.50962
G1 X177.866 Y156.938 E5.57826
G1 X177.407 Y158.417 E5.6469
G1 X176.667 Y159.778 E5.71559
G1 X175.656 Y160.986 E5.78537
G1 X174.473 Y161.942 E5.85281
G1 X173.151 Y162.642 E5.91912
G1 X171.669 Y163.091 E5.98774
G1 X170.151 Y163.243 E6.05537
G1 X59.921 Y163.243 E10.94142
G1 X58.7 Y163.084 E10.996
G1 X58.537 Y163.035 E11.00355
G1 X57.562 Y162.631 E11.05032
G1 X57.349 Y162.508 E11.06123
G1 X56.511 Y161.865 E11.10801
G1 X56.361 Y161.719 E11.11732
G1 X55.693 Y160.853 E11.16578
G1 X55.603 Y160.708 E11.17334
G1 X55.164 Y159.663 E11.22359
G1 X55.115 Y159.5 E11.23115
G1 X54.962 Y158.376 E11.2814
G1 X54.956 Y158.206 E11.28896
G1 X55.099 Y157.078 E11.33935
G1 X55.163 Y156.84 E11.35029
G1 X55.568 Y155.862 E11.3972
G1 X55.691 Y155.648 E11.40814
G1 X56.388 Y154.75 E11.45852
G1 X56.511 Y154.634 E11.46604
G1 X57.349 Y153.991 E11.51282
G1 X57.562 Y153.868 E11.52376
G1 X58.615 Y153.438 E11.57414
G1 X58.78 Y153.399 E11.58168
G1 X59.833 Y153.261 E11.62874
G1 X158.699 Y153.256 E16.01107
G1 X160.571 Y148.737 E16.2279
G1 X90.655 Y78.81 E20.61101
G1 X90.019 Y77.982 E20.6573
G1 X89.929 Y77.838 E20.66482
G1 X89.489 Y76.79 E20.7152
G1 X89.425 Y76.551 E20.72615
G1 X89.287 Y75.502 E20.77305
G1 X89.287 Y75.255 E20.784
G1 X89.441 Y74.129 E20.83438
G1 X89.49 Y73.967 E20.8419
G1 X89.894 Y72.992 E20.88868
G1 X90.018 Y72.778 E20.89962
G1 X90.677 Y71.927 E20.94734
G1 X91.1 Y72.254 F9000
G1 F1200
G1 X91.176 Y72.181 E20.95202
G1 X91.988 Y71.558 E20.99737
G1 X92.078 Y71.503 E21.00204
G1 X93.055 Y71.096 E21.04895
G1 X93.156 Y71.067 E21.05362
G1 X94.205 Y70.926 E21.10053
G1 X94.346 Y70.926 E21.10676
G1 X95.36 Y71.06 E21.15211
G1 X95.462 Y71.085 E21.15678
G1 X96.441 Y71.488 E21.20369
G1 X96.563 Y71.558 E21.20992
G1 X97.418 Y72.22 E21.25789
G1 X175.368 Y150.173 E26.14434
G1 X176.265 Y151.275 E26.20736
G1 X176.941 Y152.551 E26.27133
G1 X177.355 Y153.933 E26.3353
G1 X177.491 Y155.37 E26.39927
G1 X177.345 Y156.806 E26.46324
G1 X176.921 Y158.185 E26.5272
G1 X176.236 Y159.455 E26.59117
G1 X175.297 Y160.585 E26.6563
G1 X174.198 Y161.479 E26.7191
G1 X172.923 Y162.155 E26.78307
G1 X171.54 Y162.569 E26.84704
G1 X170.138 Y162.706 E26.90948
G1 X59.938 Y162.706 E31.79418
G1 X58.83 Y162.562 E31.8437
G1 X58.729 Y162.533 E31.84838
G1 X57.784 Y162.141 E31.89373
G1 X57.662 Y162.071 E31.89996
G1 X56.85 Y161.448 E31.94531
G1 X56.774 Y161.375 E31.94999
G1 X56.128 Y160.537 E31.99689
G1 X56.073 Y160.447 E32.00157
G1 X55.666 Y159.47 E32.04847
G1 X55.637 Y159.369 E32.05315
G1 X55.496 Y158.32 E32.10005
G1 X55.494 Y158.214 E32.10473
G1 X55.63 Y157.165 E32.15163
G1 X55.666 Y157.029 E32.15786
G1 X56.058 Y156.084 E32.20321
G1 X56.128 Y155.962 E32.20944
G1 X56.774 Y155.124 E32.25635
G1 X56.85 Y155.051 E32.26102
G1 X57.662 Y154.428 E32.30637
G1 X57.784 Y154.358 E32.3126
G1 X58.762 Y153.955 E32.35951
G1 X58.865 Y153.93 E32.36418
G1 X59.885 Y153.796 E32.40982
G1 X159.058 Y153.794 E36.80574
G1 X161.205 Y148.611 E37.0544
G1 X91.07 Y78.469 E41.45109
G1 X90.454 Y77.666 E41.49595
G1 X90.399 Y77.576 E41.50063
G1 X89.992 Y76.599 E41.54753
G1 X89.956 Y76.464 E41.55376
G1 X89.822 Y75.449 E41.59911
G1 X89.822 Y75.309 E41.60534
G1 X89.963 Y74.26 E41.65224
G1 X89.992 Y74.159 E41.65692
G1 X90.384 Y73.213 E41.70227
G1 X90.454 Y73.092 E41.7085
G1 X91.063 Y72.301 E41.75275
G1 X91.488 Y72.627 F9000
G1 F1200
G1 X91.517 Y72.596 E41.75463
G1 X92.301 Y71.995 E41.79841
G1 X92.332 Y71.977 E41.79998
G1 X93.244 Y71.599 E41.84376
G1 X93.278 Y71.59 E41.84532
G1 X94.258 Y71.461 E41.88911
G1 X94.293 Y71.461 E41.89067
G1 X94.783 Y71.526 E41.91257
G1 X95.272 Y71.59 E41.93446
G1 X95.306 Y71.599 E41.93602
G1 X96.219 Y71.977 E41.97981
G1 X96.249 Y71.995 E41.98137
G1 X97.031 Y72.595 E42.02506
G1 X97.045 Y72.606 E42.02584
G1 X174.957 Y150.519 E46.90985
G1 X175.797 Y151.541 E46.9685
G1 X175.811 Y151.563 E46.96967
G1 X176.43 Y152.72 E47.0278
G1 X176.44 Y152.744 E47.02897
G1 X176.82 Y153.999 E47.08711
G1 X176.826 Y154.025 E47.08828
G1 X176.954 Y155.33 E47.14641
G1 X176.954 Y155.357 E47.14758
G1 X176.826 Y156.662 E47.20572
G1 X176.82 Y156.688 E47.20689
G1 X176.44 Y157.943 E47.26502
G1 X176.43 Y157.967 E47.26619
G1 X175.811 Y159.124 E47.32433
G1 X175.797 Y159.146 E47.3255
G1 X174.965 Y160.16 E47.38363
G1 X174.946 Y160.178 E47.3848
G1 X173.932 Y161.01 E47.44294
G1 X173.91 Y161.025 E47.44411
G1 X172.754 Y161.643 E47.50224
G1 X172.729 Y161.653 E47.50341
G1 X171.474 Y162.034 E47.56155
G1 X171.448 Y162.039 E47.56272
G1 X170.131 Y162.168 E47.62136
G1 X59.947 Y162.168 E52.50538
G1 X59.929 Y162.167 E52.50615
G1 X58.952 Y162.039 E52.54984
G1 X58.918 Y162.029 E52.55141
G1 X58.005 Y161.651 E52.59519
G1 X57.975 Y161.634 E52.59675
G1 X57.191 Y161.032 E52.64054
G1 X57.166 Y161.007 E52.6421
G1 X56.565 Y160.224 E52.68589
G1 X56.547 Y160.193 E52.68745
G1 X56.169 Y159.281 E52.73124
G1 X56.16 Y159.247 E52.7328
G1 X56.031 Y158.267 E52.77658
G1 X56.031 Y158.232 E52.77815
G1 X56.16 Y157.253 E52.82193
G1 X56.169 Y157.219 E52.82349
G1 X56.547 Y156.306 E52.86728
G1 X56.565 Y156.275 E52.86884
G1 X57.166 Y155.492 E52.91263
G1 X57.191 Y155.467 E52.91419
G1 X57.975 Y154.865 E52.95798
G1 X58.005 Y154.848 E52.95954
G1 X58.918 Y154.47 E53.00332
G1 X58.952 Y154.461 E53.00489
G1 X59.929 Y154.332 E53.04857
G1 X59.947 Y154.331 E53.04935
G1 X159.417 Y154.331 E57.45846
G1 X161.839 Y148.485 E57.73895
G1 X91.503 Y78.148 E62.14806
G1 X91.491 Y78.135 E62.14884
G1 X90.891 Y77.353 E62.19253
G1 X90.873 Y77.323 E62.19409
G1 X90.495 Y76.41 E62.23788
G1 X90.486 Y76.376 E62.23944
G1 X90.357 Y75.397 E62.28322
G1 X90.357 Y75.361 E62.28479
G1 X90.486 Y74.382 E62.32857
G1 X90.495 Y74.348 E62.33013
G1 X90.873 Y73.435 E62.37392
G1 X90.891 Y73.405 E62.37548
G1 X91.451 Y72.675 E62.41628
G92 E0
G1 E-4.2 F3000
;WIPE_START
G1 F7200
G1 X91.492 Y72.621 E-4.22664
G1 X91.517 Y72.596 E-4.24058
G1 X92.301 Y71.995 E-4.6316
G1 X92.332 Y71.977 E-4.64554
G1 X93.244 Y71.599 E-5.03656
G1 X93.278 Y71.59 E-5.05051
G1 X94.258 Y71.461 E-5.44153
G1 X94.293 Y71.461 E-5.45547
G1 X94.783 Y71.526 E-5.65098
G1 X95.272 Y71.59 E-5.84649
G1 X95.306 Y71.599 E-5.86043
G1 X95.422 Y71.647 E-5.91
;WIPE_END
G1 E-6 F3000
; printing object Tablet_Stand.stl id:0 copy 0
M486 S0
; acceleration to travel
M204 S1500
G1 X152.782 Y145.825 F9000
; decel to extrusion
M204 S500
G1 X159.789 Y154.888
; end travel
G1 E0 F3000
;TYPE:External perimeter
G1 F1200
G1 X162.496 Y148.354 E0.31347
G1 X91.916 Y77.774 E4.73784
G1 X91.367 Y77.058 E4.77784
G1 X91.031 Y76.248 E4.8167
G1 X90.917 Y75.379 E4.85556
G1 X91.031 Y74.51 E4.89443
G1 X91.367 Y73.7 E4.93329
G1 X91.9 Y73.004 E4.97216
G1 X92.596 Y72.47 E5.01102
G1 X93.406 Y72.135 E5.04988
G1 X94.275 Y72.02 E5.08875
G1 X94.71 Y72.078 E5.10818
G1 X95.145 Y72.135 E5.12761
G1 X95.955 Y72.47 E5.16648
G1 X96.67 Y73.02 E5.20648
G1 X174.549 Y150.898 E10.08835
G1 X175.34 Y151.862 E10.14365
G1 X175.919 Y152.945 E10.1981
G1 X176.276 Y154.121 E10.25255
G1 X176.396 Y155.343 E10.307
G1 X176.276 Y156.566 E10.36144
G1 X175.919 Y157.741 E10.4159
G1 X175.34 Y158.825 E10.47034
G1 X174.561 Y159.774 E10.52479
G1 X173.611 Y160.554 E10.57924
G1 X172.528 Y161.133 E10.63369
G1 X171.352 Y161.489 E10.68814
G1 X170.111 Y161.612 E10.74344
G1 X59.975 Y161.612 E15.62531
G1 X59.08 Y161.494 E15.66531
G1 X58.27 Y161.158 E15.70418
G1 X57.574 Y160.625 E15.74304
G1 X57.04 Y159.929 E15.78191
G1 X56.705 Y159.119 E15.82077
G1 X56.59 Y158.25 E15.85963
G1 X56.705 Y157.38 E15.8985
G1 X57.04 Y156.57 E15.93736
G1 X57.574 Y155.875 E15.97623
G1 X58.27 Y155.341 E16.01509
G1 X59.08 Y155.005 E16.05395
G1 X59.975 Y154.888 E16.09396
G1 X159.729 Y154.888 E20.51567
;WIPE_START
G1 X160.176 Y154.991 F9000
;WIPE_END
G1 X160.148 Y155.425
;TYPE:Internal perimeter
G1 F1200
G1 X163.13 Y148.228 E20.86096
G1 X92.321 Y77.419 E25.29969
G1 X91.836 Y76.787 E25.33499
G1 X91.555 Y76.108 E25.36758
G1 X91.459 Y75.379 E25.40017
G1 X91.555 Y74.65 E25.43277
G1 X91.836 Y73.971 E25.46536
G1 X92.284 Y73.387 E25.49795
G1 X92.867 Y72.94 E25.53054
G1 X93.546 Y72.658 E25.56314
G1 X94.275 Y72.562 E25.59573
G1 X94.64 Y72.61 E25.61202
G1 X95.004 Y72.658 E25.62832
G1 X95.684 Y72.94 E25.66091
G1 X96.315 Y73.425 E25.69622
G1 X174.15 Y151.259 E30.57536
G1 X174.891 Y152.162 E30.62714
G1 X175.42 Y153.152 E30.67689
G1 X175.746 Y154.226 E30.72665
G1 X175.856 Y155.343 E30.77641
G1 X175.746 Y156.461 E30.82617
G1 X175.42 Y157.535 E30.87593
G1 X174.891 Y158.525 E30.92568
G1 X174.179 Y159.393 E30.97544
G1 X173.311 Y160.105 E31.0252
G1 X172.321 Y160.634 E31.07496
G1 X171.247 Y160.96 E31.12472
G1 X170.084 Y161.074 E31.1765
G1 X60.01 Y161.074 E36.05564
G1 X59.22 Y160.97 E36.09094
G1 X58.541 Y160.689 E36.12353
G1 X57.957 Y160.241 E36.15612
G1 X57.51 Y159.658 E36.18872
G1 X57.228 Y158.979 E36.22131
G1 X57.132 Y158.25 E36.2539
G1 X57.228 Y157.521 E36.28649
G1 X57.51 Y156.841 E36.31909
G1 X57.957 Y156.258 E36.35168
G1 X58.541 Y155.81 E36.38427
G1 X59.22 Y155.529 E36.41686
G1 X60.01 Y155.425 E36.45217
G1 X160.088 Y155.425 E40.88823
G92 E0
G1 E-4.2 F3000
;WIPE_START
G1 F7200
G1 X161.77 Y151.446 E-5.91
;WIPE_END
G1 E-6 F3000
; acceleration to travel
M204 S1500
G1 X173.53 Y152.515 F9000
; decel to extrusion
M204 S500
G1 X174.967 Y152.646
; end travel
G1 E0 F3000
;TYPE:Solid infill
;WIDTH:0.574032
G1 F1200
G1 X95.991 Y73.67 E4.9338
G1 X95.486 Y73.282 E4.96192
G1 X94.902 Y73.041 E4.98983
G1 X94.589 Y72.999 E5.00379
G1 X94.556 Y72.995 E5.00525
G1 X175.14 Y153.579 E10.03948
G1 X175.359 Y154.303 E10.07292
G1 X175.387 Y154.586 E10.08549
G1 X93.819 Y73.018 E15.18122
G1 X93.649 Y73.041 E15.18881
G1 X93.248 Y73.207 E15.20799
G1 X175.455 Y155.414 E20.34364
G1 X175.387 Y156.106 E20.37435
G1 X92.781 Y73.5 E25.53489
G1 X92.563 Y73.667 E25.54701
G1 X92.4 Y73.879 E25.55883
G1 X175.254 Y156.733 E30.73483
G1 X175.077 Y157.316 E30.76174
G1 X92.106 Y74.345 E35.94511
G1 X91.937 Y74.752 E35.96461
G1 X91.915 Y74.914 E35.97182
G1 X174.822 Y157.821 E41.15117
G1 X174.556 Y158.315 E41.17595
G1 X91.89 Y75.649 E46.34027
G1 X91.937 Y76.006 E46.35618
G1 X92.179 Y76.59 E46.3841
G1 X92.534 Y77.053 E46.4099
G1 X174.213 Y158.732 E51.51256
G1 X173.9 Y159.114 E51.53437
G1 X173.864 Y159.143 E51.53641
G1 X163.377 Y148.656 E52.19158
G1 X163.154 Y149.193 E52.21728
G1 X173.447 Y159.486 E52.86028
G1 X173.092 Y159.777 E52.88056
G1 X173.018 Y159.817 E52.88427
G1 X162.932 Y149.73 E53.51437
G1 X162.709 Y150.268 E53.54007
G1 X172.523 Y160.081 E54.15314
G1 X172.17 Y160.27 E54.17079
G1 X172.002 Y160.321 E54.17855
G1 X162.487 Y150.805 E54.773
G1 X162.264 Y151.343 E54.7987
G1 X171.419 Y160.498 E55.37063
G1 X171.17 Y160.573 E55.38213
G1 X170.774 Y160.612 E55.39972
G1 X162.041 Y151.88 E55.94524
G1 X161.819 Y152.417 E55.97093
G1 X170.082 Y160.68 E56.48714
G1 X169.324 Y160.682 E56.52064
G1 X161.596 Y152.955 E57.00338
G1 X161.374 Y153.492 E57.02907
G1 X168.564 Y160.682 E57.47824
G1 X167.804 Y160.682 E57.51181
G1 X161.151 Y154.029 E57.92741
G1 X160.929 Y154.567 E57.9531
G1 X167.044 Y160.682 E58.33513
G1 X166.284 Y160.682 E58.3687
G1 X160.706 Y155.104 E58.71715
G1 X160.483 Y155.642 E58.74285
G1 X165.524 Y160.682 E59.05773
G1 X164.764 Y160.682 E59.0913
G1 X159.899 Y155.817 E59.39521
G1 X159.139 Y155.817 E59.42878
G1 X164.004 Y160.682 E59.73269
G1 X163.244 Y160.682 E59.76626
G1 X158.379 Y155.817 E60.07017
G1 X157.619 Y155.817 E60.10374
G1 X162.484 Y160.682 E60.40765
G1 X161.724 Y160.682 E60.44122
G1 X156.859 Y155.817 E60.74513
G1 X156.099 Y155.817 E60.7787
G1 X160.964 Y160.682 E61.08261
G1 X160.204 Y160.682 E61.11618
G1 X155.339 Y155.817 E61.42009
G1 X154.579 Y155.817 E61.45366
G1 X159.444 Y160.682 E61.75757
G1 X158.684 Y160.682 E61.79114
G1 X153.819 Y155.817 E62.09505
G1 X153.059 Y155.817 E62.12862
G1 X157.924 Y160.682 E62.43253
G1 X157.164 Y160.682 E62.46611
G1 X152.3 Y155.817 E62.77001
G1 X151.54 Y155.817 E62.80359
G1 X156.404 Y160.682 E63.10749
G1 X155.644 Y160.682 E63.14107
G1 X150.78 Y155.817 E63.44497
G1 X150.02 Y155.817 E63.47855
G1 X154.884 Y160.682 E63.78245
G1 X154.124 Y160.682 E63.81603
G1 X149.26 Y155.817 E64.11993
G1 X148.5 Y155.817 E64.15351
G1 X153.364 Y160.682 E64.45741
G1 X152.604 Y160.682 E64.49099
G1 X147.74 Y155.817 E64.79489
G1 X146.98 Y155.817 E64.82847
G1 X151.845 Y160.682 E65.13238
G1 X151.085 Y160.682 E65.16595
G1 X146.22 Y155.817 E65.46986
G1 X145.46 Y155.817 E65.50343
G1 X150.325 Y160.682 E65.80734
G1 X149.565 Y160.682 E65.84091
G1 X144.7 Y155.817 E66.14482
G1 X143.94 Y155.817 E66.17839
G1 X148.805 Y160.682 E66.4823
G1 X148.045 Y160.682 E66.51587
G1 X143.18 Y155.817 E66.81978
