; generated by SuperSlicer 2.4 on 2023-01-08 at 18:18:10 UTC

; 

; external perimeters extrusion width = 0.43mm
; perimeters extrusion width = 0.48mm
; infill extrusion width = 0.46mm
; solid infill extrusion width = 0.48mm
; top infill extrusion width = 0.46mm
; first layer extrusion width = 0.58mm

; external perimeters extrusion width = 0.43mm
; perimeters extrusion width = 0.48mm
; infill extrusion width = 0.46mm
; solid infill extrusion width = 0.48mm
; top infill extrusion width = 0.46mm
; first layer extrusion width = 0.58mm

; external perimeters extrusion width = 0.43mm
; perimeters extrusion width = 0.48mm
; infill extrusion width = 0.46mm
; solid infill extrusion width = 0.48mm
; top infill extrusion width = 0.46mm
; first layer extrusion width = 0.58mm

; external perimeters extrusion width = 0.43mm
; perimeters extrusion width = 0.48mm
; infill extrusion width = 0.46mm
; solid infill extrusion width = 0.48mm
; top infill extrusion width = 0.46mm
; first layer extrusion width = 0.58mm

; external perimeters extrusion width = 0.43mm
; perimeters extrusion width = 0.48mm
; infill extrusion width = 0.46mm
; solid infill extrusion width = 0.48mm
; top infill extrusion width = 0.46mm
; first layer extrusion width = 0.58mm

; external perimeters extrusion width = 0.43mm
; perimeters extrusion width = 0.48mm
; infill extrusion width = 0.46mm
; solid infill extrusion width = 0.48mm
; top infill extrusion width = 0.46mm
; first layer extrusion width = 0.58mm

; object:{"name":"s_shaped_cable_clip","id":"s_shaped_cable_clip.stl id:0 copy 0","object_center":[42.085850,29.783900,0.000000],"boundingbox_center":[42.085850,29.783900,2.774595],"boundingbox_size":[35.884761,13.688001,5.549190]}
; object:{"name":"s_shaped_cable_clip","id":"s_shaped_cable_clip.stl id:1 copy 0","object_center":[41.588613,49.915127,0.000000],"boundingbox_center":[41.588613,49.915127,2.774595],"boundingbox_size":[35.884761,13.688001,5.549190]}
; object:{"name":"s_shaped_cable_clip","id":"s_shaped_cable_clip.stl id:2 copy 0","object_center":[83.736406,51.001981,0.000000],"boundingbox_center":[83.736406,51.001981,2.774595],"boundingbox_size":[35.884761,13.688001,5.549190]}
; object:{"name":"s_shaped_cable_clip","id":"s_shaped_cable_clip.stl id:3 copy 0","object_center":[82.023189,30.961010,0.000000],"boundingbox_center":[82.023189,30.961010,2.774595],"boundingbox_size":[35.884761,13.688001,5.549190]}
; object:{"name":"s_shaped_cable_clip","id":"s_shaped_cable_clip.stl id:4 copy 0","object_center":[123.083933,51.757793,0.000000],"boundingbox_center":[123.083933,51.757793,2.774595],"boundingbox_size":[35.884761,13.688001,5.549190]}
; object:{"name":"s_shaped_cable_clip","id":"s_shaped_cable_clip.stl id:5 copy 0","object_center":[121.481092,31.093454,0.000000],"boundingbox_center":[121.481092,31.093454,2.774595],"boundingbox_size":[35.884761,13.688001,5.549190]}
; Total objects to print: 6
M486 T6
; plater:{"center":[82.336273,40.770846,0.000000],"boundingbox_center":[82.336273,40.770846,2.774595],"boundingbox_size":[117.380081,35.661894,5.549190]}

;TYPE:Custom
G90 ; use absolute coordinates
M83 ; extruder relative mode
M140 S60 ; set final bed temp
M104 S150 ; set temporary nozzle temp to prevent oozing during homing and auto bed leveling
G4 S10 ; allow partial nozzle warmup
G28 ; home all axis
;G29 ; auto bed levelling
G1 Z10 F240
G1 X2 Y10 F3000
G1 Z0 F240
M104 S210 ; set final nozzle temp
M190 S60 ; wait for bed temp to stabilize
M109 S210 ; wait for nozzle temp to stabilize
G1 Z0.28 F240
G92 E0
G1 Y100 E7.1 F1500 ; prime the nozzle
G1 X2.3 F5000
G92 E0
G1 Y10 E10 F1200 ; prime the nozzle
G92 E0
;start
M107
G21 ; set units to millimeters
G90 ; use absolute coordinates
M82 ; use absolute distances for extrusion
G92 E0
; Filament gcode
;_TOOLCHANGE 0
M107
;LAYER_CHANGE
;Z:0.2
;HEIGHT:0.2
;BEFORE_LAYER_CHANGE
;0.2


G1 E-7 F3000
G1 Z0.15 F9000
;AFTER_LAYER_CHANGE
;0.2
G92 E0
G1 Z0.65
M204 S500
G1 X24.393 Y22.936
G1 Z0.15
G1 E7 F3000
;TYPE:Skirt
;WIDTH:0.48
G1 F1200
G1 X23.417 Y24.033 E7.05337
G1 X22.901 Y24.784 E7.08649
G1 X22.072 Y26.48 E7.15509
G1 X21.73 Y27.619 E7.19832
G1 X21.492 Y29.316 E7.26059
G1 X20.982 Y49.835 E8.00654
G1 X21.135 Y51.607 E8.07118
G1 X21.347 Y52.523 E8.10537
G1 X21.736 Y53.627 E8.1479
G1 X22.261 Y54.678 E8.19059
G1 X22.923 Y55.671 E8.23395
G1 X23.732 Y56.602 E8.27881
G1 X24.605 Y57.381 E8.32131
G1 X25.655 Y58.098 E8.36753
G1 X26.873 Y58.708 E8.41702
G1 X28.352 Y59.178 E8.47342
G1 X30.1 Y59.414 E8.53753
G1 X72.248 Y60.501 E10.06983
G1 X111.617 Y61.257 E11.50089
G1 X134.646 Y61.254 E12.33786
G1 X136.229 Y61.041 E12.39591
G1 X137.668 Y60.602 E12.4506
G1 X138.92 Y60 E12.50107
G1 X139.925 Y59.335 E12.54487
G1 X141.03 Y58.352 E12.59863
G1 X142.033 Y57.122 E12.6563
G1 X142.636 Y56.109 E12.69915
G1 X143.183 Y54.819 E12.75007
G1 X143.608 Y52.996 E12.81811
G1 X143.675 Y51.202 E12.88336
G1 X142.042 Y30.167 E13.65014
G1 X141.878 Y29.112 E13.68894
G1 X141.528 Y27.892 E13.73505
G1 X141.037 Y26.748 E13.78029
G1 X140.448 Y25.756 E13.82224
G1 X139.564 Y24.643 E13.8739
G1 X138.652 Y23.778 E13.91959
G1 X137.709 Y23.089 E13.96202
G1 X136.594 Y22.478 E14.00821
G1 X135.454 Y22.031 E14.05273
G1 X134.061 Y21.703 E14.10474
G1 X132.939 Y21.594 E14.14569
G1 X53.544 Y20.284 E17.03157
G1 X42.087 Y20.275 E17.44798
G1 X30.663 Y20.281 E17.86316
G1 X29.458 Y20.4 E17.90716
G1 X27.943 Y20.778 E17.96392
G1 X27.088 Y21.114 E17.9973
G1 X26.041 Y21.664 E18.04028
G1 X25.073 Y22.339 E18.08316
G1 X24.438 Y22.897 E18.11387
G92 E0
G1 E-4.9 F3000
;WIPE_START
G1 F7200
G1 X23.417 Y24.033 E-5.50481
G1 X22.901 Y24.784 E-5.8656
G1 X22.072 Y26.48 E-6.61271
G1 X21.867 Y27.163 E-6.895
;WIPE_END
G1 E-7 F3000
G1 Z0.65 F9000
; printing object s_shaped_cable_clip.stl id:0 copy 0
M486 S0
; acceleration to travel
M204 S1500
G1 X49.527 Y24.841
; decel to extrusion
M204 S500
G1 X52.907 Y24.558
; end travel
G1 Z0.15
G1 E0 F3000
;TYPE:Internal perimeter
;WIDTH:0.576
G1 F1200
G1 X52.941 Y24.473 E0.00406
G1 X53.002 Y24.399 E0.00831
G1 X53.108 Y24.328 E0.01398
G1 X53.58 Y24.328 E0.0349
G1 X53.435 Y24.727 E0.05373
G1 X53.402 Y24.776 E0.05635
G1 X53.321 Y24.843 E0.06101
G1 X53.25 Y24.873 E0.06442
G1 X53.169 Y24.881 E0.068
G1 X53.102 Y24.869 E0.07106
G1 X53.044 Y24.843 E0.07387
G1 X52.972 Y24.78 E0.07812
G1 X52.916 Y24.689 E0.08283
G1 X52.911 Y24.617 E0.08601
G92 E0
G1 E-4.9 F3000
;WIPE_START
G1 F7200
G1 X52.941 Y24.473 E-4.95848
G1 X53.002 Y24.399 E-4.99642
G1 X53.108 Y24.328 E-5.04708
G1 X53.58 Y24.328 E-5.23393
G1 X53.435 Y24.727 E-5.40209
G1 X53.402 Y24.776 E-5.42543
G1 X53.321 Y24.843 E-5.46709
G1 X53.25 Y24.873 E-5.49751
G1 X53.169 Y24.881 E-5.52952
G1 X53.102 Y24.869 E-5.55678
G1 X53.044 Y24.843 E-5.58195
G1 X52.972 Y24.78 E-5.61991
G1 X52.916 Y24.689 E-5.66193
G1 X52.911 Y24.617 E-5.69036
;WIPE_END
G1 E-7 F3000
G1 Z0.65 F9000
; acceleration to travel
M204 S1500
G1 X33.505 Y33.621
; decel to extrusion
M204 S500
G1 X31.134 Y34.721
; end travel
G1 Z0.15
G1 E0 F3000
G1 F1200
G1 X31.229 Y34.815 E0.00589
G1 X31.259 Y34.909 E0.01028
G1 X31.263 Y34.978 E0.01334
G1 X31.246 Y35.064 E0.0172
G1 X31.212 Y35.125 E0.02031
G1 X31.143 Y35.199 E0.02479
G1 X31.021 Y35.237 E0.03046
G1 X30.593 Y35.241 E0.04944
G1 X30.748 Y34.811 E0.06968
G1 X30.851 Y34.725 E0.07562
G1 X30.949 Y34.683 E0.08034
G1 X31.032 Y34.689 E0.08405
G1 X31.077 Y34.703 E0.08615
G92 E0
G1 E-4.9 F3000
;WIPE_START
G1 F7200
G1 X31.229 Y34.815 E-4.9745
G1 X31.259 Y34.909 E-5.01374
G1 X31.263 Y34.978 E-5.04104
G1 X31.246 Y35.064 E-5.07554
G1 X31.212 Y35.125 E-5.10326
G1 X31.143 Y35.199 E-5.14332
G1 X31.021 Y35.237 E-5.19398
G1 X30.593 Y35.241 E-5.36347
G1 X30.748 Y34.811 E-5.54417
G1 X30.851 Y34.725 E-5.59718
G1 X30.949 Y34.683 E-5.6394
G1 X31.032 Y34.689 E-5.67251
G1 X31.077 Y34.703 E-5.69122
;WIPE_END
G1 E-7 F3000
G1 Z0.65 F9000
; acceleration to travel
M204 S1500
G1 X36.389 Y32.182
; decel to extrusion
M204 S500
G1 X37.038 Y31.873
; end travel
G1 Z0.15
G1 E0 F3000
;TYPE:External perimeter
G1 F1200
G1 X37.281 Y32.384 E0.02506
G1 X37.567 Y32.857 E0.04957
G1 X37.934 Y33.333 E0.0762
G1 X38.345 Y33.766 E0.10265
G1 X38.616 Y34.004 E0.11866
G1 X39.056 Y34.331 E0.14295
G1 X39.574 Y34.637 E0.16962
G1 X40.124 Y34.883 E0.19634
G1 X40.696 Y35.066 E0.22296
G1 X41.231 Y35.179 E0.24718
G1 X41.589 Y35.225 E0.26319
G1 X42.185 Y35.246 E0.28963
G1 X42.736 Y35.212 E0.31409
G1 X43.33 Y35.108 E0.34081
G1 X43.905 Y34.94 E0.36735
G1 X44.24 Y34.808 E0.38334
G1 X44.733 Y34.568 E0.40763
G1 X45.243 Y34.247 E0.43434
G1 X45.713 Y33.871 E0.46101
G1 X46.102 Y33.487 E0.48523
G1 X46.339 Y33.215 E0.50123
G1 X46.686 Y32.73 E0.5277
G1 X46.961 Y32.251 E0.55216
G1 X47.203 Y31.7 E0.57883
G1 X47.382 Y31.13 E0.60533
G1 X47.459 Y30.778 E0.62132
G1 X47.532 Y30.234 E0.6456
G1 X47.548 Y29.633 E0.67228
G1 X47.498 Y29.034 E0.69894
G1 X47.394 Y28.497 E0.72317
G1 X47.3 Y28.148 E0.73916
G1 X47.088 Y27.589 E0.7657
G1 X46.817 Y27.053 E0.79231
G1 X46.519 Y26.588 E0.81679
G1 X46.143 Y26.123 E0.84332
G1 X45.891 Y25.865 E0.85928
G1 X45.482 Y25.503 E0.88351
G1 X44.99 Y25.155 E0.91019
G1 X44.463 Y24.864 E0.93688
G1 X43.959 Y24.653 E0.96112
G1 X43.617 Y24.538 E0.97709
G1 X43.034 Y24.403 E1.00365
G1 X42.438 Y24.333 E1.03023
G1 X41.886 Y24.321 E1.05468
G1 X41.586 Y24.348 E1.06804
G1 X41.29 Y24.375 E1.08123
G1 X40.935 Y24.439 E1.09722
G1 X40.405 Y24.581 E1.12152
G1 X39.844 Y24.797 E1.1482
G1 X39.309 Y25.074 E1.1749
G1 X38.852 Y25.379 E1.19925
G1 X38.571 Y25.603 E1.2152
G1 X38.136 Y26.01 E1.2416
G1 X37.778 Y26.425 E1.2659
G1 X37.567 Y26.716 E1.28182
G1 X37.281 Y27.183 E1.30608
G1 X37.022 Y27.727 E1.33278
G1 X36.83 Y28.294 E1.35931
G1 X36.745 Y28.643 E1.37526
G1 X36.656 Y29.183 E1.39952
G1 X36.623 Y29.784 E1.4262
G1 X36.658 Y30.384 E1.45284
G1 X36.745 Y30.924 E1.47705
G1 X36.829 Y31.274 E1.49301
G1 X37.015 Y31.818 E1.51851
;WIPE_START
G1 X36.799 Y32.194 F9000
;WIPE_END
G92 E0
G1 E-4.9 F3000
;WIPE_START
G1 F7200
G1 X37.104 Y32.479 E-5.0652
G1 X37.402 Y32.97 E-5.29254
G1 X37.782 Y33.463 E-5.53888
G1 X38.206 Y33.91 E-5.78268
G1 X38.49 Y34.16 E-5.93248
G1 X38.945 Y34.498 E-6.15681
G1 X39.482 Y34.815 E-6.40366
G1 X40.053 Y35.07 E-6.65119
G1 X40.64 Y35.257 E-6.895
;WIPE_END
G1 E-7 F3000
G1 Z0.65 F9000
; acceleration to travel
M204 S1500
G1 X38.875 Y25.958
; decel to extrusion
M204 S500
G1 X38.66 Y24.822
; end travel
G1 Z0.15
G1 E0 F3000
G1 F1200
G1 X38.474 Y24.32 E0.02372
G1 X30.977 Y24.322 E0.35602
G1 X30.391 Y24.354 E0.38205
G1 X29.801 Y24.451 E0.40854
G1 X29.225 Y24.612 E0.43504
G1 X28.671 Y24.834 E0.46152
G1 X28.186 Y25.092 E0.48586
G1 X27.692 Y25.427 E0.51233
G1 X27.239 Y25.81 E0.53861
G1 X26.986 Y26.064 E0.55449
G1 X26.636 Y26.48 E0.5786
G1 X26.301 Y26.974 E0.60506
G1 X26.037 Y27.485 E0.63055
G1 X25.819 Y28.038 E0.65688
G1 X25.647 Y28.636 E0.68446
G1 X25.559 Y29.177 E0.70876
G1 X25.522 Y29.773 E0.73524
G1 X25.555 Y30.372 E0.76184
G1 X25.665 Y31.009 E0.79048
G1 X25.812 Y31.531 E0.81453
G1 X25.918 Y31.822 E0.82824
G1 X26.17 Y32.358 E0.85452
G1 X26.45 Y32.823 E0.87858
G1 X26.657 Y33.115 E0.89444
G1 X27.043 Y33.566 E0.92075
G1 X27.443 Y33.941 E0.94505
G1 X27.914 Y34.301 E0.97135
G1 X28.218 Y34.491 E0.98723
G1 X28.698 Y34.744 E1.01129
G1 X29.251 Y34.964 E1.03766
G1 X30.039 Y35.191 E1.07401
G1 X30.256 Y34.593 E1.10223
G1 X30.369 Y34.427 E1.11112
G1 X30.568 Y34.261 E1.1226
G1 X30.778 Y34.172 E1.13271
G1 X30.955 Y34.145 E1.14066
G1 X31.136 Y34.158 E1.1487
G1 X31.334 Y34.221 E1.15792
G1 X31.487 Y34.314 E1.16586
G1 X31.634 Y34.461 E1.17508
G1 X31.728 Y34.614 E1.18303
G1 X31.791 Y34.809 E1.19211
G1 X31.804 Y35.017 E1.20136
G1 X31.756 Y35.25 E1.21192
G1 X31.652 Y35.441 E1.22153
G1 X31.513 Y35.592 E1.23064
G1 X31.355 Y35.697 E1.23905
G1 X31.104 Y35.774 E1.25067
G1 X30.693 Y35.777 E1.26889
G1 X30.112 Y35.72 E1.29478
G1 X29.537 Y35.608 E1.32075
G1 X28.974 Y35.438 E1.34681
G1 X28.655 Y35.313 E1.362
G1 X28.172 Y35.086 E1.38566
G1 X27.671 Y34.788 E1.41148
G1 X27.199 Y34.439 E1.43752
G1 X26.761 Y34.045 E1.46363
G1 X26.525 Y33.798 E1.47877
G1 X26.152 Y33.341 E1.5049
G1 X25.828 Y32.853 E1.53085
G1 X25.58 Y32.388 E1.55424
G1 X25.24 Y31.517 E1.59566
G1 X25.1 Y30.949 E1.62159
G1 X25.014 Y30.369 E1.64761
G1 X24.985 Y29.781 E1.6737
G1 X24.996 Y29.439 E1.68888
G1 X25.049 Y28.909 E1.71248
G1 X25.163 Y28.334 E1.73845
G1 X25.332 Y27.772 E1.76445
G1 X25.554 Y27.231 E1.79039
G1 X25.828 Y26.715 E1.8163
G1 X26.153 Y26.227 E1.84229
G1 X26.523 Y25.774 E1.8682
G1 X26.98 Y25.323 E1.89666
G1 X27.41 Y24.968 E1.92139
G1 X27.918 Y24.626 E1.94854
G1 X28.435 Y24.351 E1.97447
G1 X28.977 Y24.129 E2.00046
G1 X29.537 Y23.96 E2.02639
G1 X30.112 Y23.845 E2.05238
G1 X30.695 Y23.787 E2.07832
G1 X42.377 Y23.794 E2.59613
G1 X43.012 Y23.855 E2.62441
G1 X43.53 Y23.958 E2.64783
G1 X43.858 Y24.05 E2.66293
G1 X44.359 Y24.229 E2.68652
G1 X44.67 Y24.366 E2.70159
G1 X45.14 Y24.618 E2.72522
G1 X45.428 Y24.8 E2.74031
G1 X45.858 Y25.115 E2.76395
G1 X46.116 Y25.336 E2.779
G1 X46.53 Y25.749 E2.80493
G1 X46.868 Y26.158 E2.82842
G1 X47.066 Y26.435 E2.84352
G1 X47.343 Y26.89 E2.86713
G1 X47.499 Y27.192 E2.88224
G1 X47.707 Y27.682 E2.90583
G1 X47.819 Y28.004 E2.92092
G1 X47.952 Y28.519 E2.94451
G1 X48.015 Y28.854 E2.95959
G1 X48.078 Y29.438 E2.98566
G1 X48.087 Y29.778 E3.00072
G1 X48.065 Y30.308 E3.02421
G1 X47.986 Y30.888 E3.05018
G1 X47.914 Y31.219 E3.0652
G1 X47.763 Y31.731 E3.08883
G1 X47.643 Y32.049 E3.10393
G1 X47.421 Y32.534 E3.12756
G1 X47.256 Y32.832 E3.14265
G1 X46.966 Y33.278 E3.16624
G1 X46.76 Y33.55 E3.18134
G1 X46.408 Y33.948 E3.20489
G1 X46.125 Y34.224 E3.22243
G1 X45.513 Y34.744 E3.25802
G1 X45.697 Y35.247 E3.28177
G1 X53.19 Y35.249 E3.61389
G1 X53.488 Y35.24 E3.62712
G1 X54.029 Y35.183 E3.65123
G1 X54.66 Y35.044 E3.67986
G1 X55.175 Y34.871 E3.70397
G1 X55.504 Y34.731 E3.71981
G1 X55.986 Y34.476 E3.74396
G1 X56.481 Y34.141 E3.77046
G1 X56.952 Y33.733 E3.79809
G1 X57.342 Y33.318 E3.82335
G1 X57.71 Y32.846 E3.84984
G1 X57.991 Y32.38 E3.87397
G1 X58.15 Y32.06 E3.8898
G1 X58.351 Y31.56 E3.91372
G1 X58.455 Y31.218 E3.92957
G1 X58.572 Y30.687 E3.95366
G1 X58.639 Y30.097 E3.97997
G1 X58.646 Y29.739 E3.99583
G1 X58.617 Y29.197 E4.01992
G1 X58.519 Y28.607 E4.04643
G1 X58.358 Y28.031 E4.07291
G1 X58.135 Y27.477 E4.09941
G1 X57.854 Y26.95 E4.12588
G1 X57.517 Y26.455 E4.1524
G1 X57.128 Y26.005 E4.17881
G1 X56.931 Y25.814 E4.19096
G1 X56.729 Y25.625 E4.20323
G1 X56.214 Y25.236 E4.23184
G1 X55.741 Y24.954 E4.25621
G1 X55.201 Y24.714 E4.28242
G1 X54.919 Y24.604 E4.29584
G1 X54.134 Y24.379 E4.33204
G1 X53.916 Y24.975 E4.36016
G1 X53.803 Y25.14 E4.36906
G1 X53.604 Y25.306 E4.38055
G1 X53.384 Y25.4 E4.39116
G1 X53.149 Y25.422 E4.40161
G1 X52.944 Y25.387 E4.41085
G1 X52.749 Y25.3 E4.42029
G1 X52.555 Y25.129 E4.43175
G1 X52.432 Y24.927 E4.44223
G1 X52.384 Y24.781 E4.44906
G1 X52.367 Y24.552 E4.45923
G1 X52.392 Y24.397 E4.4662
G1 X52.474 Y24.195 E4.47583
G1 X52.637 Y23.995 E4.48729
G1 X52.835 Y23.865 E4.49777
G1 X52.989 Y23.808 E4.50507
G1 X53.084 Y23.791 E4.50934
G1 X53.477 Y23.79 E4.52677
G1 X54.063 Y23.848 E4.55288
G1 X54.4 Y23.907 E4.56806
G1 X54.917 Y24.037 E4.59167
G1 X55.194 Y24.133 E4.60464
G1 X55.468 Y24.232 E4.61759
G1 X55.998 Y24.481 E4.64354
G1 X56.501 Y24.782 E4.6695
G1 X56.976 Y25.132 E4.69565
G1 X57.234 Y25.355 E4.71077
G1 X57.649 Y25.773 E4.73688
G1 X57.987 Y26.185 E4.76051
G1 X58.185 Y26.464 E4.77568
G1 X58.488 Y26.971 E4.80183
G1 X58.614 Y27.233 E4.81474
G1 X58.735 Y27.498 E4.82764
G1 X58.931 Y28.051 E4.85366
G1 X59.072 Y28.62 E4.87965
G1 X59.152 Y29.147 E4.90329
G1 X59.18 Y29.488 E4.91845
G1 X59.18 Y30.076 E4.94451
G1 X59.122 Y30.66 E4.9705
G1 X59.009 Y31.234 E4.99646
G1 X58.839 Y31.797 E5.02254
G1 X58.714 Y32.117 E5.03772
G1 X58.487 Y32.598 E5.06131
G1 X58.187 Y33.102 E5.08733
G1 X57.84 Y33.573 E5.11324
G1 X57.445 Y34.011 E5.13937
G1 X57.198 Y34.246 E5.15451
G1 X56.742 Y34.618 E5.18059
G1 X56.253 Y34.942 E5.20659
G1 X55.783 Y35.194 E5.2302
G1 X55.471 Y35.333 E5.24535
G1 X54.916 Y35.531 E5.27147
G1 X54.399 Y35.66 E5.29509
G1 X54.062 Y35.721 E5.31029
G1 X53.529 Y35.776 E5.33405
G1 X53.178 Y35.787 E5.34959
G1 X41.792 Y35.779 E5.85431
G1 X41.452 Y35.752 E5.8694
G1 X40.93 Y35.675 E5.89282
G1 X40.311 Y35.518 E5.92114
