; generated by SuperSlicer 2.4 on 2022-11-29 at 15:09:15 UTC

; 

; external perimeters extrusion width = 0.43mm
; perimeters extrusion width = 0.48mm
; infill extrusion width = 0.46mm
; solid infill extrusion width = 0.48mm
; top infill extrusion width = 0.46mm
; first layer extrusion width = 0.58mm

; object:{"name":"Cone","id":"Cone.stl id:0 copy 0","object_center":[115.500000,115.500000,0.000000],"boundingbox_center":[115.500000,115.500000,15.983788],"boundingbox_size":[29.813445,29.806153,31.967575]}
; Total objects to print: 1
M486 T1
; plater:{"center":[115.500000,115.500000,0.000000],"boundingbox_center":[115.500000,115.500000,15.983788],"boundingbox_size":[29.813445,29.806153,31.967575]}

;TYPE:Custom
G90 ; use absolute coordinates
M83 ; extruder relative mode
M140 S60 ; set final bed temp
M104 S150 ; set temporary nozzle temp to prevent oozing during homing and auto bed leveling
G4 S10 ; allow partial nozzle warmup
G28 ; home all axis
;G29 ; auto bed levelling
G1 Z10 F240
G1 X2 Y10 F3000
G1 Z0 F240
M104 S215 ; set final nozzle temp
M190 S60 ; wait for bed temp to stabilize
M109 S215 ; wait for nozzle temp to stabilize
G1 Z0.32 F240
G92 E0
G1 Y140 E10 F1500 ; prime the nozzle
G1 X2.3 F5000
G92 E0
G1 Y10 E10 F1200 ; prime the nozzle
G92 E0
;start
M107
G21 ; set units to millimeters
G90 ; use absolute coordinates
M82 ; use absolute distances for extrusion
G92 E0
; Filament gcode
;_TOOLCHANGE 0
M107
;LAYER_CHANGE
;Z:0.2
;HEIGHT:0.2
;BEFORE_LAYER_CHANGE
;0.2


G1 E-9 F3600
G1 Z0.15 F9000
;AFTER_LAYER_CHANGE
;0.2
G92 E0
M204 S500
G1 X100.987 Y101.784
G1 E9 F2400
;TYPE:Skirt
;WIDTH:0.48
G1 F1200
G1 X100.816 Y101.954 E9.00876
G1 X99.676 Y103.305 E9.073
G1 X98.396 Y105.202 E9.15616
G1 X97.776 Y106.282 E9.20141
G1 X97.141 Y107.622 E9.25531
G1 X96.517 Y109.275 E9.31954
G1 X96.041 Y110.977 E9.38377
G1 X95.717 Y112.715 E9.448
G1 X95.539 Y114.666 E9.51923
G1 X95.539 Y116.334 E9.57982
G1 X95.717 Y118.285 E9.65104
G1 X96.041 Y120.023 E9.71528
G1 X96.517 Y121.725 E9.77951
G1 X97.141 Y123.378 E9.84374
G1 X97.776 Y124.718 E9.89763
G1 X98.66 Y126.249 E9.96187
G1 X99.676 Y127.695 E10.0261
G1 X100.816 Y129.046 E10.09033
G1 X102.07 Y130.29 E10.15456
G1 X103.658 Y131.59 E10.22913
G1 X105.127 Y132.574 E10.29336
G1 X106.676 Y133.424 E10.35759
G1 X108.295 Y134.133 E10.42183
G1 X109.97 Y134.697 E10.48606
G1 X111.688 Y135.111 E10.55029
G1 X113.153 Y135.34 E10.60418
G1 X114.916 Y135.469 E10.66842
G1 X116.683 Y135.443 E10.73265
G1 X118.722 Y135.216 E10.80722
G1 X120.452 Y134.854 E10.87145
G1 X122.143 Y134.341 E10.93568
G1 X123.522 Y133.796 E10.98957
G1 X125.108 Y133.016 E11.05381
G1 X126.619 Y132.098 E11.11804
G1 X128.042 Y131.05 E11.18227
G1 X129.367 Y129.881 E11.2465
G1 X130.584 Y128.599 E11.31074
G1 X131.848 Y126.983 E11.3853
G1 X132.799 Y125.493 E11.44954
G1 X133.614 Y123.925 E11.51377
G1 X134.447 Y121.794 E11.59694
G1 X134.815 Y120.604 E11.64218
G1 X135.14 Y119.158 E11.69608
G1 X135.387 Y117.407 E11.76031
G1 X135.477 Y115.642 E11.82454
G1 X135.387 Y113.593 E11.89911
G1 X135.14 Y111.842 E11.96334
G1 X134.74 Y110.121 E12.02758
G1 X134.189 Y108.442 E12.09181
G1 X133.492 Y106.817 E12.15604
G1 X132.655 Y105.261 E12.22027
G1 X131.683 Y103.785 E12.2845
G1 X130.584 Y102.401 E12.34874
G1 X129.571 Y101.318 E12.40263
G1 X128.262 Y100.13 E12.46686
G1 X126.854 Y99.062 E12.5311
G1 X125.357 Y98.123 E12.59533
G1 X123.782 Y97.32 E12.65956
G1 X122.143 Y96.659 E12.72379
G1 X120.452 Y96.146 E12.78802
G1 X118.441 Y95.74 E12.86259
G1 X116.683 Y95.557 E12.92682
G1 X114.916 Y95.531 E12.99106
G1 X113.436 Y95.629 E13.04495
G1 X111.688 Y95.889 E13.10918
G1 X109.97 Y96.303 E13.17341
G1 X108.295 Y96.867 E13.23765
G1 X106.676 Y97.576 E13.30188
G1 X105.127 Y98.426 E13.36611
G1 X103.43 Y99.58 E13.44068
G1 X102.07 Y100.71 E13.50491
G1 X101.029 Y101.742 E13.5582
G92 E0
G1 E-6.3 F3600
;WIPE_START
G1 F7200
G1 X100.816 Y101.954 E-6.44305
G1 X99.676 Y103.305 E-7.28256
G1 X98.396 Y105.202 E-8.36953
G1 X97.877 Y106.107 E-8.865
;WIPE_END
G1 E-9 F3600
; acceleration to travel
M204 S1500
G1 X103.125 Y104.649 F9000
; decel to extrusion
M204 S500
G1 X103.767 Y104.471
; end travel
G1 E0 F2400
;WIDTH:0.576
G1 F1200
G1 X104.778 Y103.485 E0.06262
G1 X105.891 Y102.578 E0.12628
G1 X107.04 Y101.798 E0.18782
G1 X108.252 Y101.12 E0.24938
G1 X109.551 Y100.536 E0.31251
G1 X110.932 Y100.058 E0.37727
G1 X112.338 Y99.71 E0.44149
G1 X113.746 Y99.492 E0.50463
G1 X115.12 Y99.401 E0.56565
G1 X115.636 Y99.41 E0.58854
G1 X116.592 Y99.434 E0.63092
G1 X117.948 Y99.584 E0.69142
G1 X119.345 Y99.863 E0.75454
G1 X120.723 Y100.267 E0.81822
G1 X122.038 Y100.784 E0.88085
G1 X123.324 Y101.425 E0.94452
G1 X124.537 Y102.172 E1.00768
G1 X125.699 Y103.038 E1.0719
G1 X126.777 Y104.005 E1.13611
G1 X127.749 Y105.047 E1.19927
G1 X128.632 Y106.18 E1.26293
G1 X129.386 Y107.345 E1.32447
G1 X130.037 Y108.572 E1.38602
G1 X130.592 Y109.884 E1.44916
G1 X131.033 Y111.251 E1.51284
G1 X131.348 Y112.641 E1.576
G1 X131.54 Y114.077 E1.64022
G1 X131.603 Y115.524 E1.70444
G1 X131.538 Y116.948 E1.76759
G1 X131.345 Y118.371 E1.83125
G1 X131.039 Y119.725 E1.89279
G1 X130.617 Y121.048 E1.95434
G1 X130.068 Y122.362 E2.01748
G1 X129.399 Y123.633 E2.08116
G1 X128.625 Y124.83 E2.14432
G1 X127.734 Y125.972 E2.20854
G1 X126.76 Y127.012 E2.2717
G1 X125.68 Y127.978 E2.3359
G1 X124.537 Y128.828 E2.39905
G1 X123.324 Y129.575 E2.46221
G1 X122.038 Y130.216 E2.52589
G1 X120.712 Y130.736 E2.58901
G1 X119.381 Y131.129 E2.65055
G1 X118.02 Y131.405 E2.71211
G1 X116.592 Y131.566 E2.77578
G1 X115.168 Y131.6 E2.83894
G1 X113.746 Y131.508 E2.90209
G1 X112.315 Y131.285 E2.96631
G1 X110.909 Y130.935 E3.03053
G1 X109.552 Y130.464 E3.09419
G1 X108.285 Y129.897 E3.15573
G1 X107.071 Y129.221 E3.21728
G1 X105.892 Y128.423 E3.28042
G1 X104.778 Y127.515 E3.3441
G1 X103.767 Y126.529 E3.40672
G1 X102.83 Y125.44 E3.4704
G1 X101.988 Y124.261 E3.5346
G1 X101.267 Y123.032 E3.59777
G1 X100.647 Y121.723 E3.66198
G1 X100.155 Y120.385 E3.72515
G1 X99.781 Y118.998 E3.78883
G1 X99.534 Y117.596 E3.85195
G1 X99.414 Y116.244 E3.91211
G1 X99.397 Y115.482 E3.94589
G1 X99.414 Y114.756 E3.97807
G1 X99.534 Y113.404 E4.03823
G1 X99.781 Y112.002 E4.10135
G1 X100.155 Y110.615 E4.16503
G1 X100.647 Y109.278 E4.22819
G1 X101.267 Y107.968 E4.2924
G1 X102.001 Y106.719 E4.35662
G1 X102.83 Y105.56 E4.41978
G1 X103.727 Y104.516 E4.48079
G1 X104.134 Y104.866 F9000
G1 F1200
G1 X104.15 Y104.847 E4.48188
G1 X105.127 Y103.894 E4.54239
G1 X106.203 Y103.015 E4.60395
G1 X107.313 Y102.261 E4.66341
G1 X108.504 Y101.595 E4.72393
G1 X109.761 Y101.031 E4.78497
G1 X111.073 Y100.577 E4.84653
G1 X112.433 Y100.239 E4.90863
G1 X113.793 Y100.028 E4.96967
G1 X115.144 Y99.938 E5.02965
G1 X115.625 Y99.947 E5.05099
G1 X116.544 Y99.969 E5.09175
G1 X117.878 Y100.117 E5.15121
G1 X119.228 Y100.387 E5.21225
G1 X120.56 Y100.779 E5.27381
G1 X121.83 Y101.28 E5.33432
G1 X123.073 Y101.9 E5.39589
G1 X124.245 Y102.623 E5.45693
G1 X125.368 Y103.461 E5.51902
G1 X126.393 Y104.38 E5.58006
G1 X127.333 Y105.387 E5.6411
G1 X128.187 Y106.482 E5.70267
G1 X128.917 Y107.608 E5.76213
G1 X129.557 Y108.814 E5.82264
G1 X130.092 Y110.082 E5.88368
G1 X130.518 Y111.404 E5.94525
G1 X130.821 Y112.748 E6.00629
G1 X131.006 Y114.136 E6.06838
G1 X131.066 Y115.512 E6.12942
G1 X131.004 Y116.888 E6.19046
G1 X130.818 Y118.264 E6.25203
G1 X130.524 Y119.573 E6.31149
G1 X130.109 Y120.873 E6.372
G1 X129.577 Y122.143 E6.43304
G1 X128.929 Y123.372 E6.4946
G1 X128.181 Y124.528 E6.55565
G1 X127.318 Y125.631 E6.61774
G1 X126.376 Y126.636 E6.67878
G1 X125.349 Y127.554 E6.73982
G1 X124.245 Y128.377 E6.80086
G1 X123.073 Y129.1 E6.8619
G1 X121.83 Y129.72 E6.92347
G1 X120.549 Y130.224 E6.9845
G1 X119.262 Y130.605 E7.04396
G1 X117.925 Y130.876 E7.10448
G1 X116.544 Y131.031 E7.16604
G1 X115.168 Y131.063 E7.22708
G1 X113.793 Y130.972 E7.28812
G1 X112.409 Y130.756 E7.35022
G1 X111.073 Y130.423 E7.41126
G1 X109.761 Y129.969 E7.47282
G1 X108.536 Y129.421 E7.53228
G1 X107.343 Y128.757 E7.5928
G1 X106.203 Y127.985 E7.65383
G1 X105.127 Y127.106 E7.7154
G1 X104.15 Y126.153 E7.77591
G1 X103.246 Y125.099 E7.83748
G1 X102.445 Y123.978 E7.89852
G1 X101.747 Y122.791 E7.95956
G1 X101.147 Y121.525 E8.02165
G1 X100.671 Y120.233 E8.08269
G1 X100.308 Y118.893 E8.14426
G1 X100.068 Y117.537 E8.2053
G1 X99.95 Y116.205 E8.26454
G1 X99.934 Y115.488 E8.29634
G1 X99.95 Y114.795 E8.32708
G1 X100.068 Y113.463 E8.38633
G1 X100.308 Y112.107 E8.44737
G1 X100.671 Y110.767 E8.50893
G1 X101.147 Y109.475 E8.56997
G1 X101.736 Y108.23 E8.63101
G1 X102.445 Y107.022 E8.69311
G1 X103.246 Y105.901 E8.75414
G1 X104.095 Y104.911 E8.81197
G1 X104.502 Y105.259 F9000
G1 F1200
G1 X104.53 Y105.227 E8.81387
G1 X105.472 Y104.306 E8.87227
G1 X106.501 Y103.463 E8.93121
G1 X107.6 Y102.715 E8.99014
G1 X108.761 Y102.067 E9.04907
G1 X109.974 Y101.524 E9.10801
G1 X111.231 Y101.09 E9.16694
G1 X112.521 Y100.769 E9.22587
G1 X113.847 Y100.563 E9.28533
G1 X115.162 Y100.475 E9.34374
G1 X115.613 Y100.485 E9.36375
G1 X116.491 Y100.504 E9.40267
G1 X117.812 Y100.65 E9.4616
G1 X119.116 Y100.913 E9.52054
G1 X120.391 Y101.289 E9.57947
G1 X121.638 Y101.782 E9.63893
G1 X122.827 Y102.378 E9.69786
G1 X123.958 Y103.077 E9.75679
G1 X125.023 Y103.873 E9.81573
G1 X126.013 Y104.76 E9.87466
G1 X126.913 Y105.722 E9.93306
G1 X127.733 Y106.769 E9.992
G1 X128.456 Y107.885 E10.05093
G1 X129.079 Y109.06 E10.10986
G1 X129.595 Y110.285 E10.1688
G1 X130.001 Y111.551 E10.22773
G1 X130.295 Y112.86 E10.28719
G1 X130.47 Y114.178 E10.34612
G1 X130.529 Y115.506 E10.40505
G1 X130.47 Y116.822 E10.46346
G1 X130.295 Y118.14 E10.52239
G1 X130.004 Y119.437 E10.58133
G1 X129.599 Y120.704 E10.64026
G1 X129.079 Y121.94 E10.69972
G1 X128.456 Y123.115 E10.75865
G1 X127.733 Y124.231 E10.81758
G1 X126.913 Y125.278 E10.87652
G1 X126.004 Y126.248 E10.93545
G1 X125.013 Y127.134 E10.99438
G1 X123.948 Y127.93 E11.05332
G1 X122.816 Y128.628 E11.11225
G1 X121.628 Y129.223 E11.17118
G1 X120.391 Y129.711 E11.23011
G1 X119.127 Y130.084 E11.28852
G1 X117.824 Y130.348 E11.34745
G1 X116.503 Y130.495 E11.40638
G1 X115.173 Y130.525 E11.46532
G1 X113.847 Y130.437 E11.52425
G1 X112.521 Y130.231 E11.58371
G1 X111.231 Y129.91 E11.64264
G1 X109.974 Y129.476 E11.70158
G1 X108.771 Y128.938 E11.75998
G1 X107.61 Y128.291 E11.81892
G1 X106.511 Y127.544 E11.87785
G1 X105.481 Y126.702 E11.93678
G1 X104.53 Y125.773 E11.99571
G1 X103.665 Y124.763 E12.05465
G1 X102.887 Y123.671 E12.1141
G1 X102.214 Y122.524 E12.17304
G1 X101.645 Y121.322 E12.23197
G1 X101.188 Y120.086 E12.29038
G1 X100.839 Y118.804 E12.34931
G1 X100.604 Y117.495 E12.40824
G1 X100.486 Y116.162 E12.46755
G1 X100.471 Y115.497 E12.49704
G1 X100.486 Y114.838 E12.52627
G1 X100.604 Y113.505 E12.58558
G1 X100.839 Y112.196 E12.64452
G1 X101.188 Y110.914 E12.70345
G1 X101.65 Y109.667 E12.76238
G1 X102.219 Y108.465 E12.82131
G1 X102.893 Y107.319 E12.88025
G1 X103.658 Y106.246 E12.93865
G1 X104.463 Y105.305 E12.99355
; printing object Cone.stl id:0 copy 0
M486 S0
G1 X104.886 Y105.667 F9000
;TYPE:External perimeter
G1 F1200
G1 X104.933 Y105.612 E12.99676
G1 X105.848 Y104.717 E13.05351
G1 X106.839 Y103.906 E13.11025
G1 X107.898 Y103.186 E13.167
G1 X109.016 Y102.562 E13.22375
G1 X110.185 Y102.04 E13.2805
G1 X111.395 Y101.623 E13.33725
G1 X112.637 Y101.314 E13.394
G1 X113.902 Y101.117 E13.45075
G1 X115.18 Y101.032 E13.5075
G1 X115.601 Y101.041 E13.52616
G1 X116.46 Y101.06 E13.56424
G1 X117.732 Y101.201 E13.62099
G1 X118.987 Y101.455 E13.67774
G1 X120.215 Y101.818 E13.73449
G1 X121.406 Y102.288 E13.79124
G1 X122.55 Y102.862 E13.84799
G1 X123.64 Y103.534 E13.90474
G1 X124.665 Y104.301 E13.96148
G1 X125.619 Y105.154 E14.01823
G1 X126.494 Y106.089 E14.07498
G1 X127.283 Y107.098 E14.13173
G1 X127.979 Y108.172 E14.18848
G1 X128.578 Y109.303 E14.24523
G1 X129.074 Y110.484 E14.30198
G1 X129.465 Y111.703 E14.35873
G1 X129.746 Y112.952 E14.41548
G1 X129.915 Y114.221 E14.47222
G1 X129.972 Y115.5 E14.52897
G1 X129.915 Y116.779 E14.58572
G1 X129.746 Y118.048 E14.64247
G1 X129.465 Y119.297 E14.69922
G1 X129.074 Y120.516 E14.75597
G1 X128.578 Y121.697 E14.81272
G1 X127.979 Y122.828 E14.86946
G1 X127.283 Y123.902 E14.92621
G1 X126.494 Y124.911 E14.98296
G1 X125.619 Y125.846 E15.03971
G1 X124.665 Y126.699 E15.09646
G1 X123.64 Y127.466 E15.15321
G1 X122.55 Y128.138 E15.20996
G1 X121.406 Y128.712 E15.26671
G1 X120.215 Y129.182 E15.32345
G1 X118.987 Y129.545 E15.3802
G1 X117.732 Y129.799 E15.43695
G1 X116.46 Y129.94 E15.4937
G1 X115.18 Y129.968 E15.55045
G1 X113.902 Y129.883 E15.6072
G1 X112.637 Y129.686 E15.66395
G1 X111.395 Y129.377 E15.72069
G1 X110.185 Y128.96 E15.77744
G1 X109.016 Y128.438 E15.83419
G1 X107.898 Y127.814 E15.89094
G1 X106.839 Y127.094 E15.94769
G1 X105.848 Y126.283 E16.00444
G1 X104.933 Y125.388 E16.06119
G1 X104.101 Y124.415 E16.11794
G1 X103.357 Y123.373 E16.17468
G1 X102.709 Y122.269 E16.23143
G1 X102.161 Y121.112 E16.28818
G1 X101.717 Y119.911 E16.34493
G1 X101.381 Y118.676 E16.40168
G1 X101.156 Y117.415 E16.45843
G1 X101.042 Y116.136 E16.51537
G1 X101.028 Y115.5 E16.54356
G1 X101.042 Y114.864 E16.57175
G1 X101.156 Y113.585 E16.62869
G1 X101.381 Y112.324 E16.68544
G1 X101.717 Y111.089 E16.74219
G1 X102.161 Y109.888 E16.79894
G1 X102.709 Y108.731 E16.85568
G1 X103.357 Y107.627 E16.91243
G1 X104.101 Y106.585 E16.96918
G1 X104.847 Y105.713 E17.02006
;WIPE_START
G1 X105.279 Y105.74 F9000
;WIPE_END
G1 X105.422 Y105.886
;TYPE:Internal perimeter
G1 F1200
G1 X106.207 Y105.118 E17.06876
G1 X107.161 Y104.337 E17.1234
G1 X108.18 Y103.644 E17.17804
G1 X109.257 Y103.043 E17.23268
G1 X110.382 Y102.54 E17.28732
G1 X111.548 Y102.139 E17.34196
G1 X112.744 Y101.841 E17.3966
G1 X113.962 Y101.651 E17.45124
G1 X115.192 Y101.57 E17.50588
G1 X115.589 Y101.578 E17.52349
G1 X116.424 Y101.597 E17.56052
G1 X117.649 Y101.733 E17.61516
G1 X118.858 Y101.977 E17.6698
G1 X120.04 Y102.326 E17.72444
G1 X121.186 Y102.779 E17.77908
G1 X122.288 Y103.332 E17.83372
G1 X123.337 Y103.979 E17.88836
G1 X124.325 Y104.717 E17.943
G1 X125.243 Y105.539 E17.99763
G1 X126.085 Y106.439 E18.05227
G1 X126.845 Y107.41 E18.10691
G1 X127.515 Y108.444 E18.16155
G1 X128.092 Y109.534 E18.21619
G1 X128.57 Y110.67 E18.27083
G1 X128.946 Y111.844 E18.32547
G1 X129.216 Y113.047 E18.38011
G1 X129.379 Y114.269 E18.43475
G1 X129.434 Y115.5 E18.48939
G1 X129.379 Y116.731 E18.54403
G1 X129.216 Y117.953 E18.59867
G1 X128.946 Y119.156 E18.65331
G1 X128.57 Y120.33 E18.70795
G1 X128.092 Y121.466 E18.76259
G1 X127.515 Y122.556 E18.81723
G1 X126.845 Y123.59 E18.87187
G1 X126.085 Y124.561 E18.9265
G1 X125.243 Y125.461 E18.98114
G1 X124.325 Y126.283 E19.03578
G1 X123.337 Y127.021 E19.09042
G1 X122.288 Y127.668 E19.14506
G1 X121.186 Y128.221 E19.1997
G1 X120.04 Y128.674 E19.25434
G1 X118.858 Y129.023 E19.30898
G1 X117.649 Y129.267 E19.36362
G1 X116.424 Y129.403 E19.41826
G1 X115.192 Y129.43 E19.4729
G1 X113.962 Y129.349 E19.52754
G1 X112.744 Y129.159 E19.58218
G1 X111.548 Y128.861 E19.63682
G1 X110.382 Y128.46 E19.69146
G1 X109.257 Y127.957 E19.7461
G1 X108.18 Y127.356 E19.80074
G1 X107.161 Y126.663 E19.85538
G1 X106.207 Y125.882 E19.91001
G1 X105.326 Y125.02 E19.96465
G1 X104.524 Y124.084 E20.01929
G1 X103.809 Y123.08 E20.07393
G1 X103.184 Y122.017 E20.12857
G1 X102.657 Y120.903 E20.18321
G1 X102.229 Y119.747 E20.23785
G1 X101.906 Y118.558 E20.29249
G1 X101.689 Y117.344 E20.34713
G1 X101.579 Y116.106 E20.40222
G1 X101.566 Y115.5 E20.4291
G1 X101.579 Y114.894 E20.45597
G1 X101.689 Y113.656 E20.51106
G1 X101.906 Y112.442 E20.5657
G1 X102.229 Y111.253 E20.62034
G1 X102.657 Y110.097 E20.67498
G1 X103.184 Y108.983 E20.72962
G1 X103.809 Y107.92 E20.78426
G1 X104.524 Y106.916 E20.8389
G1 X105.326 Y105.98 E20.89354
G1 X105.379 Y105.928 E20.89682
G92 E0
G1 E-6.3 F3600
;WIPE_START
G1 F7200
G1 X106.207 Y105.118 E-6.85039
G1 X107.161 Y104.337 E-7.4359
G1 X108.18 Y103.644 E-8.02142
G1 X109.257 Y103.043 E-8.60695
G1 X109.753 Y102.821 E-8.865
;WIPE_END
G1 E-9 F3600
; acceleration to travel
M204 S1500
G1 X124.991 Y107.186 F9000
; decel to extrusion
M204 S500
G1 X126.853 Y107.719
; end travel
G1 E0 F2400
;TYPE:Solid infill
;WIDTH:0.57747
G1 F1200
G1 X124.826 Y105.692 E0.12737
G1 X124.076 Y105.021 E0.17212
