; generated by SuperSlicer 2.4 on 2022-11-29 at 15:13:33 UTC

; 

; external perimeters extrusion width = 0.43mm
; perimeters extrusion width = 0.48mm
; infill extrusion width = 0.46mm
; solid infill extrusion width = 0.48mm
; top infill extrusion width = 0.46mm
; first layer extrusion width = 0.58mm

; object:{"name":"D10","id":"D10.stl id:0 copy 0","object_center":[115.500000,115.502477,0.000000],"boundingbox_center":[115.500000,115.502477,11.757248],"boundingbox_size":[33.182935,26.163878,23.514495]}
; Total objects to print: 1
M486 T1
; plater:{"center":[115.500000,115.502477,0.000000],"boundingbox_center":[115.500000,115.502477,11.757248],"boundingbox_size":[33.182935,26.163878,23.514495]}

;TYPE:Custom
G90 ; use absolute coordinates
M83 ; extruder relative mode
M140 S60 ; set final bed temp
M104 S150 ; set temporary nozzle temp to prevent oozing during homing and auto bed leveling
G4 S10 ; allow partial nozzle warmup
G28 ; home all axis
;G29 ; auto bed levelling
G1 Z10 F240
G1 X2 Y10 F3000
G1 Z0 F240
M104 S215 ; set final nozzle temp
M190 S60 ; wait for bed temp to stabilize
M109 S215 ; wait for nozzle temp to stabilize
G1 Z0.32 F240
G92 E0
G1 Y140 E10 F1500 ; prime the nozzle
G1 X2.3 F5000
G92 E0
G1 Y10 E10 F1200 ; prime the nozzle
G92 E0
;start
M107
G21 ; set units to millimeters
G90 ; use absolute coordinates
M82 ; use absolute distances for extrusion
G92 E0
; Filament gcode
;_TOOLCHANGE 0
M107
;LAYER_CHANGE
;Z:0.2
;HEIGHT:0.2
;BEFORE_LAYER_CHANGE
;0.2


G1 E-9 F3600
G1 Z0.15 F9000
;AFTER_LAYER_CHANGE
;0.2
G92 E0
M204 S500
G1 X100.536 Y103.839
G1 E9 F2400
;TYPE:Skirt
;WIDTH:0.48
G1 F1200
G1 X99.408 Y104.93 E9.05701
G1 X98.986 Y106.575 E9.11874
G1 X99.353 Y108.234 E9.18046
G1 X110.675 Y131.547 E10.12239
G1 X112.366 Y133.238 E10.20928
G1 X113.902 Y133.985 E10.27136
G1 X115.44 Y134.352 E10.32883
G1 X117.098 Y133.985 E10.39055
G1 X118.634 Y133.238 E10.45263
G1 X120.325 Y131.547 E10.53952
G1 X131.647 Y108.234 E11.48145
G1 X131.955 Y105.983 E11.564
G1 X131.272 Y104.428 E11.62573
G1 X129.96 Y103.35 E11.68745
G1 X117.101 Y97.086 E12.20728
G1 X115.557 Y96.717 E12.26498
G1 X113.899 Y97.086 E12.3267
G1 X101.04 Y103.35 E12.84653
G1 X100.579 Y103.797 E12.86989
G1 X100.848 Y104.093 F9000
G1 F1200
G1 X99.893 Y104.961 E12.91677
G1 X99.427 Y106.483 E12.97463
G1 X99.746 Y108.043 E13.03249
G1 X111.069 Y131.356 E13.97442
G1 X112.557 Y132.845 E14.05092
G1 X114.093 Y133.592 E14.113
G1 X115.347 Y133.912 E14.16005
G1 X116.907 Y133.592 E14.21792
G1 X118.443 Y132.845 E14.28
G1 X119.931 Y131.356 E14.3565
G1 X131.254 Y108.043 E15.29842
G1 X131.555 Y106.258 E15.36418
G1 X130.983 Y104.773 E15.42205
G1 X129.768 Y103.743 E15.47991
G1 X116.91 Y97.479 E15.99974
G1 X115.65 Y97.157 E16.04699
G1 X114.09 Y97.479 E16.10486
G1 X101.232 Y103.743 E16.62469
G1 X100.892 Y104.052 E16.64139
G92 E0
G1 E-6.3 F3600
;WIPE_START
G1 F7200
G1 X99.893 Y104.961 E-6.94117
G1 X99.427 Y106.483 E-7.69742
G1 X99.746 Y108.043 E-8.45368
G1 X100.125 Y108.822 E-8.865
;WIPE_END
G1 E-9 F3600
; acceleration to travel
M204 S1500
G1 X103.743 Y106.997 F9000
; decel to extrusion
M204 S500
G1 X104.185 Y106.774
; end travel
G1 E0 F2400
;WIDTH:0.576
G1 F1200
G1 X104.397 Y106.535 E0.01416
G1 X104.481 Y106.471 E0.01885
G1 X115.05 Y101.322 E0.53994
G1 X115.346 Y101.254 E0.55343
G1 X115.654 Y101.254 E0.56705
G1 X115.95 Y101.322 E0.58054
G1 X126.519 Y106.471 E1.10163
G1 X126.603 Y106.535 E1.10632
G1 X126.815 Y106.774 E1.12048
G1 X126.868 Y106.865 E1.12517
G1 X127.045 Y107.377 E1.14918
G1 X127.06 Y107.482 E1.15387
G1 X127.04 Y107.801 E1.16803
G1 X127.014 Y107.903 E1.17271
G1 X116.692 Y129.155 E2.21996
G1 X116.427 Y129.468 E2.23815
G1 X116.228 Y129.613 E2.24905
G1 X115.892 Y129.769 E2.26546
G1 X115.653 Y129.817 E2.27625
G1 X115.347 Y129.817 E2.28985
G1 X115.051 Y129.748 E2.30331
G1 X114.734 Y129.59 E2.31902
G1 X114.573 Y129.468 E2.32795
G1 X114.308 Y129.155 E2.34613
G1 X103.986 Y107.903 E3.39338
G1 X103.96 Y107.801 E3.39807
G1 X103.94 Y107.482 E3.41223
G1 X103.955 Y107.377 E3.41692
G1 X104.132 Y106.865 E3.44093
G1 X104.155 Y106.825 E3.44296
G1 X104.622 Y107.09 F9000
G1 F1200
G1 X104.764 Y106.931 E3.45243
G1 X115.258 Y101.819 E3.96982
G1 X115.377 Y101.791 E3.97525
G1 X115.623 Y101.791 E3.98616
G1 X115.742 Y101.819 E3.99158
G1 X126.236 Y106.931 E4.50898
G1 X126.378 Y107.09 E4.51845
G1 X126.52 Y107.503 E4.53777
G1 X126.507 Y107.716 E4.54724
G1 X116.225 Y128.887 E5.59049
G1 X116.046 Y129.087 E5.60241
G1 X115.973 Y129.14 E5.60639
G1 X115.742 Y129.252 E5.61777
G1 X115.623 Y129.279 E5.62318
G1 X115.377 Y129.279 E5.63408
G1 X115.258 Y129.252 E5.63949
G1 X115.027 Y129.14 E5.65088
G1 X114.954 Y129.087 E5.65485
G1 X114.775 Y128.887 E5.66677
G1 X104.493 Y107.716 E6.71002
G1 X104.48 Y107.503 E6.71949
G1 X104.603 Y107.147 E6.73616
G1 X105.095 Y107.367 F9000
G1 F1200
G1 X115.438 Y102.328 E7.24611
G1 X115.562 Y102.328 E7.2516
G1 X116.471 Y102.771 E7.29644
G1 X125.905 Y107.367 E7.76155
G1 X125.977 Y107.577 E7.77141
G1 X115.761 Y128.612 E8.80793
G1 X115.698 Y128.676 E8.81194
G1 X115.562 Y128.742 E8.81863
G1 X115.438 Y128.742 E8.82411
G1 X115.302 Y128.676 E8.83081
G1 X115.239 Y128.612 E8.83481
G1 X105.023 Y107.577 E9.87134
G1 X105.076 Y107.424 E9.87853
; printing object D10.stl id:0 copy 0
M486 S0
G1 X105.698 Y107.693 F9000
;TYPE:External perimeter
G1 F1200
G1 X115.5 Y102.917 E10.36184
G1 X116.228 Y103.272 E10.39771
G1 X125.302 Y107.693 E10.84514
G1 X115.5 Y127.876 E11.83971
G1 X105.724 Y107.747 E12.83162
;WIPE_START
G1 X106.097 Y107.721 F9000
;WIPE_END
G1 X106.416 Y107.941
;TYPE:Internal perimeter
G1 F1200
G1 X115.5 Y103.515 E13.27953
G1 X115.992 Y103.755 E13.3038
G1 X124.584 Y107.941 E13.72744
G1 X115.5 Y126.646 E14.64918
G1 X106.442 Y107.995 E15.56825
G92 E0
G1 E-6.3 F3600
;WIPE_START
G1 F7200
G1 X111.282 Y105.601 E-8.865
;WIPE_END
G1 E-9 F3600
; acceleration to travel
M204 S1500
G1 X121.047 Y106.828 F9000
; decel to extrusion
M204 S500
G1 X122.24 Y106.978
; end travel
G1 E0 F2400
;TYPE:Solid infill
;WIDTH:0.57645
G1 F1200
G1 X123.839 Y108.577 E0.10031
G1 X123.591 Y109.089 E0.12554
G1 X121.26 Y106.757 E0.27179
G1 X119.778 Y106.035 E0.34491
G1 X123.342 Y109.6 E0.56854
G1 X123.094 Y110.112 E0.59377
G1 X118.296 Y105.314 E0.89478
G1 X116.814 Y104.592 E0.9679
G1 X122.845 Y110.623 E1.34629
G1 X122.597 Y111.135 E1.37151
G1 X115.442 Y103.98 E1.82038
G1 X114.931 Y104.229 E1.8456
G1 X122.349 Y111.646 E2.31094
G1 X122.1 Y112.158 E2.33616
G1 X114.42 Y104.478 E2.81798
G1 X113.909 Y104.727 E2.84319
G1 X121.852 Y112.669 E3.34148
G1 X121.603 Y113.181 E3.36671
G1 X113.398 Y104.976 E3.88147
G1 X112.887 Y105.224 E3.90668
G1 X121.355 Y113.692 E4.43792
G1 X121.106 Y114.204 E4.46314
G1 X112.376 Y105.473 E5.01085
G1 X111.865 Y105.722 E5.03607
G1 X120.858 Y114.715 E5.60025
G1 X120.61 Y115.227 E5.62547
G1 X111.354 Y105.971 E6.20613
G1 X110.843 Y106.22 E6.23134
G1 X120.361 Y115.738 E6.82847
G1 X120.113 Y116.25 E6.85369
G1 X110.332 Y106.469 E7.46729
G1 X109.821 Y106.718 E7.49251
G1 X119.864 Y116.762 E8.12258
G1 X119.616 Y117.273 E8.14781
G1 X109.31 Y106.967 E8.79436
G1 X108.799 Y107.216 E8.81957
G1 X119.368 Y117.785 E9.48259
G1 X119.119 Y118.296 E9.50782
G1 X108.288 Y107.465 E10.18731
G1 X107.777 Y107.714 E10.21253
G1 X118.871 Y118.808 E10.90849
G1 X118.622 Y119.319 E10.93372
G1 X107.266 Y107.963 E11.64616
G1 X106.94 Y108.122 E11.66226
G1 X107.199 Y108.656 E11.68861
G1 X118.374 Y119.831 E12.38965
G1 X118.125 Y120.342 E12.41487
G1 X107.917 Y110.134 E13.05531
G1 X108.634 Y111.611 E13.12817
G1 X117.877 Y120.854 E13.70801
G1 X117.629 Y121.365 E13.73324
G1 X109.352 Y113.089 E14.25247
G1 X110.069 Y114.566 E14.32534
G1 X117.38 Y121.877 E14.78397
G1 X117.132 Y122.388 E14.8092
G1 X110.787 Y116.044 E15.20723
G1 X111.505 Y117.521 E15.28009
G1 X116.883 Y122.9 E15.61752
G1 X116.635 Y123.411 E15.64275
G1 X112.222 Y118.999 E15.91958
G1 X112.94 Y120.476 E15.99244
G1 X116.386 Y123.923 E16.20867
G1 X116.138 Y124.434 E16.2339
G1 X113.657 Y121.954 E16.38952
G1 X114.375 Y123.431 E16.46239
G1 X115.89 Y124.946 E16.55741
G1 X115.641 Y125.458 E16.58264
G1 X114.593 Y124.409 E16.64839
M106 S84.15
;LAYER_CHANGE
;Z:0.52
;HEIGHT:0.32
;BEFORE_LAYER_CHANGE
;0.52


G92 E0
G1 E-6.3 F3600
;WIPE_START
G1 F7200
G1 X115.641 Y125.458 E-7.00408
G1 X115.89 Y124.946 E-7.27419
G1 X114.375 Y123.431 E-8.29169
G1 X113.848 Y122.346 E-8.865
;WIPE_END
G1 E-9 F3600
; stop printing object D10.stl id:0 copy 0
M486 S-1
G1 Z0.47 F9000
;AFTER_LAYER_CHANGE
;0.52
G92 E0
; acceleration to travel
M204 S1500
G1 X108.338 Y125.021
; decel to extrusion
M204 S500
G1 X107.665 Y125.348
; end travel
G1 E9 F2400
;TYPE:Skirt
;WIDTH:0.48
G1 F1200
G1 X110.675 Y131.547 E9.37711
G1 X112.366 Y133.238 E9.50794
G1 X113.902 Y133.985 E9.60141
G1 X115.44 Y134.352 E9.68795
G1 X117.098 Y133.985 E9.78089
G1 X118.634 Y133.238 E9.87436
G1 X120.325 Y131.547 E10.00519
G1 X131.647 Y108.234 E11.42348
G1 X131.955 Y105.983 E11.54779
G1 X131.272 Y104.428 E11.64073
G1 X129.96 Y103.35 E11.73367
G1 X117.101 Y97.086 E12.51639
G1 X115.557 Y96.717 E12.60327
G1 X113.899 Y97.086 E12.69621
G1 X101.04 Y103.35 E13.47893
G1 X99.408 Y104.93 E13.60323
G1 X98.986 Y106.575 E13.69617
G1 X99.353 Y108.234 E13.78911
G1 X107.639 Y125.294 E14.82701
G1 X108.032 Y125.103 F9000
G1 F1200
G1 X111.069 Y131.356 E15.2074
G1 X112.557 Y132.845 E15.32259
G1 X114.093 Y133.592 E15.41607
G1 X115.347 Y133.912 E15.48692
G1 X116.907 Y133.592 E15.57404
G1 X118.443 Y132.845 E15.66752
G1 X119.931 Y131.356 E15.7827
G1 X131.254 Y108.043 E17.20099
G1 X131.555 Y106.258 E17.30001
G1 X130.983 Y104.773 E17.38714
G1 X129.768 Y103.743 E17.47426
G1 X116.91 Y97.479 E18.25698
G1 X115.65 Y97.157 E18.32814
G1 X114.09 Y97.479 E18.41526
G1 X101.232 Y103.743 E19.19799
G1 X99.893 Y104.961 E19.297
G1 X99.427 Y106.483 E19.38413
G1 X99.746 Y108.043 E19.47126
G1 X108.006 Y125.049 E20.50587
G92 E0
G1 E-6.3 F3600
;WIPE_START
G1 F7200
G1 X110.365 Y129.907 E-8.865
;WIPE_END
G1 E-9 F3600
; printing object D10.stl id:0 copy 0
M486 S0
; acceleration to travel
M204 S1500
G1 X112.672 Y123.47 F9000
; decel to extrusion
M204 S500
G1 X112.97 Y122.639
; end travel
G1 E0 F2400
;TYPE:Internal perimeter
;WIDTH:0.476
G1 X105.803 Y107.881 E0.88903
G1 X115.5 Y103.157 E1.47358
G1 X125.197 Y107.881 E2.05813
G1 X115.5 Y127.849 E3.26104
G1 X112.996 Y122.693 E3.57167
G92 E0
G1 E-6.3 F3600
;WIPE_START
G1 F7200
G1 X110.637 Y117.835 E-8.865
;WIPE_END
G1 E-9 F3600
; acceleration to travel
M204 S1500
G1 X105.987 Y108.758 F9000
; decel to extrusion
M204 S500
G1 X105.413 Y107.637
; end travel
G1 E0 F2400
;TYPE:External perimeter
;WIDTH:0.428
G1 F1500
G1 X115.5 Y102.723 E0.53641
G1 X125.587 Y107.637 E1.07282
G1 X125.61 Y107.649 E1.07404
;TYPE:Overhang perimeter
M204 S250
G1 X125.719 Y107.701 E1.07979
G1 X115.752 Y128.224 E2.17046
G1 X115.577 Y128.309 E2.17976
G1 X115.539 Y128.327 E2.18174
G1 X115.5 Y128.346 E2.18383
G1 X115.461 Y128.327 E2.18592
G1 X115.423 Y128.309 E2.1879
G1 X115.248 Y128.224 E2.1972
G1 X105.281 Y107.701 E3.28787
G1 X105.359 Y107.664 E3.29198
M204 S500
G1 X106.229 Y108.474 F9000
;TYPE:Solid infill
;WIDTH:0.484202
G1 F2400
G1 X107.133 Y107.57 E3.36245
G1 X108.275 Y107.013 E3.43249
G1 X106.553 Y108.735 E3.56668
G1 X106.745 Y109.129 E3.59085
G1 X109.417 Y106.457 E3.79916
G1 X110.559 Y105.901 E3.8692
G1 X106.936 Y109.523 E4.15163
G1 X107.128 Y109.918 E4.17579
G1 X111.701 Y105.344 E4.53233
G1 X112.844 Y104.788 E4.60237
G1 X107.319 Y110.312 E5.03303
G1 X107.511 Y110.706 E5.05719
G1 X113.986 Y104.231 E5.56197
G1 X115.128 Y103.675 E5.63201
G1 X107.702 Y111.1 E6.2109
G1 X107.894 Y111.495 E6.23506
G1 X115.766 Y103.623 E6.84874
G1 X116.159 Y103.815 E6.87289
G1 X108.085 Y111.889 E7.50234
G1 X108.277 Y112.283 E7.5265
G1 X116.553 Y104.007 E8.17174
G1 X116.947 Y104.199 E8.19589
G1 X108.468 Y112.678 E8.8569
G1 X108.66 Y113.072 E8.88106
G1 X117.341 Y104.39 E9.55785
G1 X117.735 Y104.582 E9.582
G1 X108.851 Y113.466 E10.27457
G1 X109.043 Y113.86 E10.29873
G1 X118.129 Y104.774 E11.00707
G1 X118.523 Y104.966 E11.03123
G1 X109.234 Y114.255 E11.75535
G1 X109.426 Y114.649 E11.77951
G1 X118.917 Y105.158 E12.51941
G1 X119.31 Y105.35 E12.54356
G1 X109.617 Y115.043 E13.29924
G1 X109.809 Y115.438 E13.32341
G1 X119.704 Y105.542 E14.09486
G1 X120.098 Y105.734 E14.11902
G1 X110 Y115.832 E14.90625
G1 X110.191 Y116.226 E14.93042
G1 X120.492 Y105.925 E15.73343
G1 X120.886 Y106.117 E15.75758
G1 X110.383 Y116.62 E16.57638
G1 X110.574 Y117.015 E16.60054
G1 X121.28 Y106.309 E17.43511
G1 X121.674 Y106.501 E17.45926
G1 X110.766 Y117.409 E18.30961
G1 X110.957 Y117.803 E18.33377
G1 X122.068 Y106.693 E19.1999
G1 X122.461 Y106.885 E19.22405
G1 X111.149 Y118.197 E20.10596
G1 X111.34 Y118.592 E20.13012
G1 X122.855 Y107.077 E21.02781
G1 X123.249 Y107.269 E21.05196
G1 X111.532 Y118.986 E21.96542
G1 X111.723 Y119.38 E21.98958
G1 X123.643 Y107.461 E22.91882
G1 X124.037 Y107.652 E22.94298
G1 X111.915 Y119.775 E23.888
G1 X112.106 Y120.169 E23.91216
G1 X124.431 Y107.844 E24.87296
G1 X124.793 Y108.021 E24.89519
G1 X124.749 Y108.112 E24.90074
G1 X112.298 Y120.563 E25.87144
G1 X112.489 Y120.957 E25.8956
G1 X124.196 Y109.25 E26.80825
G1 X123.643 Y110.389 E26.87805
G1 X112.681 Y121.352 E27.73265
G1 X112.872 Y121.746 E27.75681
G1 X123.09 Y111.528 E28.55338
G1 X122.537 Y112.667 E28.62317
G1 X113.064 Y122.14 E29.36168
G1 X113.255 Y122.534 E29.38585
G1 X121.984 Y113.806 E30.06632
G1 X121.431 Y114.945 E30.13611
G1 X113.447 Y122.929 E30.75854
G1 X113.638 Y123.323 E30.7827
G1 X120.878 Y116.083 E31.34708
G1 X120.325 Y117.222 E31.41687
G1 X113.83 Y123.717 E31.92321
G1 X114.021 Y124.112 E31.94737
G1 X119.772 Y118.361 E32.39566
G1 X119.218 Y119.5 E32.46545
G1 X114.213 Y124.506 E32.8557
G1 X114.404 Y124.9 E32.87986
G1 X118.665 Y120.639 E33.21207
G1 X118.112 Y121.778 E33.28186
G1 X114.596 Y125.294 E33.55601
G1 X114.787 Y125.689 E33.58018
G1 X117.559 Y122.917 E33.79629
G1 X117.006 Y124.055 E33.86608
G1 X114.979 Y126.083 E34.02415
G1 X115.17 Y126.477 E34.04831
G1 X116.453 Y125.194 E34.14833
G1 X115.9 Y126.333 E34.21812
G1 X115.228 Y127.005 E34.27049
M106 S170.85
;LAYER_CHANGE
;Z:0.84
;HEIGHT:0.32
;BEFORE_LAYER_CHANGE
;0.84


G92 E0
G1 E-6.3 F3600
;WIPE_START
G1 F7200
G1 X115.9 Y126.333 E-6.75124
G1 X116.453 Y125.194 E-7.35261
G1 X115.17 Y126.477 E-8.21449
G1 X114.979 Y126.083 E-8.42268
G1 X115.637 Y125.425 E-8.865
;WIPE_END
G1 E-9 F3600
; stop printing object D10.stl id:0 copy 0
M486 S-1
G1 Z0.79 F9000
;AFTER_LAYER_CHANGE
;0.84
G92 E0
; printing object D10.stl id:0 copy 0
M486 S0
; acceleration to travel
M204 S1500
G1 X115.516 Y127.627
; decel to extrusion
M204 S500
G1 X115.5 Y127.912
; end travel
G1 E9 F2400
;TYPE:Internal perimeter
;WIDTH:0.476
G1 X115.174 Y127.754 E9.01962
G1 X105.576 Y107.991 E10.21022
G1 X115.5 Y103.156 E10.80841
G1 X125.424 Y107.991 E11.4066
G1 X115.826 Y127.754 E12.59721
G1 X115.554 Y127.886 E12.61357
G1 X115.5 Y128.346 F9000
;TYPE:External perimeter
;WIDTH:0.428
G1 F1500
G1 X115.018 Y128.112 E12.63921
;TYPE:Overhang perimeter
M204 S250
G1 X114.98 Y128.093 E12.64119
G1 X114.882 Y128.046 E12.6464
G1 X105.055 Y107.811 E13.72179
G1 X105.116 Y107.781 E13.72501
;TYPE:External perimeter
M204 S500
G1 X105.139 Y107.77 E13.72623
G1 X115.5 Y102.722 E14.27721
G1 X125.861 Y107.77 E14.82818
G1 X125.884 Y107.781 E14.8294
;TYPE:Overhang perimeter
M204 S250
G1 X125.945 Y107.811 E14.83262
G1 X116.118 Y128.046 E15.90801
G1 X116.02 Y128.093 E15.91322
G1 X115.982 Y128.112 E15.9152
;TYPE:External perimeter
M204 S500
G1 X115.554 Y128.32 E15.93797
;WIPE_START
G1 X115.354 Y127.973 F9000
;WIPE_END
G1 X114.658 Y126.407
;TYPE:Solid infill
;WIDTH:0.484195
G1 F2400
G1 X115.658 Y127.406 E16.01592
G1 X115.85 Y127.012 E16.04008
G1 X114.49 Y125.653 E16.14606
G1 X113.937 Y124.514 E16.21585
G1 X116.041 Y126.618 E16.37987
G1 X116.233 Y126.224 E16.40404
G1 X113.384 Y123.375 E16.62611
G1 X112.831 Y122.236 E16.6959
G1 X116.424 Y125.829 E16.97601
G1 X116.616 Y125.435 E17.00017
G1 X112.278 Y121.097 E17.33833
G1 X111.725 Y119.958 E17.40812
G1 X116.807 Y125.041 E17.80432
G1 X116.999 Y124.647 E17.82848
G1 X111.172 Y118.82 E18.28273
G1 X110.619 Y117.681 E18.35252
G1 X117.19 Y124.252 E18.86481
G1 X117.381 Y123.858 E18.88897
G1 X110.065 Y116.542 E19.45931
