; generated by SuperSlicer 2.4 on 2022-11-29 at 15:11:22 UTC

; 

; external perimeters extrusion width = 0.43mm
; perimeters extrusion width = 0.48mm
; infill extrusion width = 0.46mm
; solid infill extrusion width = 0.48mm
; top infill extrusion width = 0.46mm
; first layer extrusion width = 0.58mm

; object:{"name":"D2","id":"D2.stl id:0 copy 0","object_center":[115.500000,115.500000,0.000000],"boundingbox_center":[115.500000,115.500000,6.344793],"boundingbox_size":[29.178906,33.687676,12.689586]}
; Total objects to print: 1
M486 T1
; plater:{"center":[115.500000,115.500000,0.000000],"boundingbox_center":[115.500000,115.500000,6.344793],"boundingbox_size":[29.178906,33.687676,12.689586]}

;TYPE:Custom
G90 ; use absolute coordinates
M83 ; extruder relative mode
M140 S60 ; set final bed temp
M104 S150 ; set temporary nozzle temp to prevent oozing during homing and auto bed leveling
G4 S10 ; allow partial nozzle warmup
G28 ; home all axis
;G29 ; auto bed levelling
G1 Z10 F240
G1 X2 Y10 F3000
G1 Z0 F240
M104 S215 ; set final nozzle temp
M190 S60 ; wait for bed temp to stabilize
M109 S215 ; wait for nozzle temp to stabilize
G1 Z0.32 F240
G92 E0
G1 Y140 E10 F1500 ; prime the nozzle
G1 X2.3 F5000
G92 E0
G1 Y10 E10 F1200 ; prime the nozzle
G92 E0
;start
M107
G21 ; set units to millimeters
G90 ; use absolute coordinates
M82 ; use absolute distances for extrusion
G92 E0
; Filament gcode
;_TOOLCHANGE 0
M107
;LAYER_CHANGE
;Z:0.2
;HEIGHT:0.2
;BEFORE_LAYER_CHANGE
;0.2


G1 E-9 F3600
G1 Z0.15 F9000
;AFTER_LAYER_CHANGE
;0.2
G92 E0
M204 S500
G1 X99.984 Y104.68
G1 E9 F2400
;TYPE:Skirt
;WIDTH:0.48
G1 F1200
G1 X98.768 Y105.926 E9.06325
G1 X98.374 Y107.468 E9.12112
G1 X98.374 Y123.532 E9.70492
G1 X98.844 Y125.207 E9.76818
G1 X99.984 Y126.32 E9.82604
G1 X113.895 Y134.347 E10.40977
G1 X115.581 Y134.777 E10.47299
G1 X117.114 Y134.346 E10.53086
G1 X131.018 Y126.314 E11.11443
G1 X132.233 Y125.07 E11.17763
G1 X132.627 Y123.528 E11.23549
G1 X132.627 Y107.472 E11.81899
G1 X132.157 Y105.798 E11.88219
G1 X131.018 Y104.686 E11.94005
G1 X117.114 Y96.654 E12.52362
G1 X115.428 Y96.223 E12.58685
G1 X113.895 Y96.653 E12.64471
G1 X100.036 Y104.65 E13.22626
G92 E0
G1 E-6.3 F3600
;WIPE_START
G1 F7200
G1 X98.768 Y105.926 E-7.15418
G1 X98.374 Y107.468 E-7.91044
G1 X98.374 Y109.478 E-8.865
;WIPE_END
G1 E-9 F3600
; acceleration to travel
M204 S1500
G1 X102.289 Y107.759 F9000
; decel to extrusion
M204 S500
G1 X102.767 Y107.549
; end travel
G1 E0 F2400
;WIDTH:0.576
G1 F1200
G1 X114.986 Y100.498 E0.62534
G1 X115.326 Y100.407 E0.64092
G1 X115.682 Y100.407 E0.6567
G1 X116.021 Y100.498 E0.67229
G1 X128.234 Y107.553 E1.29745
G1 X128.483 Y107.801 E1.31304
G1 X128.66 Y108.109 E1.32881
G1 X128.751 Y108.449 E1.34439
G1 X128.751 Y122.551 E1.96948
G1 X128.66 Y122.891 E1.98506
G1 X128.483 Y123.199 E2.00083
G1 X128.234 Y123.447 E2.01642
G1 X116.021 Y130.502 E2.64158
G1 X115.682 Y130.593 E2.65717
G1 X115.326 Y130.593 E2.67295
G1 X114.986 Y130.502 E2.68853
G1 X102.767 Y123.451 E3.31387
G1 X102.518 Y123.203 E3.32946
G1 X102.34 Y122.895 E3.34524
G1 X102.249 Y122.555 E3.36083
G1 X102.249 Y108.445 E3.98625
G1 X102.34 Y108.105 E4.00184
G1 X102.518 Y107.797 E4.01762
G1 X102.724 Y107.591 E4.03055
G1 X103.066 Y107.996 F9000
G1 F1200
G1 X115.224 Y100.981 E4.65276
G1 X115.361 Y100.944 E4.65903
G1 X115.646 Y100.944 E4.67169
G1 X115.783 Y100.981 E4.67796
G1 X127.935 Y108 E5.30001
G1 X128.035 Y108.1 E5.30628
G1 X128.177 Y108.348 E5.31893
G1 X128.214 Y108.484 E5.3252
G1 X128.214 Y122.516 E5.94716
G1 X128.177 Y122.652 E5.95343
G1 X128.035 Y122.9 E5.96608
G1 X127.935 Y123 E5.97235
G1 X115.783 Y130.019 E6.5944
G1 X115.646 Y130.056 E6.60067
G1 X115.361 Y130.056 E6.61333
G1 X115.224 Y130.019 E6.6196
G1 X103.066 Y123.004 E7.24181
G1 X102.966 Y122.904 E7.24809
G1 X102.823 Y122.656 E7.26074
G1 X102.786 Y122.52 E7.26702
G1 X102.786 Y108.48 E7.88931
G1 X102.823 Y108.344 E7.89559
G1 X102.966 Y108.096 E7.90824
G1 X103.023 Y108.039 E7.91186
G1 X103.396 Y108.426 F9000
G1 F1200
G1 X115.431 Y101.481 E8.5278
G1 X115.575 Y101.481 E8.53418
G1 X116.017 Y101.736 E8.55676
G1 X127.605 Y108.43 E9.14996
G1 X127.677 Y108.555 E9.15634
G1 X127.677 Y122.445 E9.77203
G1 X127.605 Y122.57 E9.77842
G1 X115.575 Y129.519 E10.39419
G1 X115.431 Y129.519 E10.40057
G1 X103.396 Y122.574 E11.01652
G1 X103.324 Y122.449 E11.0229
G1 X103.324 Y108.551 E11.63892
G1 X103.366 Y108.478 E11.64265
; printing object D2.stl id:0 copy 0
M486 S0
G1 X103.88 Y108.79 F9000
;TYPE:External perimeter
G1 F1200
G1 X115.503 Y102.083 E12.23746
G1 X115.738 Y102.218 E12.24948
G1 X127.12 Y108.793 E12.83212
G1 X127.12 Y122.207 E13.4267
G1 X115.503 Y128.917 E14.02135
G1 X103.88 Y122.21 E14.61617
G1 X103.88 Y108.85 E15.2084
;WIPE_START
G1 X104.274 Y108.859 F9000
;WIPE_END
G1 X104.418 Y109.1
;TYPE:Internal perimeter
G1 F1200
G1 X115.503 Y102.703 E15.77571
G1 X126.583 Y109.103 E16.34287
G1 X126.583 Y121.897 E16.90994
G1 X115.503 Y128.297 E17.4771
G1 X104.418 Y121.9 E18.04441
G1 X104.418 Y109.16 E18.60913
G92 E0
G1 E-6.3 F3600
;WIPE_START
G1 F7200
G1 X109.084 Y106.442 E-8.865
;WIPE_END
G1 E-9 F3600
; acceleration to travel
M204 S1500
G1 X122.218 Y107.559 F9000
; decel to extrusion
M204 S500
G1 X123.823 Y107.695
; end travel
G1 E0 F2400
;TYPE:Solid infill
;WIDTH:0.577738
G1 F1200
G1 X126.19 Y110.063 E0.14888
G1 X126.19 Y110.823 E0.18267
G1 X122.655 Y107.287 E0.40496
G1 X120.856 Y106.248 E0.49735
G1 X126.19 Y111.583 E0.83277
G1 X126.19 Y112.343 E0.86656
G1 X119.056 Y105.209 E1.31513
G1 X117.257 Y104.169 E1.40752
G1 X126.19 Y113.103 E1.96922
G1 X126.19 Y113.863 E2.00301
G1 X115.491 Y103.163 E2.67574
G1 X115.009 Y103.441 E2.70048
G1 X126.19 Y114.623 E3.40351
G1 X126.19 Y115.383 E3.4373
G1 X114.527 Y103.719 E4.17064
G1 X114.045 Y103.997 E4.19537
G1 X126.19 Y116.143 E4.959
G1 X126.19 Y116.902 E4.99279
G1 X113.563 Y104.275 E5.78672
G1 X113.081 Y104.553 E5.81146
G1 X126.19 Y117.662 E6.63569
G1 X126.19 Y118.422 E6.66948
G1 X112.6 Y104.832 E7.52401
G1 X112.118 Y105.11 E7.54874
G1 X126.19 Y119.182 E8.43357
G1 X126.19 Y119.942 E8.46736
G1 X111.636 Y105.388 E9.38248
G1 X111.154 Y105.666 E9.40722
G1 X126.19 Y120.702 E10.35264
G1 X126.19 Y121.462 E10.38643
G1 X110.672 Y105.944 E11.36216
G1 X110.19 Y106.222 E11.38689
G1 X125.841 Y121.872 E12.37092
G1 X125.359 Y122.151 E12.39565
G1 X109.708 Y106.5 E13.37969
G1 X109.226 Y106.778 E13.40443
G1 X124.877 Y122.429 E14.38848
G1 X124.395 Y122.707 E14.41322
G1 X108.744 Y107.056 E15.39728
G1 X108.263 Y107.334 E15.42202
G1 X123.914 Y122.985 E16.40609
G1 X123.432 Y123.264 E16.43082
G1 X107.781 Y107.612 E17.41491
G1 X107.299 Y107.89 E17.43965
G1 X122.95 Y123.542 E18.42375
G1 X122.469 Y123.82 E18.44848
G1 X106.817 Y108.168 E19.43259
G1 X106.335 Y108.446 E19.45733
G1 X121.987 Y124.098 E20.44145
G1 X121.505 Y124.377 E20.46619
G1 X105.853 Y108.725 E21.45032
G1 X105.371 Y109.003 E21.47506
G1 X121.024 Y124.655 E22.4592
G1 X120.542 Y124.933 E22.48394
G1 X104.889 Y109.281 E23.4681
G1 X104.81 Y109.326 E23.47217
G1 X104.81 Y109.961 E23.5004
G1 X120.06 Y125.211 E24.45925
G1 X119.578 Y125.49 E24.48398
G1 X104.81 Y110.721 E25.41255
G1 X104.81 Y111.481 E25.44634
G1 X119.097 Y125.768 E26.34462
G1 X118.615 Y126.046 E26.36935
G1 X104.81 Y112.241 E27.23735
G1 X104.81 Y113.001 E27.27114
G1 X118.133 Y126.325 E28.10885
G1 X117.652 Y126.603 E28.13358
G1 X104.81 Y113.761 E28.941
G1 X104.81 Y114.521 E28.97479
G1 X117.17 Y126.881 E29.75192
G1 X116.688 Y127.159 E29.77665
G1 X104.81 Y115.281 E30.5235
G1 X104.81 Y116.041 E30.55729
G1 X116.207 Y127.438 E31.27385
G1 X115.725 Y127.716 E31.29858
G1 X104.81 Y116.801 E31.98485
G1 X104.81 Y117.561 E32.01864
G1 X114.534 Y127.285 E32.63002
G1 X112.737 Y126.248 E32.72224
G1 X104.81 Y118.321 E33.22065
G1 X104.81 Y119.081 E33.25443
G1 X110.94 Y125.211 E33.63986
G1 X109.143 Y124.174 E33.73209
G1 X104.81 Y119.841 E34.00455
G1 X104.81 Y120.601 E34.03834
G1 X107.347 Y123.137 E34.19782
G1 X105.55 Y122.1 E34.29005
G1 X104.579 Y121.13 E34.35109
G92 E0
G1 E-6.3 F3600
;WIPE_START
G1 F7200
G1 X105.55 Y122.1 E-6.95217
G1 X107.347 Y123.137 E-7.93753
G1 X105.966 Y121.757 E-8.865
;WIPE_END
G1 E-9 F3600
; acceleration to travel
M204 S1500
G1 X123.199 Y110.149 F9000
; decel to extrusion
M204 S500
G1 X125.304 Y108.73
; end travel
G1 E0 F2400
;TYPE:Gap fill
;WIDTH:0.15812
G1 F1200
G1 X125.442 Y108.836 E0.00166
;WIDTH:0.208611
G1 X125.579 Y108.942 E0.00405
;WIDTH:0.259102
G1 X125.717 Y109.047 E0.00717
;WIDTH:0.309593
G1 X125.855 Y109.153 E0.01102
;WIDTH:0.360084
G1 X125.992 Y109.259 E0.0156
;WIDTH:0.392777
G1 X126.13 Y109.364 E0.02065
G1 X126.222 Y109.455 E0.0244
G1 X126.314 Y109.545 E0.02815
M106 S84.15
;LAYER_CHANGE
;Z:0.52
;HEIGHT:0.32
;BEFORE_LAYER_CHANGE
;0.52


G92 E0
G1 E-6.3 F3600
;WIPE_START
G1 F7200
G1 X126.222 Y109.455 E-6.36121
G1 X126.13 Y109.364 E-6.42242
G1 X125.992 Y109.259 E-6.50487
;WIPE_END
G1 E-9 F3600
; stop printing object D2.stl id:0 copy 0
M486 S-1
G1 Z0.47 F9000
;AFTER_LAYER_CHANGE
;0.52
G92 E0
; acceleration to travel
M204 S1500
G1 X128.878 Y104.263
; decel to extrusion
M204 S500
G1 X129.231 Y103.653
; end travel
G1 E9 F2400
;TYPE:Skirt
;WIDTH:0.48
G1 F1200
G1 X117.114 Y96.654 E9.76575
G1 X115.428 Y96.223 E9.86095
G1 X113.895 Y96.653 E9.94808
G1 X99.984 Y104.68 E10.82701
G1 X98.768 Y105.926 E10.92226
G1 X98.374 Y107.468 E11.00938
G1 X98.374 Y123.532 E11.88844
G1 X98.844 Y125.207 E11.98368
G1 X99.984 Y126.32 E12.0708
G1 X113.895 Y134.347 E12.94974
G1 X115.581 Y134.777 E13.04495
G1 X117.114 Y134.346 E13.13207
G1 X131.018 Y126.314 E14.01077
G1 X132.233 Y125.07 E14.10594
G1 X132.627 Y123.528 E14.19306
G1 X132.627 Y107.472 E15.07164
G1 X132.157 Y105.798 E15.16681
G1 X131.018 Y104.686 E15.25393
G1 X129.283 Y103.683 E15.3636
G92 E0
G1 E-6.3 F3600
;WIPE_START
G1 F7200
G1 X124.607 Y100.982 E-8.865
;WIPE_END
G1 E-9 F3600
; printing object D2.stl id:0 copy 0
M486 S0
; acceleration to travel
M204 S1500
G1 X126.755 Y107.944 F9000
; decel to extrusion
M204 S500
G1 X127.033 Y108.844
; end travel
G1 E0 F2400
;TYPE:Internal perimeter
;WIDTH:0.476
G1 X127.033 Y122.156 E0.72144
G1 X115.503 Y128.816 E1.44298
G1 X103.968 Y122.16 E2.1647
G1 X103.968 Y108.84 E2.88651
G1 X115.503 Y102.184 E3.60823
G1 X126.379 Y108.466 E4.2889
G1 X126.981 Y108.814 E4.32652
M204 S250
G1 X127.423 Y108.618 F9000
;TYPE:Overhang perimeter
;WIDTH:0.428
G1 F1500
G1 X127.423 Y122.382 E4.98448
G1 X115.503 Y129.267 E5.64252
G1 X103.578 Y122.385 E6.30074
G1 X103.578 Y108.615 E6.95904
G1 X115.503 Y101.733 E7.61725
G1 X126.575 Y108.129 E8.22847
G1 X127.371 Y108.588 E8.27243
G92 E0
G1 E-6.3 F3600
;WIPE_START
G1 F7200
M204 S500
G1 X127.391 Y113.988 E-8.865
;WIPE_END
G1 E-9 F3600
; acceleration to travel
M204 S1500
G1 X125.19 Y122.183 F9000
; decel to extrusion
M204 S500
G1 X124.905 Y123.242
; end travel
G1 E0 F2400
;TYPE:Solid infill
;WIDTH:0.484194
G1 X126.73 Y121.417 E0.14228
G1 X126.73 Y120.831 E0.17457
G1 X124.005 Y123.556 E0.387
G1 X122.618 Y124.357 E0.47529
G1 X126.73 Y120.245 E0.79584
G1 X126.73 Y119.66 E0.82813
G1 X121.231 Y125.158 E1.25679
G1 X119.845 Y125.959 E1.34508
G1 X126.73 Y119.074 E1.88187
G1 X126.73 Y118.488 E1.91416
G1 X118.458 Y126.761 E2.55907
G1 X117.071 Y127.562 E2.64736
G1 X126.73 Y117.902 E3.40038
G1 X126.73 Y117.317 E3.43267
G1 X115.684 Y128.363 E4.29381
G1 X115.503 Y128.467 E4.30531
G1 X115.18 Y128.281 E4.32587
G1 X126.73 Y116.731 E5.22628
G1 X126.73 Y116.145 E5.25857
G1 X114.809 Y128.067 E6.18794
G1 X114.437 Y127.852 E6.21158
G1 X126.73 Y115.559 E7.1699
G1 X126.73 Y114.973 E7.20219
G1 X114.066 Y127.638 E8.18947
G1 X113.694 Y127.424 E8.21311
G1 X126.73 Y114.388 E9.22934
G1 X126.73 Y113.802 E9.26163
G1 X113.323 Y127.209 E10.30681
G1 X112.952 Y126.995 E10.33045
G1 X126.73 Y113.216 E11.4046
G1 X126.73 Y112.63 E11.43689
G1 X112.58 Y126.781 E12.53998
G1 X112.209 Y126.566 E12.56362
G1 X126.73 Y112.045 E13.69568
G1 X126.73 Y111.459 E13.72797
G1 X111.837 Y126.352 E14.88897
G1 X111.466 Y126.138 E14.91261
G1 X126.73 Y110.873 E16.10258
G1 X126.73 Y110.287 E16.13487
G1 X111.094 Y125.923 E17.35379
G1 X110.723 Y125.709 E17.37742
G1 X126.73 Y109.702 E18.6253
G1 X126.73 Y109.116 E18.65759
G1 X110.352 Y125.495 E19.93442
G1 X109.98 Y125.28 E19.95806
G1 X126.421 Y108.839 E21.23972
G1 X126.228 Y108.728 E21.25199
G1 X126.05 Y108.625 E21.26336
G1 X109.609 Y125.066 E22.54504
G1 X109.237 Y124.852 E22.56868
G1 X125.678 Y108.411 E23.85036
G1 X125.307 Y108.196 E23.874
G1 X108.866 Y124.637 E25.1557
G1 X108.494 Y124.423 E25.17934
G1 X124.936 Y107.982 E26.46105
G1 X124.564 Y107.767 E26.48468
G1 X108.123 Y124.209 E27.76641
G1 X107.752 Y123.994 E27.79004
G1 X124.193 Y107.553 E29.07178
G1 X123.822 Y107.338 E29.09541
G1 X107.38 Y123.78 E30.37716
G1 X107.009 Y123.566 E30.4008
G1 X123.451 Y107.124 E31.68255
G1 X123.079 Y106.909 E31.70619
G1 X106.637 Y123.351 E32.98795
G1 X106.266 Y123.137 E33.01159
G1 X122.708 Y106.695 E34.29337
G1 X122.337 Y106.48 E34.31701
G1 X105.894 Y122.923 E35.5988
G1 X105.523 Y122.708 E35.62244
G1 X121.965 Y106.266 E36.90424
G1 X121.594 Y106.051 E36.92787
G1 X105.152 Y122.494 E38.20968
G1 X104.78 Y122.28 E38.23332
G1 X121.223 Y105.837 E39.51514
G1 X120.852 Y105.622 E39.53878
G1 X104.409 Y122.065 E40.82061
G1 X104.27 Y121.985 E40.82943
G1 X104.27 Y121.618 E40.84968
G1 X120.48 Y105.408 E42.11336
G1 X120.109 Y105.193 E42.137
G1 X104.27 Y121.032 E43.37174
G1 X104.27 Y120.446 E43.40403
G1 X119.738 Y104.979 E44.60983
G1 X119.366 Y104.764 E44.63346
G1 X104.27 Y119.861 E45.81032
G1 X104.27 Y119.275 E45.84261
G1 X118.995 Y104.55 E46.99051
G1 X118.624 Y104.336 E47.01415
G1 X104.27 Y118.689 E48.13312
G1 X104.27 Y118.103 E48.1654
G1 X118.253 Y104.121 E49.25543
G1 X117.881 Y103.907 E49.27906
G1 X104.27 Y117.518 E50.34014
G1 X104.27 Y116.932 E50.37243
G1 X117.51 Y103.692 E51.40456
G1 X117.139 Y103.478 E51.4282
G1 X104.27 Y116.346 E52.43139
G1 X104.27 Y115.76 E52.46367
G1 X116.767 Y103.263 E53.43792
G1 X116.396 Y103.049 E53.46156
G1 X104.27 Y115.175 E54.40686
G1 X104.27 Y114.589 E54.43915
G1 X116.025 Y102.834 E55.3555
G1 X115.654 Y102.62 E55.37914
G1 X104.27 Y114.003 E56.26655
G1 X104.27 Y113.417 E56.29884
G1 X114.68 Y103.008 E57.11032
G1 X113.295 Y103.807 E57.19846
G1 X104.27 Y112.832 E57.90197
G1 X104.27 Y112.246 E57.93426
G1 X111.91 Y104.606 E58.52981
G1 X110.525 Y105.406 E58.61795
G1 X104.27 Y111.66 E59.10553
G1 X104.27 Y111.074 E59.13782
G1 X109.14 Y106.205 E59.51744
G1 X107.755 Y107.004 E59.60558
G1 X104.27 Y110.489 E59.87723
G1 X104.27 Y109.903 E59.90952
G1 X106.37 Y107.803 E60.0732
G1 X104.985 Y108.602 E60.16134
G1 X104.092 Y109.495 E60.23094
M106 S170.85
;LAYER_CHANGE
;Z:0.84
;HEIGHT:0.32
;BEFORE_LAYER_CHANGE
;0.84


G92 E0
G1 E-6.3 F3600
;WIPE_START
G1 F7200
G1 X104.985 Y108.602 E-6.89973
G1 X106.37 Y107.803 E-7.65926
G1 X104.575 Y109.598 E-8.865
;WIPE_END
G1 E-9 F3600
; stop printing object D2.stl id:0 copy 0
M486 S-1
G1 Z0.79 F9000
;AFTER_LAYER_CHANGE
;0.84
; printing object D2.stl id:0 copy 0
M486 S0
G1 X103.81 Y108.749
G1 E0 F2400
;TYPE:Internal perimeter
;WIDTH:0.476
G1 X115.503 Y102.001 E0.73163
G1 X125.657 Y107.866 E1.36707
G1 X127.191 Y108.752 E1.46309
G1 X127.191 Y122.248 E2.19445
G1 X115.503 Y128.999 E2.9259
G1 X103.81 Y122.251 E3.65753
G1 X103.81 Y108.809 E4.386
G1 X103.419 Y108.523 F9000
;TYPE:External perimeter
;WIDTH:0.428
G1 F1500
G1 X109.075 Y105.259 E4.69818
G1 X115.503 Y101.55 E5.05296
G1 X125.852 Y107.528 E5.62428
G1 X126.012 Y107.62 E5.63311
;TYPE:Overhang perimeter
M204 S250
G1 X127.581 Y108.527 E5.71975
G1 X127.581 Y122.473 E6.38646
G1 X117.633 Y128.22 E6.93567
;TYPE:External perimeter
M204 S500
G1 X115.503 Y129.45 E7.05325
G1 X109.158 Y125.788 E7.4035
G1 X103.419 Y122.477 E7.72021
G1 X103.419 Y108.583 E8.38438
;WIPE_START
G1 X103.813 Y108.593 F9000
;WIPE_END
G92 E0
G1 E-6.3 F3600
;WIPE_START
G1 F7200
G1 X108.465 Y105.851 E-8.865
;WIPE_END
G1 E-9 F3600
; acceleration to travel
M204 S1500
G1 X104.452 Y119.871 F9000
; decel to extrusion
M204 S500
G1 X103.934 Y121.682
; end travel
G1 E0 F2400
;TYPE:Solid infill
;WIDTH:0.483982
G1 X104.623 Y122.372 E0.05372
G1 X106.008 Y123.171 E0.14183
G1 X104.112 Y121.275 E0.28959
G1 X104.112 Y120.689 E0.32187
G1 X107.393 Y123.97 E0.57756
G1 X108.778 Y124.769 E0.66566
