; generated by SuperSlicer 2.4 on 2022-11-29 at 15:12:54 UTC

; 

; external perimeters extrusion width = 0.43mm
; perimeters extrusion width = 0.48mm
; infill extrusion width = 0.46mm
; solid infill extrusion width = 0.48mm
; top infill extrusion width = 0.46mm
; first layer extrusion width = 0.58mm

; object:{"name":"D8","id":"D8.stl id:0 copy 0","object_center":[115.500000,115.500000,0.000000],"boundingbox_center":[115.500000,115.500000,11.133540],"boundingbox_size":[30.237401,30.678743,22.267079]}
; Total objects to print: 1
M486 T1
; plater:{"center":[115.500000,115.500000,0.000000],"boundingbox_center":[115.500000,115.500000,11.133540],"boundingbox_size":[30.237401,30.678743,22.267079]}

;TYPE:Custom
G90 ; use absolute coordinates
M83 ; extruder relative mode
M140 S60 ; set final bed temp
M104 S150 ; set temporary nozzle temp to prevent oozing during homing and auto bed leveling
G4 S10 ; allow partial nozzle warmup
G28 ; home all axis
;G29 ; auto bed levelling
G1 Z10 F240
G1 X2 Y10 F3000
G1 Z0 F240
M104 S215 ; set final nozzle temp
M190 S60 ; wait for bed temp to stabilize
M109 S215 ; wait for nozzle temp to stabilize
G1 Z0.32 F240
G92 E0
G1 Y140 E10 F1500 ; prime the nozzle
G1 X2.3 F5000
G92 E0
G1 Y10 E10 F1200 ; prime the nozzle
G92 E0
;start
M107
G21 ; set units to millimeters
G90 ; use absolute coordinates
M82 ; use absolute distances for extrusion
G92 E0
; Filament gcode
;_TOOLCHANGE 0
M107
;LAYER_CHANGE
;Z:0.2
;HEIGHT:0.2
;BEFORE_LAYER_CHANGE
;0.2


G1 E-9 F3600
G1 Z0.15 F9000
;AFTER_LAYER_CHANGE
;0.2
G92 E0
M204 S500
G1 X102.977 Y99.589
G1 E9 F2400
;TYPE:Skirt
;WIDTH:0.48
G1 F1200
G1 X101.943 Y100.795 E9.05775
G1 X101.612 Y102.353 E9.11561
G1 X102.929 Y134.587 E10.28808
G1 X103.65 Y136.486 E10.36191
G1 X104.93 Y137.433 E10.41977
G1 X106.507 Y137.65 E10.47764
G1 X107.995 Y137.085 E10.5355
G1 X134.382 Y118.534 E11.70774
G1 X135.416 Y117.328 E11.76548
G1 X135.746 Y115.771 E11.82335
G1 X135.653 Y113.484 E11.90653
G1 X135.071 Y111.765 E11.97248
G1 X133.862 Y110.729 E12.03035
G1 X108.126 Y98.02 E13.07353
G1 X106.338 Y97.707 E13.13949
G1 X104.85 Y98.272 E13.19735
G1 X103.026 Y99.554 E13.27835
G92 E0
G1 E-6.3 F3600
;WIPE_START
G1 F7200
G1 X101.943 Y100.795 E-7.08242
G1 X101.612 Y102.353 E-7.83868
G1 X101.7 Y104.512 E-8.865
;WIPE_END
G1 E-9 F3600
; acceleration to travel
M204 S1500
G1 X105.377 Y102.551 F9000
; decel to extrusion
M204 S500
G1 X105.826 Y102.312
; end travel
G1 E0 F2400
;WIDTH:0.576
G1 F1200
G1 X106.427 Y101.912 E0.03201
G1 X106.558 Y101.867 E0.03814
G1 X106.977 Y101.836 E0.05675
G1 X107.113 Y101.861 E0.06289
G1 X107.854 Y102.207 E0.09912
G1 X131.41 Y113.85 E1.26387
G1 X131.516 Y113.942 E1.27006
G1 X131.753 Y114.294 E1.28887
G1 X131.799 Y114.426 E1.29507
G1 X131.855 Y115.154 E1.32743
G1 X131.83 Y115.291 E1.33363
G1 X131.649 Y115.675 E1.35243
G1 X131.559 Y115.782 E1.35863
G1 X108.452 Y132.027 E2.61068
G1 X108.315 Y132.076 E2.61709
G1 X107.877 Y132.11 E2.63659
G1 X107.735 Y132.083 E2.64301
G1 X107.054 Y131.747 E2.67664
G1 X106.946 Y131.651 E2.68306
G1 X106.706 Y131.282 E2.70255
G1 X106.663 Y131.144 E2.70897
G1 X105.514 Y102.924 E3.96085
G1 X105.543 Y102.789 E3.96699
G1 X105.734 Y102.415 E3.9856
G1 X105.786 Y102.357 E3.98907
G1 X106.181 Y102.721 F9000
G1 F1200
G1 X106.667 Y102.398 E4.01495
G1 X106.948 Y102.377 E4.02742
G1 X107.618 Y102.69 E4.0602
G1 X131.11 Y114.301 E5.22173
G1 X131.269 Y114.537 E5.23433
G1 X131.314 Y115.125 E5.2605
G1 X131.193 Y115.382 E5.27311
G1 X108.202 Y131.546 E6.51885
G1 X107.908 Y131.569 E6.53192
G1 X107.357 Y131.297 E6.55914
G1 X107.196 Y131.05 E6.57221
G1 X106.054 Y102.972 E7.81782
G1 X106.154 Y102.774 E7.82763
G1 X106.596 Y103.09 F9000
G1 F1200
G1 X106.848 Y102.923 E7.84103
G1 X107.392 Y103.178 E7.86764
G1 X130.744 Y114.72 E9.02228
G1 X130.767 Y115.025 E9.03584
G1 X108.013 Y131.022 E10.26874
G1 X107.727 Y130.88 E10.28288
G1 X106.599 Y103.15 E11.51305
; printing object D8.stl id:0 copy 0
M486 S0
G1 X107.178 Y103.693 F9000
;TYPE:External perimeter
G1 F1200
G1 X129.925 Y114.936 E12.63779
G1 X108.256 Y130.171 E13.81194
G1 X107.18 Y103.753 E14.9839
;WIPE_START
G1 X107.452 Y103.984 F9000
;WIPE_END
G1 X107.752 Y104.576
;TYPE:Internal perimeter
G1 F1200
G1 X128.876 Y115.017 E16.02839
G1 X108.753 Y129.165 E17.11876
G1 X107.754 Y104.636 E18.20692
G92 E0
G1 E-6.3 F3600
;WIPE_START
G1 F7200
G1 X112.6 Y107.018 E-8.865
;WIPE_END
G1 E-9 F3600
; acceleration to travel
M204 S1500
G1 X124.915 Y113.224 F9000
; decel to extrusion
M204 S500
G1 X126.419 Y113.982
; end travel
G1 E0 F2400
;TYPE:Solid infill
;WIDTH:0.57596
G1 F1200
G1 X127.759 Y115.323 E0.08401
G1 X127.313 Y115.636 E0.10819
G1 X125.426 Y113.749 E0.22648
G1 X123.923 Y113.006 E0.30077
G1 X126.867 Y115.95 E0.48528
G1 X126.421 Y116.264 E0.50946
G1 X122.421 Y112.264 E0.76018
G1 X120.918 Y111.521 E0.83448
G1 X125.974 Y116.577 E1.15142
G1 X125.528 Y116.891 E1.1756
G1 X119.415 Y110.778 E1.55876
G1 X117.913 Y110.036 E1.63305
G1 X125.082 Y117.205 E2.08244
G1 X124.636 Y117.519 E2.10661
G1 X116.41 Y109.293 E2.62222
G1 X114.907 Y108.55 E2.69651
G1 X124.189 Y117.832 E3.27833
G1 X123.743 Y118.146 E3.30251
G1 X113.405 Y107.808 E3.95055
G1 X111.902 Y107.065 E4.02484
G1 X123.297 Y118.46 E4.7391
G1 X122.851 Y118.774 E4.76328
G1 X110.399 Y106.322 E5.54375
G1 X108.897 Y105.579 E5.61805
G1 X122.404 Y119.087 E6.46474
G1 X121.958 Y119.401 E6.48892
G1 X108.187 Y105.63 E7.35211
G1 X108.219 Y106.422 E7.38725
G1 X121.512 Y119.715 E8.22046
G1 X121.066 Y120.028 E8.24463
G1 X108.252 Y107.214 E9.04784
G1 X108.284 Y108.007 E9.08299
G1 X120.62 Y120.342 E9.8562
G1 X120.173 Y120.656 E9.88038
G1 X108.316 Y108.799 E10.62361
G1 X108.348 Y109.591 E10.65875
G1 X119.727 Y120.97 E11.37198
G1 X119.281 Y121.283 E11.39616
G1 X108.381 Y110.383 E12.0794
G1 X108.413 Y111.175 E12.11454
G1 X118.835 Y121.597 E12.76779
G1 X118.388 Y121.911 E12.79197
G1 X108.445 Y111.968 E13.41523
G1 X108.477 Y112.76 E13.45037
G1 X117.942 Y122.224 E14.04363
G1 X117.496 Y122.538 E14.06781
G1 X108.51 Y113.552 E14.63108
G1 X108.542 Y114.344 E14.66623
G1 X117.05 Y122.852 E15.19951
G1 X116.603 Y123.166 E15.22369
G1 X108.574 Y115.136 E15.72698
G1 X108.606 Y115.929 E15.76212
G1 X116.157 Y123.479 E16.23542
G1 X115.711 Y123.793 E16.25959
G1 X108.639 Y116.721 E16.7029
G1 X108.671 Y117.513 E16.73804
G1 X115.265 Y124.107 E17.15135
G1 X114.818 Y124.421 E17.17553
G1 X108.703 Y118.305 E17.55885
G1 X108.735 Y119.097 E17.59399
G1 X114.372 Y124.734 E17.94733
G1 X113.926 Y125.048 E17.9715
G1 X108.768 Y119.89 E18.29484
G1 X108.8 Y120.682 E18.32998
G1 X113.48 Y125.362 E18.62333
G1 X113.034 Y125.675 E18.64751
G1 X108.832 Y121.474 E18.91086
G1 X108.864 Y122.266 E18.946
G1 X112.587 Y125.989 E19.17936
G1 X112.141 Y126.303 E19.20354
G1 X108.897 Y123.058 E19.40691
G1 X108.929 Y123.851 E19.44205
G1 X111.695 Y126.617 E19.61543
G1 X111.249 Y126.93 E19.63961
G1 X108.961 Y124.643 E19.78299
G1 X108.993 Y125.435 E19.81814
G1 X110.802 Y127.244 E19.93153
G1 X110.356 Y127.558 E19.95571
G1 X109.026 Y126.227 E20.03911
G1 X109.058 Y127.019 E20.07425
G1 X109.91 Y127.871 E20.12766
G1 X109.464 Y128.185 E20.15184
G1 X108.849 Y127.571 E20.19037
M106 S84.15
;LAYER_CHANGE
;Z:0.52
;HEIGHT:0.32
;BEFORE_LAYER_CHANGE
;0.52


G92 E0
G1 E-6.3 F3600
;WIPE_START
G1 F7200
G1 X109.464 Y128.185 E-6.71291
G1 X109.91 Y127.871 E-6.97202
G1 X109.058 Y127.019 E-7.54441
G1 X109.026 Y126.227 E-7.92102
G1 X110.356 Y127.558 E-8.81483
G1 X110.443 Y127.497 E-8.865
;WIPE_END
G1 E-9 F3600
; stop printing object D8.stl id:0 copy 0
M486 S-1
G1 Z0.47 F9000
;AFTER_LAYER_CHANGE
;0.52
G92 E0
; acceleration to travel
M204 S1500
G1 X113.741 Y132.189
; decel to extrusion
M204 S500
G1 X114.144 Y132.762
; end travel
G1 E9 F2400
;TYPE:Skirt
;WIDTH:0.48
G1 F1200
G1 X134.382 Y118.534 E10.35375
G1 X135.416 Y117.328 E10.44071
G1 X135.746 Y115.771 E10.52783
G1 X135.653 Y113.484 E10.65309
G1 X135.071 Y111.765 E10.75239
G1 X133.862 Y110.729 E10.83952
G1 X108.126 Y98.02 E12.41028
G1 X106.338 Y97.707 E12.50958
G1 X104.85 Y98.272 E12.59671
G1 X102.977 Y99.589 E12.72196
G1 X101.943 Y100.795 E12.80892
G1 X101.612 Y102.353 E12.89604
G1 X102.929 Y134.587 E14.66147
G1 X103.65 Y136.486 E14.77263
G1 X104.93 Y137.433 E14.85976
G1 X106.507 Y137.65 E14.94688
G1 X107.995 Y137.085 E15.03401
G1 X114.095 Y132.797 E15.44204
G92 E0
G1 E-6.3 F3600
;WIPE_START
G1 F7200
G1 X118.513 Y129.691 E-8.865
;WIPE_END
G1 E-9 F3600
; printing object D8.stl id:0 copy 0
M486 S0
; acceleration to travel
M204 S1500
G1 X111.727 Y128.354 F9000
; decel to extrusion
M204 S500
G1 X110.85 Y128.181
; end travel
G1 E0 F2400
;TYPE:Internal perimeter
;WIDTH:0.476
G1 X108.38 Y129.918 E0.16363
G1 X107.321 Y103.876 E1.57605
G1 X129.702 Y114.928 E2.92872
G1 X110.899 Y128.147 E4.17425
M204 S250
G1 X111.124 Y128.466 F9000
;TYPE:Overhang perimeter
;WIDTH:0.428
G1 F1500
G1 X108.169 Y130.543 E4.34691
G1 X108.146 Y130.532 E4.34814
G1 X108.036 Y130.477 E4.35403
G1 X108.012 Y130.466 E4.35529
G1 X106.912 Y103.44 E5.64834
G1 X106.934 Y103.424 E5.64963
G1 X107.022 Y103.363 E5.65475
G1 X107.046 Y103.346 E5.65616
G1 X107.08 Y103.322 E5.65813
G1 X130.288 Y114.782 E6.8955
G1 X130.29 Y114.829 E6.8977
G1 X130.291 Y114.858 E6.89909
G1 X130.295 Y114.96 E6.904
G1 X130.296 Y114.987 E6.90528
G1 X111.173 Y128.432 E8.0228
G92 E0
G1 E-6.3 F3600
;WIPE_START
G1 F7200
M204 S500
G1 X108.169 Y130.543 E-8.04408
G1 X108.146 Y130.532 E-8.05632
G1 X108.036 Y130.477 E-8.1149
G1 X108.012 Y130.466 E-8.12741
G1 X107.949 Y128.914 E-8.865
;WIPE_END
G1 E-9 F3600
; acceleration to travel
M204 S1500
G1 X124.489 Y118.309 F9000
; decel to extrusion
M204 S500
G1 X126.626 Y116.939
; end travel
G1 E0 F2400
;TYPE:Solid infill
;WIDTH:0.484545
G1 X128.763 Y114.802 E0.16673
G1 X128.371 Y114.608 E0.19085
G1 X125.386 Y117.592 E0.42367
G1 X123.414 Y118.979 E0.55669
G1 X127.979 Y114.414 E0.9128
G1 X127.586 Y114.221 E0.93693
G1 X121.441 Y120.366 E1.41634
G1 X119.469 Y121.753 E1.54935
G1 X127.194 Y114.027 E2.15206
G1 X126.802 Y113.834 E2.17618
G1 X117.496 Y123.14 E2.90218
G1 X115.524 Y124.526 E3.03519
G1 X126.41 Y113.64 E3.88449
G1 X126.018 Y113.446 E3.90861
G1 X113.551 Y125.913 E4.8812
G1 X111.579 Y127.3 E5.01421
G1 X125.626 Y113.253 E6.11009
G1 X125.234 Y113.059 E6.13422
G1 X109.606 Y128.687 E7.35339
G1 X108.66 Y129.352 E7.4172
G1 X108.648 Y129.059 E7.43337
G1 X124.842 Y112.865 E8.6967
G1 X124.449 Y112.672 E8.72083
G1 X108.625 Y128.496 E9.95536
G1 X108.602 Y127.933 E9.98643
G1 X124.057 Y112.478 E11.19216
G1 X123.665 Y112.284 E11.21628
G1 X108.579 Y127.371 E12.3932
G1 X108.556 Y126.808 E12.42428
G1 X123.273 Y112.091 E13.57239
G1 X122.881 Y111.897 E13.59652
G1 X108.533 Y126.245 E14.71583
G1 X108.51 Y125.682 E14.74691
G1 X122.489 Y111.704 E15.83741
G1 X122.097 Y111.51 E15.86154
G1 X108.488 Y125.119 E16.92324
G1 X108.465 Y124.556 E16.95432
G1 X121.705 Y111.316 E17.98722
G1 X121.313 Y111.123 E18.01134
G1 X108.442 Y123.993 E19.01544
G1 X108.419 Y123.431 E19.04651
G1 X120.92 Y110.929 E20.0218
G1 X120.528 Y110.735 E20.04593
G1 X108.396 Y122.868 E20.99241
G1 X108.373 Y122.305 E21.02349
G1 X120.136 Y110.542 E21.94117
G1 X119.744 Y110.348 E21.96529
G1 X108.35 Y121.742 E22.85417
G1 X108.327 Y121.179 E22.88524
G1 X119.352 Y110.154 E23.74531
G1 X118.96 Y109.961 E23.76944
G1 X108.304 Y120.616 E24.60071
G1 X108.281 Y120.053 E24.63178
G1 X118.568 Y109.767 E25.43425
G1 X118.176 Y109.574 E25.45837
G1 X108.259 Y119.491 E26.23203
G1 X108.236 Y118.928 E26.2631
G1 X117.783 Y109.38 E27.00796
G1 X117.391 Y109.186 E27.03208
G1 X108.213 Y118.365 E27.74813
G1 X108.19 Y117.802 E27.77921
G1 X116.999 Y108.993 E28.46645
G1 X116.607 Y108.799 E28.49058
G1 X108.167 Y117.239 E29.14902
G1 X108.144 Y116.676 E29.18009
G1 X116.215 Y108.605 E29.80973
G1 X115.823 Y108.412 E29.83385
G1 X108.121 Y116.113 E30.43469
G1 X108.098 Y115.551 E30.46576
G1 X115.431 Y108.218 E31.03779
G1 X115.039 Y108.024 E31.06191
G1 X108.075 Y114.988 E31.60514
G1 X108.052 Y114.425 E31.63621
G1 X114.646 Y107.831 E32.15063
G1 X114.254 Y107.637 E32.17475
G1 X108.03 Y113.862 E32.66037
G1 X108.007 Y113.299 E32.69144
G1 X113.862 Y107.444 E33.14825
G1 X113.47 Y107.25 E33.17238
G1 X107.984 Y112.736 E33.60038
G1 X107.961 Y112.173 E33.63146
G1 X113.078 Y107.056 E34.03066
G1 X112.686 Y106.863 E34.05478
G1 X107.938 Y111.61 E34.42518
G1 X107.915 Y111.048 E34.45625
G1 X112.294 Y106.669 E34.79785
G1 X111.902 Y106.475 E34.82197
G1 X107.892 Y110.485 E35.13476
G1 X107.869 Y109.922 E35.16583
G1 X111.509 Y106.282 E35.44982
G1 X111.117 Y106.088 E35.47394
G1 X107.846 Y109.359 E35.72912
G1 X107.823 Y108.796 E35.76019
G1 X110.725 Y105.894 E35.98657
G1 X110.333 Y105.701 E36.01069
G1 X107.801 Y108.233 E36.20826
G1 X107.778 Y107.67 E36.23934
G1 X109.941 Y105.507 E36.4081
G1 X109.549 Y105.314 E36.43223
G1 X107.755 Y107.108 E36.57219
G1 X107.732 Y106.545 E36.60326
G1 X109.157 Y105.12 E36.71442
G1 X108.765 Y104.926 E36.73854
G1 X107.709 Y105.982 E36.82089
G1 X107.686 Y105.419 E36.85197
G1 X108.372 Y104.733 E36.90552
G1 X107.98 Y104.539 E36.92964
G1 X107.492 Y105.027 E36.96775
M106 S170.85
;LAYER_CHANGE
;Z:0.84
;HEIGHT:0.32
;BEFORE_LAYER_CHANGE
;0.84


G92 E0
G1 E-6.3 F3600
;WIPE_START
G1 F7200
G1 X107.98 Y104.539 E-6.62811
G1 X108.372 Y104.733 E-6.83584
G1 X107.686 Y105.419 E-7.29692
G1 X107.709 Y105.982 E-7.5645
G1 X108.765 Y104.926 E-8.2736
G1 X109.157 Y105.12 E-8.48133
G1 X108.586 Y105.691 E-8.865
;WIPE_END
G1 E-9 F3600
; stop printing object D8.stl id:0 copy 0
M486 S-1
G1 Z0.79 F9000
;AFTER_LAYER_CHANGE
;0.84
G92 E0
; printing object D8.stl id:0 copy 0
M486 S0
; acceleration to travel
M204 S1500
G1 X107.369 Y103.896
; decel to extrusion
M204 S500
G1 X107.212 Y103.664
; end travel
G1 E9 F2400
;TYPE:Internal perimeter
;WIDTH:0.476
G1 X129.936 Y114.886 E10.37336
G1 X108.288 Y130.105 E11.80738
G1 X107.215 Y103.724 E13.23814
G1 X107.314 Y103.279 F9000
;TYPE:External perimeter
;WIDTH:0.428
G1 F1500
G1 X130.18 Y114.571 E14.45726
G1 X130.204 Y115.174 E14.48611
G1 X108.403 Y130.501 E15.7601
G1 X107.904 Y130.254 E15.78673
G1 X106.82 Y103.626 E17.06072
G1 X107.265 Y103.314 E17.0867
;WIPE_START
G1 X107.478 Y103.644 F9000
;WIPE_END
G92 E0
G1 E-6.3 F3600
;WIPE_START
G1 F7200
G1 X112.325 Y106.025 E-8.865
;WIPE_END
G1 E-9 F3600
; acceleration to travel
M204 S1500
G1 X127.272 Y114.194 F9000
; decel to extrusion
M204 S500
G1 X129.203 Y115.249
; end travel
G1 E0 F2400
;TYPE:Solid infill
;WIDTH:0.483992
G1 X128.436 Y114.482 E0.05977
G1 X127.278 Y113.911 E0.13089
G1 X128.731 Y115.363 E0.24407
G1 X128.387 Y115.605 E0.26723
G1 X126.121 Y113.339 E0.44379
G1 X124.964 Y112.768 E0.5149
G1 X128.043 Y115.847 E0.75483
G1 X127.699 Y116.088 E0.77799
G1 X123.807 Y112.196 E1.08129
G1 X122.65 Y111.625 E1.15241
G1 X127.355 Y116.33 E1.51907
G1 X127.011 Y116.572 E1.54224
G1 X121.492 Y111.053 E1.97228
G1 X120.335 Y110.482 E2.0434
G1 X126.667 Y116.814 E2.53681
G1 X126.323 Y117.056 E2.55998
G1 X119.178 Y109.911 E3.11676
G1 X118.021 Y109.339 E3.18787
G1 X125.979 Y117.298 E3.80803
G1 X125.635 Y117.539 E3.8312
G1 X116.864 Y108.768 E4.51472
G1 X115.706 Y108.196 E4.58584
G1 X125.291 Y117.781 E5.33274
G1 X124.947 Y118.023 E5.3559
G1 X114.549 Y107.625 E6.16617
G1 X113.392 Y107.053 E6.23729
G1 X124.603 Y118.265 E7.11093
G1 X124.259 Y118.507 E7.1341
G1 X112.235 Y106.482 E8.07111
G1 X111.078 Y105.91 E8.14223
G1 X123.916 Y118.748 E9.14261
G1 X123.572 Y118.99 E9.16578
G1 X109.92 Y105.339 E10.22954
G1 X108.763 Y104.768 E10.30065
G1 X123.228 Y119.232 E11.42778
G1 X122.884 Y119.474 E11.45095
G1 X107.606 Y104.196 E12.64145
G1 X107.535 Y104.161 E12.64581
G1 X107.558 Y104.734 E12.67742
G1 X122.54 Y119.716 E13.84483
G1 X122.196 Y119.957 E13.868
G1 X107.583 Y105.345 E15.00668
G1 X107.608 Y105.955 E15.04035
G1 X121.852 Y120.199 E16.15029
G1 X121.508 Y120.441 E16.17346
G1 X107.633 Y106.566 E17.25466
G1 X107.658 Y107.177 E17.28833
G1 X121.164 Y120.683 E18.3408
G1 X120.82 Y120.925 E18.36396
G1 X107.683 Y107.787 E19.38769
G1 X107.707 Y108.398 E19.42136
G1 X120.476 Y121.166 E20.41635
G1 X120.132 Y121.408 E20.43952
G1 X107.732 Y109.008 E21.40577
G1 X107.757 Y109.619 E21.43944
G1 X119.788 Y121.65 E22.37696
G1 X119.444 Y121.892 E22.40012
G1 X107.782 Y110.23 E23.3089
G1 X107.807 Y110.84 E23.34257
G1 X119.1 Y122.134 E24.22261
