; generated by SuperSlicer 2.4 on 2022-12-22 at 11:18:00 UTC

; 

; external perimeters extrusion width = 0.43mm
; perimeters extrusion width = 0.48mm
; infill extrusion width = 0.46mm
; solid infill extrusion width = 0.48mm
; top infill extrusion width = 0.46mm
; first layer extrusion width = 0.58mm

; object:{"name":"cone_1_thick_half","id":"cone_1_thick_half.stl id:0 copy 0","object_center":[110.739912,105.792044,0.000000],"boundingbox_center":[110.739912,105.792044,13.179582],"boundingbox_size":[59.319551,49.410768,26.359163]}
; Total objects to print: 1
M486 T1
; plater:{"center":[110.739912,105.792044,0.000000],"boundingbox_center":[110.739912,105.792044,13.179582],"boundingbox_size":[59.319551,49.410768,26.359163]}

;TYPE:Custom
G90 ; use absolute coordinates
M83 ; extruder relative mode
M140 S60 ; set final bed temp
M104 S150 ; set temporary nozzle temp to prevent oozing during homing and auto bed leveling
G4 S10 ; allow partial nozzle warmup
G28 ; home all axis
;G29 ; auto bed levelling
G1 Z10 F240
G1 X2 Y10 F3000
G1 Z0 F240
M104 S210 ; set final nozzle temp
M190 S60 ; wait for bed temp to stabilize
M109 S210 ; wait for nozzle temp to stabilize
G1 Z0.28 F240
G92 E0
G1 Y140 E10 F1500 ; prime the nozzle
G1 X2.3 F5000
G92 E0
G1 Y10 E10 F1200 ; prime the nozzle
G92 E0
;start
M107
G21 ; set units to millimeters
G90 ; use absolute coordinates
M82 ; use absolute distances for extrusion
G92 E0
; Filament gcode
;_TOOLCHANGE 0
M107
;LAYER_CHANGE
;Z:0.2
;HEIGHT:0.2
;BEFORE_LAYER_CHANGE
;0.2


G1 E-1 F3000
G1 Z0.15 F9000
;AFTER_LAYER_CHANGE
;0.2
G92 E0
M204 S500
G1 X97.471 Y78.307
G1 E1 F3000
;TYPE:Skirt
;WIDTH:0.48
G1 F1200
G1 X96.888 Y79.287 E1.04185
G1 X76.46 Y126.894 E2.94343
G1 X76.154 Y127.906 E2.98226
G1 X76.042 Y129.382 E3.03659
G1 X76.184 Y130.333 E3.07187
G1 X76.446 Y131.184 E3.10457
G1 X77.169 Y132.434 E3.15759
G1 X77.739 Y133.044 E3.18822
G1 X78.372 Y133.569 E3.21841
G1 X79.584 Y134.232 E3.26912
G1 X81.624 Y135.111 E3.35065
G1 X82.537 Y135.4 E3.38581
G1 X83.255 Y135.519 E3.41254
G1 X84.271 Y135.556 E3.44985
G1 X138.74 Y132.862 E5.45167
G1 X140.286 Y132.553 E5.50953
G1 X141.476 Y131.999 E5.5577
G1 X142.375 Y131.289 E5.59977
G1 X143.266 Y130.201 E5.65138
G1 X143.765 Y129.244 E5.69098
G1 X145.067 Y126.178 E5.81326
G1 X145.254 Y125.587 E5.83603
G1 X145.453 Y124.138 E5.88972
G1 X145.357 Y123.012 E5.93119
G1 X144.989 Y121.846 E5.97607
G1 X144.137 Y120.426 E6.03685
G1 X108.543 Y79.02 E8.04111
G1 X107.71 Y78.23 E8.08324
G1 X106.747 Y77.585 E8.1258
G1 X103.982 Y76.382 E8.23648
G1 X102.701 Y76.059 E8.28499
G1 X101.686 Y76.023 E8.32225
G1 X101.004 Y76.107 E8.34748
G1 X100.212 Y76.309 E8.37749
G1 X99.535 Y76.577 E8.40421
G1 X98.571 Y77.173 E8.44582
G1 X98.016 Y77.672 E8.47322
G1 X97.51 Y78.261 E8.50173
G92 E0
G1 E-0.7 F3000
;WIPE_START
G1 F7200
G1 X97.136 Y78.877 E-0.985
;WIPE_END
G1 E-1 F3000
; acceleration to travel
M204 S1500
G1 X100.328 Y80.285 F9000
; decel to extrusion
M204 S500
G1 X100.718 Y80.457
; end travel
G1 E0 F3000
;WIDTH:0.576
G1 F1200
G1 X100.939 Y80.254 E0.01344
G1 X101.135 Y80.121 E0.02402
G1 X101.628 Y79.937 E0.04761
G1 X101.898 Y79.901 E0.05981
G1 X102.111 Y79.9 E0.06933
G1 X102.611 Y80.009 E0.09223
G1 X104.774 Y80.928 E0.19744
G1 X105.138 Y81.14 E0.21631
G1 X105.437 Y81.408 E0.23429
G1 X105.635 Y81.698 E0.25
G1 X105.773 Y82.026 E0.26591
G1 X105.893 Y82.542 E0.28965
G1 X106.253 Y82.996 E0.3156
G1 X106.838 Y83.645 E0.35469
G1 X107.334 Y84.266 E0.39029
G1 X107.832 Y84.808 E0.42324
G1 X108.701 Y85.835 E0.48347
G1 X109.24 Y86.43 E0.51941
G1 X109.719 Y87.023 E0.55356
G1 X110.931 Y88.394 E0.63544
G1 X112.748 Y90.52 E0.76067
G1 X113.258 Y91.142 E0.79666
G1 X113.654 Y91.296 E0.81573
G1 X113.973 Y91.46 E0.83176
G1 X114.139 Y91.577 E0.84085
G1 X114.407 Y91.828 E0.85728
G1 X114.549 Y92.028 E0.86826
G1 X114.715 Y92.368 E0.88521
G1 X114.815 Y92.792 E0.9047
G1 X114.827 Y92.972 E0.9128
G1 X115.205 Y93.39 E0.93804
G1 X115.854 Y94.156 E0.98297
G1 X116.159 Y94.481 E1.00294
G1 X116.617 Y95.047 E1.03553
G1 X116.893 Y95.331 E1.05328
G1 X117.391 Y95.949 E1.08879
G1 X117.889 Y96.504 E1.12215
G1 X118.347 Y97.069 E1.15474
G1 X118.89 Y97.665 E1.19081
G1 X121.53 Y100.759 E1.37291
G1 X121.998 Y101.284 E1.40443
G1 X122.204 Y101.551 E1.41952
G1 X122.586 Y101.7 E1.43789
G1 X122.909 Y101.869 E1.45417
G1 X123.076 Y101.989 E1.46339
G1 X123.343 Y102.244 E1.47992
G1 X123.484 Y102.447 E1.49097
G1 X123.64 Y102.777 E1.50733
G1 X123.727 Y103.14 E1.52403
G1 X123.74 Y103.324 E1.53232
G1 X124.006 Y103.615 E1.54995
G1 X124.308 Y103.999 E1.57182
G1 X124.804 Y104.548 E1.60496
G1 X125.067 Y104.89 E1.62429
G1 X125.808 Y105.714 E1.67387
G1 X128.438 Y108.803 E1.85551
G1 X128.957 Y109.371 E1.88995
G1 X129.396 Y109.919 E1.92135
G1 X129.723 Y110.261 E1.94257
G1 X130.397 Y111.09 E1.99041
G1 X130.731 Y111.442 E2.0121
G1 X131.137 Y111.958 E2.04152
G1 X131.532 Y112.103 E2.06035
G1 X131.84 Y112.263 E2.07588
G1 X132.025 Y112.397 E2.08611
G1 X132.237 Y112.602 E2.09931
G1 X132.406 Y112.834 E2.11216
G1 X132.561 Y113.162 E2.12839
G1 X132.685 Y113.731 E2.15448
G1 X134.575 Y115.938 E2.28456
G1 X134.796 Y116.168 E2.29882
G1 X135.104 Y116.547 E2.3207
G1 X135.38 Y116.845 E2.33889
G1 X135.613 Y117.146 E2.35593
G1 X136.137 Y117.725 E2.39086
G1 X136.371 Y118.029 E2.40803
G1 X136.643 Y118.316 E2.42576
G1 X137.133 Y118.923 E2.46068
G1 X137.618 Y119.455 E2.49293
G1 X138.12 Y120.076 E2.52865
G1 X138.411 Y120.381 E2.54753
G1 X138.876 Y120.962 E2.58087
G1 X139.17 Y121.27 E2.5999
G1 X139.994 Y122.246 E2.6571
G1 X140.101 Y122.355 E2.66393
G1 X140.706 Y122.625 E2.6936
G1 X141.008 Y122.838 E2.71013
G1 X141.213 Y123.047 E2.72325
G1 X141.43 Y123.411 E2.74223
G1 X141.545 Y123.778 E2.75943
G1 X141.569 Y124.223 E2.77937
G1 X141.492 Y124.643 E2.7985
G1 X140.102 Y127.936 E2.95849
G1 X139.845 Y128.325 E2.9794
G1 X139.581 Y128.578 E2.99577
G1 X139.391 Y128.715 E3.00623
G1 X139.194 Y128.815 E3.01612
G1 X138.637 Y128.944 E3.04174
G1 X138.358 Y128.935 E3.05422
G1 X138.026 Y128.867 E3.0694
G1 X137.408 Y128.604 E3.09945
G1 X137.264 Y128.6 E3.10593
G1 X135.994 Y128.677 E3.16286
G1 X135.568 Y128.676 E3.18196
G1 X134.826 Y128.739 E3.21531
G1 X134.404 Y128.739 E3.23416
G1 X133.609 Y128.803 E3.26989
G1 X132.891 Y128.819 E3.30205
G1 X132.18 Y128.879 E3.33399
G1 X131.703 Y128.882 E3.35533
G1 X131.016 Y128.939 E3.38619
G1 X130.541 Y128.943 E3.40745
G1 X130.214 Y128.978 E3.42218
G1 X129.775 Y128.986 E3.44185
G1 X129.4 Y129.02 E3.45872
G1 X128.968 Y129.022 E3.47806
G1 X126.069 Y129.172 E3.60802
G1 X125.564 Y129.477 E3.63445
G1 X125.219 Y129.591 E3.65067
G1 X124.935 Y129.628 E3.66353
G1 X124.641 Y129.616 E3.67668
G1 X124.419 Y129.575 E3.68679
G1 X124.096 Y129.465 E3.70205
G1 X123.711 Y129.276 E3.72125
G1 X123.118 Y129.333 E3.74792
G1 X122.649 Y129.334 E3.76895
G1 X121.569 Y129.418 E3.81744
G1 X121.106 Y129.416 E3.83817
G1 X120.348 Y129.478 E3.8722
G1 X119.564 Y129.495 E3.90732
G1 X115.512 Y129.719 E4.08898
G1 X114.494 Y129.744 E4.13457
G1 X113.608 Y129.817 E4.17439
G1 X113.222 Y129.815 E4.19165
G1 X112.805 Y129.857 E4.21045
G1 X112.364 Y129.864 E4.2302
G1 X112.204 Y129.995 E4.23945
G1 X111.885 Y130.174 E4.25583
G1 X111.538 Y130.287 E4.27213
G1 X111.295 Y130.324 E4.28317
G1 X110.928 Y130.306 E4.29963
G1 X110.729 Y130.268 E4.30869
G1 X110.391 Y130.152 E4.32468
G1 X110.016 Y129.978 E4.34319
G1 X109.743 Y130.008 E4.3555
G1 X108.975 Y130.034 E4.38986
G1 X103.787 Y130.315 E4.62248
G1 X102.939 Y130.353 E4.6605
G1 X102.683 Y130.349 E4.67196
G1 X101.908 Y130.411 E4.70676
G1 X101.455 Y130.411 E4.72705
G1 X100.723 Y130.47 E4.7599
G1 X100.274 Y130.473 E4.78
G1 X98.765 Y130.543 E4.84765
G1 X98.711 Y130.547 E4.85006
G1 X98.569 Y130.665 E4.85833
G1 X98.193 Y130.883 E4.87778
G1 X97.835 Y130.996 E4.89462
G1 X97.591 Y131.03 E4.90562
G1 X97.225 Y131.008 E4.92203
G1 X97.028 Y130.968 E4.93105
G1 X96.693 Y130.852 E4.94692
G1 X96.304 Y130.669 E4.96616
G1 X95.505 Y130.727 E5.00203
G1 X95.103 Y130.728 E5.02001
G1 X94.338 Y130.793 E5.05438
G1 X93.587 Y130.803 E5.08804
G1 X92.842 Y130.861 E5.12147
G1 X92.139 Y130.885 E5.15295
G1 X91.621 Y130.933 E5.17623
G1 X90.945 Y130.943 E5.20651
G1 X90.114 Y131.009 E5.24384
G1 X89.317 Y131.028 E5.27954
G1 X85.676 Y131.227 E5.44279
G1 X85.109 Y131.243 E5.46817
G1 X85.026 Y131.255 E5.4719
G1 X84.801 Y131.416 E5.48434
G1 X84.52 Y131.551 E5.49826
G1 X84.197 Y131.64 E5.51328
G1 X83.937 Y131.672 E5.52499
G1 X83.52 Y131.643 E5.54372
G1 X83.121 Y131.533 E5.56225
G1 X81.775 Y130.938 E5.62815
G1 X80.956 Y130.603 E5.66772
G1 X80.584 Y130.381 E5.68713
G1 X80.263 Y130.071 E5.70708
G1 X80.04 Y129.689 E5.72692
G1 X79.935 Y129.307 E5.74465
G1 X79.92 Y128.926 E5.76171
G1 X79.952 Y128.702 E5.77185
G1 X80.06 Y128.346 E5.7885
G1 X80.318 Y127.814 E5.81495
G1 X80.962 Y126.248 E5.89079
G1 X81.206 Y125.826 E5.91262
G1 X81.442 Y125.557 E5.92863
G1 X81.677 Y125.377 E5.94188
G1 X82.04 Y125.184 E5.96029
G1 X82.383 Y125.086 E5.97624
G1 X82.767 Y125.086 E5.99346
G1 X82.993 Y125.125 E6.00372
G1 X83.284 Y125.218 E6.01741
G1 X83.86 Y125.46 E6.04535
G1 X84.19 Y125.423 E6.06021
G1 X84.93 Y125.398 E6.09337
G1 X85.738 Y125.332 E6.12968
G1 X86.501 Y125.316 E6.16383
G1 X93.641 Y124.93 E6.48394
G1 X95.036 Y124.886 E6.54644
G1 X95.523 Y124.586 E6.57202
G1 X95.867 Y124.471 E6.58827
G1 X96.147 Y124.432 E6.60095
G1 X96.443 Y124.441 E6.61419
G1 X96.667 Y124.481 E6.62436
G1 X96.993 Y124.589 E6.63974
G1 X97.371 Y124.767 E6.65847
G1 X97.509 Y124.769 E6.66465
G1 X99.602 Y124.639 E6.75852
G1 X100.354 Y124.627 E6.79219
G1 X101.161 Y124.558 E6.82846
G1 X101.91 Y124.542 E6.86197
G1 X102.612 Y124.481 E6.89353
G1 X103.071 Y124.482 E6.91409
G1 X103.834 Y124.42 E6.94835
G1 X104.597 Y124.405 E6.98251
G1 X105.381 Y124.339 E7.01774
G1 X105.81 Y124.34 E7.03697
G1 X108.69 Y124.189 E7.16605
G1 X108.911 Y124.046 E7.17785
G1 X109.214 Y123.885 E7.19317
G1 X109.539 Y123.777 E7.20853
G1 X109.81 Y123.734 E7.22084
G1 X110.125 Y123.741 E7.23493
G1 X110.34 Y123.774 E7.24466
G1 X110.688 Y123.884 E7.261
G1 X111.056 Y124.067 E7.27939
G1 X111.183 Y124.067 E7.28509
G1 X111.735 Y124.025 E7.30986
G1 X112.136 Y124.025 E7.32782
G1 X113.287 Y123.937 E7.37949
G1 X114.811 Y123.88 E7.44777
G1 X115.192 Y123.842 E7.46492
G1 X117.117 Y123.766 E7.55116
G1 X119.567 Y123.63 E7.66102
G1 X120.012 Y123.629 E7.68093
G1 X120.812 Y123.561 E7.7169
G1 X121.555 Y123.548 E7.75014
G1 X122.422 Y123.492 E7.78904
G1 X122.561 Y123.377 E7.79713
G1 X122.887 Y123.186 E7.81404
G1 X123.249 Y123.066 E7.83112
G1 X123.5 Y123.028 E7.84246
G1 X123.869 Y123.048 E7.85904
G1 X124.072 Y123.089 E7.8683
G1 X124.405 Y123.206 E7.88409
G1 X124.775 Y123.382 E7.90246
G1 X125.037 Y123.353 E7.91425
G1 X125.801 Y123.33 E7.94848
G1 X127.507 Y123.232 E8.02495
G1 X127.911 Y123.231 E8.04305
G1 X128.673 Y123.167 E8.07728
G1 X130.225 Y123.086 E8.14686
G1 X130.619 Y123.09 E8.1645
G1 X131.387 Y123.027 E8.199
G1 X132.065 Y123.017 E8.22935
G1 X132.866 Y122.95 E8.26535
G1 X132.227 Y122.169 E8.31049
G1 X131.894 Y121.818 E8.33218
G1 X131.417 Y121.228 E8.36616
G1 X131.143 Y120.945 E8.38378
G1 X130.132 Y119.765 E8.45335
G1 X129.653 Y119.168 E8.48759
G1 X129.375 Y118.875 E8.50569
G1 X128.272 Y117.574 E8.58208
G1 X127.791 Y117.04 E8.61421
G1 X127.603 Y116.794 E8.62811
G1 X127.223 Y116.649 E8.64632
G1 X126.909 Y116.49 E8.66206
G1 X126.74 Y116.373 E8.67124
G1 X126.47 Y116.123 E8.68774
G1 X126.331 Y115.931 E8.69835
G1 X126.213 Y115.707 E8.70968
G1 X126.137 Y115.511 E8.71907
G1 X126.076 Y115.232 E8.73189
G1 X126.06 Y115.009 E8.74189
G1 X125.75 Y114.667 E8.76255
G1 X125.491 Y114.334 E8.78145
G1 X124.987 Y113.785 E8.81481
G1 X124.498 Y113.174 E8.84983
G1 X124.228 Y112.892 E8.86731
G1 X122.6 Y110.98 E8.97974
G1 X121.319 Y109.522 E9.06664
G1 X121.092 Y109.23 E9.0832
G1 X120.084 Y108.087 E9.15141
G1 X119.353 Y107.193 E9.20311
G1 X119.087 Y106.913 E9.2204
G1 X118.635 Y106.378 E9.25177
G1 X118.294 Y106.258 E9.26797
G1 X117.968 Y106.087 E9.28444
G1 X117.786 Y105.955 E9.2945
G1 X117.567 Y105.742 E9.30818
G1 X117.402 Y105.519 E9.3206
G1 X117.243 Y105.191 E9.33691
G1 X117.101 Y104.589 E9.36461
G1 X115.268 Y102.448 E9.49077
G1 X114.952 Y102.114 E9.51137
G1 X114.685 Y101.782 E9.53044
G1 X114.421 Y101.496 E9.54789
G1 X114.18 Y101.186 E9.56543
G1 X113.412 Y100.327 E9.61703
G1 X110.153 Y96.514 E9.84159
G1 X109.806 Y96.085 E9.86632
G1 X109.691 Y95.974 E9.87343
G1 X109.338 Y95.848 E9.8902
G1 X109.01 Y95.673 E9.90685
G1 X108.822 Y95.532 E9.91738
G1 X108.612 Y95.32 E9.93073
G1 X108.452 Y95.092 E9.94322
G1 X108.301 Y94.763 E9.95944
G1 X108.195 Y94.23 E9.98376
G1 X108.014 Y94.035 E9.99568
G1 X107.524 Y93.437 E10.03026
G1 X107.252 Y93.157 E10.04775
G1 X106.577 Y92.325 E10.09575
G1 X106.26 Y91.994 E10.11625
G1 X105.754 Y91.368 E10.15226
G1 X105.254 Y90.82 E10.18551
G1 X102.617 Y87.723 E10.36759
G1 X101.583 Y86.558 E10.43732
G1 X101.357 Y86.271 E10.45367
G1 X101.072 Y85.951 E10.47287
G1 X100.898 Y85.719 E10.48586
G1 X100.328 Y85.468 E10.51373
G1 X100.062 Y85.322 E10.52734
G1 X99.876 Y85.185 E10.53766
G1 X99.611 Y84.905 E10.55494
G1 X99.444 Y84.584 E10.57111
G1 X99.324 Y84.128 E10.59225
G1 X99.308 Y83.817 E10.60615
G1 X99.354 Y83.467 E10.62199
G1 X99.473 Y83.09 E10.63968
G1 X100.41 Y80.908 E10.74596
G1 X100.684 Y80.507 E10.76774
G1 X101.106 Y80.83 F9000
G1 F1200
G1 X101.286 Y80.665 E10.77867
G1 X101.406 Y80.587 E10.78506
G1 X101.729 Y80.465 E10.80054
G1 X101.95 Y80.436 E10.81052
G1 X102.078 Y80.437 E10.81623
G1 X102.424 Y80.514 E10.83208
G1 X104.549 Y81.416 E10.93546
G1 X104.807 Y81.564 E10.94874
G1 X105.017 Y81.746 E10.9612
G1 X105.151 Y81.935 E10.97158
G1 X105.269 Y82.213 E10.98509
G1 X105.391 Y82.76 E11.01019
G1 X105.509 Y82.933 E11.01955
G1 X105.845 Y83.346 E11.04342
G1 X106.423 Y83.986 E11.08204
G1 X106.926 Y84.616 E11.1181
G1 X107.425 Y85.159 E11.15115
G1 X108.297 Y86.189 E11.21154
G1 X108.836 Y86.785 E11.24753
G1 X109.309 Y87.37 E11.28122
G1 X110.524 Y88.744 E11.36333
G1 X112.338 Y90.867 E11.48832
G1 X112.897 Y91.55 E11.52785
G1 X113.006 Y91.621 E11.53366
G1 X113.447 Y91.792 E11.55484
G1 X113.683 Y91.913 E11.56672
G1 X113.791 Y91.987 E11.57256
G1 X113.991 Y92.169 E11.58468
G1 X114.077 Y92.285 E11.59115
G1 X114.218 Y92.574 E11.60555
G1 X114.285 Y92.883 E11.6197
G1 X114.297 Y93.174 E11.6327
G1 X114.398 Y93.3 E11.63996
G1 X114.798 Y93.741 E11.66661
G1 X115.453 Y94.514 E11.71198
G1 X115.748 Y94.827 E11.7312
G1 X116.215 Y95.404 E11.76447
G1 X116.483 Y95.679 E11.78163
G1 X116.981 Y96.298 E11.81721
G1 X117.484 Y96.857 E11.85091
G1 X117.939 Y97.42 E11.88327
G1 X118.484 Y98.017 E11.91946
G1 X121.125 Y101.112 E12.10163
G1 X121.591 Y101.635 E12.13296
G1 X121.837 Y101.956 E12.1511
G1 X121.933 Y102.023 E12.15632
G1 X122.378 Y102.196 E12.1777
G1 X122.615 Y102.319 E12.18967
G1 X122.724 Y102.395 E12.19559
G1 X122.923 Y102.58 E12.20777
G1 X123.009 Y102.699 E12.21432
G1 X123.141 Y102.979 E12.22821
G1 X123.197 Y103.233 E12.23986
G1 X123.214 Y103.546 E12.25388
G1 X123.59 Y103.955 E12.27875
G1 X123.896 Y104.346 E12.30098
G1 X124.398 Y104.901 E12.33447
G1 X124.654 Y105.234 E12.35329
G1 X125.401 Y106.065 E12.40332
G1 X128.035 Y109.159 E12.58522
G1 X128.554 Y109.727 E12.61968
G1 X128.991 Y110.273 E12.65099
G1 X129.313 Y110.609 E12.67181
G1 X129.994 Y111.445 E12.7201
G1 X130.316 Y111.784 E12.74104
G1 X130.769 Y112.358 E12.77376
G1 X130.887 Y112.439 E12.78017
G1 X131.33 Y112.601 E12.80127
G1 X131.57 Y112.729 E12.81346
G1 X131.689 Y112.817 E12.82012
G1 X131.843 Y112.968 E12.82975
G1 X131.953 Y113.124 E12.83828
G1 X132.059 Y113.356 E12.84972
G1 X132.154 Y113.846 E12.87206
G1 X132.216 Y114.009 E12.87989
G1 X134.177 Y116.3 E13.01486
G1 X134.401 Y116.532 E13.02929
G1 X134.697 Y116.899 E13.05042
G1 X134.977 Y117.202 E13.06888
G1 X135.2 Y117.491 E13.08524
G1 X135.731 Y118.077 E13.12064
G1 X135.962 Y118.378 E13.13762
G1 X136.232 Y118.662 E13.15516
G1 X136.725 Y119.273 E13.1903
G1 X137.215 Y119.811 E13.22291
G1 X137.716 Y120.431 E13.25858
G1 X137.999 Y120.726 E13.27687
G1 X138.472 Y121.317 E13.31076
G1 X138.765 Y121.623 E13.32972
G1 X139.597 Y122.609 E13.38748
G1 X139.791 Y122.806 E13.39987
G1 X140.418 Y123.08 E13.43049
G1 X140.676 Y123.262 E13.44463
G1 X140.802 Y123.394 E13.45279
G1 X140.95 Y123.653 E13.46615
G1 X141.011 Y123.849 E13.47533
