; generated by SuperSlicer 2.4 on 2022-12-22 at 11:18:39 UTC

; 

; external perimeters extrusion width = 0.43mm
; perimeters extrusion width = 0.48mm
; infill extrusion width = 0.46mm
; solid infill extrusion width = 0.48mm
; top infill extrusion width = 0.46mm
; first layer extrusion width = 0.58mm

; object:{"name":"diamond_1_thick","id":"diamond_1_thick.stl id:0 copy 0","object_center":[115.526718,115.478357,0.000000],"boundingbox_center":[115.526718,115.478357,10.632609],"boundingbox_size":[27.668006,26.827781,21.265217]}
; Total objects to print: 1
M486 T1
; plater:{"center":[115.526718,115.478357,0.000000],"boundingbox_center":[115.526718,115.478357,10.632609],"boundingbox_size":[27.668006,26.827781,21.265217]}

;TYPE:Custom
G90 ; use absolute coordinates
M83 ; extruder relative mode
M140 S60 ; set final bed temp
M104 S150 ; set temporary nozzle temp to prevent oozing during homing and auto bed leveling
G4 S10 ; allow partial nozzle warmup
G28 ; home all axis
;G29 ; auto bed levelling
G1 Z10 F240
G1 X2 Y10 F3000
G1 Z0 F240
M104 S210 ; set final nozzle temp
M190 S60 ; wait for bed temp to stabilize
M109 S210 ; wait for nozzle temp to stabilize
G1 Z0.28 F240
G92 E0
G1 Y140 E10 F1500 ; prime the nozzle
G1 X2.3 F5000
G92 E0
G1 Y10 E10 F1200 ; prime the nozzle
G92 E0
;start
M107
G21 ; set units to millimeters
G90 ; use absolute coordinates
M82 ; use absolute distances for extrusion
G92 E0
; Filament gcode
;_TOOLCHANGE 0
M107
;LAYER_CHANGE
;Z:0.2
;HEIGHT:0.2
;BEFORE_LAYER_CHANGE
;0.2


G1 E-1 F3000
G1 Z0.15 F9000
;AFTER_LAYER_CHANGE
;0.2
G92 E0
M204 S500
G1 X107.227 Y101.407
G1 E1 F3000
;TYPE:Skirt
;WIDTH:0.48
G1 F1200
G1 X106.556 Y102.295 E1.04086
G1 X105.705 Y104.118 E1.11469
G1 X98.215 Y123.484 E1.87687
G1 X97.535 Y125.536 E1.95621
G1 X97.314 Y126.599 E1.9961
G1 X97.303 Y128.05 E2.04933
G1 X97.546 Y129.178 E2.09168
G1 X97.879 Y130.036 E2.12549
G1 X98.892 Y131.475 E2.19006
G1 X99.799 Y132.261 E2.23412
G1 X101.66 Y133.116 E2.3093
G1 X102.789 Y133.283 E2.35122
G1 X103.96 Y133.266 E2.3942
G1 X105.109 Y133.034 E2.43723
G1 X106.903 Y132.476 E2.50619
G1 X127.17 Y125.444 E3.29364
G1 X128.414 Y124.809 E3.34488
G1 X129.054 Y124.376 E3.37325
G1 X129.826 Y123.674 E3.41155
G1 X130.459 Y122.907 E3.44807
G1 X131.184 Y121.471 E3.50713
G1 X131.409 Y120.575 E3.54102
G1 X131.483 Y119.172 E3.59259
G1 X131.339 Y118.159 E3.63014
G1 X130.711 Y116.57 E3.69286
G1 X129.845 Y115.39 E3.7466
G1 X116.657 Y101.686 E4.44473
G1 X115.285 Y100.551 E4.51007
G1 X114.601 Y100.118 E4.53981
G1 X113.883 Y99.769 E4.5691
G1 X112.31 Y99.4 E4.6284
G1 X111.152 Y99.392 E4.67092
G1 X109.323 Y99.866 E4.74028
G1 X108.506 Y100.329 E4.77473
G1 X107.761 Y100.888 E4.80893
G1 X107.27 Y101.365 E4.83408
G1 X107.574 Y101.679 F9000
G1 F1200
G1 X107.531 Y101.72 E4.83628
G1 X106.941 Y102.503 E4.87225
G1 X106.112 Y104.275 E4.94408
G1 X98.623 Y123.641 E5.70624
G1 X97.95 Y125.672 E5.78478
G1 X97.745 Y126.672 E5.82223
G1 X97.74 Y128.026 E5.87196
G1 X97.953 Y129.019 E5.90925
G1 X98.287 Y129.878 E5.94305
G1 X99.178 Y131.144 E5.9999
G1 X100.085 Y131.931 E6.04396
G1 X101.724 Y132.684 E6.11016
G1 X102.853 Y132.85 E6.15207
G1 X103.884 Y132.836 E6.18991
G1 X104.98 Y132.616 E6.23094
G1 X106.761 Y132.063 E6.29938
G1 X127.017 Y125.035 E7.08642
G1 X128.169 Y124.447 E7.13387
G1 X128.809 Y124.014 E7.16225
G1 X129.489 Y123.396 E7.19596
G1 X130.122 Y122.629 E7.23249
G1 X130.76 Y121.364 E7.28448
G1 X130.985 Y120.469 E7.31837
G1 X131.05 Y119.234 E7.36378
G1 X130.907 Y118.221 E7.40133
G1 X130.353 Y116.822 E7.45655
G1 X129.522 Y115.684 E7.50826
G1 X116.343 Y101.99 E8.20591
G1 X115.012 Y100.892 E8.26923
G1 X114.409 Y100.511 E8.29541
G1 X113.692 Y100.162 E8.32469
G1 X112.307 Y99.837 E8.37691
G1 X111.149 Y99.829 E8.41943
G1 X109.539 Y100.247 E8.4805
G1 X108.722 Y100.709 E8.51495
G1 X108.066 Y101.201 E8.54506
G1 X107.617 Y101.637 E8.568
G92 E0
G1 E-0.7 F3000
;WIPE_START
G1 F7200
G1 X107.531 Y101.72 E-0.7475
G1 X107.17 Y102.199 E-0.985
;WIPE_END
G1 E-1 F3000
; acceleration to travel
M204 S1500
G1 X110.066 Y104.086 F9000
; decel to extrusion
M204 S500
G1 X110.42 Y104.317
; end travel
G1 E0 F3000
;WIDTH:0.576
G1 F1200
G1 X110.768 Y104.007 E0.02089
G1 X111.067 Y103.834 E0.03634
G1 X111.389 Y103.728 E0.05153
G1 X111.464 Y103.716 E0.05491
G1 X111.972 Y103.716 E0.07764
G1 X112.333 Y103.809 E0.09434
G1 X112.653 Y103.976 E0.11049
G1 X113.623 Y104.752 E0.16612
G1 X125.524 Y117.051 E0.93231
G1 X126.235 Y117.864 E0.98065
G1 X126.606 Y118.244 E1.00442
G1 X126.991 Y118.789 E1.03431
G1 X127.124 Y119.146 E1.05136
G1 X127.169 Y119.467 E1.06586
G1 X127.158 Y119.782 E1.07996
G1 X127.064 Y120.141 E1.09659
G1 X126.899 Y120.446 E1.11211
G1 X126.646 Y120.753 E1.12993
G1 X126.446 Y120.934 E1.142
G1 X126.062 Y121.194 E1.16277
G1 X125.667 Y121.398 E1.18266
G1 X125.032 Y121.64 E1.21309
G1 X119.958 Y123.392 E1.45342
G1 X118.424 Y123.855 E1.52514
G1 X117.289 Y124.317 E1.58001
G1 X113.333 Y125.682 E1.76737
G1 X111.722 Y126.151 E1.84246
G1 X110.72 Y126.538 E1.89056
G1 X109.883 Y126.886 E1.93113
G1 X105.506 Y128.397 E2.13846
G1 X103.855 Y128.903 E2.21575
G1 X103.468 Y128.974 E2.23336
G1 X103.203 Y128.982 E2.24524
G1 X102.668 Y128.894 E2.26952
G1 X102.587 Y128.867 E2.27332
G1 X102.265 Y128.692 E2.28974
G1 X102.022 Y128.481 E2.30416
G1 X101.827 Y128.236 E2.3182
G1 X101.643 Y127.807 E2.33908
G1 X101.585 Y127.366 E2.359
G1 X101.597 Y127.13 E2.36958
G1 X101.666 Y126.775 E2.38577
G1 X102.251 Y125.001 E2.4694
G1 X103.936 Y120.632 E2.67902
G1 X104.284 Y119.813 E2.71885
G1 X104.421 Y119.393 E2.73865
G1 X104.706 Y118.734 E2.77077
G1 X105.174 Y117.46 E2.83153
G1 X106.44 Y114.161 E2.98975
G1 X107.033 Y112.655 E3.06223
G1 X107.284 Y112.078 E3.09038
G1 X107.747 Y110.786 E3.15183
G1 X109.721 Y105.686 E3.39665
G1 X110 Y105.003 E3.42967
G1 X110.286 Y104.479 E3.45638
G1 X110.381 Y104.363 E3.46313
G1 X110.798 Y104.699 F9000
G1 F1200
G1 X111.062 Y104.458 E3.47915
G1 X111.309 Y104.315 E3.49194
G1 X111.511 Y104.253 E3.50138
G1 X111.881 Y104.247 E3.51797
G1 X112.114 Y104.301 E3.52868
G1 X112.381 Y104.44 E3.54214
G1 X113.248 Y105.138 E3.59198
G1 X125.124 Y117.41 E4.35651
G1 X125.84 Y118.229 E4.40522
G1 X126.208 Y118.605 E4.42875
G1 X126.503 Y119.017 E4.45147
G1 X126.596 Y119.253 E4.46281
G1 X126.634 Y119.516 E4.47473
G1 X126.623 Y119.724 E4.48402
G1 X126.555 Y119.966 E4.49529
G1 X126.469 Y120.123 E4.5033
G1 X126.243 Y120.396 E4.51915
G1 X126.13 Y120.499 E4.52603
G1 X125.775 Y120.739 E4.54521
G1 X125.435 Y120.912 E4.56226
G1 X124.853 Y121.134 E4.59016
G1 X119.787 Y122.882 E4.83007
G1 X118.245 Y123.348 E4.9022
G1 X117.106 Y123.811 E4.95722
G1 X113.164 Y125.172 E5.14396
G1 X111.55 Y125.641 E5.21919
G1 X110.52 Y126.039 E5.26864
G1 X109.7 Y126.381 E5.3084
G1 X105.343 Y127.884 E5.51473
G1 X103.713 Y128.385 E5.59108
G1 X103.392 Y128.442 E5.60566
G1 X103.263 Y128.447 E5.61147
G1 X102.797 Y128.371 E5.63262
G1 X102.593 Y128.265 E5.64288
G1 X102.394 Y128.093 E5.65465
G1 X102.275 Y127.937 E5.66343
G1 X102.155 Y127.64 E5.67779
G1 X102.121 Y127.33 E5.69174
G1 X102.128 Y127.213 E5.69702
G1 X102.182 Y126.927 E5.71005
G1 X102.755 Y125.188 E5.792
G1 X104.436 Y120.83 E6.00112
G1 X104.788 Y120.001 E6.04142
G1 X104.919 Y119.594 E6.06056
G1 X105.205 Y118.934 E6.09278
G1 X105.676 Y117.651 E6.15396
G1 X106.941 Y114.355 E6.31204
G1 X107.532 Y112.856 E6.38415
G1 X107.784 Y112.276 E6.41247
G1 X108.249 Y110.976 E6.47425
G1 X110.222 Y105.883 E6.71881
G1 X110.492 Y105.22 E6.75086
G1 X110.721 Y104.795 E6.77244
G1 X110.76 Y104.746 E6.77527
G1 X111.187 Y105.07 F9000
G1 F1200
G1 X111.343 Y104.918 E6.78501
G1 X111.37 Y104.898 E6.78655
G1 X111.544 Y104.8 E6.79546
G1 X111.612 Y104.782 E6.79862
G1 X111.848 Y104.784 E6.80917
G1 X111.906 Y104.797 E6.81186
G1 X112.056 Y104.87 E6.81932
G1 X112.081 Y104.886 E6.82065
G1 X112.868 Y105.518 E6.86583
G1 X124.458 Y117.491 E7.61184
G1 X124.729 Y117.775 E7.62944
G1 X125.446 Y118.595 E7.67818
G1 X125.802 Y118.957 E7.70093
G1 X125.816 Y118.974 E7.70191
G1 X126.045 Y119.3 E7.71976
G1 X126.069 Y119.36 E7.72262
G1 X126.098 Y119.566 E7.73195
G1 X126.095 Y119.618 E7.73429
G1 X126.062 Y119.751 E7.7404
G1 X126.035 Y119.804 E7.74308
G1 X125.841 Y120.039 E7.75673
G1 X125.813 Y120.065 E7.75845
G1 X125.495 Y120.28 E7.77559
G1 X125.188 Y120.435 E7.79102
G1 X124.673 Y120.627 E7.81564
G1 X119.614 Y122.373 E8.05519
G1 X118.065 Y122.84 E8.12764
G1 X116.928 Y123.304 E8.18264
G1 X112.992 Y124.663 E8.36906
G1 X111.378 Y125.131 E8.44428
G1 X110.319 Y125.54 E8.4951
G1 X109.521 Y125.874 E8.53384
G1 X105.174 Y127.374 E8.73969
G1 X103.611 Y127.857 E8.81293
G1 X103.32 Y127.909 E8.82617
G1 X103.277 Y127.909 E8.82811
G1 X102.986 Y127.866 E8.84126
G1 X102.916 Y127.834 E8.8447
G1 X102.771 Y127.709 E8.8533
G1 X102.733 Y127.655 E8.85623
G1 X102.676 Y127.506 E8.86338
G1 X102.667 Y127.464 E8.86529
G1 X102.659 Y127.316 E8.87193
G1 X102.66 Y127.287 E8.87325
G1 X102.691 Y127.105 E8.88152
G1 X102.696 Y127.085 E8.88243
G1 X103.258 Y125.378 E8.96288
G1 X104.936 Y121.025 E9.17174
G1 X105.292 Y120.188 E9.21245
G1 X105.42 Y119.789 E9.23122
G1 X105.704 Y119.134 E9.26321
G1 X106.179 Y117.84 E9.3249
G1 X107.443 Y114.547 E9.4828
G1 X108.029 Y113.06 E9.55437
G1 X108.284 Y112.474 E9.58298
G1 X108.751 Y111.169 E9.64502
G1 X110.722 Y106.079 E9.88939
G1 X110.987 Y105.43 E9.92079
G1 X111.153 Y105.12 E9.93654
G92 E0
G1 E-0.7 F3000
;WIPE_START
G1 F7200
G1 X111.343 Y104.918 E-0.80945
G1 X111.37 Y104.898 E-0.82306
G1 X111.544 Y104.8 E-0.90182
G1 X111.612 Y104.782 E-0.92978
G1 X111.751 Y104.783 E-0.985
;WIPE_END
G1 E-1 F3000
; printing object diamond_1_thick.stl id:0 copy 0
M486 S0
; acceleration to travel
M204 S1500
G1 X117.307 Y120.322 F9000
; decel to extrusion
M204 S500
G1 X117.986 Y122.221
; end travel
G1 E0 F3000
;TYPE:Thin wall
;WIDTH:0.63148
G1 F1200
G1 X117.893 Y122.314 E0.0065
;WIDTH:0.539909
G1 X117.823 Y122.372 E0.01028
;WIDTH:0.487738
G1 X117.729 Y122.438 E0.0146
;WIDTH:0.452334
G1 X117.677 Y122.469 E0.01668
G1 X117.57 Y122.525 E0.02083
;WIDTH:0.418559
G1 X117.527 Y122.545 E0.02231
G1 X117.401 Y122.593 E0.02658
G1 X117.069 Y122.71 E0.03767
;WIDTH:0.491576
G1 X116.75 Y122.821 E0.05041
G1 X116.726 Y122.829 E0.05136
G1 X114.78 Y123.505 E0.12896
G1 X112.835 Y124.18 E0.20656
G1 X112.183 Y124.389 E0.23235
;WIDTH:0.403863
G1 X111.531 Y124.597 E0.25309
G1 X111.24 Y124.696 E0.26242
G1 X111.223 Y124.703 E0.26298
G1 X111.015 Y124.785 E0.26975
G1 X110.985 Y124.796 E0.27071
G1 X110.773 Y124.86 E0.27743
G1 X110.706 Y124.874 E0.27951
;WIDTH:0.471837
G1 X110.573 Y124.893 E0.28434
;WIDTH:0.528952
G1 X110.495 Y124.897 E0.28754
;WIDTH:0.60313
G1 X110.363 Y124.897 E0.29373
;WIDTH:0.675264
G1 X110.303 Y124.898 E0.29691
;WIDTH:0.645627
G1 X110.21 Y124.988 E0.30348
;WIDTH:0.564497
G1 X110.121 Y125.058 E0.30845
;WIDTH:0.514324
G1 X110.048 Y125.107 E0.31191
;WIDTH:0.482781
G1 X109.949 Y125.161 E0.31607
G1 X109.901 Y125.184 E0.31805
G1 X109.783 Y125.232 E0.32276
G1 X109.763 Y125.24 E0.32353
G1 X109.553 Y125.314 E0.33178
G1 X109.342 Y125.389 E0.34004
G1 X109.016 Y125.497 E0.35274
G1 X107.013 Y126.188 E0.43101
G1 X105.01 Y126.88 E0.50928
G1 X104.849 Y126.933 E0.51553
G1 X104.689 Y126.985 E0.52178
G1 X104.403 Y127.085 E0.53294
;WIDTH:0.449728
G1 X104.118 Y127.185 E0.54325
G1 X104.078 Y127.197 E0.54471
G1 X103.957 Y127.227 E0.54896
;WIDTH:0.479745
G1 X103.836 Y127.256 E0.55352
G1 X103.714 Y127.271 E0.55804
;WIDTH:0.563888
G1 X103.582 Y127.271 E0.56382
;WIDTH:0.642788
G1 X103.476 Y127.262 E0.56917
;WIDTH:0.724342
G1 X103.352 Y127.226 E0.57657
G1 X103.289 Y127.285 E0.58146
;WIDTH:0.557031
G1 X103.206 Y127.389 E0.58725
;WIDTH:0.423072
G1 X103.123 Y127.473 E0.59101
;WIDTH:0.251583
G1 X103.024 Y127.572 E0.59347
G92 E0
G1 E-0.7 F3000
;WIPE_START
G1 F7200
G1 X103.123 Y127.473 E-0.75542
;WIPE_END
G1 E-1 F3000
; acceleration to travel
M204 S1500
G1 X109.525 Y125.175 F9000
; decel to extrusion
M204 S500
G1 X110.307 Y124.894
; end travel
G1 E0 F3000
;WIDTH:0.638046
G1 F1200
G1 X110.269 Y124.791 E0.00549
;WIDTH:0.516186
G1 X110.217 Y124.671 E0.01069
;WIDTH:0.449559
G1 X110.201 Y124.631 E0.01217
;WIDTH:0.418064
G1 X110.143 Y124.53 E0.01581
G1 X110.02 Y124.372 E0.02212
G1 X109.953 Y124.295 E0.02534
G1 X109.651 Y124.006 E0.03851
G1 X109.279 Y123.616 E0.05551
G1 X108.906 Y123.226 E0.07251
G1 X108.716 Y123.033 E0.08104
G1 X108.53 Y122.846 E0.08933
G1 X107.659 Y121.944 E0.12885
G1 X106.788 Y121.041 E0.16836
G1 X106.569 Y120.798 E0.17869
G1 X106.455 Y120.679 E0.18387
G1 X106.427 Y120.652 E0.18508
G1 X106.288 Y120.535 E0.1908
G1 X106.18 Y120.471 E0.19479
;WIDTH:0.476151
G1 X106.057 Y120.416 E0.19968
;WIDTH:0.596051
G1 X105.934 Y120.35 E0.20617
;WIDTH:0.747837
G1 X105.897 Y120.25 E0.21251
;WIDTH:0.651676
G1 X105.899 Y120.176 E0.21629
;WIDTH:0.570449
G1 X105.901 Y120.102 E0.21957
G1 X105.917 Y119.982 E0.2249
;WIDTH:0.52787
G1 X105.937 Y119.902 E0.22829
;WIDTH:0.470653
G1 X105.975 Y119.764 E0.23342
G1 X106.01 Y119.672 E0.23695
G1 X106.053 Y119.564 E0.24113
G1 X106.106 Y119.443 E0.24587
G1 X106.162 Y119.313 E0.25096
G1 X106.191 Y119.244 E0.25366
G1 X106.219 Y119.175 E0.25635
G1 X106.486 Y118.473 E0.28332
G1 X106.753 Y117.771 E0.31029
G1 X106.834 Y117.574 E0.31795
G1 X106.911 Y117.387 E0.3252
G1 X107.565 Y115.679 E0.39089
G1 X108.22 Y113.972 E0.45659
G1 X108.325 Y113.673 E0.46797
;WIDTH:0.43951
G1 X108.431 Y113.374 E0.47852
G1 X108.483 Y113.244 E0.48318
G1 X108.514 Y113.178 E0.48561
G1 X108.581 Y113.053 E0.49035
;WIDTH:0.478602
G1 X108.613 Y113.002 E0.49256
;WIDTH:0.510548
G1 X108.678 Y112.91 E0.49698
;WIDTH:0.577837
G1 X108.771 Y112.808 E0.50316
;WIDTH:0.65784
G1 X108.834 Y112.752 E0.50755
G92 E0
G1 E-0.7 F3000
;WIPE_START
G1 F7200
G1 X108.771 Y112.808 E-0.73365
;WIPE_END
G1 E-1 F3000
; acceleration to travel
M204 S1500
G1 X106.212 Y119.515 F9000
; decel to extrusion
M204 S500
G1 X105.899 Y120.334
; end travel
G1 E0 F3000
;WIDTH:0.647883
G1 F1200
G1 X105.804 Y120.435 E0.00707
;WIDTH:0.567284
G1 X105.735 Y120.521 E0.0119
;WIDTH:0.521274
G1 X105.69 Y120.585 E0.01504
;WIDTH:0.488794
G1 X105.626 Y120.695 E0.01981
G1 X105.6 Y120.743 E0.02186
G1 X105.571 Y120.81 E0.02459
G1 X105.533 Y120.897 E0.02815
G1 X105.472 Y121.056 E0.03453
G1 X105.411 Y121.215 E0.04091
G1 X105.335 Y121.421 E0.04912
G1 X105.26 Y121.627 E0.05733
G1 X104.502 Y123.591 E0.13617
G1 X103.744 Y125.555 E0.215
G1 X103.661 Y125.789 E0.22429
G1 X103.577 Y126.023 E0.23359
G1 X103.487 Y126.25 E0.24276
;WIDTH:0.414388
G1 X103.397 Y126.478 E0.2504
G1 X103.383 Y126.52 E0.25178
G1 X103.362 Y126.595 E0.2542
G1 X103.329 Y126.731 E0.25856
;WIDTH:0.471083
G1 X103.315 Y126.868 E0.26353
;WIDTH:0.540186
G1 X103.314 Y126.989 E0.26857
;WIDTH:0.625464
G1 X103.33 Y127.115 E0.27477
;WIDTH:0.746105
G1 X103.352 Y127.226 E0.28147
G92 E0
G1 E-0.7 F3000
;WIPE_START
G1 F7200
G1 X103.33 Y127.115 E-0.74492
;WIPE_END
G1 E-1 F3000
; acceleration to travel
M204 S1500
G1 X112.38 Y118.439 F9000
; decel to extrusion
M204 S500
G1 X113.486 Y117.379
; end travel
G1 E0 F3000
;WIDTH:0.420342
G1 F1200
G1 X112.754 Y116.626 E0.03329
G1 X112.502 Y116.352 E0.04508
G1 X112.013 Y115.86 E0.06706
G1 X111.682 Y115.503 E0.08251
G1 X110.458 Y114.25 E0.13803
G1 X110.046 Y113.81 E0.15713
G1 X109.704 Y113.467 E0.17248
G1 X109.52 Y113.263 E0.18118
G1 X109.359 Y113.094 E0.18858
G1 X109.335 Y113.07 E0.18966
G1 X109.227 Y112.979 E0.19415
G1 X109.122 Y112.913 E0.19806
G1 X109.024 Y112.85 E0.20175
;WIDTH:0.488552
G1 X108.962 Y112.815 E0.20442
;WIDTH:0.597637
G1 X108.834 Y112.752 E0.21106
;WIDTH:0.654913
G1 X108.837 Y112.681 E0.21469
G1 X108.838 Y112.609 E0.21839
;WIDTH:0.548889
G1 X108.838 Y112.537 E0.22146
G1 X108.849 Y112.436 E0.22577
;WIDTH:0.50018
G1 X108.865 Y112.356 E0.22892
;WIDTH:0.451021
G1 X108.893 Y112.228 E0.2334
G1 X108.919 Y112.145 E0.23639
G1 X108.953 Y112.041 E0.24014
G1 X109.083 Y111.692 E0.2529
G1 X109.213 Y111.343 E0.26565
G1 X109.971 Y109.397 E0.33723
G1 X110.73 Y107.452 E0.4088
G1 X110.847 Y107.137 E0.42031
G1 X110.965 Y106.823 E0.43181
G1 X111.039 Y106.642 E0.43852
G1 X111.108 Y106.473 E0.44475
G1 X111.246 Y106.096 E0.45853
;WIDTH:0.411219
G1 X111.383 Y105.718 E0.47095
G1 X111.427 Y105.627 E0.47408
G1 X111.493 Y105.516 E0.47808
;WIDTH:0.446146
G1 X111.534 Y105.458 E0.48049
G1 X111.586 Y105.397 E0.48319
