; generated by SuperSlicer 2.4 on 2022-12-22 at 11:18:53 UTC

; 

; external perimeters extrusion width = 0.43mm
; perimeters extrusion width = 0.48mm
; infill extrusion width = 0.46mm
; solid infill extrusion width = 0.48mm
; top infill extrusion width = 0.46mm
; first layer extrusion width = 0.58mm

; object:{"name":"dod_1_thick","id":"dod_1_thick.stl id:0 copy 0","object_center":[115.500000,115.500000,0.000000],"boundingbox_center":[115.500000,115.500000,17.341292],"boundingbox_size":[40.115109,42.095060,34.682583]}
; Total objects to print: 1
M486 T1
; plater:{"center":[115.500000,115.500000,0.000000],"boundingbox_center":[115.500000,115.500000,17.341292],"boundingbox_size":[40.115109,42.095060,34.682583]}

;TYPE:Custom
G90 ; use absolute coordinates
M83 ; extruder relative mode
M140 S60 ; set final bed temp
M104 S150 ; set temporary nozzle temp to prevent oozing during homing and auto bed leveling
G4 S10 ; allow partial nozzle warmup
G28 ; home all axis
;G29 ; auto bed levelling
G1 Z10 F240
G1 X2 Y10 F3000
G1 Z0 F240
M104 S210 ; set final nozzle temp
M190 S60 ; wait for bed temp to stabilize
M109 S210 ; wait for nozzle temp to stabilize
G1 Z0.28 F240
G92 E0
G1 Y140 E10 F1500 ; prime the nozzle
G1 X2.3 F5000
G92 E0
G1 Y10 E10 F1200 ; prime the nozzle
G92 E0
;start
M107
G21 ; set units to millimeters
G90 ; use absolute coordinates
M82 ; use absolute distances for extrusion
G92 E0
; Filament gcode
;_TOOLCHANGE 0
M107
;LAYER_CHANGE
;Z:0.2
;HEIGHT:0.2
;BEFORE_LAYER_CHANGE
;0.2


G1 E-1 F3000
G1 Z0.15 F9000
;AFTER_LAYER_CHANGE
;0.2
G92 E0
M204 S500
G1 X100.273 Y107.152
G1 E1 F3000
;TYPE:Skirt
;WIDTH:0.48
G1 F1200
G1 X99.271 Y108.183 E1.05278
G1 X98.512 Y109.509 E1.10886
G1 X98.221 Y110.42 E1.14397
G1 X98.07 Y111.935 E1.19982
G1 X98.259 Y113.209 E1.2471
G1 X102.455 Y126.311 E1.75212
G1 X102.887 Y127.463 E1.79728
G1 X103.571 Y128.742 E1.85051
G1 X104.818 Y130.024 E1.91615
G1 X105.678 Y130.554 E1.95325
G1 X107.02 Y131.051 E2.00577
G1 X108.141 Y131.202 E2.04728
G1 X109.426 Y131.246 E2.09448
G1 X122.867 Y131.2 E2.58786
G1 X123.907 Y131.065 E2.62637
G1 X125.141 Y130.638 E2.6743
G1 X126.013 Y130.148 E2.71099
G1 X127.334 Y128.878 E2.77828
G1 X128.13 Y127.441 E2.83855
G1 X132.404 Y114.434 E3.34112
G1 X132.864 Y112.563 E3.41184
G1 X132.923 Y111.924 E3.43542
G1 X132.834 Y110.72 E3.47972
G1 X132.607 Y109.791 E3.51483
G1 X131.713 Y108.147 E3.58351
G1 X130.673 Y107.111 E3.63742
G1 X129.791 Y106.431 E3.67828
G1 X119.522 Y98.976 E4.14408
G1 X118.248 Y98.179 E4.19924
G1 X117.258 Y97.742 E4.23898
G1 X115.692 Y97.476 E4.29729
G1 X114.735 Y97.525 E4.33244
G1 X113.281 Y97.909 E4.38765
G1 X112.273 Y98.446 E4.42958
G1 X100.321 Y107.116 E4.97158
G1 X100.578 Y107.47 F9000
G1 F1200
G1 X100.541 Y107.497 E4.97327
G1 X99.596 Y108.474 E5.02318
G1 X98.929 Y109.642 E5.07255
G1 X98.638 Y110.553 E5.10766
G1 X98.505 Y111.886 E5.15684
G1 X98.68 Y113.092 E5.20156
G1 X98.969 Y114.134 E5.24125
G1 X102.871 Y126.176 E5.70591
G1 X103.295 Y127.309 E5.7503
G1 X103.949 Y128.523 E5.80092
G1 X105.047 Y129.652 E5.85872
G1 X105.908 Y130.182 E5.89582
G1 X107.089 Y130.62 E5.94206
G1 X108.156 Y130.765 E5.98161
G1 X109.426 Y130.809 E6.02823
G1 X122.851 Y130.763 E6.52104
G1 X123.841 Y130.633 E6.55767
G1 X124.927 Y130.257 E6.59987
G1 X125.798 Y129.767 E6.63656
G1 X126.962 Y128.649 E6.69581
G1 X127.719 Y127.292 E6.75282
G1 X131.988 Y114.299 E7.25485
G1 X132.429 Y112.523 E7.32201
G1 X132.488 Y111.883 E7.34559
G1 X132.41 Y110.823 E7.3846
G1 X132.183 Y109.894 E7.41971
G1 X131.396 Y108.447 E7.48018
G1 X130.406 Y107.457 E7.53158
G1 X129.525 Y106.777 E7.57243
G1 X119.266 Y99.33 E8.03774
G1 X118.033 Y98.559 E8.09114
G1 X117.093 Y98.147 E8.12881
G1 X115.714 Y97.913 E8.18015
G1 X114.758 Y97.961 E8.2153
G1 X113.477 Y98.299 E8.26391
G1 X111.972 Y99.172 E8.32777
G1 X100.627 Y107.434 E8.84295
G92 E0
G1 E-0.7 F3000
;WIPE_START
G1 F7200
G1 X100.541 Y107.497 E-0.74198
G1 X100.114 Y107.938 E-0.985
;WIPE_END
G1 E-1 F3000
; acceleration to travel
M204 S1500
G1 X102.735 Y110.193 F9000
; decel to extrusion
M204 S500
G1 X103.055 Y110.469
; end travel
G1 E0 F3000
;WIDTH:0.576
G1 F1200
G1 X103.805 Y109.868 E0.04301
G1 X104.589 Y109.316 E0.08593
G1 X107.596 Y107.134 E0.25227
G1 X113.669 Y102.704 E0.58878
G1 X114.61 Y102.074 E0.63949
G1 X114.909 Y101.916 E0.65462
G1 X115.3 Y101.813 E0.67276
G1 X115.69 Y101.81 E0.69019
G1 X115.973 Y101.875 E0.70322
G1 X116.205 Y101.978 E0.71455
G1 X116.492 Y102.142 E0.72937
G1 X117.042 Y102.504 E0.75885
G1 X125.716 Y108.821 E1.23923
G1 X127.162 Y109.849 E1.31866
G1 X127.987 Y110.493 E1.36552
G1 X128.28 Y110.792 E1.38426
G1 X128.459 Y111.077 E1.39932
G1 X128.587 Y111.511 E1.41959
G1 X128.605 Y111.75 E1.43033
G1 X128.565 Y112.125 E1.44721
G1 X128.292 Y113.13 E1.49382
G1 X127.846 Y114.423 E1.55507
G1 X124.846 Y123.662 E1.98994
G1 X124.44 Y124.963 E2.05094
G1 X124.06 Y125.967 E2.099
G1 X123.837 Y126.316 E2.11756
G1 X123.532 Y126.597 E2.13613
G1 X123.228 Y126.761 E2.1516
G1 X122.958 Y126.848 E2.16427
G1 X122.722 Y126.882 E2.17495
G1 X121.542 Y126.931 E2.22783
G1 X120.077 Y126.918 E2.29341
G1 X110.9 Y126.919 E2.70426
G1 X109.436 Y126.933 E2.76981
G1 X108.351 Y126.891 E2.81845
G1 X107.899 Y126.812 E2.83898
G1 X107.664 Y126.712 E2.85041
G1 X107.424 Y126.564 E2.86303
G1 X107.098 Y126.228 E2.88402
G1 X106.891 Y125.854 E2.90315
G1 X106.559 Y124.981 E2.94497
G1 X106.169 Y123.707 E3.00461
G1 X105.315 Y121.117 E3.1267
G1 X103.181 Y114.521 E3.43704
G1 X102.704 Y113.097 E3.50429
G1 X102.422 Y112.049 E3.55287
G1 X102.393 Y111.73 E3.56721
G1 X102.434 Y111.403 E3.58199
G1 X102.515 Y111.151 E3.5938
G1 X102.637 Y110.91 E3.60592
G1 X102.902 Y110.591 E3.6245
G1 X103.008 Y110.506 E3.63057
G1 X103.34 Y110.924 F9000
G1 F1200
G1 X104.133 Y110.294 E3.67592
G1 X104.901 Y109.753 E3.71798
G1 X107.912 Y107.569 E3.88452
G1 X113.981 Y103.141 E4.22082
G1 X114.896 Y102.529 E4.27014
G1 X115.131 Y102.406 E4.28197
G1 X115.346 Y102.35 E4.29193
G1 X115.611 Y102.342 E4.30381
G1 X115.784 Y102.378 E4.31172
G1 X115.951 Y102.451 E4.31988
G1 X116.204 Y102.596 E4.33292
G1 X116.731 Y102.942 E4.36116
G1 X125.402 Y109.257 E4.84138
G1 X126.845 Y110.283 E4.92068
G1 X127.642 Y110.905 E4.9659
G1 X127.873 Y111.143 E4.98076
G1 X127.98 Y111.322 E4.9901
G1 X128.054 Y111.588 E5.00245
G1 X128.068 Y111.721 E5.00844
G1 X128.033 Y112.047 E5.02309
G1 X127.782 Y112.963 E5.06562
G1 X127.336 Y114.252 E5.12671
G1 X124.334 Y123.499 E5.56194
G1 X123.93 Y124.792 E5.62259
G1 X123.764 Y125.206 E5.64257
G1 X123.586 Y125.712 E5.66655
G1 X123.44 Y125.953 E5.6792
G1 X123.244 Y126.142 E5.69137
G1 X122.995 Y126.277 E5.70405
G1 X122.856 Y126.32 E5.71054
G1 X122.685 Y126.346 E5.71829
G1 X121.54 Y126.394 E5.76961
G1 X120.08 Y126.381 E5.83498
G1 X110.898 Y126.381 E6.24606
G1 X109.437 Y126.396 E6.31144
G1 X108.388 Y126.355 E6.35845
G1 X108.074 Y126.303 E6.3727
G1 X107.927 Y126.243 E6.37981
G1 X107.734 Y126.124 E6.38996
G1 X107.549 Y125.934 E6.40183
G1 X107.386 Y125.644 E6.41672
G1 X107.064 Y124.798 E6.45725
G1 X106.682 Y123.544 E6.51594
G1 X105.826 Y120.951 E6.6382
G1 X103.691 Y114.353 E6.94864
G1 X103.216 Y112.934 E7.01566
G1 X102.955 Y111.977 E7.06006
G1 X102.931 Y111.711 E7.072
G1 X102.953 Y111.544 E7.07957
G1 X103.019 Y111.337 E7.08927
G1 X103.098 Y111.187 E7.09687
G1 X103.293 Y110.961 E7.11021
G1 X103.686 Y111.328 F9000
G1 F1200
G1 X103.703 Y111.311 E7.11128
G1 X104.451 Y110.728 E7.15375
G1 X105.214 Y110.19 E7.19553
G1 X108.228 Y108.003 E7.36228
G1 X114.282 Y103.587 E7.69775
G1 X115.203 Y102.971 E7.74733
G1 X115.347 Y102.899 E7.75454
G1 X115.401 Y102.885 E7.75704
G1 X115.55 Y102.877 E7.76372
G1 X115.608 Y102.887 E7.76637
G1 X115.678 Y102.915 E7.76972
G1 X115.913 Y103.048 E7.7818
G1 X116.419 Y103.379 E7.80888
G1 X116.816 Y103.666 E7.83081
G1 X125.088 Y109.693 E8.28902
G1 X126.527 Y110.716 E8.36806
G1 X127.288 Y111.309 E8.41126
G1 X127.303 Y111.323 E8.41217
G1 X127.458 Y111.487 E8.42228
G1 X127.491 Y111.549 E8.42541
G1 X127.527 Y111.694 E8.4321
G1 X127.53 Y111.738 E8.4341
G1 X127.516 Y111.893 E8.44105
G1 X127.512 Y111.916 E8.4421
G1 X127.27 Y112.8 E8.48313
G1 X126.827 Y114.082 E8.54385
G1 X123.822 Y123.336 E8.97943
G1 X123.422 Y124.616 E9.03949
G1 X123.259 Y125.02 E9.05899
G1 X123.119 Y125.442 E9.0789
G1 X123.106 Y125.47 E9.08029
G1 X123 Y125.642 E9.08933
G1 X122.951 Y125.69 E9.0924
G1 X122.796 Y125.777 E9.10032
G1 X122.751 Y125.792 E9.10248
G1 X122.611 Y125.814 E9.10882
G1 X121.535 Y125.856 E9.15701
G1 X120.082 Y125.844 E9.22206
G1 X110.895 Y125.844 E9.63336
G1 X109.442 Y125.858 E9.69842
G1 X108.401 Y125.816 E9.74504
G1 X108.236 Y125.79 E9.75254
G1 X108.186 Y125.772 E9.75492
G1 X108.044 Y125.684 E9.76239
G1 X107.997 Y125.636 E9.76538
G1 X107.886 Y125.443 E9.77539
G1 X107.876 Y125.423 E9.77636
G1 X107.568 Y124.611 E9.81523
G1 X107.194 Y123.382 E9.87278
G1 X106.337 Y120.784 E9.99525
G1 X104.202 Y114.185 E10.30574
G1 X103.728 Y112.773 E10.37241
G1 X103.489 Y111.907 E10.41265
G1 X103.485 Y111.886 E10.41361
G1 X103.468 Y111.737 E10.42033
G1 X103.474 Y111.68 E10.42286
G1 X103.523 Y111.528 E10.43004
G1 X103.551 Y111.478 E10.43258
G1 X103.646 Y111.372 E10.43894
; printing object dod_1_thick.stl id:0 copy 0
M486 S0
G1 X104.033 Y111.775 F9000
;TYPE:External perimeter
G1 F1200
G1 X104.781 Y111.176 E10.48186
G1 X108.556 Y108.453 E10.69021
G1 X114.603 Y104.041 E11.02536
G1 X115.476 Y103.457 E11.07238
G1 X116.102 Y103.838 E11.10519
G1 X124.763 Y110.145 E11.58483
G1 X126.197 Y111.164 E11.66359
G1 X126.967 Y111.778 E11.70771
G1 X126.739 Y112.631 E11.74723
G1 X126.299 Y113.905 E11.80757
G1 X123.292 Y123.167 E12.24352
G1 X122.896 Y124.434 E12.30294
G1 X122.737 Y124.828 E12.32197
G1 X122.606 Y125.22 E12.34049
G1 X122.585 Y125.255 E12.3423
G1 X122.55 Y125.26 E12.34388
G1 X121.529 Y125.3 E12.38962
G1 X110.892 Y125.287 E12.86581
G1 X109.447 Y125.301 E12.93053
G1 X108.421 Y125.256 E12.97652
G1 X108.097 Y124.436 E13.016
G1 X107.725 Y123.214 E13.07318
G1 X104.26 Y112.608 E13.57268
G1 X104.048 Y111.833 E13.60866
;WIPE_START
G1 X104.433 Y111.769 F9000
;WIPE_END
G1 X104.738 Y112.039
G1 F1200
G1 X104.739 Y112.312 E13.62087
G1 X104.791 Y112.508 E13.62997
G1 X105.037 Y113.199 E13.66282
G1 X107.355 Y120.376 E14.00046
G1 X108.378 Y123.48 E14.14678
G1 X108.585 Y124.203 E14.18045
G1 X108.658 Y124.39 E14.18945
G1 X108.837 Y124.638 E14.20312
G1 X109.107 Y124.749 E14.21622
G1 X109.336 Y124.767 E14.22649
G1 X109.803 Y124.744 E14.24744
G1 X121.17 Y124.744 E14.75629
G1 X121.697 Y124.767 E14.77991
G1 X122.062 Y124.696 E14.79658
G1 X122.308 Y124.435 E14.81264
G1 X122.392 Y124.25 E14.8217
G1 X122.649 Y123.396 E14.86164
G1 X125.988 Y113.121 E15.34533
G1 X126.205 Y112.539 E15.37313
G1 X126.263 Y112.332 E15.38278
G1 X126.265 Y112.028 E15.39636
G1 X126.059 Y111.726 E15.41272
G1 X124.292 Y110.464 E15.50996
G1 X117.448 Y105.478 E15.889
G1 X116.387 Y104.723 E15.94732
G1 X115.972 Y104.398 E15.97094
G1 X115.647 Y104.221 E15.9875
G1 X115.356 Y104.213 E16.00053
G1 X115.205 Y104.289 E16.00812
G1 X115.094 Y104.344 E16.01365
G1 X114.499 Y104.801 E16.04725
G1 X105.518 Y111.329 E16.54432
G1 X105.115 Y111.596 E16.56594
G1 X104.897 Y111.774 E16.57854
G1 X104.769 Y111.988 E16.58968
;WIPE_START
G1 X104.361 Y112.174 F9000
;WIPE_END
M106 S84.15
;LAYER_CHANGE
;Z:0.52
;HEIGHT:0.32
;BEFORE_LAYER_CHANGE
;0.52


G92 E0
G1 E-0.7 F3000
;WIPE_START
G1 F7200
G1 X104.6 Y112.567 E-0.88191
G1 X104.687 Y112.813 E-0.985
;WIPE_END
G1 E-1 F3000
; stop printing object dod_1_thick.stl id:0 copy 0
M486 S-1
G1 Z0.47 F9000
;AFTER_LAYER_CHANGE
;0.52
; printing object dod_1_thick.stl id:0 copy 0
M486 S0
M204 S250
G1 X105.161 Y111.98
G1 E0 F3000
;TYPE:Overhang perimeter
;WIDTH:0.476
G1 F1500
G1 X105.062 Y112.366 E0.02181
G1 X105.088 Y112.572 E0.03318
G1 X105.102 Y112.689 E0.03964
G1 X105.259 Y113.13 E0.06525
G1 X105.365 Y113.429 E0.08262
G1 X108.469 Y122.972 E0.63187
G1 X108.566 Y123.305 E0.65083
G1 X108.681 Y123.703 E0.67352
G1 X108.69 Y123.724 E0.67477
G1 X108.787 Y123.976 E0.68953
G1 X108.957 Y124.231 E0.70631
G1 X109.194 Y124.404 E0.72234
G1 X109.447 Y124.496 E0.73712
G1 X109.492 Y124.501 E0.73959
G1 X109.662 Y124.518 E0.74895
G1 X109.73 Y124.525 E0.75269
G1 X110.001 Y124.512 E0.76755
G1 X110.263 Y124.499 E0.78187
G1 X120.721 Y124.499 E1.35431
G1 X121.006 Y124.512 E1.3699
G1 X121.215 Y124.521 E1.38136
G1 X121.302 Y124.517 E1.3861
G1 X121.449 Y124.51 E1.39417
G1 X121.489 Y124.5 E1.39642
G1 X121.788 Y124.42 E1.41338
G1 X122.169 Y124.079 E1.44137
G1 X122.189 Y124.03 E1.44425
G1 X122.29 Y123.781 E1.45899
G1 X122.304 Y123.748 E1.46091
G1 X122.388 Y123.459 E1.4774
G1 X122.508 Y123.042 E1.50116
G1 X125.578 Y113.594 E2.04486
G1 X125.725 Y113.18 E2.06894
G1 X125.847 Y112.835 E2.08891
G1 X125.895 Y112.7 E2.0968
G1 X125.907 Y112.599 E2.10235
G1 X125.934 Y112.386 E2.11413
G1 X125.871 Y112.054 E2.13259
G1 X125.63 Y111.734 E2.15451
G1 X125.602 Y111.697 E2.15704
G1 X125.383 Y111.53 E2.17215
G1 X124.884 Y111.194 E2.20508
G1 X119.998 Y107.647 E2.53552
G1 X116.599 Y105.176 E2.7655
G1 X116.359 Y104.99 E2.78216
G1 X116.015 Y104.724 E2.80595
G1 X115.916 Y104.682 E2.81185
G1 X115.691 Y104.586 E2.82523
G1 X115.299 Y104.585 E2.84667
G1 X115.071 Y104.687 E2.86035
G1 X115.023 Y104.708 E2.86322
G1 X106.114 Y111.196 E3.46646
G1 X105.853 Y111.373 E3.48371
G1 X105.552 Y111.576 E3.50358
G1 X105.477 Y111.635 E3.50881
G1 X105.411 Y111.687 E3.5134
G1 X105.366 Y111.74 E3.51721
G1 X105.2 Y111.934 E3.5312
G1 X105.516 Y112.164 F9000
;WIDTH:0.389872
;HEIGHT:0.389872
G1 F1500
G1 X105.458 Y112.391 E3.54295
G1 X105.484 Y112.599 E3.55343
G1 X105.735 Y113.303 E3.59091
G1 X108.842 Y122.857 E4.09453
G1 X109.051 Y123.578 E4.13214
G1 X109.135 Y123.795 E4.14381
G1 X109.244 Y123.957 E4.15357
G1 X109.38 Y124.056 E4.16202
G1 X109.536 Y124.113 E4.17035
G1 X109.741 Y124.134 E4.18068
G1 X110.253 Y124.109 E4.20639
G1 X120.73 Y124.109 E4.73162
G1 X121.215 Y124.131 E4.75593
G1 X121.389 Y124.123 E4.76467
G1 X121.597 Y124.067 E4.77547
G1 X121.841 Y123.848 E4.79192
G1 X121.935 Y123.62 E4.80428
G1 X122.135 Y122.927 E4.84043
G1 X125.208 Y113.469 E5.33896
G1 X125.513 Y112.609 E5.38469
G1 X125.54 Y112.398 E5.39533
G1 X125.505 Y112.217 E5.4046
G1 X125.323 Y111.975 E5.41978
G1 X125.155 Y111.847 E5.43033
G1 X124.66 Y111.514 E5.46026
G1 X119.769 Y107.962 E5.76325
G1 X116.365 Y105.489 E5.97419
G1 X115.816 Y105.063 E6.00903
G1 X115.611 Y104.976 E6.02019
G1 X115.382 Y104.975 E6.03166
G1 X115.22 Y105.048 E6.04058
G1 X106.338 Y111.516 E6.59135
G1 X105.782 Y111.892 E6.62502
G1 X105.682 Y111.97 E6.63136
G1 X105.555 Y112.119 E6.64115
G1 X104.702 Y110.944 F9000
;WIDTH:0.476
;HEIGHT:0.32
G1 F1500
G1 X114.568 Y103.776 E7.3086
G1 X114.843 Y103.571 E7.32739
G1 X115.485 Y103.091 E7.37127
G1 X115.598 Y103.153 E7.37837
G1 X116.119 Y103.543 E7.414
G1 X116.798 Y104.051 E7.46037
G1 X126.108 Y110.812 E8.09013
G1 X126.664 Y111.202 E8.12728
G1 X127.305 Y111.651 E8.17011
G1 X127.274 Y111.775 E8.17715
G1 X127.129 Y112.182 E8.20074
G1 X127.047 Y112.412 E8.21412
G1 X126.999 Y112.562 E8.22273
G1 X126.838 Y113.056 E8.25116
G1 X125.119 Y118.341 E8.55536
G1 X123.04 Y124.747 E8.92401
G1 X122.971 Y124.979 E8.93724
G1 X122.799 Y125.554 E8.97007
G1 X122.266 Y125.536 E8.99929
G1 X122.103 Y125.536 E9.00817
G1 X108.996 Y125.536 E9.72557
G1 X108.728 Y125.536 E9.74022
G1 X108.195 Y125.555 E9.76944
G1 X108.079 Y125.133 E9.79341
G1 X108.043 Y125.02 E9.79989
G1 X107.887 Y124.538 E9.82761
G1 X107.851 Y124.426 E9.83406
G1 X107.739 Y124.08 E9.85396
G1 X104.181 Y113.121 E10.48463
G1 X103.926 Y112.366 E10.52822
G1 X103.685 Y111.655 E10.56929
G1 X104.271 Y111.247 E10.60839
G1 X104.654 Y110.98 E10.63391
G1 X104.414 Y110.672 F9000
;WIDTH:0.389872
;HEIGHT:0.389872
G1 F1500
G1 X114.336 Y103.462 E11.24876
G1 X115.192 Y102.822 E11.30235
G1 X115.384 Y102.709 E11.31353
G1 X115.453 Y102.692 E11.31705
G1 X115.591 Y102.704 E11.32401
G1 X115.81 Y102.824 E11.33656
G1 X117.029 Y103.737 E11.41289
G1 X126.335 Y110.494 E11.98936
G1 X127.505 Y111.314 E12.06099
G1 X127.631 Y111.44 E12.0699
G1 X127.686 Y111.55 E12.07608
G1 X127.697 Y111.69 E12.0831
G1 X127.648 Y111.888 E12.09334
G1 X127.417 Y112.538 E12.12791
G1 X125.49 Y118.461 E12.44017
G1 X123.412 Y124.863 E12.77758
G1 X123.181 Y125.639 E12.81818
G1 X123.086 Y125.814 E12.82815
