; generated by SuperSlicer 2.4 on 2022-12-22 at 11:19:04 UTC

; 

; external perimeters extrusion width = 0.43mm
; perimeters extrusion width = 0.48mm
; infill extrusion width = 0.46mm
; solid infill extrusion width = 0.48mm
; top infill extrusion width = 0.46mm
; first layer extrusion width = 0.58mm

; object:{"name":"pedestal_1_thick","id":"pedestal_1_thick.stl id:0 copy 0","object_center":[115.500000,115.500000,0.000000],"boundingbox_center":[115.500000,115.500000,16.392656],"boundingbox_size":[47.212312,47.211215,32.785313]}
; Total objects to print: 1
M486 T1
; plater:{"center":[115.500000,115.500000,0.000000],"boundingbox_center":[115.500000,115.500000,16.392656],"boundingbox_size":[47.212312,47.211215,32.785313]}

;TYPE:Custom
G90 ; use absolute coordinates
M83 ; extruder relative mode
M140 S60 ; set final bed temp
M104 S150 ; set temporary nozzle temp to prevent oozing during homing and auto bed leveling
G4 S10 ; allow partial nozzle warmup
G28 ; home all axis
;G29 ; auto bed levelling
G1 Z10 F240
G1 X2 Y10 F3000
G1 Z0 F240
M104 S210 ; set final nozzle temp
M190 S60 ; wait for bed temp to stabilize
M109 S210 ; wait for nozzle temp to stabilize
G1 Z0.28 F240
G92 E0
G1 Y140 E10 F1500 ; prime the nozzle
G1 X2.3 F5000
G92 E0
G1 Y10 E10 F1200 ; prime the nozzle
G92 E0
;start
M107
G21 ; set units to millimeters
G90 ; use absolute coordinates
M82 ; use absolute distances for extrusion
G92 E0
; Filament gcode
;_TOOLCHANGE 0
M107
;LAYER_CHANGE
;Z:0.2
;HEIGHT:0.2
;BEFORE_LAYER_CHANGE
;0.2


G1 E-1 F3000
G1 Z0.15 F9000
;AFTER_LAYER_CHANGE
;0.2
G92 E0
M204 S500
G1 X99.829 Y99.657
G1 E1 F3000
;TYPE:Skirt
;WIDTH:0.48
G1 F1200
G1 X90.173 Y109.33 E1.50171
G1 X89.239 Y110.643 E1.56087
G1 X88.49 Y112.23 E1.62528
G1 X88.011 Y113.894 E1.68885
G1 X87.862 Y115.648 E1.75346
G1 X87.979 Y117.373 E1.81691
G1 X88.098 Y118.112 E1.8444
G1 X88.358 Y118.962 E1.87704
G1 X89.036 Y120.295 E1.93192
G1 X89.959 Y121.486 E1.98723
G1 X108.824 Y140.382 E2.96734
G1 X110.257 Y141.575 E3.03579
G1 X111.676 Y142.281 E3.09398
G1 X113.387 Y142.785 E3.15943
G1 X114.825 Y143.024 E3.21293
G1 X115.866 Y143.072 E3.25122
G1 X117.889 Y142.907 E3.32572
G1 X118.849 Y142.658 E3.36212
G1 X120.143 Y142.06 E3.41444
G1 X121.281 Y141.232 E3.46608
G1 X140.596 Y121.959 E4.46768
G1 X141.607 Y120.643 E4.52858
G1 X142.18 Y119.64 E4.571
G1 X142.576 Y118.745 E4.60691
G1 X142.932 Y117.386 E4.65847
G1 X143.154 Y115.266 E4.73672
G1 X143.123 Y114.315 E4.77165
G1 X142.986 Y113.432 E4.80446
G1 X142.775 Y112.617 E4.83535
G1 X142.392 Y111.609 E4.87494
G1 X141.688 Y110.369 E4.92727
G1 X140.987 Y109.463 E4.96931
G1 X140.364 Y108.803 E5.00264
G1 X121.627 Y90.126 E5.97374
G1 X120.319 Y89.233 E6.03189
G1 X119.137 Y88.7 E6.07947
G1 X118.205 Y88.407 E6.11535
G1 X115.969 Y88.012 E6.1987
G1 X114.848 Y88.009 E6.23982
G1 X112.895 Y88.225 E6.31197
G1 X111.993 Y88.466 E6.34625
G1 X111.314 Y88.758 E6.37338
G1 X110.361 Y89.327 E6.41411
G1 X109.704 Y89.834 E6.44455
G1 X107.354 Y92.118 E6.56486
G1 X99.872 Y99.614 E6.95363
G92 E0
G1 E-0.7 F3000
;WIPE_START
G1 F7200
G1 X99.363 Y100.124 E-0.985
;WIPE_END
G1 E-1 F3000
; acceleration to travel
M204 S1500
G1 X102.253 Y102.106 F9000
; decel to extrusion
M204 S500
G1 X102.606 Y102.348
; end travel
G1 E0 F3000
;WIDTH:0.576
G1 F1200
G1 X110.07 Y94.883 E0.47258
G1 X112.132 Y92.859 E0.60194
G1 X112.496 Y92.564 E0.62293
G1 X112.837 Y92.336 E0.64131
G1 X113.391 Y92.09 E0.66846
G1 X113.577 Y92.047 E0.67699
G1 X114.982 Y91.884 E0.74032
G1 X115.527 Y91.866 E0.76469
G1 X116.236 Y91.955 E0.79671
G1 X117.324 Y92.182 E0.84644
G1 X117.759 Y92.324 E0.86696
G1 X118.174 Y92.535 E0.88779
G1 X118.348 Y92.604 E0.89616
G1 X118.726 Y92.818 E0.91562
G1 X119.026 Y93.039 E0.9323
G1 X119.4 Y93.375 E0.95479
G1 X120.462 Y94.451 E1.02248
G1 X120.572 Y94.544 E1.02894
G1 X121.144 Y95.107 E1.06486
G1 X121.554 Y95.54 E1.09154
G1 X121.984 Y95.955 E1.11832
G1 X122.157 Y96.147 E1.12989
G1 X122.624 Y96.596 E1.15889
G1 X122.795 Y96.787 E1.17037
G1 X123.519 Y97.479 E1.21519
G1 X123.634 Y97.614 E1.22314
G1 X123.812 Y97.773 E1.23384
G1 X123.937 Y97.919 E1.24244
G1 X124.678 Y98.65 E1.28905
G1 X124.761 Y98.75 E1.29486
G1 X124.987 Y98.958 E1.30859
G1 X125.17 Y99.161 E1.32084
G1 X125.628 Y99.596 E1.34911
G1 X126.014 Y99.993 E1.37392
G1 X126.208 Y100.167 E1.38558
G1 X126.319 Y100.297 E1.39321
G1 X127.041 Y101.012 E1.43872
G1 X127.125 Y101.114 E1.44464
G1 X127.357 Y101.327 E1.45872
G1 X127.543 Y101.531 E1.47111
G1 X127.641 Y101.612 E1.47677
G1 X128.401 Y102.379 E1.52513
G1 X128.575 Y102.534 E1.53557
G1 X128.996 Y102.977 E1.5629
G1 X129.565 Y103.534 E1.59856
G1 X129.65 Y103.637 E1.60453
G1 X129.88 Y103.849 E1.61853
G1 X130.066 Y104.055 E1.63098
G1 X130.167 Y104.138 E1.63681
G1 X130.417 Y104.397 E1.65294
G1 X131.003 Y104.959 E1.68931
G1 X131.518 Y105.501 E1.72273
G1 X131.936 Y105.906 E1.74882
G1 X132.019 Y106.007 E1.75469
G1 X132.229 Y106.198 E1.76739
G1 X132.947 Y106.929 E1.81324
G1 X133.399 Y107.354 E1.84103
G1 X134.853 Y108.843 E1.93421
G1 X135.067 Y109.035 E1.94708
G1 X135.482 Y109.464 E1.97379
G1 X135.912 Y109.871 E2.0003
G1 X136.914 Y110.901 E2.06462
G1 X137.102 Y111.07 E2.07596
G1 X137.314 Y111.3 E2.08996
G1 X137.412 Y111.38 E2.09561
G1 X137.683 Y111.665 E2.11322
G1 X137.849 Y111.814 E2.1232
G1 X137.982 Y111.98 E2.1327
G1 X138.104 Y112.093 E2.14018
G1 X138.218 Y112.242 E2.14855
G1 X138.347 Y112.375 E2.15688
G1 X138.56 Y112.661 E2.17284
G1 X138.826 Y113.129 E2.19691
G1 X139.072 Y113.763 E2.22736
G1 X139.211 Y114.314 E2.2528
G1 X139.278 Y114.847 E2.27687
G1 X139.277 Y115.275 E2.29602
G1 X139.208 Y116.1 E2.33307
G1 X139.108 Y116.756 E2.3628
G1 X138.962 Y117.341 E2.38979
G1 X138.761 Y117.813 E2.41274
G1 X138.392 Y118.476 E2.44671
G1 X138.083 Y118.937 E2.47157
G1 X137.808 Y119.267 E2.49079
G1 X126.08 Y131.009 E3.23379
G1 X120.88 Y136.202 E3.5628
G1 X118.798 Y138.255 E3.69368
G1 X118.48 Y138.518 E3.71214
G1 X118.112 Y138.758 E3.7318
G1 X117.718 Y138.945 E3.75137
G1 X117.379 Y139.055 E3.76731
G1 X116.96 Y139.123 E3.78631
G1 X116.448 Y139.119 E3.80923
G1 X115.777 Y139.197 E3.83944
G1 X115.369 Y139.178 E3.85775
G1 X114.541 Y138.995 E3.89571
G1 X113.97 Y138.946 E3.92139
G1 X113.56 Y138.84 E3.94032
G1 X113.149 Y138.696 E3.95985
G1 X112.692 Y138.508 E3.98197
G1 X112.317 Y138.292 E4.00133
G1 X111.933 Y137.989 E4.02323
G1 X111.544 Y137.623 E4.04713
G1 X110.353 Y136.421 E4.12289
G1 X109.912 Y136 E4.15017
G1 X107.816 Y133.883 E4.28353
G1 X107.328 Y133.419 E4.31371
G1 X105.305 Y131.377 E4.44237
G1 X104.938 Y131.03 E4.46501
G1 X102.783 Y128.857 E4.60201
G1 X102.508 Y128.598 E4.61891
G1 X102.117 Y128.185 E4.64437
G1 X97.44 Y123.532 E4.93972
G1 X97.114 Y123.186 E4.96103
G1 X95.243 Y121.329 E5.07903
G1 X95.152 Y121.221 E5.08537
G1 X94.918 Y121.009 E5.09949
G1 X92.931 Y118.996 E5.22612
G1 X92.487 Y118.461 E5.25724
G1 X92.278 Y118.168 E5.27337
G1 X91.935 Y117.451 E5.30895
G1 X91.888 Y117.275 E5.31711
G1 X91.811 Y116.787 E5.33922
G1 X91.737 Y115.705 E5.38776
G1 X91.753 Y115.237 E5.40875
G1 X91.846 Y114.467 E5.44346
G1 X92.098 Y113.644 E5.482
G1 X92.318 Y113.101 E5.50821
G1 X92.533 Y112.686 E5.52914
G1 X92.847 Y112.195 E5.55525
G1 X93.207 Y111.749 E5.58089
G1 X102.564 Y102.39 E6.17334
G1 X102.944 Y102.77 F9000
G1 F1200
G1 X110.449 Y95.264 E6.64855
G1 X112.499 Y93.251 E6.77716
G1 X112.823 Y92.99 E6.79582
G1 X113.116 Y92.796 E6.81154
G1 X113.541 Y92.607 E6.83239
G1 X113.655 Y92.579 E6.83764
G1 X115.034 Y92.419 E6.89978
G1 X115.482 Y92.402 E6.91984
G1 X116.137 Y92.484 E6.94941
G1 X117.199 Y92.704 E6.99796
G1 X117.57 Y92.827 E7.01546
G1 X117.959 Y93.028 E7.03504
G1 X118.086 Y93.074 E7.04109
G1 X118.257 Y93.182 E7.05014
G1 X118.428 Y93.266 E7.05866
G1 X118.677 Y93.448 E7.0725
G1 X119.026 Y93.761 E7.09347
G1 X119.564 Y94.295 E7.12742
G1 X119.748 Y94.503 E7.13983
G1 X119.839 Y94.575 E7.14503
G1 X120.095 Y94.845 E7.16169
G1 X120.204 Y94.935 E7.16803
G1 X120.764 Y95.486 E7.20319
G1 X121.172 Y95.918 E7.22977
G1 X121.604 Y96.335 E7.25666
G1 X121.79 Y96.544 E7.26919
G1 X121.864 Y96.6 E7.27333
G1 X121.998 Y96.751 E7.28241
G1 X122.233 Y96.965 E7.29663
G1 X122.429 Y97.183 E7.30974
G1 X122.507 Y97.243 E7.31413
G1 X122.623 Y97.372 E7.32192
G1 X123.138 Y97.859 E7.35365
G1 X123.248 Y97.988 E7.36124
G1 X123.439 Y98.16 E7.37275
G1 X123.541 Y98.283 E7.37991
G1 X124.29 Y99.021 E7.42698
G1 X124.368 Y99.119 E7.43257
G1 X124.597 Y99.328 E7.44645
G1 X124.802 Y99.555 E7.46014
G1 X124.89 Y99.625 E7.46519
G1 X125.148 Y99.895 E7.48193
G1 X125.253 Y99.982 E7.48802
G1 X125.642 Y100.381 E7.51298
G1 X125.834 Y100.554 E7.52455
G1 X125.921 Y100.659 E7.53068
G1 X126.652 Y101.383 E7.57673
G1 X126.732 Y101.482 E7.58243
G1 X126.984 Y101.714 E7.59775
G1 X127.173 Y101.924 E7.6104
G1 X127.267 Y101.999 E7.61578
G1 X127.661 Y102.403 E7.64104
G1 X127.94 Y102.664 E7.65814
G1 X128.014 Y102.754 E7.66336
G1 X128.194 Y102.913 E7.6741
G1 X128.613 Y103.354 E7.70133
G1 X129.177 Y103.907 E7.73672
G1 X129.257 Y104.006 E7.74241
G1 X129.49 Y104.219 E7.75654
G1 X129.698 Y104.448 E7.77038
G1 X129.792 Y104.523 E7.77578
G1 X130.037 Y104.778 E7.7916
G1 X130.627 Y105.343 E7.82818
G1 X131.136 Y105.879 E7.86125
G1 X131.55 Y106.28 E7.88707
G1 X131.627 Y106.376 E7.89258
G1 X131.851 Y106.58 E7.90618
G1 X132.571 Y107.313 E7.95215
G1 X133.017 Y107.732 E7.97953
G1 X133.949 Y108.699 E8.03964
G1 X134.064 Y108.793 E8.04631
G1 X134.479 Y109.229 E8.07328
G1 X134.688 Y109.416 E8.08582
G1 X135.104 Y109.846 E8.11263
G1 X135.534 Y110.252 E8.13907
G1 X135.926 Y110.649 E8.16405
G1 X136.01 Y110.752 E8.17001
G1 X136.448 Y111.18 E8.19743
G1 X136.521 Y111.272 E8.20269
G1 X136.734 Y111.462 E8.21544
G1 X136.948 Y111.697 E8.22971
G1 X137.037 Y111.766 E8.23473
G1 X137.311 Y112.054 E8.25253
G1 X137.445 Y112.17 E8.26044
G1 X137.594 Y112.355 E8.2711
G1 X137.694 Y112.441 E8.27703
G1 X137.812 Y112.596 E8.28574
G1 X137.928 Y112.712 E8.29305
G1 X138.119 Y112.969 E8.30741
G1 X138.332 Y113.343 E8.32668
G1 X138.555 Y113.911 E8.35398
G1 X138.686 Y114.429 E8.37793
G1 X138.74 Y114.864 E8.39754
G1 X138.74 Y115.241 E8.41444
G1 X138.675 Y116.028 E8.44977
G1 X138.578 Y116.664 E8.47856
G1 X138.458 Y117.152 E8.50107
G1 X138.285 Y117.564 E8.52111
G1 X137.928 Y118.205 E8.55391
G1 X137.645 Y118.625 E8.57662
G1 X137.419 Y118.895 E8.59238
G1 X125.7 Y130.629 E9.33482
G1 X120.501 Y135.822 E9.66378
G1 X118.429 Y137.863 E9.79401
G1 X118.15 Y138.094 E9.81018
G1 X117.836 Y138.296 E9.82692
G1 X117.506 Y138.451 E9.84325
G1 X117.236 Y138.536 E9.8559
G1 X116.9 Y138.588 E9.87114
G1 X116.432 Y138.581 E9.89207
G1 X116.26 Y138.594 E9.89982
G1 X115.773 Y138.659 E9.92181
G1 X115.461 Y138.648 E9.9358
G1 X114.621 Y138.463 E9.97431
G1 X114.08 Y138.42 E9.99858
G1 X113.727 Y138.329 E10.0149
G1 X113.333 Y138.191 E10.03358
G1 X112.914 Y138.018 E10.05391
G1 X112.605 Y137.838 E10.06991
G1 X112.277 Y137.576 E10.08871
G1 X111.923 Y137.241 E10.11052
G1 X110.729 Y136.038 E10.1864
G1 X110.292 Y135.619 E10.21351
G1 X108.192 Y133.499 E10.34709
G1 X107.706 Y133.038 E10.37707
G1 X105.681 Y130.992 E10.50595
G1 X105.316 Y130.648 E10.5284
G1 X103.158 Y128.471 E10.66564
G1 X102.885 Y128.215 E10.6824
G1 X102.711 Y128.018 E10.69418
G1 X102.612 Y127.937 E10.69992
G1 X102.512 Y127.82 E10.70681
G1 X100.623 Y125.938 E10.82618
G1 X100.525 Y125.856 E10.83186
G1 X100.336 Y125.645 E10.84459
G1 X100.207 Y125.536 E10.85211
G1 X100.019 Y125.33 E10.86462
G1 X98.017 Y123.349 E10.9907
G1 X97.938 Y123.253 E10.99628
G1 X97.822 Y123.153 E11.00312
G1 X97.499 Y122.811 E11.0242
G1 X95.631 Y120.957 E11.14201
G1 X95.541 Y120.849 E11.14832
G1 X95.295 Y120.626 E11.16317
G1 X93.337 Y118.645 E11.28788
G1 X92.907 Y118.126 E11.31803
G1 X92.729 Y117.875 E11.3318
G1 X92.446 Y117.283 E11.36118
G1 X92.416 Y117.175 E11.36618
G1 X92.344 Y116.715 E11.38705
G1 X92.275 Y115.709 E11.43219
G1 X92.288 Y115.289 E11.45099
G1 X92.377 Y114.555 E11.48409
G1 X92.6 Y113.835 E11.51785
G1 X92.812 Y113.314 E11.543
G1 X92.992 Y112.965 E11.56061
G1 X93.292 Y112.497 E11.58551
G1 X93.597 Y112.118 E11.60726
G1 X102.901 Y102.813 E12.19638
G1 X103.281 Y103.193 F9000
G1 F1200
G1 X110.829 Y95.644 E12.67428
G1 X112.86 Y93.649 E12.80175
G1 X113.154 Y93.414 E12.81861
G1 X113.401 Y93.251 E12.83184
G1 X113.422 Y93.24 E12.8329
G1 X113.699 Y93.121 E12.84639
G1 X113.737 Y93.111 E12.84815
G1 X115.101 Y92.953 E12.90964
G1 X115.468 Y92.94 E12.92609
G1 X115.49 Y92.941 E12.92707
G1 X115.757 Y92.975 E12.93912
G1 X116.023 Y93.009 E12.95111
G1 X117.098 Y93.233 E13.00027
G1 X117.385 Y93.332 E13.01387
G1 X117.405 Y93.341 E13.01485
G1 X117.746 Y93.524 E13.03218
G1 X117.854 Y93.559 E13.03726
G1 X117.895 Y93.581 E13.03934
G1 X117.976 Y93.644 E13.04392
G1 X118.138 Y93.719 E13.05193
G1 X118.178 Y93.747 E13.05412
G1 X118.236 Y93.806 E13.05779
G1 X118.342 Y93.87 E13.06337
G1 X118.378 Y93.901 E13.06547
G1 X118.429 Y93.963 E13.06907
G1 X118.518 Y94.021 E13.07384
G1 X118.553 Y94.054 E13.076
G1 X118.6 Y94.118 E13.07954
G1 X118.669 Y94.164 E13.08325
G1 X118.706 Y94.199 E13.08554
G1 X118.756 Y94.271 E13.08948
G1 X118.829 Y94.322 E13.09347
G1 X118.863 Y94.355 E13.0956
G1 X118.914 Y94.427 E13.09952
G1 X118.983 Y94.476 E13.1033
G1 X119.013 Y94.506 E13.10523
G1 X119.072 Y94.585 E13.10964
G1 X119.151 Y94.644 E13.11407
G1 X119.171 Y94.663 E13.11529
G1 X119.382 Y94.9 E13.12948
G1 X119.468 Y94.965 E13.13432
G1 X119.497 Y94.994 E13.13616
G1 X119.547 Y95.064 E13.14002
G1 X119.617 Y95.114 E13.14386
G1 X119.645 Y95.142 E13.14564
G1 X119.71 Y95.227 E13.1504
G1 X119.833 Y95.324 E13.15741
G1 X120.38 Y95.862 E13.19179
G1 X120.393 Y95.877 E13.19266
G1 X120.464 Y95.971 E13.19794
G1 X120.553 Y96.041 E13.20301
G1 X120.584 Y96.075 E13.2051
G1 X120.631 Y96.151 E13.20908
G1 X120.692 Y96.19 E13.21232
G1 X120.726 Y96.22 E13.21434
G1 X120.802 Y96.317 E13.21989
G1 X120.874 Y96.365 E13.22374
G1 X120.908 Y96.398 E13.22585
G1 X120.968 Y96.479 E13.23037
G1 X121.041 Y96.53 E13.23437
G1 X121.076 Y96.565 E13.23656
G1 X121.125 Y96.636 E13.24045
G1 X121.191 Y96.684 E13.24408
G1 X121.212 Y96.703 E13.24539
G1 X121.429 Y96.946 E13.25997
G1 X121.504 Y97 E13.2641
G1 X121.533 Y97.028 E13.26591
G1 X121.602 Y97.117 E13.27093
G1 X121.848 Y97.34 E13.28578
G1 X122.067 Y97.585 E13.30053
G1 X122.146 Y97.641 E13.30486
G1 X122.175 Y97.669 E13.30665
G1 X122.238 Y97.753 E13.31133
G1 X122.358 Y97.847 E13.31817
G1 X122.757 Y98.237 E13.34316
G1 X122.856 Y98.359 E13.35019
G1 X123.067 Y98.549 E13.3629
G1 X123.089 Y98.574 E13.36438
G1 X123.155 Y98.672 E13.36969
G1 X123.228 Y98.72 E13.37358
G1 X123.262 Y98.752 E13.37569
G1 X123.329 Y98.843 E13.38073
G1 X123.404 Y98.894 E13.3848
G1 X123.438 Y98.928 E13.38693
G1 X123.489 Y99.001 E13.39091
G1 X123.557 Y99.049 E13.39464
G1 X123.588 Y99.079 E13.39661
G1 X123.645 Y99.157 E13.4009
G1 X123.713 Y99.205 E13.40465
G1 X123.743 Y99.234 E13.40651
G1 X123.804 Y99.316 E13.41105
G1 X123.872 Y99.364 E13.4148
G1 X123.9 Y99.392 E13.41659
G1 X123.97 Y99.484 E13.42171
G1 X124.22 Y99.711 E13.43686
G1 X124.437 Y99.953 E13.45143
G1 X124.521 Y100.016 E13.45612
G1 X124.551 Y100.046 E13.458
G1 X124.601 Y100.116 E13.46189
G1 X124.671 Y100.166 E13.46573
G1 X124.7 Y100.195 E13.46755
G1 X124.763 Y100.277 E13.47216
G1 X124.882 Y100.37 E13.47896
G1 X125.182 Y100.666 E13.49781
G1 X125.199 Y100.685 E13.49894
G1 X125.237 Y100.741 E13.50197
G1 X125.447 Y100.927 E13.51454
G1 X125.466 Y100.948 E13.51582
G1 X125.532 Y101.037 E13.5208
G1 X125.623 Y101.108 E13.52595
G1 X125.652 Y101.14 E13.52787
G1 X125.7 Y101.211 E13.5317
G1 X125.771 Y101.262 E13.53561
G1 X125.803 Y101.294 E13.53767
G1 X125.854 Y101.368 E13.54168
G1 X125.924 Y101.417 E13.54551
G1 X125.955 Y101.448 E13.54747
G1 X126.009 Y101.523 E13.55159
G1 X126.078 Y101.571 E13.55537
G1 X126.108 Y101.601 E13.55725
G1 X126.168 Y101.68 E13.56169
G1 X126.236 Y101.728 E13.56543
G1 X126.265 Y101.756 E13.56724
G1 X126.335 Y101.848 E13.5724
G1 X126.589 Y102.078 E13.58774
G1 X126.808 Y102.321 E13.60241
G1 X126.896 Y102.387 E13.6073
G1 X126.925 Y102.417 E13.60917
G1 X126.972 Y102.485 E13.61288
G1 X127.047 Y102.54 E13.61704
G1 X127.077 Y102.571 E13.61897
G1 X127.126 Y102.639 E13.62273
G1 X127.195 Y102.688 E13.62648
G1 X127.225 Y102.717 E13.62839
G1 X127.283 Y102.794 E13.6327
G1 X127.345 Y102.838 E13.63609
G1 X127.362 Y102.852 E13.63709
