; generated by SuperSlicer 2.4 on 2022-12-22 at 11:19:24 UTC

; 

; external perimeters extrusion width = 0.43mm
; perimeters extrusion width = 0.48mm
; infill extrusion width = 0.46mm
; solid infill extrusion width = 0.48mm
; top infill extrusion width = 0.46mm
; first layer extrusion width = 0.58mm

; object:{"name":"prism_2_thick","id":"prism_2_thick.stl id:0 copy 0","object_center":[115.500000,115.500000,0.000000],"boundingbox_center":[115.500000,115.500000,18.731733],"boundingbox_size":[29.008604,32.721321,37.463466]}
; Total objects to print: 1
M486 T1
; plater:{"center":[115.500000,115.500000,0.000000],"boundingbox_center":[115.500000,115.500000,18.731733],"boundingbox_size":[29.008604,32.721321,37.463466]}

;TYPE:Custom
G90 ; use absolute coordinates
M83 ; extruder relative mode
M140 S60 ; set final bed temp
M104 S150 ; set temporary nozzle temp to prevent oozing during homing and auto bed leveling
G4 S10 ; allow partial nozzle warmup
G28 ; home all axis
;G29 ; auto bed levelling
G1 Z10 F240
G1 X2 Y10 F3000
G1 Z0 F240
M104 S210 ; set final nozzle temp
M190 S60 ; wait for bed temp to stabilize
M109 S210 ; wait for nozzle temp to stabilize
G1 Z0.28 F240
G92 E0
G1 Y140 E10 F1500 ; prime the nozzle
G1 X2.3 F5000
G92 E0
G1 Y10 E10 F1200 ; prime the nozzle
G92 E0
;start
M107
G21 ; set units to millimeters
G90 ; use absolute coordinates
M82 ; use absolute distances for extrusion
G92 E0
; Filament gcode
;_TOOLCHANGE 0
M107
;LAYER_CHANGE
;Z:0.2
;HEIGHT:0.2
;BEFORE_LAYER_CHANGE
;0.2


G1 E-1 F3000
G1 Z0.15 F9000
;AFTER_LAYER_CHANGE
;0.2
G92 E0
M204 S500
G1 X98.695 Y97.5
G1 E1 F3000
;TYPE:Skirt
;WIDTH:0.48
G1 F1200
G1 X98.194 Y98.148 E1.03007
G1 X97.712 Y99.028 E1.0669
G1 X97.48 Y99.675 E1.09212
G1 X97.301 Y100.5 E1.12312
G1 X97.241 Y101.369 E1.15508
G1 X97.242 Y129.717 E2.19567
G1 X97.294 Y130.446 E2.22248
G1 X97.643 Y131.813 E2.27425
G1 X98.201 Y132.869 E2.3181
G1 X98.809 Y133.631 E2.3539
G1 X99.76 Y134.436 E2.39963
G1 X100.955 Y135.053 E2.44899
G1 X102.261 Y135.404 E2.49865
G1 X102.973 Y135.461 E2.52486
G1 X103.942 Y135.391 E2.56051
G1 X104.631 Y135.235 E2.58643
G1 X105.95 Y134.669 E2.63913
G1 X130.796 Y120.313 E3.69245
G1 X131.801 Y119.476 E3.74044
G1 X132.531 Y118.512 E3.78483
G1 X132.902 Y117.765 E3.81545
G1 X133.188 Y116.891 E3.84921
G1 X133.341 Y115.717 E3.89267
G1 X133.283 Y114.625 E3.93282
G1 X133.166 Y114.009 E3.95582
G1 X132.85 Y113.108 E3.99087
G1 X132.452 Y112.352 E4.02223
G1 X131.66 Y111.377 E4.06835
G1 X130.61 Y110.565 E4.11705
G1 X106.709 Y96.763 E5.13016
G1 X105.513 Y96.097 E5.18043
G1 X104.655 Y95.769 E5.21412
G1 X103.936 Y95.607 E5.24116
G1 X102.974 Y95.539 E5.2766
G1 X102.253 Y95.596 E5.30314
G1 X101.388 Y95.787 E5.33564
G1 X100.088 Y96.365 E5.38785
G1 X99.447 Y96.796 E5.41622
G1 X98.739 Y97.459 E5.45182
G92 E0
G1 E-0.7 F3000
;WIPE_START
G1 F7200
G1 X98.292 Y98.024 E-0.985
;WIPE_END
G1 E-1 F3000
; acceleration to travel
M204 S1500
G1 X101.302 Y99.786 F9000
; decel to extrusion
M204 S500
G1 X101.67 Y100.002
; end travel
G1 E0 F3000
;WIDTH:0.576
G1 F1200
G1 X101.826 Y99.866 E0.00927
G1 X102.092 Y99.687 E0.02361
G1 X102.304 Y99.58 E0.03425
G1 X102.727 Y99.449 E0.05409
G1 X103.032 Y99.421 E0.06776
G1 X103.229 Y99.428 E0.07662
G1 X103.574 Y99.498 E0.09236
G1 X103.795 Y99.579 E0.10288
G1 X104.823 Y100.148 E0.1555
G1 X128.565 Y113.859 E1.3829
G1 X129.023 Y114.24 E1.4096
G1 X129.175 Y114.446 E1.42106
G1 X129.311 Y114.704 E1.4341
G1 X129.393 Y114.929 E1.44484
G1 X129.45 Y115.211 E1.45773
G1 X129.466 Y115.589 E1.47465
G1 X129.389 Y116.078 E1.49683
G1 X129.322 Y116.261 E1.50556
G1 X129.163 Y116.571 E1.52116
G1 X129.006 Y116.774 E1.53262
G1 X128.761 Y116.999 E1.54754
G1 X128.449 Y117.208 E1.56436
G1 X104.174 Y131.224 E2.81924
G1 X103.625 Y131.487 E2.84651
G1 X103.329 Y131.557 E2.8601
G1 X103.084 Y131.579 E2.87113
G1 X102.738 Y131.552 E2.88668
G1 X102.4 Y131.456 E2.90239
G1 X101.931 Y131.21 E2.9261
G1 X101.726 Y131.054 E2.93764
G1 X101.425 Y130.697 E2.95852
G1 X101.3 Y130.484 E2.96957
G1 X101.168 Y130.092 E2.98811
G1 X101.12 Y129.722 E3.00481
G1 X101.116 Y101.428 E4.2715
G1 X101.152 Y100.979 E4.29167
G1 X101.268 Y100.59 E4.30982
G1 X101.418 Y100.314 E4.32391
G1 X101.632 Y100.048 E4.33919
G1 X102.044 Y100.388 F9000
G1 F1200
G1 X102.141 Y100.302 E4.34499
G1 X102.379 Y100.142 E4.35781
G1 X102.492 Y100.084 E4.3635
G1 X102.806 Y99.981 E4.3783
G1 X103.061 Y99.958 E4.38978
G1 X103.183 Y99.964 E4.39522
G1 X103.441 Y100.019 E4.40707
G1 X103.585 Y100.074 E4.41395
G1 X104.556 Y100.614 E4.46369
G1 X128.277 Y114.313 E5.69002
G1 X128.614 Y114.59 E5.70956
G1 X128.71 Y114.716 E5.71665
G1 X128.826 Y114.937 E5.72782
G1 X128.879 Y115.088 E5.73498
G1 X128.918 Y115.292 E5.74427
G1 X128.928 Y115.582 E5.75729
G1 X128.875 Y115.922 E5.77271
G1 X128.836 Y116.031 E5.77789
G1 X128.697 Y116.301 E5.79145
G1 X128.601 Y116.419 E5.79827
G1 X128.416 Y116.587 E5.80946
G1 X128.173 Y116.747 E5.8225
G1 X103.914 Y130.754 E7.0766
G1 X103.472 Y130.971 E7.09862
G1 X103.223 Y131.029 E7.11005
G1 X103.102 Y131.041 E7.11552
G1 X102.808 Y131.018 E7.1287
G1 X102.582 Y130.949 E7.1393
G1 X102.205 Y130.748 E7.15841
G1 X102.082 Y130.65 E7.16544
G1 X101.855 Y130.374 E7.18147
G1 X101.781 Y130.243 E7.18821
G1 X101.688 Y129.953 E7.20184
G1 X101.656 Y129.676 E7.21433
G1 X101.653 Y101.439 E8.47845
G1 X101.685 Y101.053 E8.49579
G1 X101.772 Y100.777 E8.50877
G1 X101.853 Y100.629 E8.51629
G1 X102.007 Y100.435 E8.52739
G1 X102.427 Y100.765 F9000
G1 F1200
G1 X102.459 Y100.736 E8.52933
G1 X102.665 Y100.597 E8.54048
G1 X102.694 Y100.582 E8.5419
G1 X102.867 Y100.518 E8.5502
G1 X102.904 Y100.51 E8.55186
G1 X103.084 Y100.496 E8.55996
G1 X103.124 Y100.498 E8.56177
G1 X103.305 Y100.539 E8.57004
G1 X103.341 Y100.553 E8.57177
G1 X104.291 Y101.082 E8.62046
G1 X127.998 Y114.773 E9.84609
G1 X128.017 Y114.786 E9.8471
G1 X128.214 Y114.949 E9.85856
G1 X128.247 Y114.99 E9.86093
G1 X128.342 Y115.17 E9.87001
G1 X128.355 Y115.208 E9.87181
G1 X128.388 Y115.38 E9.87965
G1 X128.39 Y115.404 E9.88076
G1 X128.391 Y115.573 E9.88829
G1 X128.389 Y115.596 E9.88936
G1 X128.358 Y115.774 E9.89742
G1 X128.346 Y115.81 E9.89914
G1 X128.254 Y115.996 E9.90844
G1 X128.223 Y116.037 E9.91072
G1 X128.065 Y116.179 E9.92023
G1 X128.046 Y116.194 E9.9213
G1 X127.891 Y116.289 E9.92944
G1 X103.648 Y130.287 E11.18274
G1 X103.336 Y130.448 E11.19845
G1 X103.304 Y130.46 E11.19997
G1 X103.124 Y130.501 E11.20822
G1 X103.084 Y130.504 E11.21004
G1 X102.904 Y130.489 E11.2181
G1 X102.869 Y130.482 E11.2197
G1 X102.774 Y130.447 E11.22424
G1 X102.754 Y130.438 E11.22522
G1 X102.49 Y130.291 E11.23876
G1 X102.45 Y130.257 E11.24111
G1 X102.291 Y130.058 E11.25251
G1 X102.268 Y130.014 E11.25476
G1 X102.212 Y129.835 E11.26313
G1 X102.207 Y129.807 E11.2644
G1 X102.192 Y129.634 E11.2722
G1 X102.191 Y101.445 E12.5342
G1 X102.214 Y101.15 E12.54745
G1 X102.222 Y101.115 E12.54903
G1 X102.271 Y100.978 E12.55554
G1 X102.291 Y100.941 E12.55743
G1 X102.39 Y100.813 E12.56469
; printing object prism_2_thick.stl id:0 copy 0
M486 S0
G1 X103.006 Y101.06 F9000
;TYPE:External perimeter
G1 F1200
G1 X103.123 Y101.069 E12.56993
G1 X104.015 Y101.566 E12.61566
G1 X127.689 Y115.237 E13.83954
G1 X127.794 Y115.324 E13.84564
G1 X127.82 Y115.374 E13.84814
G1 X127.834 Y115.538 E13.85551
G1 X127.791 Y115.677 E13.86206
G1 X127.607 Y115.811 E13.87221
G1 X103.378 Y129.8 E15.12476
G1 X103.128 Y129.929 E15.13733
G1 X103.064 Y129.944 E15.14029
G1 X102.995 Y129.935 E15.1434
G1 X102.833 Y129.845 E15.15169
G1 X102.776 Y129.773 E15.15581
G1 X102.748 Y129.615 E15.16301
G1 X102.747 Y101.462 E16.42339
G1 X102.765 Y101.251 E16.43288
G1 X102.826 Y101.16 E16.43778
G1 X102.954 Y101.089 E16.44432
;WIPE_START
G1 X103.246 Y101.38 F9000
;WIPE_END
G1 X102.978 Y101.652
G1 F1200
G1 X102.861 Y101.881 E16.45583
G1 X102.814 Y102.225 E16.4714
G1 X102.85 Y103.353 E16.5219
G1 X102.849 Y127.562 E17.60572
G1 X102.819 Y128.78 E17.66026
G1 X102.835 Y128.974 E17.66898
G1 X102.903 Y129.2 E17.67956
G1 X103.034 Y129.388 E17.6898
G1 X103.19 Y129.506 E17.69858
G1 X103.433 Y129.561 E17.7097
G1 X103.628 Y129.521 E17.71862
G1 X103.859 Y129.426 E17.72981
G1 X104.287 Y129.151 E17.75257
G1 X105.824 Y128.245 E17.83246
G1 X106.108 Y128.097 E17.84681
G1 X110.842 Y125.368 E18.09142
G1 X114.01 Y123.516 E18.25573
G1 X114.288 Y123.371 E18.26974
G1 X118.012 Y121.209 E18.46255
G1 X119.017 Y120.646 E18.51412
G1 X126.099 Y116.542 E18.88055
G1 X126.767 Y116.203 E18.91409
G1 X127.17 Y115.922 E18.93608
G1 X127.329 Y115.652 E18.95014
G1 X127.329 Y115.363 E18.96307
G1 X127.246 Y115.182 E18.97198
G1 X127.134 Y115.042 E18.97998
G1 X126.823 Y114.816 E18.99723
G1 X126.605 Y114.722 E19.00783
G1 X126.093 Y114.451 E19.03379
G1 X125.805 Y114.266 E19.0491
G1 X124.682 Y113.62 E19.10709
G1 X124.57 Y113.573 E19.11253
G1 X123.338 Y112.841 E19.17671
G1 X122.839 Y112.574 E19.202
G1 X121.881 Y112.016 E19.25167
G1 X121.811 Y111.958 E19.25575
G1 X121.111 Y111.574 E19.29149
G1 X118.613 Y110.11 E19.4211
G1 X117.903 Y109.724 E19.45728
G1 X116.499 Y108.89 E19.53039
G1 X116.379 Y108.839 E19.5362
G1 X115.878 Y108.535 E19.56244
G1 X115.485 Y108.325 E19.58242
G1 X114.883 Y107.959 E19.61394
G1 X114.137 Y107.549 E19.65206
G1 X113.618 Y107.23 E19.67936
G1 X111.652 Y106.112 E19.78058
G1 X110.054 Y105.168 E19.86368
G1 X107.197 Y103.537 E20.01096
G1 X106.433 Y103.077 E20.05088
G1 X105.614 Y102.624 E20.09278
G1 X105.442 Y102.506 E20.10214
G1 X104.55 Y101.999 E20.14806
G1 X103.99 Y101.633 E20.17801
G1 X103.616 Y101.471 E20.19624
G1 X103.317 Y101.457 E20.20964
G1 X103.03 Y101.622 E20.22448
;WIPE_START
G1 X102.582 Y101.596 F9000
;WIPE_END
M106 S84.15
;LAYER_CHANGE
;Z:0.52
;HEIGHT:0.32
;BEFORE_LAYER_CHANGE
;0.52


G92 E0
G1 E-0.7 F3000
;WIPE_START
G1 F7200
G1 X102.613 Y102.215 E-0.94532
G1 X102.616 Y102.315 E-0.985
;WIPE_END
G1 E-1 F3000
; stop printing object prism_2_thick.stl id:0 copy 0
M486 S-1
G1 Z0.47 F9000
;AFTER_LAYER_CHANGE
;0.52
; printing object prism_2_thick.stl id:0 copy 0
M486 S0
G1 X103.185 Y101.656
G1 E0 F3000
;TYPE:Internal perimeter
;WIDTH:0.476
G1 F2400
G1 X102.931 Y101.962 E0.02178
G1 X102.813 Y102.251 E0.03883
G1 X102.777 Y102.663 E0.06148
G1 X102.81 Y103.752 E0.12113
G1 X102.81 Y127.26 E1.4078
G1 X102.782 Y128.369 E1.46847
G1 X102.83 Y128.795 E1.49197
G1 X102.991 Y129.19 E1.51532
G1 X103.334 Y129.414 E1.53774
G1 X103.685 Y129.456 E1.55708
G1 X103.98 Y129.388 E1.57366
G1 X104.228 Y129.274 E1.58858
G1 X104.844 Y128.885 E1.62847
G1 X105.69 Y128.394 E1.68203
G1 X125.761 Y116.808 E2.95043
G1 X126.517 Y116.402 E2.9974
G1 X126.826 Y116.202 E3.01757
G1 X127.168 Y115.772 E3.04764
G1 X127.133 Y115.135 E3.08252
G1 X126.719 Y114.721 E3.11459
G1 X126.481 Y114.576 E3.12982
G1 X125.686 Y114.15 E3.1792
G1 X121.712 Y111.861 E3.4302
G1 X105.349 Y102.412 E4.46443
G1 X104.383 Y101.815 E4.52657
G1 X104.082 Y101.66 E4.5451
G1 X103.673 Y101.556 E4.56821
G1 X103.244 Y101.644 E4.59216
M204 S250
G1 X103.269 Y102.165 F9000
;TYPE:Overhang perimeter
;WIDTH:0.428
G1 F1500
G1 X103.208 Y102.317 E4.60007
G1 X103.197 Y102.343 E4.60145
G1 X103.168 Y102.674 E4.61748
G1 X103.2 Y103.746 E4.66927
G1 X103.2 Y127.265 E5.80484
G1 X103.173 Y128.352 E5.85731
G1 X103.212 Y128.698 E5.87413
G1 X103.267 Y128.833 E5.88119
G1 X103.306 Y128.93 E5.88623
G1 X103.471 Y129.037 E5.89574
G1 X103.591 Y129.052 E5.90158
G1 X103.664 Y129.061 E5.9051
G1 X103.734 Y129.044 E5.90859
G1 X103.854 Y129.017 E5.9145
G1 X104.041 Y128.93 E5.92448
G1 X104.642 Y128.551 E5.95878
G1 X105.495 Y128.056 E6.0064
G1 X125.571 Y116.467 E7.12564
G1 X126.318 Y116.066 E7.16659
G1 X126.561 Y115.909 E7.18054
G1 X126.628 Y115.824 E7.1858
G1 X126.74 Y115.684 E7.19444
G1 X126.77 Y115.645 E7.19682
G1 X126.752 Y115.306 E7.21323
G1 X126.578 Y115.132 E7.22509
G1 X126.476 Y115.03 E7.23205
G1 X126.288 Y114.915 E7.2427
G1 X125.496 Y114.492 E7.28604
G1 X121.518 Y112.199 E7.50775
G1 X105.149 Y102.747 E8.4204
G1 X104.19 Y102.155 E8.4748
G1 X103.943 Y102.027 E8.48824
G1 X103.838 Y102 E8.49345
G1 X103.664 Y101.957 E8.50214
G1 X103.637 Y101.962 E8.50343
G1 X103.398 Y102.011 E8.51525
G1 X103.308 Y102.119 E8.52204
G1 X102.331 Y101.149 F9000
;WIDTH:0.389872
;HEIGHT:0.389872
G1 F1500
G1 X102.325 Y100.975 E8.53078
G1 X102.483 Y100.881 E8.53999
G1 X102.911 Y100.624 E8.56501
G1 X103.055 Y100.538 E8.57343
G1 X103.205 Y100.634 E8.58234
G1 X103.311 Y100.702 E8.58864
G1 X104.726 Y101.509 E8.67031
G1 X105.409 Y101.919 E8.71022
G1 X105.464 Y101.952 E8.71345
G1 X105.494 Y101.968 E8.71514
G1 X105.912 Y102.191 E8.73892
G1 X109.013 Y103.998 E8.91882
G1 X113.16 Y106.375 E9.15843
G1 X113.455 Y106.563 E9.17598
G1 X116.084 Y108.066 E9.32779
G1 X123.096 Y112.131 E9.73409
G1 X126.086 Y113.837 E9.90665
G1 X127.38 Y114.607 E9.98215
G1 X127.547 Y114.707 E9.99187
G1 X127.621 Y114.747 E9.9961
G1 X128.102 Y115.005 E10.02345
G1 X128.241 Y115.08 E10.03136
G1 X128.236 Y115.215 E10.03815
G1 X128.225 Y115.55 E10.05493
G1 X128.234 Y115.779 E10.06641
G1 X128.238 Y115.91 E10.07299
G1 X128.104 Y115.987 E10.08074
G1 X122.305 Y119.323 E10.41611
;WIDTH:0.476
;HEIGHT:0.32
G1 X121.144 Y119.991 E10.48947
G1 X120.952 Y120.104 E10.50163
G1 X119.557 Y120.928 E10.59033
G1 X117.059 Y122.352 E10.7477
G1 X116.706 Y122.554 E10.76996
G1 X116.252 Y122.818 E10.79872
G1 X113.105 Y124.653 E10.99808
G1 X111.896 Y125.333 E11.074
G1 X111.681 Y125.454 E11.08751
G1 X110.93 Y125.891 E11.13505
G1 X108.022 Y127.582 E11.31921
G1 X107.479 Y127.884 E11.35319
G1 X107.244 Y128.014 E11.3679
G1 X106.819 Y128.265 E11.39492
G1 X105.675 Y128.94 E11.46761
G1 X104.088 Y129.841 E11.56748
G1 X103.515 Y130.167 E11.60356
G1 X103.496 Y130.179 E11.6048
G1 X103.188 Y130.369 E11.62459
G1 X103.056 Y130.45 E11.63306
G1 X102.933 Y130.364 E11.64128
G1 X102.896 Y130.339 E11.64375
G1 X102.47 Y130.099 E11.67051
;WIDTH:0.389872
;HEIGHT:0.389872
G1 X102.327 Y130.018 E11.67874
G1 X102.335 Y129.784 E11.69048
G1 X102.344 Y129.485 E11.70549
G1 X102.344 Y101.507 E13.108
G1 X102.334 Y101.209 E13.12292
G1 X101.967 Y100.763 F9000
G1 F1500
G1 X102.04 Y100.691 E13.12808
G1 X102.909 Y100.171 E13.17883
G1 X103.039 Y100.131 E13.18564
G1 X103.115 Y100.138 E13.18949
G1 X103.244 Y100.196 E13.19657
G1 X103.513 Y100.368 E13.21257
G1 X104.923 Y101.172 E13.29396
G1 X105.656 Y101.612 E13.33683
G1 X106.102 Y101.851 E13.36216
G1 X109.208 Y103.66 E13.54235
G1 X113.362 Y106.041 E13.78237
G1 X113.657 Y106.229 E13.79991
G1 X116.279 Y107.728 E13.9513
G1 X123.29 Y111.793 E14.35758
G1 X126.282 Y113.5 E14.53026
G1 X127.739 Y114.367 E14.61523
G1 X128.459 Y114.754 E14.65622
G1 X128.547 Y114.819 E14.6617
G1 X128.604 Y114.901 E14.66671
G1 X128.633 Y115.007 E14.67219
G1 X128.616 Y115.549 E14.69939
G1 X128.632 Y115.989 E14.72144
G1 X128.588 Y116.131 E14.72889
G1 X128.432 Y116.249 E14.73871
G1 X121.34 Y120.329 E15.14883
G1 X119.752 Y121.265 E15.24124
G1 X116.901 Y122.892 E15.40582
G1 X113.299 Y124.991 E15.6148
G1 X111.875 Y125.793 E15.69672
G1 X108.214 Y127.922 E15.90898
G1 X107.438 Y128.353 E15.95352
G1 X105.87 Y129.277 E16.04475
G1 X103.714 Y130.503 E16.16907
G1 X103.258 Y130.784 E16.19593
G1 X103.063 Y130.869 E16.2066
G1 X102.919 Y130.829 E16.21407
G1 X102.689 Y130.67 E16.22811
G1 X102.043 Y130.306 E16.26529
G1 X101.961 Y130.225 E16.27101
G1 X101.935 Y130.056 E16.2796
G1 X101.954 Y129.478 E16.30859
G1 X101.954 Y101.513 E17.71043
G1 X101.934 Y100.942 E17.7391
G1 X101.956 Y100.822 E17.74523
M204 S500
G1 X102.577 Y102.289 F9000
;TYPE:Gap fill
;WIDTH:0.174427
;HEIGHT:0.32
G1 F1800
G1 X102.58 Y102.202 E17.74646
G1 X102.597 Y102.113 E17.74775
;WIDTH:0.21074
G1 X102.611 Y102.039 E17.74918
;WIDTH:0.246775
G1 X102.626 Y101.966 E17.75097
;WIDTH:0.282809
G1 X102.64 Y101.892 E17.75313
;WIDTH:0.329953
G1 X102.654 Y101.819 E17.75576
G1 X102.665 Y101.779 E17.75722
;WIDTH:0.360977
G1 X102.699 Y101.687 E17.76105
;WIDTH:0.440636
G1 X102.732 Y101.595 E17.76593
;WIDTH:0.520297
G1 X102.765 Y101.503 E17.77186
;WIDTH:0.545986
G1 X102.782 Y101.453 E17.77529
;WIDTH:0.60593
G1 X102.811 Y101.369 E17.78171
;WIDTH:0.685149
G1 X102.84 Y101.284 E17.78907
;WIDTH:0.732157
G1 X102.849 Y101.26 E17.79142
G1 X103.018 Y101.163 E17.8088
;WIDTH:0.762378
G1 X103.102 Y101.161 E17.81659
;WIDTH:0.69848
G1 X103.157 Y101.17 E17.82132
;WIDTH:0.654933
G1 X103.212 Y101.179 E17.82572
