; generated by SuperSlicer 2.4 on 2022-12-22 at 11:19:35 UTC

; 

; external perimeters extrusion width = 0.43mm
; perimeters extrusion width = 0.48mm
; infill extrusion width = 0.46mm
; solid infill extrusion width = 0.48mm
; top infill extrusion width = 0.46mm
; first layer extrusion width = 0.58mm

; object:{"name":"pyramid_1_thick","id":"pyramid_1_thick.stl id:0 copy 0","object_center":[115.500000,115.500000,0.000000],"boundingbox_center":[115.500000,115.500000,17.297406],"boundingbox_size":[51.225261,51.212027,34.594812]}
; Total objects to print: 1
M486 T1
; plater:{"center":[115.500000,115.500000,0.000000],"boundingbox_center":[115.500000,115.500000,17.297406],"boundingbox_size":[51.225261,51.212027,34.594812]}

;TYPE:Custom
G90 ; use absolute coordinates
M83 ; extruder relative mode
M140 S60 ; set final bed temp
M104 S150 ; set temporary nozzle temp to prevent oozing during homing and auto bed leveling
G4 S10 ; allow partial nozzle warmup
G28 ; home all axis
;G29 ; auto bed levelling
G1 Z10 F240
G1 X2 Y10 F3000
G1 Z0 F240
M104 S210 ; set final nozzle temp
M190 S60 ; wait for bed temp to stabilize
M109 S210 ; wait for nozzle temp to stabilize
G1 Z0.28 F240
G92 E0
G1 Y140 E10 F1500 ; prime the nozzle
G1 X2.3 F5000
G92 E0
G1 Y10 E10 F1200 ; prime the nozzle
G92 E0
;start
M107
G21 ; set units to millimeters
G90 ; use absolute coordinates
M82 ; use absolute distances for extrusion
G92 E0
; Filament gcode
;_TOOLCHANGE 0
M107
;LAYER_CHANGE
;Z:0.2
;HEIGHT:0.2
;BEFORE_LAYER_CHANGE
;0.2


G1 E-1 F3000
G1 Z0.15 F9000
;AFTER_LAYER_CHANGE
;0.2
G92 E0
M204 S500
G1 X98.938 Y98.896
G1 E1 F3000
;TYPE:Skirt
;WIDTH:0.48
G1 F1200
G1 X86.755 Y111.085 E1.63259
G1 X86.012 Y112.039 E1.67697
G1 X85.651 Y112.663 E1.70342
G1 X85.278 Y113.66 E1.74251
G1 X85.091 Y114.812 E1.78534
G1 X85.063 Y115.503 E1.81074
G1 X85.151 Y116.734 E1.85605
G1 X85.358 Y117.604 E1.88887
G1 X85.653 Y118.355 E1.91849
G1 X86.261 Y119.339 E1.96095
G1 X88.445 Y121.623 E2.07694
G1 X111.023 Y144.171 E3.24822
G1 X111.661 Y144.713 E3.27894
G1 X112.918 Y145.454 E3.33251
G1 X114.029 Y145.805 E3.37528
G1 X115.379 Y145.936 E3.42508
G1 X116.097 Y145.916 E3.45143
G1 X117.211 Y145.751 E3.49276
G1 X118.157 Y145.419 E3.52956
G1 X118.807 Y145.07 E3.55664
G1 X119.97 Y144.183 E3.61034
G1 X122.023 Y142.157 E3.71619
G1 X142.675 Y121.503 E4.78835
G1 X144.739 Y119.339 E4.8981
G1 X145.347 Y118.355 E4.94056
G1 X145.642 Y117.604 E4.97018
G1 X145.849 Y116.734 E5.003
G1 X145.937 Y115.503 E5.04831
G1 X145.909 Y114.817 E5.07352
G1 X145.735 Y113.709 E5.11467
G1 X145.381 Y112.736 E5.15266
G1 X144.663 Y111.577 E5.20272
G1 X144.072 Y110.897 E5.23582
G1 X121.503 Y88.332 E6.40727
G1 X119.516 Y86.421 E6.50847
G1 X118.295 Y85.64 E6.56169
G1 X117.478 Y85.329 E6.59377
G1 X115.849 Y85.073 E6.65429
G1 X114.912 Y85.088 E6.6887
G1 X113.873 Y85.236 E6.72721
G1 X113.055 Y85.494 E6.75868
G1 X112.382 Y85.81 E6.78597
G1 X111.598 Y86.331 E6.82055
G1 X109.379 Y88.452 E6.93322
G1 X98.981 Y98.854 E7.47309
G92 E0
G1 E-0.7 F3000
;WIPE_START
G1 F7200
G1 X98.472 Y99.363 E-0.985
;WIPE_END
G1 E-1 F3000
; acceleration to travel
M204 S1500
G1 X101.429 Y101.306 F9000
; decel to extrusion
M204 S500
G1 X101.79 Y101.543
; end travel
G1 E0 F3000
;WIDTH:0.576
G1 F1200
G1 X102.063 Y101.257 E0.01771
G1 X102.454 Y100.894 E0.0416
G1 X103.25 Y100.071 E0.09283
G1 X103.637 Y99.712 E0.11647
G1 X104.255 Y99.067 E0.15647
G1 X104.825 Y98.524 E0.1917
G1 X106.634 Y96.688 E0.30709
G1 X107.148 Y96.202 E0.33878
G1 X107.646 Y95.675 E0.37123
G1 X108.331 Y95.02 E0.41368
G1 X108.837 Y94.483 E0.44669
G1 X109.468 Y93.883 E0.4857
G1 X110.021 Y93.301 E0.5216
G1 X110.714 Y92.636 E0.56463
G1 X112.111 Y91.2 E0.65432
G1 X112.336 Y91 E0.6678
G1 X112.64 Y90.801 E0.68404
G1 X113.251 Y90.55 E0.71362
G1 X113.516 Y89.953 E0.74288
G1 X113.816 Y89.557 E0.76509
G1 X114.111 Y89.297 E0.78271
G1 X114.494 Y89.099 E0.80203
G1 X114.753 Y89.016 E0.81417
G1 X115.118 Y88.959 E0.83071
G1 X115.669 Y88.945 E0.8554
G1 X116.049 Y88.977 E0.87246
G1 X116.502 Y89.092 E0.8934
G1 X116.855 Y89.27 E0.91112
G1 X117.133 Y89.497 E0.92715
G1 X117.489 Y89.957 E0.95319
G1 X117.748 Y90.549 E0.98213
G1 X118.297 Y90.768 E1.00859
G1 X118.444 Y90.854 E1.01619
G1 X118.849 Y91.161 E1.03898
G1 X120.139 Y92.488 E1.12181
G1 X120.998 Y93.32 E1.17534
G1 X121.551 Y93.902 E1.21129
G1 X122.171 Y94.491 E1.24959
G1 X122.743 Y95.092 E1.28672
G1 X123.352 Y95.672 E1.32438
G1 X123.928 Y96.277 E1.36176
G1 X124.35 Y96.672 E1.38765
G1 X124.932 Y97.279 E1.42527
G1 X125.543 Y97.863 E1.46313
G1 X126.114 Y98.464 E1.50023
G1 X126.567 Y98.888 E1.52803
G1 X127.153 Y99.503 E1.56605
G1 X127.754 Y100.075 E1.60319
G1 X128.54 Y100.889 E1.65386
G1 X128.937 Y101.258 E1.67813
G1 X129.535 Y101.884 E1.71688
G1 X130.111 Y102.432 E1.75247
G1 X130.73 Y103.075 E1.79244
G1 X131.132 Y103.452 E1.81708
G1 X131.72 Y104.069 E1.85527
G1 X132.324 Y104.644 E1.8926
G1 X132.892 Y105.241 E1.92949
G1 X133.503 Y105.823 E1.96726
G1 X134.084 Y106.432 E2.00494
G1 X134.868 Y107.188 E2.05372
G1 X135.251 Y107.596 E2.07875
G1 X136.88 Y109.199 E2.18106
G1 X137.603 Y109.948 E2.22768
G1 X138.074 Y110.392 E2.25665
G1 X138.816 Y111.162 E2.30452
G1 X139.674 Y111.976 E2.35749
G1 X139.965 Y112.284 E2.37647
G1 X140.186 Y112.613 E2.39421
G1 X140.45 Y113.243 E2.42479
G1 X140.858 Y113.385 E2.44412
G1 X141.224 Y113.59 E2.46288
G1 X141.464 Y113.796 E2.47705
G1 X141.695 Y114.086 E2.49365
G1 X141.871 Y114.399 E2.50971
G1 X141.977 Y114.69 E2.52359
G1 X142.04 Y115.062 E2.5405
G1 X142.061 Y115.578 E2.56358
G1 X142.013 Y116.142 E2.58895
G1 X141.952 Y116.399 E2.60078
G1 X141.847 Y116.666 E2.6136
G1 X141.734 Y116.869 E2.62403
G1 X141.455 Y117.194 E2.64317
G1 X141.285 Y117.343 E2.6533
G1 X141.035 Y117.509 E2.66674
G1 X140.63 Y117.705 E2.68688
G1 X140.446 Y117.772 E2.69565
G1 X140.241 Y118.294 E2.72072
G1 X140.154 Y118.444 E2.72851
G1 X139.847 Y118.848 E2.75122
G1 X138.18 Y120.478 E2.85559
G1 X137.034 Y121.624 E2.92816
G1 X136.689 Y121.996 E2.95086
G1 X135.983 Y122.672 E2.99463
G1 X135.331 Y123.354 E3.03687
G1 X134.799 Y123.856 E3.06961
G1 X134.313 Y124.37 E3.10129
G1 X133.634 Y125.023 E3.14345
G1 X132.476 Y126.179 E3.21674
G1 X132.127 Y126.554 E3.23965
G1 X131.275 Y127.381 E3.2928
G1 X130.931 Y127.752 E3.31547
G1 X130.242 Y128.41 E3.35812
G1 X129.745 Y128.937 E3.39052
G1 X129.052 Y129.6 E3.43347
G1 X128.557 Y130.125 E3.46577
G1 X127.899 Y130.759 E3.50668
G1 X127.561 Y131.119 E3.52878
G1 X126.708 Y131.948 E3.58205
G1 X126.366 Y132.316 E3.60453
G1 X125.643 Y133.009 E3.64937
G1 X125.174 Y133.507 E3.67997
G1 X124.484 Y134.168 E3.72276
G1 X123.989 Y134.692 E3.75505
G1 X123.294 Y135.359 E3.79818
G1 X122.802 Y135.879 E3.83024
G1 X121.184 Y137.47 E3.93181
G1 X120.438 Y138.243 E3.97988
G1 X119.9 Y138.752 E4.01305
G1 X119.262 Y139.437 E4.05496
G1 X118.761 Y139.925 E4.08628
G1 X118.439 Y140.153 E4.10392
G1 X117.748 Y140.45 E4.13759
G1 X117.667 Y140.676 E4.14834
G1 X117.431 Y141.147 E4.17193
G1 X117.228 Y141.418 E4.18709
G1 X116.926 Y141.675 E4.20487
G1 X116.55 Y141.884 E4.2241
G1 X116.262 Y141.985 E4.23776
G1 X115.896 Y142.044 E4.25437
G1 X115.385 Y142.059 E4.27728
G1 X114.81 Y141.998 E4.30315
G1 X114.578 Y141.936 E4.31391
G1 X114.126 Y141.707 E4.33659
G1 X113.833 Y141.48 E4.35318
G1 X113.515 Y141.054 E4.37695
G1 X113.333 Y140.674 E4.39582
G1 X113.244 Y140.436 E4.40721
G1 X113.059 Y140.381 E4.41583
G1 X112.617 Y140.188 E4.43742
G1 X112.279 Y139.958 E4.45574
G1 X111.977 Y139.673 E4.47435
G1 X111.202 Y138.855 E4.52481
G1 X110.387 Y138.069 E4.57548
G1 X109.992 Y137.647 E4.60135
G1 X108.199 Y135.879 E4.71408
G1 X107.623 Y135.278 E4.75136
G1 X107.014 Y134.694 E4.78912
G1 X106.437 Y134.09 E4.82652
G1 X105.819 Y133.5 E4.86476
G1 X105.248 Y132.901 E4.90181
G1 X104.637 Y132.319 E4.93961
G1 X104.237 Y131.891 E4.96583
G1 X102.441 Y130.122 E5.07869
G1 X101.87 Y129.523 E5.11574
G1 X101.255 Y128.937 E5.15374
G1 X100.825 Y128.479 E5.18189
G1 X100.068 Y127.751 E5.22891
G1 X99.674 Y127.328 E5.25481
G1 X98.875 Y126.556 E5.30451
G1 X98.483 Y126.137 E5.3302
G1 X97.83 Y125.512 E5.37067
G1 X97.296 Y124.953 E5.40531
G1 X96.69 Y124.373 E5.44284
G1 X96.117 Y123.774 E5.47996
G1 X95.668 Y123.353 E5.5075
G1 X95.126 Y122.782 E5.54275
G1 X94.494 Y122.18 E5.58184
G1 X93.923 Y121.579 E5.61891
G1 X93.266 Y120.948 E5.65972
G1 X92.728 Y120.386 E5.69455
G1 X91.193 Y118.89 E5.79054
G1 X90.992 Y118.665 E5.80402
G1 X90.793 Y118.359 E5.82035
G1 X90.552 Y117.763 E5.84915
G1 X90.365 Y117.703 E5.85791
G1 X89.886 Y117.463 E5.88191
G1 X89.576 Y117.225 E5.89942
G1 X89.267 Y116.87 E5.92049
G1 X89.151 Y116.662 E5.93111
G1 X89.023 Y116.318 E5.94758
G1 X88.987 Y116.139 E5.95574
G1 X88.939 Y115.577 E5.98097
G1 X88.965 Y115.018 E6.00602
G1 X89.058 Y114.567 E6.02666
G1 X89.142 Y114.368 E6.03633
G1 X89.298 Y114.097 E6.05031
G1 X89.534 Y113.798 E6.0674
G1 X89.734 Y113.62 E6.07936
G1 X90.032 Y113.436 E6.09506
G1 X90.55 Y113.243 E6.11978
G1 X90.814 Y112.613 E6.15035
G1 X91.035 Y112.284 E6.16809
G1 X91.321 Y111.98 E6.18679
G1 X92.251 Y111.095 E6.24427
G1 X92.924 Y110.394 E6.28776
G1 X93.47 Y109.878 E6.3214
G1 X95.117 Y108.201 E6.42663
G1 X95.645 Y107.702 E6.45916
G1 X96.324 Y106.996 E6.50299
G1 X96.837 Y106.511 E6.53461
G1 X97.304 Y106.017 E6.56506
G1 X97.882 Y105.465 E6.60084
G1 X98.684 Y104.636 E6.65246
G1 X99.078 Y104.27 E6.67654
G1 X100.881 Y102.44 E6.79154
G1 X101.403 Y101.947 E6.82369
G1 X101.748 Y101.586 E6.84606
G1 X102.136 Y101.958 F9000
G1 F1200
G1 X102.446 Y101.634 E6.8661
G1 X102.83 Y101.278 E6.88957
G1 X103.631 Y100.45 E6.94112
G1 X104.014 Y100.095 E6.96449
G1 X104.638 Y99.443 E7.00493
G1 X105.201 Y98.908 E7.0397
G1 X107.013 Y97.069 E7.15527
G1 X107.528 Y96.582 E7.18701
G1 X108.022 Y96.058 E7.21923
G1 X108.712 Y95.398 E7.26198
G1 X109.213 Y94.868 E7.29464
G1 X109.849 Y94.263 E7.33394
G1 X110.397 Y93.685 E7.36961
G1 X111.093 Y93.017 E7.41277
G1 X112.49 Y91.58 E7.5025
G1 X112.648 Y91.438 E7.51199
G1 X112.911 Y91.266 E7.5261
G1 X113.607 Y90.986 E7.55968
G1 X113.639 Y90.958 E7.56155
G1 X113.758 Y90.744 E7.57252
G1 X113.967 Y90.247 E7.59666
G1 X114.199 Y89.935 E7.61409
G1 X114.391 Y89.758 E7.62576
G1 X114.721 Y89.587 E7.64242
G1 X114.858 Y89.543 E7.64885
G1 X115.151 Y89.496 E7.66214
G1 X115.642 Y89.482 E7.68413
G1 X115.946 Y89.505 E7.69777
G1 X116.288 Y89.586 E7.71351
G1 X116.584 Y89.735 E7.72838
G1 X116.762 Y89.887 E7.73883
G1 X117.04 Y90.254 E7.75943
G1 X117.245 Y90.749 E7.78344
G1 X117.37 Y90.977 E7.7951
G1 X118.048 Y91.244 E7.82768
G1 X118.135 Y91.294 E7.83219
G1 X118.479 Y91.551 E7.85141
G1 X119.76 Y92.868 E7.93365
G1 X120.612 Y93.694 E7.98679
G1 X121.171 Y94.282 E8.0231
G1 X121.786 Y94.867 E8.06111
G1 X122.363 Y95.472 E8.09853
G1 X122.976 Y96.057 E8.13648
G1 X123.549 Y96.658 E8.17367
G1 X123.977 Y97.059 E8.19993
G1 X124.552 Y97.659 E8.23709
G1 X125.167 Y98.247 E8.2752
G1 X125.735 Y98.845 E8.31214
G1 X126.183 Y99.264 E8.33961
G1 X126.773 Y99.883 E8.37788
G1 X127.371 Y100.452 E8.41485
G1 X128.164 Y101.273 E8.46592
G1 X128.554 Y101.635 E8.48976
G1 X129.155 Y102.264 E8.52872
G1 X129.736 Y102.817 E8.56462
G1 X130.353 Y103.457 E8.60442
G1 X130.748 Y103.828 E8.62866
G1 X131.34 Y104.449 E8.6671
G1 X131.94 Y105.02 E8.70413
G1 X132.512 Y105.621 E8.74131
G1 X133.119 Y106.199 E8.7788
G1 X133.703 Y106.811 E8.8167
G1 X134.491 Y107.57 E8.86567
G1 X134.866 Y107.971 E8.89026
G1 X136.5 Y109.579 E8.99292
G1 X137.225 Y110.331 E9.03965
G1 X137.692 Y110.769 E9.06832
G1 X138.437 Y111.543 E9.11643
G1 X139.291 Y112.353 E9.16911
G1 X139.532 Y112.603 E9.18467
G1 X139.725 Y112.89 E9.20014
G1 X140.026 Y113.626 E9.23574
G1 X140.238 Y113.739 E9.24647
G1 X140.659 Y113.884 E9.2664
G1 X140.933 Y114.043 E9.2806
G1 X141.062 Y114.153 E9.2882
G1 X141.238 Y114.37 E9.30068
G1 X141.392 Y114.643 E9.31474
G1 X141.451 Y114.806 E9.32251
G1 X141.504 Y115.102 E9.33596
G1 X141.523 Y115.582 E9.35746
G1 X141.479 Y116.075 E9.37962
G1 X141.445 Y116.221 E9.38632
G1 X141.354 Y116.451 E9.39739
G1 X141.282 Y116.577 E9.40392
G1 X141.063 Y116.826 E9.41876
G1 X140.973 Y116.905 E9.42411
G1 X140.754 Y117.05 E9.43586
G1 X140.411 Y117.214 E9.45289
G1 X140.106 Y117.324 E9.46738
G1 X140.053 Y117.357 E9.4702
G1 X140.015 Y117.399 E9.47272
G1 X139.764 Y118.046 E9.50379
G1 X139.713 Y118.136 E9.50842
G1 X139.457 Y118.479 E9.52759
G1 X137.803 Y120.096 E9.63116
G1 X136.646 Y121.251 E9.70434
G1 X136.311 Y121.613 E9.72642
G1 X135.603 Y122.292 E9.77035
G1 X134.947 Y122.978 E9.81281
G1 X134.419 Y123.476 E9.84531
G1 X133.936 Y123.987 E9.87682
G1 X133.258 Y124.639 E9.91891
G1 X132.089 Y125.806 E9.99288
G1 X131.748 Y126.173 E10.01531
G1 X130.89 Y127.005 E10.06879
G1 X130.553 Y127.369 E10.091
G1 X129.86 Y128.032 E10.13392
G1 X129.369 Y128.554 E10.16602
G1 X128.671 Y129.222 E10.20927
G1 X128.179 Y129.742 E10.24132
G1 X127.516 Y130.381 E10.28257
G1 X127.182 Y130.738 E10.30443
G1 X126.323 Y131.572 E10.35803
G1 X125.988 Y131.933 E10.3801
G1 X125.261 Y132.631 E10.4252
G1 X124.798 Y133.123 E10.45548
G1 X124.103 Y133.789 E10.49856
G1 X123.612 Y134.309 E10.53058
G1 X122.913 Y134.981 E10.57398
G1 X122.421 Y135.499 E10.60596
G1 X120.802 Y137.092 E10.70763
G1 X120.056 Y137.865 E10.75574
G1 X119.519 Y138.373 E10.78885
G1 X118.882 Y139.057 E10.83066
G1 X118.402 Y139.525 E10.86068
G1 X118.156 Y139.695 E10.87406
G1 X117.391 Y140.017 E10.91124
G1 X117.359 Y140.046 E10.91317
G1 X117.253 Y140.235 E10.92286
G1 X117.177 Y140.454 E10.93325
G1 X116.982 Y140.851 E10.95307
G1 X116.851 Y141.034 E10.96314
G1 X116.639 Y141.219 E10.97574
G1 X116.309 Y141.403 E10.99266
G1 X116.15 Y141.459 E11.00018
G1 X115.862 Y141.508 E11.01329
G1 X115.388 Y141.522 E11.03452
G1 X114.892 Y141.466 E11.05686
G1 X114.751 Y141.426 E11.06343
G1 X114.397 Y141.242 E11.08127
G1 X114.196 Y141.081 E11.0928
G1 X113.989 Y140.8 E11.10844
G1 X113.824 Y140.456 E11.12551
G1 X113.748 Y140.235 E11.13597
G1 X113.641 Y140.046 E11.14571
G1 X113.592 Y140.002 E11.14863
G1 X113.457 Y139.938 E11.15533
G1 X113.254 Y139.88 E11.16479
G1 X112.898 Y139.729 E11.18212
G1 X112.6 Y139.526 E11.19824
G1 X112.354 Y139.29 E11.21351
G1 X111.584 Y138.476 E11.26368
G1 X110.766 Y137.687 E11.31457
G1 X110.377 Y137.272 E11.34002
G1 X108.579 Y135.499 E11.45306
G1 X108.003 Y134.898 E11.49033
G1 X107.39 Y134.31 E11.52835
G1 X106.817 Y133.71 E11.5655
G1 X106.195 Y133.116 E11.60401
G1 X105.629 Y132.521 E11.64079
G1 X105.014 Y131.935 E11.67881
G1 X104.622 Y131.516 E11.70449
G1 X102.821 Y129.742 E11.81767
G1 X102.25 Y129.143 E11.85472
G1 X101.632 Y128.554 E11.89296
G1 X101.208 Y128.101 E11.92071
G1 X100.446 Y127.369 E11.96803
G1 X100.057 Y126.951 E11.99357
G1 X99.254 Y126.174 E12.04361
G1 X98.865 Y125.76 E12.06904
G1 X98.207 Y125.128 E12.1099
G1 X97.676 Y124.573 E12.14429
G1 X97.066 Y123.989 E12.18209
G1 X96.495 Y123.392 E12.21907
G1 X96.052 Y122.977 E12.24623
G1 X95.506 Y122.403 E12.28171
G1 X94.87 Y121.795 E12.32109
G1 X94.305 Y121.2 E12.35784
G1 X93.642 Y120.565 E12.39894
G1 X93.11 Y120.008 E12.43342
G1 X91.574 Y118.51 E12.52946
G1 X91.431 Y118.353 E12.53898
G1 X91.258 Y118.088 E12.55314
G1 X90.985 Y117.399 E12.58634
G1 X90.926 Y117.334 E12.59028
G1 X90.874 Y117.299 E12.59306
G1 X90.582 Y117.211 E12.60671
G1 X90.187 Y117.017 E12.62643
G1 X89.959 Y116.847 E12.63916
G1 X89.718 Y116.577 E12.65534
G1 X89.646 Y116.451 E12.66186
G1 X89.544 Y116.185 E12.67461
G1 X89.521 Y116.075 E12.67964
G1 X89.477 Y115.582 E12.7018
G1 X89.496 Y115.101 E12.72336
G1 X89.566 Y114.745 E12.73959
G1 X89.616 Y114.621 E12.74559
G1 X89.753 Y114.384 E12.75783
G1 X89.938 Y114.153 E12.77107
G1 X90.067 Y114.043 E12.77867
G1 X90.287 Y113.91 E12.79021
G1 X90.761 Y113.739 E12.81274
G1 X90.957 Y113.634 E12.82272
G1 X90.981 Y113.607 E12.82435
G1 X91.275 Y112.89 E12.859
G1 X91.468 Y112.603 E12.87448
G1 X91.705 Y112.357 E12.88977
G1 X92.631 Y111.476 E12.94699
G1 X93.307 Y110.771 E12.99074
G1 X93.846 Y110.261 E13.02394
G1 X95.497 Y108.582 E13.1294
G1 X96.023 Y108.083 E13.16184
G1 X96.697 Y107.382 E13.20537
G1 X97.217 Y106.891 E13.23738
G1 X97.69 Y106.391 E13.26821
G1 X98.261 Y105.846 E13.30353
G1 X99.065 Y105.015 E13.35531
G1 X99.452 Y104.655 E13.37896
G1 X101.26 Y102.821 E13.49427
G1 X101.782 Y102.329 E13.52638
G1 X102.095 Y102.001 E13.54667
G1 X102.483 Y102.373 F9000
G1 F1200
G1 X102.832 Y102.009 E13.56921
