; generated by SuperSlicer 2.4 on 2022-12-22 at 11:19:47 UTC

; 

; external perimeters extrusion width = 0.43mm
; perimeters extrusion width = 0.48mm
; infill extrusion width = 0.46mm
; solid infill extrusion width = 0.48mm
; top infill extrusion width = 0.46mm
; first layer extrusion width = 0.58mm

; object:{"name":"tri_1_thick","id":"tri_1_thick.stl id:0 copy 0","object_center":[115.500000,115.500000,0.000000],"boundingbox_center":[115.500000,115.500000,16.771030],"boundingbox_size":[37.589074,42.700936,33.542060]}
; Total objects to print: 1
M486 T1
; plater:{"center":[115.500000,115.500000,0.000000],"boundingbox_center":[115.500000,115.500000,16.771030],"boundingbox_size":[37.589074,42.700936,33.542060]}

;TYPE:Custom
G90 ; use absolute coordinates
M83 ; extruder relative mode
M140 S60 ; set final bed temp
M104 S150 ; set temporary nozzle temp to prevent oozing during homing and auto bed leveling
G4 S10 ; allow partial nozzle warmup
G28 ; home all axis
;G29 ; auto bed levelling
G1 Z10 F240
G1 X2 Y10 F3000
G1 Z0 F240
M104 S210 ; set final nozzle temp
M190 S60 ; wait for bed temp to stabilize
M109 S210 ; wait for nozzle temp to stabilize
G1 Z0.28 F240
G92 E0
G1 Y140 E10 F1500 ; prime the nozzle
G1 X2.3 F5000
G92 E0
G1 Y10 E10 F1200 ; prime the nozzle
G92 E0
;start
M107
G21 ; set units to millimeters
G90 ; use absolute coordinates
M82 ; use absolute distances for extrusion
G92 E0
; Filament gcode
;_TOOLCHANGE 0
M107
;LAYER_CHANGE
;Z:0.2
;HEIGHT:0.2
;BEFORE_LAYER_CHANGE
;0.2


G1 E-1 F3000
G1 Z0.15 F9000
;AFTER_LAYER_CHANGE
;0.2
G92 E0
M204 S500
G1 X94.446 Y92.306
G1 E1 F3000
;TYPE:Skirt
;WIDTH:0.48
G1 F1200
G1 X93.62 Y93.484 E1.05282
G1 X93.288 Y94.299 E1.0851
G1 X93.075 Y95.122 E1.11631
G1 X92.953 Y96.313 E1.16026
G1 X92.958 Y133.233 E2.51549
G1 X92.971 Y134.614 E2.56619
G1 X93.088 Y135.903 E2.61369
G1 X93.292 Y136.729 E2.6449
G1 X93.587 Y137.481 E2.67458
G1 X94.23 Y138.501 E2.71883
G1 X94.874 Y139.191 E2.75345
G1 X95.84 Y139.899 E2.79745
G1 X96.6 Y140.262 E2.82834
G1 X97.496 Y140.538 E2.86275
G1 X98.206 Y140.648 E2.88913
G1 X99.129 Y140.656 E2.92302
G1 X99.812 Y140.564 E2.9483
G1 X100.61 Y140.348 E2.97864
G1 X101.738 Y139.857 E3.02382
G1 X134.697 Y120.827 E4.42082
G1 X136.105 Y119.85 E4.48372
G1 X136.855 Y119.049 E4.52399
G1 X137.3 Y118.373 E4.55372
G1 X137.682 Y117.567 E4.58643
G1 X137.897 Y116.883 E4.61275
G1 X138.044 Y115.961 E4.64703
G1 X138.053 Y115.232 E4.67381
G1 X137.92 Y114.272 E4.70937
G1 X137.415 Y112.915 E4.76252
G1 X136.74 Y111.897 E4.80735
G1 X136.282 Y111.406 E4.832
G1 X135.336 Y110.642 E4.87663
G1 X101.993 Y91.335 E6.29092
G1 X101.321 Y90.972 E6.31896
G1 X100.499 Y90.664 E6.35118
G1 X99.781 Y90.503 E6.3782
G1 X98.699 Y90.427 E6.41802
G1 X97.497 Y90.554 E6.46238
G1 X95.968 Y91.127 E6.5223
G1 X95.168 Y91.656 E6.55753
G1 X94.491 Y92.266 E6.59099
G92 E0
G1 E-0.7 F3000
;WIPE_START
G1 F7200
G1 X94.072 Y92.852 E-0.985
;WIPE_END
G1 E-1 F3000
; acceleration to travel
M204 S1500
G1 X96.961 Y94.711 F9000
; decel to extrusion
M204 S500
G1 X97.313 Y94.938
; end travel
G1 E0 F3000
;WIDTH:0.576
G1 F1200
G1 X97.592 Y94.687 E0.01679
G1 X97.837 Y94.531 E0.0298
G1 X98.284 Y94.355 E0.05132
G1 X98.564 Y94.306 E0.06403
G1 X98.988 Y94.307 E0.08303
G1 X99.548 Y94.433 E0.10869
G1 X100.03 Y94.677 E0.13289
G1 X100.651 Y95.077 E0.16596
G1 X101.441 Y95.491 E0.20589
G1 X102.062 Y95.873 E0.23854
G1 X102.522 Y96.123 E0.26197
G1 X102.845 Y96.332 E0.2792
G1 X103.843 Y96.88 E0.33016
G1 X105.025 Y97.585 E0.39178
G1 X105.233 Y97.691 E0.40224
G1 X105.534 Y97.883 E0.41819
G1 X105.708 Y97.965 E0.42684
G1 X106.333 Y98.317 E0.45896
G1 X107.877 Y99.219 E0.53901
G1 X108.277 Y99.467 E0.56005
G1 X108.472 Y99.562 E0.56978
G1 X109.076 Y99.922 E0.60126
G1 X109.247 Y100.009 E0.60986
G1 X109.38 Y100.1 E0.61707
G1 X109.588 Y100.205 E0.62747
G1 X109.825 Y100.359 E0.64013
G1 X110.071 Y100.489 E0.65261
G1 X110.198 Y100.579 E0.65959
G1 X110.724 Y100.848 E0.68604
G1 X111.279 Y101.193 E0.71526
G1 X111.471 Y101.29 E0.72492
G1 X112.374 Y101.83 E0.77202
G1 X113.346 Y102.37 E0.82179
G1 X113.9 Y102.715 E0.851
G1 X114.463 Y103.022 E0.8797
G1 X114.776 Y103.22 E0.89629
G1 X114.956 Y103.31 E0.90531
G1 X115.071 Y103.393 E0.91166
G1 X115.633 Y103.69 E0.94011
G1 X116.669 Y104.292 E0.99376
G1 X117.008 Y104.51 E1.01179
G1 X117.474 Y104.758 E1.03544
G1 X118.274 Y105.221 E1.07681
G1 X118.383 Y105.3 E1.08285
G1 X119.327 Y105.831 E1.13132
G1 X119.7 Y106.063 E1.15102
G1 X121.262 Y106.941 E1.2312
G1 X121.57 Y107.144 E1.24774
G1 X121.784 Y107.25 E1.25844
G1 X122.067 Y107.431 E1.27348
G1 X122.632 Y107.731 E1.30211
G1 X123.248 Y108.115 E1.33459
G1 X123.718 Y108.368 E1.3585
G1 X124.255 Y108.699 E1.38674
G1 X124.832 Y109 E1.41589
G1 X125.638 Y109.499 E1.45831
G1 X125.853 Y109.601 E1.46896
G1 X126.382 Y109.91 E1.4964
G1 X126.51 Y110 E1.50339
G1 X126.912 Y110.211 E1.52373
G1 X128.377 Y111.074 E1.59984
G1 X128.606 Y111.192 E1.61139
G1 X128.947 Y111.411 E1.62952
G1 X130.48 Y112.263 E1.70804
G1 X131.315 Y112.758 E1.75151
G1 X131.409 Y112.827 E1.75671
G1 X131.878 Y113.082 E1.78061
G1 X133.229 Y113.901 E1.85136
G1 X133.65 Y114.256 E1.876
G1 X133.858 Y114.509 E1.89066
G1 X133.979 Y114.717 E1.90141
G1 X134.113 Y115.058 E1.91781
G1 X134.176 Y115.414 E1.93403
G1 X134.159 Y115.798 E1.9512
G1 X134.057 Y116.178 E1.96884
G1 X133.94 Y116.43 E1.98128
G1 X133.77 Y116.688 E1.99513
G1 X133.55 Y116.923 E2.00953
G1 X133.173 Y117.206 E2.0306
G1 X132.638 Y117.544 E2.05893
G1 X130.421 Y118.842 E2.17396
G1 X127.608 Y120.452 E2.31906
G1 X124.823 Y122.079 E2.46347
G1 X124.016 Y122.526 E2.50476
G1 X122.605 Y123.36 E2.57815
G1 X117.235 Y126.445 E2.8554
G1 X113.324 Y128.72 E3.05797
G1 X112.39 Y129.243 E3.1059
G1 X110.876 Y130.139 E3.18467
G1 X110.199 Y130.508 E3.21918
G1 X106.033 Y132.931 E3.43493
G1 X105.341 Y133.314 E3.47032
G1 X101.446 Y135.58 E3.67209
G1 X100.606 Y136.031 E3.71477
G1 X100.386 Y136.172 E3.72645
G1 X99.848 Y136.469 E3.75396
G1 X99.273 Y136.705 E3.78182
G1 X98.754 Y136.79 E3.80533
G1 X98.56 Y136.782 E3.81404
G1 X98.262 Y136.732 E3.82756
G1 X97.797 Y136.54 E3.85008
G1 X97.496 Y136.321 E3.86677
G1 X97.234 Y136.033 E3.88419
G1 X97.075 Y135.763 E3.8982
G1 X96.935 Y135.362 E3.91721
G1 X96.841 Y134.401 E3.96047
G1 X96.833 Y97.498 E5.61257
G1 X96.846 Y96.807 E5.64351
G1 X96.832 Y96.383 E5.66248
G1 X96.894 Y95.809 E5.68836
G1 X96.944 Y95.601 E5.69791
G1 X97.099 Y95.232 E5.71582
G1 X97.278 Y94.987 E5.72943
G1 X97.696 Y95.317 F9000
G1 F1200
G1 X97.934 Y95.103 E5.74378
G1 X98.098 Y95.001 E5.75241
G1 X98.451 Y94.867 E5.76931
G1 X98.592 Y94.843 E5.77572
G1 X98.908 Y94.839 E5.78986
G1 X99.336 Y94.928 E5.80945
G1 X99.774 Y95.15 E5.83144
G1 X100.38 Y95.542 E5.86373
G1 X101.173 Y95.957 E5.90379
G1 X101.679 Y96.257 E5.93015
G1 X101.77 Y96.326 E5.93527
G1 X102.239 Y96.58 E5.95914
G1 X102.57 Y96.794 E5.97676
G1 X103.574 Y97.345 E6.02806
G1 X104.66 Y97.983 E6.08441
G1 X104.742 Y98.044 E6.089
G1 X104.955 Y98.152 E6.09971
G1 X105.274 Y98.355 E6.11664
G1 X105.453 Y98.439 E6.12549
G1 X106.064 Y98.782 E6.15687
G1 X106.847 Y99.239 E6.19745
G1 X106.933 Y99.303 E6.20221
G1 X107.127 Y99.4 E6.21197
G1 X107.592 Y99.674 E6.23611
G1 X107.695 Y99.752 E6.24188
G1 X107.884 Y99.848 E6.25139
G1 X108.003 Y99.932 E6.25792
G1 X108.207 Y100.03 E6.26804
G1 X108.817 Y100.393 E6.2998
G1 X108.986 Y100.479 E6.30831
G1 X109.103 Y100.563 E6.31476
G1 X109.308 Y100.664 E6.32495
G1 X109.553 Y100.823 E6.33804
G1 X109.803 Y100.955 E6.35071
G1 X109.913 Y101.037 E6.35686
G1 X110.45 Y101.311 E6.38386
G1 X111.016 Y101.662 E6.41365
G1 X111.207 Y101.758 E6.42325
G1 X111.995 Y102.219 E6.4641
G1 X112.097 Y102.292 E6.46971
G1 X112.288 Y102.386 E6.47925
G1 X113.075 Y102.834 E6.51982
G1 X113.629 Y103.179 E6.54902
G1 X114.198 Y103.49 E6.57802
G1 X114.516 Y103.691 E6.59489
G1 X114.663 Y103.761 E6.60217
G1 X114.788 Y103.851 E6.60908
G1 X115.368 Y104.157 E6.63843
G1 X116.394 Y104.753 E6.69155
G1 X116.735 Y104.974 E6.70975
G1 X117.209 Y105.226 E6.73378
G1 X117.991 Y105.678 E6.77421
G1 X118.089 Y105.751 E6.77968
G1 X119.049 Y106.292 E6.82901
G1 X119.158 Y106.372 E6.83505
G1 X119.297 Y106.44 E6.84198
G1 X119.433 Y106.531 E6.84933
G1 X119.587 Y106.605 E6.85697
G1 X120.988 Y107.403 E6.92916
G1 X121.303 Y107.612 E6.94608
G1 X121.508 Y107.711 E6.95628
G1 X121.796 Y107.896 E6.9716
G1 X122.362 Y108.195 E7.00023
G1 X122.866 Y108.499 E7.0266
G1 X122.955 Y108.567 E7.03162
G1 X123.443 Y108.83 E7.05642
G1 X123.99 Y109.167 E7.08518
G1 X124.558 Y109.462 E7.11386
G1 X125.382 Y109.972 E7.15724
G1 X125.593 Y110.071 E7.16765
G1 X126.1 Y110.367 E7.19396
G1 X126.227 Y110.459 E7.20095
G1 X126.648 Y110.678 E7.22221
G1 X127.233 Y111.019 E7.25253
G1 X127.321 Y111.083 E7.25739
G1 X127.511 Y111.178 E7.26691
G1 X128.116 Y111.544 E7.29855
G1 X128.327 Y111.651 E7.30918
G1 X128.671 Y111.872 E7.32747
G1 X130.216 Y112.731 E7.40659
G1 X131.028 Y113.213 E7.44886
G1 X131.116 Y113.28 E7.45385
G1 X131.605 Y113.544 E7.47872
G1 X132.933 Y114.35 E7.54825
G1 X133.25 Y114.617 E7.56682
G1 X133.429 Y114.834 E7.57941
G1 X133.486 Y114.932 E7.58449
G1 X133.602 Y115.229 E7.59877
G1 X133.638 Y115.429 E7.60784
G1 X133.632 Y115.689 E7.61952
G1 X133.544 Y116.015 E7.63464
G1 X133.48 Y116.15 E7.64132
G1 X133.333 Y116.374 E7.6533
G1 X133.208 Y116.508 E7.66153
G1 X132.877 Y116.758 E7.68007
G1 X132.363 Y117.082 E7.70729
G1 X130.153 Y118.377 E7.82194
G1 X127.339 Y119.987 E7.96709
G1 X124.554 Y121.613 E8.11147
G1 X123.749 Y122.059 E8.15269
G1 X122.336 Y122.895 E8.22618
G1 X116.966 Y125.98 E8.50342
G1 X113.055 Y128.255 E8.70597
G1 X112.122 Y128.778 E8.75389
G1 X110.606 Y129.675 E8.83273
G1 X109.935 Y130.039 E8.86693
G1 X105.765 Y132.465 E9.08289
G1 X105.076 Y132.846 E9.11815
G1 X101.179 Y135.114 E9.31998
G1 X100.333 Y135.568 E9.36301
G1 X100.118 Y135.707 E9.37446
G1 X99.63 Y135.978 E9.39945
G1 X99.097 Y136.196 E9.42521
G1 X98.747 Y136.252 E9.44112
G1 X98.631 Y136.249 E9.44631
G1 X98.382 Y136.207 E9.45759
G1 X98.038 Y136.059 E9.47438
G1 X97.875 Y135.94 E9.48339
G1 X97.651 Y135.692 E9.49836
G1 X97.574 Y135.561 E9.50516
G1 X97.453 Y135.216 E9.52151
G1 X97.377 Y134.365 E9.55979
G1 X97.37 Y97.5 E11.21017
G1 X97.384 Y96.803 E11.2414
G1 X97.37 Y96.385 E11.26012
G1 X97.427 Y95.885 E11.28264
G1 X97.451 Y95.781 E11.28742
G1 X97.557 Y95.515 E11.30023
G1 X97.661 Y95.366 E11.30838
G1 X98.078 Y95.696 F9000
G1 F1200
G1 X98.276 Y95.518 E11.32029
G1 X98.317 Y95.492 E11.32246
G1 X98.579 Y95.389 E11.33509
G1 X98.626 Y95.38 E11.33723
G1 X98.87 Y95.375 E11.34812
G1 X98.902 Y95.378 E11.34957
G1 X99.165 Y95.438 E11.36165
G1 X99.199 Y95.451 E11.36329
G1 X99.515 Y95.621 E11.37936
G1 X99.809 Y95.806 E11.39489
G1 X99.828 Y95.821 E11.396
G1 X99.873 Y95.863 E11.39873
G1 X99.987 Y95.918 E11.40443
G1 X100.021 Y95.941 E11.40622
G1 X100.066 Y95.984 E11.40903
G1 X100.902 Y96.421 E11.45123
G1 X101.391 Y96.711 E11.47669
G1 X101.417 Y96.731 E11.47816
G1 X101.45 Y96.764 E11.48028
G1 X101.964 Y97.042 E11.50641
G1 X102.195 Y97.181 E11.51848
G1 X102.223 Y97.205 E11.52015
G1 X102.246 Y97.229 E11.52164
G1 X103.307 Y97.811 E11.57581
G1 X104.373 Y98.437 E11.63115
G1 X104.4 Y98.458 E11.63267
G1 X104.431 Y98.489 E11.63462
G1 X104.685 Y98.616 E11.64734
G1 X105.017 Y98.828 E11.66499
G1 X105.195 Y98.91 E11.67375
G1 X105.797 Y99.249 E11.70468
G1 X106.562 Y99.695 E11.74435
G1 X106.588 Y99.715 E11.7458
G1 X106.623 Y99.749 E11.74798
G1 X106.867 Y99.87 E11.76018
G1 X107.309 Y100.132 E11.78317
G1 X107.327 Y100.144 E11.78416
G1 X107.398 Y100.204 E11.7883
G1 X107.609 Y100.31 E11.79889
G1 X107.631 Y100.323 E11.80004
G1 X107.722 Y100.393 E11.80517
G1 X107.944 Y100.499 E11.81618
G1 X108.45 Y100.789 E11.8423
G1 X108.478 Y100.811 E11.84387
G1 X108.506 Y100.839 E11.84568
G1 X108.71 Y100.94 E11.85583
G1 X108.733 Y100.955 E11.8571
G1 X108.817 Y101.022 E11.86187
G1 X109.02 Y101.119 E11.87196
G1 X109.036 Y101.128 E11.87278
G1 X109.281 Y101.288 E11.8859
G1 X109.516 Y101.409 E11.89772
G1 X109.542 Y101.427 E11.89912
G1 X109.612 Y101.487 E11.90326
G1 X110.178 Y101.774 E11.93167
G1 X110.646 Y102.055 E11.95613
G1 X110.672 Y102.075 E11.95757
G1 X110.704 Y102.107 E11.95962
G1 X110.94 Y102.225 E11.97142
G1 X111.447 Y102.52 E11.99766
G1 X111.498 Y102.565 E12.00072
G1 X111.712 Y102.675 E12.0115
G1 X111.736 Y102.691 E12.01277
G1 X111.806 Y102.748 E12.01681
G1 X112.026 Y102.855 E12.02778
G1 X112.799 Y103.295 E12.06759
G1 X112.819 Y103.309 E12.06868
G1 X112.883 Y103.363 E12.07243
G1 X113.11 Y103.478 E12.08383
G1 X113.356 Y103.644 E12.09712
G1 X113.594 Y103.764 E12.10906
G1 X113.618 Y103.78 E12.11034
G1 X113.693 Y103.84 E12.11464
G1 X113.929 Y103.955 E12.12642
G1 X114.259 Y104.165 E12.14391
G1 X114.39 Y104.225 E12.15036
G1 X114.422 Y104.245 E12.15204
G1 X114.485 Y104.299 E12.15576
G1 X115.1 Y104.623 E12.18691
G1 X115.825 Y105.044 E12.2244
G1 X115.849 Y105.062 E12.22577
G1 X115.881 Y105.092 E12.22771
G1 X116.119 Y105.215 E12.23969
G1 X116.463 Y105.438 E12.25805
G1 X116.942 Y105.692 E12.28235
G1 X117.707 Y106.135 E12.32192
G1 X117.734 Y106.155 E12.32343
G1 X117.768 Y106.188 E12.32554
G1 X118.442 Y106.559 E12.35998
G1 X118.459 Y106.57 E12.36088
G1 X118.542 Y106.633 E12.36555
G1 X118.765 Y106.748 E12.37678
G1 X118.789 Y106.764 E12.37807
G1 X118.865 Y106.827 E12.38251
G1 X119.033 Y106.908 E12.39085
G1 X119.052 Y106.92 E12.39186
G1 X119.161 Y106.997 E12.39784
G1 X119.326 Y107.075 E12.40598
G1 X120.718 Y107.868 E12.47773
G1 X121.036 Y108.079 E12.49482
G1 X121.266 Y108.192 E12.50628
G1 X121.524 Y108.36 E12.52006
G1 X122.094 Y108.661 E12.54893
G1 X122.574 Y108.95 E12.57403
G1 X122.601 Y108.972 E12.57556
G1 X122.633 Y109.004 E12.57761
G1 X123.171 Y109.293 E12.60496
G1 X123.725 Y109.635 E12.63407
G1 X124.288 Y109.927 E12.6625
G1 X125.128 Y110.448 E12.70674
G1 X125.328 Y110.539 E12.71659
G1 X125.58 Y110.685 E12.72964
G1 X125.629 Y110.729 E12.73255
G1 X125.822 Y110.827 E12.74224
G1 X125.844 Y110.841 E12.74341
G1 X125.934 Y110.913 E12.74857
G1 X126.38 Y111.145 E12.77108
G1 X126.949 Y111.475 E12.80053
G1 X126.975 Y111.495 E12.80199
G1 X127.012 Y111.531 E12.80429
G1 X127.245 Y111.644 E12.81587
G1 X127.746 Y111.937 E12.84188
G1 X127.773 Y111.958 E12.84339
G1 X127.805 Y111.989 E12.84538
G1 X128.055 Y112.115 E12.85794
G1 X128.395 Y112.333 E12.87602
G1 X129.953 Y113.199 E12.95582
G1 X130.738 Y113.665 E12.99668
G1 X130.766 Y113.688 E12.99832
G1 X130.793 Y113.716 E13.00006
G1 X131.331 Y114.007 E13.02745
G1 X131.824 Y114.302 E13.05313
G1 X131.848 Y114.321 E13.05454
G1 X131.883 Y114.354 E13.05668
G1 X132.068 Y114.448 E13.066
G1 X132.641 Y114.802 E13.09614
G1 X132.659 Y114.815 E13.09712
G1 X132.887 Y115.013 E13.11065
G1 X132.906 Y115.034 E13.11191
G1 X132.989 Y115.143 E13.11802
G1 X133.007 Y115.176 E13.11971
G1 X133.091 Y115.397 E13.13032
G1 X133.1 Y115.447 E13.1326
G1 X133.098 Y115.624 E13.14052
G1 X133.092 Y115.663 E13.14228
G1 X133.037 Y115.837 E13.15044
G1 X133.021 Y115.871 E13.15212
G1 X132.897 Y116.059 E13.16223
G1 X132.865 Y116.093 E13.1643
G1 X132.548 Y116.332 E13.18207
G1 X132.086 Y116.622 E13.20651
G1 X129.885 Y117.911 E13.32069
G1 X127.07 Y119.521 E13.46588
G1 X124.287 Y121.147 E13.61017
G1 X123.482 Y121.593 E13.65138
G1 X122.065 Y122.431 E13.72506
G1 X116.697 Y125.514 E14.00222
G1 X112.787 Y127.789 E14.20473
G1 X111.853 Y128.312 E14.25265
G1 X110.339 Y129.208 E14.33144
G1 X109.672 Y129.571 E14.36544
G1 X105.496 Y132 E14.58169
G1 X104.811 Y132.379 E14.61675
G1 X100.915 Y134.646 E14.81853
G1 X100.058 Y135.106 E14.86207
G1 X99.851 Y135.241 E14.87315
G1 X99.417 Y135.484 E14.89544
G1 X98.941 Y135.682 E14.91852
G1 X98.907 Y135.691 E14.92007
G1 X98.732 Y135.715 E14.92798
G1 X98.693 Y135.715 E14.92972
G1 X98.522 Y135.688 E14.93749
G1 X98.484 Y135.676 E14.93925
G1 X98.292 Y135.585 E14.94879
G1 X98.251 Y135.555 E14.95105
G1 X98.092 Y135.384 E14.9615
G1 X98.065 Y135.341 E14.96377
G1 X97.99 Y135.15 E14.97297
G1 X97.981 Y135.112 E14.9747
G1 X97.914 Y134.347 E15.00909
G1 X97.908 Y97.503 E16.65856
G1 X97.921 Y96.799 E16.6901
G1 X97.907 Y96.397 E16.70808
G1 X97.908 Y96.376 E16.70902
G1 X97.958 Y95.968 E16.72744
G1 X97.967 Y95.934 E16.72903
G1 X98.044 Y95.745 E16.73814
; printing object tri_1_thick.stl id:0 copy 0
M486 S0
G1 X98.592 Y95.983 F9000
;TYPE:External perimeter
G1 F1200
