; generated by SuperSlicer 2.4 on 2022-12-06 at 15:28:35 UTC

; 

; external perimeters extrusion width = 0.43mm
; perimeters extrusion width = 0.48mm
; infill extrusion width = 0.46mm
; solid infill extrusion width = 0.48mm
; top infill extrusion width = 0.46mm
; first layer extrusion width = 0.58mm

; object:{"name":"PART_9A","id":"PART_9A.stl id:0 copy 0","object_center":[115.500000,115.500000,0.000000],"boundingbox_center":[115.500000,115.500000,7.620000],"boundingbox_size":[22.860000,10.160000,15.240000]}
; Total objects to print: 1
M486 T1
; plater:{"center":[115.500000,115.500000,0.000000],"boundingbox_center":[115.500000,115.500000,7.620000],"boundingbox_size":[22.860000,10.160000,15.240000]}

;TYPE:Custom
G90 ; use absolute coordinates
M83 ; extruder relative mode
M140 S60 ; set final bed temp
M104 S150 ; set temporary nozzle temp to prevent oozing during homing and auto bed leveling
G4 S10 ; allow partial nozzle warmup
G28 ; home all axis
;G29 ; auto bed levelling
G1 Z10 F240
G1 X2 Y10 F3000
G1 Z0 F240
M104 S210 ; set final nozzle temp
M190 S60 ; wait for bed temp to stabilize
M109 S210 ; wait for nozzle temp to stabilize
G1 Z0.28 F240
G92 E0
G1 Y140 E10 F1500 ; prime the nozzle
G1 X2.3 F5000
G92 E0
G1 Y10 E10 F1200 ; prime the nozzle
G92 E0
;start
M107
G21 ; set units to millimeters
G90 ; use absolute coordinates
M82 ; use absolute distances for extrusion
G92 E0
; Filament gcode
;_TOOLCHANGE 0
M107
;LAYER_CHANGE
;Z:0.2
;HEIGHT:0.2
;BEFORE_LAYER_CHANGE
;0.2


G1 E-8.5 F3000
G1 Z0.15 F9000
;AFTER_LAYER_CHANGE
;0.2
G92 E0
M204 S500
G1 X100.007 Y105.573
G1 E8.5 F3000
;TYPE:Skirt
;WIDTH:0.48
G1 F1200
G1 X98.909 Y106.868 E8.56358
G1 X98.514 Y108.52 E8.62715
G1 X98.514 Y122.48 E9.14973
G1 X99.223 Y124.643 E9.23491
G1 X100.518 Y125.741 E9.29849
G1 X102.17 Y126.136 E9.36207
G1 X128.83 Y126.136 E10.36005
G1 X130.993 Y125.427 E10.44524
G1 X132.091 Y124.132 E10.50881
G1 X132.486 Y122.48 E10.57239
G1 X132.486 Y108.52 E11.09496
G1 X131.777 Y106.357 E11.18015
G1 X130.482 Y105.259 E11.24373
G1 X128.83 Y104.864 E11.3073
G1 X102.17 Y104.864 E12.30528
G1 X100.064 Y105.554 E12.38823
G1 X100.389 Y105.856 F9000
G1 F1200
G1 X99.345 Y106.977 E12.44556
G1 X98.951 Y108.52 E12.50516
G1 X98.951 Y122.48 E13.02773
G1 X99.462 Y124.22 E13.09561
G1 X100.627 Y125.305 E13.15521
G1 X102.17 Y125.699 E13.2148
G1 X128.83 Y125.699 E14.21278
G1 X130.57 Y125.188 E14.28066
G1 X131.655 Y124.023 E14.34026
G1 X132.049 Y122.48 E14.39986
G1 X132.049 Y108.52 E14.92243
G1 X131.538 Y106.78 E14.9903
G1 X130.373 Y105.695 E15.0499
G1 X128.83 Y105.301 E15.1095
G1 X102.17 Y105.301 E16.10748
G1 X100.43 Y105.813 E16.17537
G92 E0
G1 E-5.95 F3000
;WIPE_START
G1 F7200
G1 X99.345 Y106.977 E-6.58004
G1 X98.951 Y108.52 E-7.21025
G1 X98.951 Y111.456 E-8.3725
;WIPE_END
G1 E-8.5 F3000
; acceleration to travel
M204 S1500
G1 X102.926 Y109.605 F9000
; decel to extrusion
M204 S500
G1 X103.412 Y109.378
; end travel
G1 E0 F3000
;WIDTH:0.576
G1 F1200
G1 X103.5 Y109.32 E0.00483
G1 X103.795 Y109.197 E0.01943
G1 X103.899 Y109.177 E0.02426
G1 X127.101 Y109.177 E1.08357
G1 X127.205 Y109.197 E1.0884
G1 X127.5 Y109.32 E1.10299
G1 X127.588 Y109.378 E1.10783
G1 X127.972 Y109.762 E1.13258
G1 X128.03 Y109.85 E1.13742
G1 X128.153 Y110.145 E1.15201
G1 X128.173 Y110.249 E1.15684
G1 X128.173 Y120.751 E1.63633
G1 X128.153 Y120.855 E1.64116
G1 X128.03 Y121.15 E1.65575
G1 X127.972 Y121.238 E1.66059
G1 X127.588 Y121.622 E1.68534
G1 X127.5 Y121.68 E1.69017
G1 X127.205 Y121.803 E1.70477
G1 X127.101 Y121.823 E1.7096
G1 X103.899 Y121.823 E2.76891
G1 X103.795 Y121.803 E2.77374
G1 X103.5 Y121.68 E2.78834
G1 X103.412 Y121.622 E2.79317
G1 X103.028 Y121.238 E2.81792
G1 X102.97 Y121.15 E2.82276
G1 X102.847 Y120.855 E2.83735
G1 X102.827 Y120.751 E2.84218
G1 X102.827 Y110.249 E3.32167
G1 X102.847 Y110.145 E3.3265
G1 X102.97 Y109.85 E3.34109
G1 X103.028 Y109.762 E3.34593
G1 X103.369 Y109.421 E3.36794
G1 X103.749 Y109.801 F9000
G1 F1200
G1 X103.952 Y109.714 E3.378
G1 X127.048 Y109.714 E4.43248
G1 X127.246 Y109.796 E4.44224
G1 X127.554 Y110.104 E4.46216
G1 X127.636 Y110.302 E4.47192
G1 X127.636 Y120.698 E4.94657
G1 X127.554 Y120.896 E4.95633
G1 X127.246 Y121.204 E4.97626
G1 X127.048 Y121.286 E4.98602
G1 X103.952 Y121.286 E6.04049
G1 X103.754 Y121.204 E6.05025
G1 X103.446 Y120.896 E6.07018
G1 X103.364 Y120.698 E6.07994
G1 X103.364 Y110.302 E6.55459
G1 X103.446 Y110.104 E6.56435
G1 X103.707 Y109.843 E6.58121
G1 X104.059 Y110.251 F9000
G1 F1200
G1 X126.941 Y110.251 E7.62593
G1 X127.099 Y110.409 E7.63609
G1 X127.099 Y120.591 E8.10098
G1 X126.941 Y120.749 E8.11114
G1 X104.059 Y120.749 E9.15586
G1 X103.901 Y120.591 E9.16602
G1 X103.901 Y110.409 E9.63092
G1 X104.016 Y110.294 E9.63834
; printing object PART_9A.stl id:0 copy 0
M486 S0
G1 X104.458 Y110.808 F9000
;TYPE:External perimeter
G1 F1200
G1 X126.542 Y110.808 E10.6466
G1 X126.542 Y120.192 E11.07503
G1 X104.458 Y120.192 E12.08328
G1 X104.458 Y110.868 E12.50898
;WIPE_START
G1 X104.804 Y111.008 F9000
;WIPE_END
G1 X104.995 Y111.345
;TYPE:Internal perimeter
G1 F1200
G1 X126.005 Y111.345 E13.46817
G1 X126.005 Y119.655 E13.84753
G1 X104.995 Y119.655 E14.80672
G1 X104.995 Y111.405 E15.18334
G92 E0
G1 E-5.95 F3000
;WIPE_START
G1 F7200
G1 X111.115 Y111.388 E-8.3725
;WIPE_END
G1 E-8.5 F3000
; acceleration to travel
M204 S1500
G1 X123.272 Y111.494 F9000
; decel to extrusion
M204 S500
G1 X124.757 Y111.507
; end travel
G1 E0 F3000
;TYPE:Solid infill
;WIDTH:0.574726
G1 F1200
G1 X125.612 Y112.362 E0.0551
G1 X125.612 Y113.122 E0.08971
G1 X124.228 Y111.738 E0.17888
G1 X123.468 Y111.738 E0.2135
G1 X125.612 Y113.882 E0.35163
G1 X125.612 Y114.642 E0.38625
G1 X122.708 Y111.738 E0.57334
G1 X121.948 Y111.738 E0.60796
G1 X125.612 Y115.402 E0.844
G1 X125.612 Y116.162 E0.87862
G1 X121.188 Y111.738 E1.16363
G1 X120.428 Y111.738 E1.19825
G1 X125.612 Y116.922 E1.53221
G1 X125.612 Y117.681 E1.56683
G1 X119.669 Y111.738 E1.94976
G1 X118.909 Y111.738 E1.98438
G1 X125.612 Y118.441 E2.41626
G1 X125.612 Y119.201 E2.45088
G1 X118.149 Y111.738 E2.93172
G1 X117.389 Y111.738 E2.96634
G1 X124.913 Y119.262 E3.45111
G1 X124.153 Y119.262 E3.48573
G1 X116.629 Y111.738 E3.97051
G1 X115.869 Y111.738 E4.00513
G1 X123.393 Y119.262 E4.4899
G1 X122.634 Y119.262 E4.52452
G1 X115.109 Y111.738 E5.00929
G1 X114.349 Y111.738 E5.04391
G1 X121.874 Y119.262 E5.52868
G1 X121.114 Y119.262 E5.5633
G1 X113.589 Y111.738 E6.04807
G1 X112.829 Y111.738 E6.08269
G1 X120.354 Y119.262 E6.56747
G1 X119.594 Y119.262 E6.60208
G1 X112.069 Y111.738 E7.08686
G1 X111.309 Y111.738 E7.12148
G1 X118.834 Y119.262 E7.60625
G1 X118.074 Y119.262 E7.64087
G1 X110.549 Y111.738 E8.12564
G1 X109.789 Y111.738 E8.16026
G1 X117.314 Y119.262 E8.64503
G1 X116.554 Y119.262 E8.67965
G1 X109.029 Y111.738 E9.16443
G1 X108.269 Y111.738 E9.19904
G1 X115.794 Y119.262 E9.68382
G1 X115.034 Y119.262 E9.71844
G1 X107.509 Y111.738 E10.20321
G1 X106.749 Y111.738 E10.23783
G1 X114.274 Y119.262 E10.7226
G1 X113.514 Y119.262 E10.75722
G1 X105.989 Y111.738 E11.24199
G1 X105.388 Y111.738 E11.2694
G1 X105.388 Y111.896 E11.27661
G1 X112.754 Y119.262 E11.75119
G1 X111.994 Y119.262 E11.78581
G1 X105.388 Y112.656 E12.21142
G1 X105.388 Y113.416 E12.24604
G1 X111.234 Y119.262 E12.6227
G1 X110.474 Y119.262 E12.65732
G1 X105.388 Y114.176 E12.98502
G1 X105.388 Y114.936 E13.01963
G1 X109.714 Y119.262 E13.29837
G1 X108.954 Y119.262 E13.33299
G1 X105.388 Y115.696 E13.56277
G1 X105.388 Y116.456 E13.59739
G1 X108.194 Y119.262 E13.77821
G1 X107.434 Y119.262 E13.81283
G1 X105.388 Y117.216 E13.94469
G1 X105.388 Y117.976 E13.97931
G1 X106.674 Y119.262 E14.06221
G1 X105.914 Y119.262 E14.09683
G1 X105.157 Y118.504 E14.14565
M106 S84.15
;LAYER_CHANGE
;Z:0.52
;HEIGHT:0.32
;BEFORE_LAYER_CHANGE
;0.52


G92 E0
G1 E-5.95 F3000
;WIPE_START
G1 F7200
G1 X105.914 Y119.262 E-6.37427
G1 X106.674 Y119.262 E-6.67509
G1 X105.388 Y117.976 E-7.39543
G1 X105.388 Y117.216 E-7.69624
G1 X106.596 Y118.424 E-8.3725
;WIPE_END
G1 E-8.5 F3000
; stop printing object PART_9A.stl id:0 copy 0
M486 S-1
G1 Z0.47 F9000
;AFTER_LAYER_CHANGE
;0.52
G92 E0
; acceleration to travel
M204 S1500
G1 X106.596 Y125.296
; decel to extrusion
M204 S500
G1 X106.596 Y126.136
; end travel
G1 E8.5 F3000
;TYPE:Skirt
;WIDTH:0.48
G1 F1200
G1 X128.83 Y126.136 E9.75324
G1 X130.993 Y125.427 E9.88151
G1 X132.091 Y124.132 E9.97723
G1 X132.486 Y122.48 E10.07296
G1 X132.486 Y108.52 E10.85982
G1 X131.777 Y106.357 E10.98809
G1 X130.482 Y105.259 E11.08382
G1 X128.83 Y104.864 E11.17955
G1 X102.17 Y104.864 E12.68223
G1 X100.007 Y105.573 E12.8105
G1 X98.909 Y106.868 E12.90623
G1 X98.514 Y108.52 E13.00196
G1 X98.514 Y122.48 E13.78882
G1 X99.223 Y124.643 E13.91709
G1 X100.518 Y125.741 E14.01282
G1 X102.17 Y126.136 E14.10854
G1 X106.536 Y126.136 E14.35462
G1 X106.536 Y125.699 F9000
G1 F1200
G1 X128.83 Y125.699 E15.61123
G1 X130.57 Y125.188 E15.71343
G1 X131.655 Y124.023 E15.80317
G1 X132.049 Y122.48 E15.89291
G1 X132.049 Y108.52 E16.67977
G1 X131.538 Y106.78 E16.78197
G1 X130.373 Y105.695 E16.8717
G1 X128.83 Y105.301 E16.96144
G1 X102.17 Y105.301 E18.46413
G1 X100.43 Y105.812 E18.56633
G1 X99.345 Y106.977 E18.65607
G1 X98.951 Y108.52 E18.74581
G1 X98.951 Y122.48 E19.53267
G1 X99.462 Y124.22 E19.63486
G1 X100.627 Y125.305 E19.7246
G1 X102.17 Y125.699 E19.81434
G1 X106.476 Y125.699 E20.05703
G92 E0
G1 E-5.95 F3000
;WIPE_START
G1 F7200
G1 X112.596 Y125.699 E-8.3725
;WIPE_END
G1 E-8.5 F3000
; printing object PART_9A.stl id:0 copy 0
M486 S0
; acceleration to travel
M204 S1500
G1 X105.58 Y120.631 F9000
; decel to extrusion
M204 S500
G1 X104.674 Y119.976
; end travel
G1 E0 F3000
;TYPE:Internal perimeter
;WIDTH:0.476
G1 F2400
G1 X104.674 Y111.024 E0.49965
G1 X126.326 Y111.024 E1.70817
G1 X126.326 Y119.976 E2.20782
G1 X104.734 Y119.976 E3.413
G1 X104.284 Y120.366 F9000
;TYPE:External perimeter
;WIDTH:0.428
G1 F1500
G1 X104.284 Y110.634 E3.8922
G1 X126.716 Y110.634 E4.99673
G1 X126.716 Y120.366 E5.47593
G1 X104.344 Y120.366 E6.57751
;WIPE_START
G1 X104.484 Y120.02 F9000
;WIPE_END
G92 E0
G1 E-5.95 F3000
;WIPE_START
G1 F7200
G1 X104.484 Y113.9 E-8.3725
;WIPE_END
G1 E-8.5 F3000
; acceleration to travel
M204 S1500
G1 X104.762 Y111.965 F9000
; decel to extrusion
M204 S500
G1 X104.798 Y111.715
; end travel
G1 E0 F3000
;TYPE:Solid infill
;WIDTH:0.483826
G1 F2400
G1 X105.187 Y111.327 E0.03118
G1 X105.773 Y111.327 E0.06442
G1 X104.977 Y112.123 E0.12831
G1 X104.977 Y112.709 E0.16154
G1 X106.359 Y111.327 E0.27243
G1 X106.944 Y111.327 E0.30566
G1 X104.977 Y113.294 E0.46355
G1 X104.977 Y113.88 E0.49678
G1 X107.53 Y111.327 E0.70167
G1 X108.116 Y111.327 E0.7349
G1 X104.977 Y114.466 E0.98679
G1 X104.977 Y115.052 E1.02002
G1 X108.702 Y111.327 E1.3189
G1 X109.287 Y111.327 E1.35213
G1 X104.977 Y115.637 E1.69801
G1 X104.977 Y116.223 E1.73125
G1 X109.873 Y111.327 E2.12413
G1 X110.459 Y111.327 E2.15736
G1 X104.977 Y116.809 E2.59724
G1 X104.977 Y117.395 E2.63047
G1 X111.045 Y111.327 E3.11734
G1 X111.63 Y111.327 E3.15058
G1 X104.977 Y117.98 E3.68445
G1 X104.977 Y118.566 E3.71768
G1 X112.216 Y111.327 E4.29855
G1 X112.802 Y111.327 E4.33179
G1 X104.977 Y119.152 E4.95966
G1 X104.977 Y119.673 E4.98924
G1 X105.041 Y119.673 E4.99289
G1 X113.388 Y111.327 E5.6626
G1 X113.973 Y111.327 E5.69583
G1 X105.627 Y119.673 E6.36554
G1 X106.212 Y119.673 E6.39878
G1 X114.559 Y111.327 E7.06849
G1 X115.145 Y111.327 E7.10172
G1 X106.798 Y119.673 E7.77143
G1 X107.384 Y119.673 E7.80466
G1 X115.731 Y111.327 E8.47437
G1 X116.317 Y111.327 E8.50761
G1 X107.97 Y119.673 E9.17732
G1 X108.555 Y119.673 E9.21055
G1 X116.902 Y111.327 E9.88026
G1 X117.488 Y111.327 E9.9135
G1 X109.141 Y119.673 E10.58321
G1 X109.727 Y119.673 E10.61644
G1 X118.074 Y111.327 E11.28615
G1 X118.66 Y111.327 E11.31938
G1 X110.313 Y119.673 E11.98909
G1 X110.898 Y119.673 E12.02233
G1 X119.245 Y111.327 E12.69204
G1 X119.831 Y111.327 E12.72527
G1 X111.484 Y119.673 E13.39498
G1 X112.07 Y119.673 E13.42822
G1 X120.417 Y111.327 E14.09793
G1 X121.003 Y111.327 E14.13116
G1 X112.656 Y119.673 E14.80087
G1 X113.241 Y119.673 E14.8341
G1 X121.588 Y111.327 E15.50381
G1 X122.174 Y111.327 E15.53705
G1 X113.827 Y119.673 E16.20676
G1 X114.413 Y119.673 E16.23999
G1 X122.76 Y111.327 E16.9097
G1 X123.346 Y111.327 E16.94294
G1 X114.999 Y119.673 E17.61265
G1 X115.584 Y119.673 E17.64588
G1 X123.931 Y111.327 E18.31559
G1 X124.517 Y111.327 E18.34882
G1 X116.17 Y119.673 E19.01853
G1 X116.756 Y119.673 E19.05177
G1 X125.103 Y111.327 E19.72148
G1 X125.689 Y111.327 E19.75471
G1 X117.342 Y119.673 E20.42442
G1 X117.928 Y119.673 E20.45766
G1 X126.023 Y111.578 E21.10723
G1 X126.023 Y112.163 E21.14046
G1 X118.513 Y119.673 E21.74304
G1 X119.099 Y119.673 E21.77627
G1 X126.023 Y112.749 E22.33185
G1 X126.023 Y113.335 E22.36509
G1 X119.685 Y119.673 E22.87367
G1 X120.271 Y119.673 E22.9069
G1 X126.023 Y113.921 E23.36848
G1 X126.023 Y114.506 E23.40171
G1 X120.856 Y119.673 E23.8163
G1 X121.442 Y119.673 E23.84953
G1 X126.023 Y115.092 E24.21712
G1 X126.023 Y115.678 E24.25035
G1 X122.028 Y119.673 E24.57094
G1 X122.614 Y119.673 E24.60417
G1 X126.023 Y116.264 E24.87776
G1 X126.023 Y116.849 E24.91099
G1 X123.199 Y119.673 E25.13759
G1 X123.785 Y119.673 E25.17082
G1 X126.023 Y117.435 E25.35041
G1 X126.023 Y118.021 E25.38365
G1 X124.371 Y119.673 E25.51624
G1 X124.957 Y119.673 E25.54947
G1 X126.023 Y118.607 E25.63507
G1 X126.023 Y119.192 E25.6683
G1 X125.364 Y119.852 E25.72119
M106 S170.85
;LAYER_CHANGE
;Z:0.84
;HEIGHT:0.32
;BEFORE_LAYER_CHANGE
;0.84


G92 E0
G1 E-5.95 F3000
;WIPE_START
G1 F7200
G1 X126.023 Y119.192 E-6.31901
G1 X126.023 Y118.607 E-6.55087
G1 X124.957 Y119.673 E-7.14808
G1 X124.371 Y119.673 E-7.37995
G1 X126.023 Y118.021 E-8.30506
G1 X126.023 Y117.85 E-8.3725
;WIPE_END
G1 E-8.5 F3000
; stop printing object PART_9A.stl id:0 copy 0
M486 S-1
G1 Z0.79 F9000
;AFTER_LAYER_CHANGE
;0.84
G92 E0
; printing object PART_9A.stl id:0 copy 0
M486 S0
; acceleration to travel
M204 S1500
G1 X126.291 Y119.733
; decel to extrusion
M204 S500
G1 X126.326 Y119.976
; end travel
G1 E8.5 F3000
;TYPE:Internal perimeter
;WIDTH:0.476
G1 F2400
G1 X104.674 Y119.976 E9.70852
G1 X104.674 Y111.024 E10.20817
G1 X126.326 Y111.024 E11.4167
G1 X126.326 Y119.916 E11.913
G1 X126.716 Y120.366 F9000
;TYPE:External perimeter
;WIDTH:0.428
G1 F1500
G1 X104.284 Y120.366 E13.01753
G1 X104.284 Y110.634 E13.49673
G1 X126.716 Y110.634 E14.60127
G1 X126.716 Y120.306 E15.07751
;WIPE_START
G1 X126.37 Y120.166 F9000
;WIPE_END
G92 E0
G1 E-5.95 F3000
;WIPE_START
G1 F7200
G1 X120.25 Y120.166 E-8.3725
;WIPE_END
G1 E-8.5 F3000
; acceleration to travel
M204 S1500
G1 X125.521 Y112.922 F9000
; decel to extrusion
M204 S500
G1 X126.202 Y111.986
; end travel
G1 E0 F3000
;TYPE:Solid infill
;WIDTH:0.483826
G1 F2400
G1 X125.542 Y111.327 E0.05289
G1 X124.957 Y111.327 E0.08612
G1 X126.023 Y112.393 E0.17172
G1 X126.023 Y112.979 E0.20495
G1 X124.371 Y111.327 E0.33755
G1 X123.785 Y111.327 E0.37078
G1 X126.023 Y113.565 E0.55038
G1 X126.023 Y114.151 E0.58361
G1 X123.199 Y111.327 E0.8102
G1 X122.614 Y111.327 E0.84343
G1 X126.023 Y114.736 E1.11702
G1 X126.023 Y115.322 E1.15026
G1 X122.028 Y111.327 E1.47084
G1 X121.442 Y111.327 E1.50408
G1 X126.023 Y115.908 E1.87166
G1 X126.023 Y116.494 E1.9049
G1 X120.856 Y111.327 E2.31948
G1 X120.271 Y111.327 E2.35271
G1 X126.023 Y117.079 E2.8143
G1 X126.023 Y117.665 E2.84753
G1 X119.685 Y111.327 E3.35611
G1 X119.099 Y111.327 E3.38934
G1 X126.023 Y118.251 E3.94492
G1 X126.023 Y118.837 E3.97815
G1 X118.513 Y111.327 E4.58073
G1 X117.928 Y111.327 E4.61396
G1 X126.023 Y119.422 E5.26354
G1 X126.023 Y119.673 E5.27778
G1 X125.689 Y119.673 E5.29677
G1 X117.342 Y111.327 E5.96648
G1 X116.756 Y111.327 E5.99972
G1 X125.103 Y119.673 E6.66943
G1 X124.517 Y119.673 E6.70266
G1 X116.17 Y111.327 E7.37237
G1 X115.584 Y111.327 E7.4056
G1 X123.931 Y119.673 E8.07532
G1 X123.346 Y119.673 E8.10855
G1 X114.999 Y111.327 E8.77826
G1 X114.413 Y111.327 E8.81149
G1 X122.76 Y119.673 E9.4812
G1 X122.174 Y119.673 E9.51444
G1 X113.827 Y111.327 E10.18415
G1 X113.241 Y111.327 E10.21738
G1 X121.588 Y119.673 E10.88709
G1 X121.003 Y119.673 E10.92032
G1 X112.656 Y111.327 E11.59003
G1 X112.07 Y111.327 E11.62327
G1 X120.417 Y119.673 E12.29298
