; generated by SuperSlicer 2.4 on 2022-12-06 at 15:27:13 UTC

; 

; external perimeters extrusion width = 0.43mm
; perimeters extrusion width = 0.48mm
; infill extrusion width = 0.46mm
; solid infill extrusion width = 0.48mm
; top infill extrusion width = 0.46mm
; first layer extrusion width = 0.58mm

; object:{"name":"PART_5","id":"PART_5.stl id:0 copy 0","object_center":[115.500000,115.500000,0.000000],"boundingbox_center":[115.500000,115.500000,6.350000],"boundingbox_size":[21.596241,14.862749,12.700000]}
; Total objects to print: 1
M486 T1
; plater:{"center":[115.500000,115.500000,0.000000],"boundingbox_center":[115.500000,115.500000,6.350000],"boundingbox_size":[21.596241,14.862749,12.700000]}

;TYPE:Custom
G90 ; use absolute coordinates
M83 ; extruder relative mode
M140 S60 ; set final bed temp
M104 S150 ; set temporary nozzle temp to prevent oozing during homing and auto bed leveling
G4 S10 ; allow partial nozzle warmup
G28 ; home all axis
;G29 ; auto bed levelling
G1 Z10 F240
G1 X2 Y10 F3000
G1 Z0 F240
M104 S210 ; set final nozzle temp
M190 S60 ; wait for bed temp to stabilize
M109 S210 ; wait for nozzle temp to stabilize
G1 Z0.28 F240
G92 E0
G1 Y140 E10 F1500 ; prime the nozzle
G1 X2.3 F5000
G92 E0
G1 Y10 E10 F1200 ; prime the nozzle
G92 E0
;start
M107
G21 ; set units to millimeters
G90 ; use absolute coordinates
M82 ; use absolute distances for extrusion
G92 E0
; Filament gcode
;_TOOLCHANGE 0
M107
;LAYER_CHANGE
;Z:0.2
;HEIGHT:0.2
;BEFORE_LAYER_CHANGE
;0.2


G1 E-8.5 F3000
G1 Z0.15 F9000
;AFTER_LAYER_CHANGE
;0.2
G92 E0
M204 S500
G1 X100.13 Y105.939
G1 E8.5 F3000
;TYPE:Skirt
;WIDTH:0.48
G1 F1200
G1 X99.181 Y107.347 E8.56358
G1 X98.971 Y109.033 E8.62715
G1 X100.79 Y125.432 E9.24481
G1 X101.732 Y127.504 E9.33
G1 X103.141 Y128.453 E9.39357
G1 X104.826 Y128.663 E9.45715
G1 X128.799 Y126.004 E10.36005
G1 X130.87 Y125.061 E10.44524
G1 X131.819 Y123.653 E10.50881
G1 X132.029 Y121.967 E10.57239
G1 X130.21 Y105.568 E11.19004
G1 X129.268 Y103.496 E11.27523
G1 X127.859 Y102.547 E11.33881
G1 X126.174 Y102.337 E11.40238
G1 X102.201 Y104.996 E12.30528
G1 X100.184 Y105.914 E12.38823
G1 X100.54 Y106.179 F9000
G1 F1200
G1 X99.626 Y107.408 E12.44556
G1 X99.405 Y108.985 E12.50516
G1 X101.224 Y125.384 E13.12282
G1 X101.924 Y127.057 E13.19069
G1 X103.201 Y128.007 E13.25029
G1 X104.778 Y128.228 E13.30989
G1 X128.751 Y125.569 E14.21279
G1 X130.424 Y124.87 E14.28066
G1 X131.374 Y123.592 E14.34026
G1 X131.595 Y122.015 E14.39986
G1 X129.776 Y105.616 E15.01751
G1 X129.076 Y103.943 E15.08538
G1 X127.799 Y102.993 E15.14498
G1 X126.222 Y102.772 E15.20458
G1 X102.249 Y105.431 E16.10748
G1 X100.576 Y106.131 E16.17537
G92 E0
G1 E-5.95 F3000
;WIPE_START
G1 F7200
G1 X99.626 Y107.408 E-6.58004
G1 X99.405 Y108.985 E-7.21025
G1 X99.729 Y111.903 E-8.3725
;WIPE_END
G1 E-8.5 F3000
; acceleration to travel
M204 S1500
G1 X103.475 Y109.624 F9000
; decel to extrusion
M204 S500
G1 X103.933 Y109.346
; end travel
G1 E0 F3000
;WIDTH:0.576
G1 F1200
G1 X104.014 Y109.278 E0.00483
G1 X104.294 Y109.124 E0.01943
G1 X104.395 Y109.092 E0.02426
G1 X124.931 Y106.814 E0.9676
G1 X125.036 Y106.823 E0.97244
G1 X125.343 Y106.912 E0.98703
G1 X125.437 Y106.961 E0.99186
G1 X125.861 Y107.3 E1.01662
G1 X125.929 Y107.381 E1.02145
G1 X126.083 Y107.661 E1.03604
G1 X126.115 Y107.761 E1.04088
G1 X127.553 Y120.724 E1.63633
G1 X127.544 Y120.83 E1.64116
G1 X127.455 Y121.137 E1.65575
G1 X127.406 Y121.231 E1.66059
G1 X127.067 Y121.654 E1.68534
G1 X126.986 Y121.722 E1.69017
G1 X126.706 Y121.876 E1.70477
G1 X126.605 Y121.908 E1.7096
G1 X121.216 Y122.506 E1.95715
G1 X121.111 Y122.497 E1.96199
G1 X120.804 Y122.408 E1.97658
G1 X120.71 Y122.359 E1.98141
G1 X120.286 Y122.02 E2.00617
G1 X120.218 Y121.939 E2.011
G1 X120.064 Y121.659 E2.02559
G1 X120.032 Y121.558 E2.03043
G1 X119.31 Y115.051 E2.32936
G1 X111.684 Y115.897 E2.67968
G1 X112.406 Y122.404 E2.97862
G1 X112.397 Y122.51 E2.98346
G1 X112.308 Y122.817 E2.99805
G1 X112.259 Y122.911 E3.00288
G1 X111.92 Y123.334 E3.02764
G1 X111.839 Y123.402 E3.03247
G1 X111.559 Y123.556 E3.04706
G1 X111.458 Y123.588 E3.0519
G1 X106.069 Y124.186 E3.29945
G1 X105.964 Y124.177 E3.30428
G1 X105.657 Y124.088 E3.31888
G1 X105.563 Y124.039 E3.32371
G1 X105.139 Y123.7 E3.34846
G1 X105.071 Y123.619 E3.3533
G1 X104.917 Y123.339 E3.36789
G1 X104.885 Y123.239 E3.37272
G1 X103.447 Y110.276 E3.96817
G1 X103.456 Y110.17 E3.97301
G1 X103.545 Y109.863 E3.9876
G1 X103.594 Y109.769 E3.99243
G1 X103.895 Y109.393 E4.01445
G1 X104.315 Y109.729 F9000
G1 F1200
G1 X104.507 Y109.62 E4.02451
G1 X124.938 Y107.354 E4.96302
G1 X125.143 Y107.413 E4.97278
G1 X125.484 Y107.686 E4.9927
G1 X125.587 Y107.873 E5.00246
G1 X127.013 Y120.731 E5.59308
G1 X126.953 Y120.936 E5.60284
G1 X126.681 Y121.277 E5.62276
G1 X126.493 Y121.38 E5.63252
G1 X121.209 Y121.966 E5.87525
G1 X121.004 Y121.907 E5.88501
G1 X120.663 Y121.634 E5.90493
G1 X120.56 Y121.447 E5.91469
G1 X119.785 Y114.457 E6.23574
G1 X111.091 Y115.422 E6.63513
G1 X111.866 Y122.411 E6.95619
G1 X111.806 Y122.616 E6.96595
G1 X111.534 Y122.957 E6.98587
G1 X111.346 Y123.06 E6.99563
G1 X106.062 Y123.646 E7.23835
G1 X105.857 Y123.587 E7.24811
G1 X105.516 Y123.314 E7.26804
G1 X105.413 Y123.127 E7.2778
G1 X103.987 Y110.269 E7.86841
G1 X104.047 Y110.064 E7.87817
G1 X104.277 Y109.776 E7.89503
G1 X104.672 Y110.142 F9000
G1 F1200
G1 X124.891 Y107.9 E8.82379
G1 X125.064 Y108.039 E8.83395
G1 X125.12 Y108.536 E8.85677
G1 X126.467 Y120.684 E9.41481
G1 X126.328 Y120.858 E9.42497
G1 X121.256 Y121.42 E9.65793
G1 X121.083 Y121.281 E9.66809
G1 X120.26 Y113.864 E10.0088
G1 X110.497 Y114.947 E10.45726
G1 X111.32 Y122.364 E10.79797
G1 X111.181 Y122.538 E10.80813
G1 X106.109 Y123.1 E11.04109
G1 X105.936 Y122.961 E11.05125
G1 X104.533 Y110.316 E11.63211
G1 X104.635 Y110.189 E11.63953
; printing object PART_5.stl id:0 copy 0
M486 S0
G1 X105.13 Y110.652 F9000
;TYPE:External perimeter
G1 F1200
G1 X124.555 Y108.497 E12.53183
G1 X124.566 Y108.597 E12.53641
G1 X125.87 Y120.348 E13.07622
G1 X121.592 Y120.823 E13.27272
G1 X120.752 Y113.249 E13.62062
G1 X109.883 Y114.455 E14.11991
G1 X110.723 Y122.028 E14.4678
G1 X106.445 Y122.503 E14.6643
G1 X105.137 Y110.711 E15.20596
;WIPE_START
G1 X105.497 Y110.812 F9000
;WIPE_END
G1 X105.724 Y111.127
;TYPE:Internal perimeter
G1 F1200
G1 X124.08 Y109.09 E16.04919
G1 X125.276 Y119.873 E16.54451
G1 X122.067 Y120.23 E16.69195
G1 X121.227 Y112.656 E17.03984
G1 X109.289 Y113.98 E17.5882
G1 X110.129 Y121.554 E17.93609
G1 X106.92 Y121.91 E18.08353
G1 X105.73 Y111.186 E18.57612
G92 E0
G1 E-5.95 F3000
;WIPE_START
G1 F7200
G1 X111.811 Y110.492 E-8.3725
;WIPE_END
G1 E-8.5 F3000
; acceleration to travel
M204 S1500
G1 X121.746 Y109.498 F9000
; decel to extrusion
M204 S500
G1 X122.96 Y109.377
; end travel
G1 E0 F3000
;TYPE:Solid infill
;WIDTH:0.567236
G1 F1200
G1 X123.812 Y110.229 E0.05419
G1 X123.907 Y111.084 E0.09285
G1 X122.485 Y109.662 E0.18326
G1 X121.801 Y109.738 E0.2142
G1 X124.002 Y111.939 E0.35413
G1 X124.096 Y112.793 E0.3928
G1 X121.117 Y109.814 E0.58225
G1 X120.433 Y109.89 E0.6132
G1 X124.191 Y113.648 E0.85218
G1 X124.286 Y114.503 E0.89084
G1 X119.749 Y109.966 E1.17935
G1 X119.065 Y110.041 E1.21029
G1 X124.381 Y115.358 E1.54832
G1 X124.476 Y116.212 E1.58699
G1 X121.709 Y113.446 E1.7629
G1 X121.804 Y114.301 E1.80157
G1 X124.57 Y117.067 E1.97748
G1 X124.665 Y117.922 E2.01615
G1 X121.899 Y115.155 E2.19206
G1 X121.993 Y116.01 E2.23073
G1 X124.76 Y118.777 E2.40664
G1 X124.843 Y119.527 E2.44057
G1 X124.76 Y119.536 E2.44436
G1 X122.088 Y116.865 E2.61421
G1 X122.183 Y117.72 E2.65288
G1 X124.075 Y119.612 E2.77321
G1 X123.391 Y119.688 E2.80415
G1 X122.278 Y118.574 E2.87495
G1 X122.373 Y119.429 E2.91362
G1 X122.917 Y119.973 E2.9482
G92 E0
G1 E-5.95 F3000
;WIPE_START
G1 F7200
G1 X122.373 Y119.429 E-6.25447
G1 X122.278 Y118.574 E-6.59489
G1 X123.391 Y119.688 E-7.21823
G1 X124.075 Y119.612 E-7.49067
G1 X122.5 Y118.037 E-8.3725
;WIPE_END
G1 E-8.5 F3000
; acceleration to travel
M204 S1500
G1 X120.989 Y113.139 F9000
; decel to extrusion
M204 S500
G1 X120.804 Y112.541
; end travel
G1 E0 F3000
G1 F1200
G1 X118.38 Y110.117 E0.15409
G1 X117.696 Y110.193 E0.18504
G1 X119.911 Y112.407 E0.32582
G1 X119.226 Y112.483 E0.35677
G1 X117.012 Y110.269 E0.49755
G1 X116.328 Y110.345 E0.5285
G1 X118.542 Y112.559 E0.66928
G1 X117.858 Y112.635 E0.70023
G1 X115.644 Y110.421 E0.84101
G1 X114.96 Y110.497 E0.87196
G1 X117.174 Y112.711 E1.01274
G1 X116.49 Y112.787 E1.04368
G1 X114.276 Y110.573 E1.18447
G1 X113.592 Y110.648 E1.21541
G1 X115.806 Y112.863 E1.3562
G1 X115.122 Y112.938 E1.38714
G1 X112.908 Y110.724 E1.52793
G1 X112.224 Y110.8 E1.55887
G1 X114.438 Y113.014 E1.69966
G1 X113.754 Y113.09 E1.7306
G1 X111.54 Y110.876 E1.87139
G1 X110.856 Y110.952 E1.90233
G1 X113.07 Y113.166 E2.04312
G1 X112.386 Y113.242 E2.07406
G1 X110.172 Y111.028 E2.21485
G1 X109.487 Y111.104 E2.24579
G1 X111.702 Y113.318 E2.38658
G1 X111.018 Y113.394 E2.41752
G1 X108.803 Y111.18 E2.55831
G1 X108.119 Y111.255 E2.58925
G1 X110.333 Y113.47 E2.73004
G1 X109.649 Y113.545 E2.76098
G1 X107.435 Y111.331 E2.90177
G1 X106.751 Y111.407 E2.93271
G1 X108.965 Y113.621 E3.0735
G1 X108.856 Y113.633 E3.07843
G1 X108.936 Y114.352 E3.11093
G1 X106.169 Y111.585 E3.28684
G1 X106.264 Y112.44 E3.32551
G1 X109.031 Y115.207 E3.50142
G1 X109.125 Y116.061 E3.54009
G1 X106.359 Y113.295 E3.716
G1 X106.454 Y114.149 E3.75467
G1 X109.22 Y116.916 E3.93058
G1 X109.315 Y117.771 E3.96925
G1 X106.548 Y115.004 E4.14516
G1 X106.643 Y115.859 E4.18383
G1 X109.41 Y118.626 E4.35974
G1 X109.505 Y119.48 E4.39841
G1 X106.738 Y116.714 E4.57432
G1 X106.833 Y117.569 E4.61299
G1 X109.599 Y120.335 E4.7889
G1 X109.694 Y121.19 E4.82757
G1 X106.928 Y118.423 E5.00348
G1 X107.022 Y119.278 E5.04215
G1 X109.026 Y121.281 E5.16952
G1 X108.342 Y121.357 E5.20047
G1 X107.117 Y120.133 E5.27832
G1 X107.212 Y120.988 E5.31698
G1 X107.867 Y121.642 E5.35862
M106 S84.15
;LAYER_CHANGE
;Z:0.52
;HEIGHT:0.32
;BEFORE_LAYER_CHANGE
;0.52


G92 E0
G1 E-5.95 F3000
;WIPE_START
G1 F7200
G1 X107.212 Y120.988 E-6.31653
G1 X107.117 Y120.133 E-6.65695
G1 X108.342 Y121.357 E-7.34234
G1 X109.026 Y121.281 E-7.61479
G1 X107.672 Y119.928 E-8.3725
;WIPE_END
G1 E-8.5 F3000
; stop printing object PART_5.stl id:0 copy 0
M486 S-1
G1 Z0.47 F9000
;AFTER_LAYER_CHANGE
;0.52
G92 E0
; acceleration to travel
M204 S1500
G1 X101.076 Y120.659
; decel to extrusion
M204 S500
G1 X100.27 Y120.749
; end travel
G1 E8.5 F3000
;TYPE:Skirt
;WIDTH:0.48
G1 F1200
G1 X100.79 Y125.432 E8.7656
G1 X101.732 Y127.504 E8.89387
G1 X103.141 Y128.453 E8.9896
G1 X104.826 Y128.663 E9.08533
G1 X128.799 Y126.004 E10.44485
G1 X130.87 Y125.061 E10.57312
G1 X131.819 Y123.653 E10.66885
G1 X132.029 Y121.967 E10.76458
G1 X130.21 Y105.568 E11.6946
G1 X129.268 Y103.496 E11.82287
G1 X127.859 Y102.547 E11.9186
G1 X126.174 Y102.337 E12.01433
G1 X102.201 Y104.996 E13.37385
G1 X100.13 Y105.939 E13.50212
G1 X99.181 Y107.347 E13.59785
G1 X98.971 Y109.033 E13.69358
G1 X100.264 Y120.689 E14.35462
G1 X100.698 Y120.641 F9000
G1 F1200
G1 X101.224 Y125.384 E14.6236
G1 X101.924 Y127.057 E14.7258
G1 X103.201 Y128.007 E14.81554
G1 X104.778 Y128.228 E14.90528
G1 X128.751 Y125.569 E16.2648
G1 X130.424 Y124.87 E16.367
G1 X131.374 Y123.592 E16.45674
G1 X131.595 Y122.015 E16.54648
G1 X129.776 Y105.616 E17.4765
G1 X129.076 Y103.943 E17.5787
G1 X127.799 Y102.993 E17.66844
G1 X126.222 Y102.772 E17.75818
G1 X102.249 Y105.431 E19.1177
G1 X100.576 Y106.13 E19.2199
G1 X99.626 Y107.408 E19.30964
G1 X99.405 Y108.985 E19.39938
G1 X100.691 Y120.581 E20.05703
G92 E0
G1 E-5.95 F3000
;WIPE_START
G1 F7200
G1 X101.224 Y125.384 E-7.86273
G1 X101.721 Y126.572 E-8.3725
;WIPE_END
G1 E-8.5 F3000
; printing object PART_5.stl id:0 copy 0
M486 S0
; acceleration to travel
M204 S1500
G1 X106.074 Y122.757 F9000
; decel to extrusion
M204 S500
G1 X106.636 Y122.264
; end travel
G1 E0 F3000
;TYPE:Internal perimeter
;WIDTH:0.476
G1 F2400
G1 X105.369 Y110.843 E0.64142
G1 X124.364 Y108.736 E1.70817
G1 X125.631 Y120.157 E2.3496
G1 X121.783 Y120.584 E2.5657
G1 X120.943 Y113.011 E2.99102
G1 X109.644 Y114.264 E3.62557
G1 X110.484 Y121.837 E4.05089
G1 X106.696 Y122.258 E4.26365
G1 X106.291 Y122.695 F9000
;TYPE:External perimeter
;WIDTH:0.428
G1 F1500
G1 X104.938 Y110.498 E4.86791
G1 X124.709 Y108.305 E5.84738
G1 X126.062 Y120.502 E6.45164
G1 X121.438 Y121.015 E6.6807
G1 X120.598 Y113.441 E7.05591
G1 X110.075 Y114.609 E7.57725
G1 X110.915 Y122.182 E7.95245
G1 X106.351 Y122.688 E8.17856
;WIPE_START
G1 X106.452 Y122.329 F9000
;WIPE_END
G92 E0
G1 E-5.95 F3000
;WIPE_START
G1 F7200
G1 X105.777 Y116.246 E-8.3725
;WIPE_END
G1 E-8.5 F3000
; acceleration to travel
M204 S1500
G1 X109.749 Y120.428 F9000
; decel to extrusion
M204 S500
G1 X110.263 Y120.969
; end travel
G1 E0 F3000
;TYPE:Solid infill
;WIDTH:0.484453
G1 F2400
G1 X109.6 Y121.631 E0.05322
G1 X108.941 Y121.704 E0.09088
G1 X110.043 Y120.603 E0.17937
G1 X109.984 Y120.076 E0.20951
G1 X108.282 Y121.777 E0.34623
G1 X107.624 Y121.85 E0.38389
G1 X109.926 Y119.548 E0.56885
G1 X109.867 Y119.021 E0.59899
G1 X106.965 Y121.924 E0.83217
G1 X106.903 Y121.93 E0.8357
G1 X106.85 Y121.452 E0.86301
G1 X109.809 Y118.494 E1.10072
G1 X109.75 Y117.966 E1.13085
G1 X106.792 Y120.925 E1.36856
G1 X106.733 Y120.398 E1.39869
G1 X109.692 Y117.439 E1.6364
G1 X109.633 Y116.912 E1.66653
G1 X106.675 Y119.871 E1.90424
G1 X106.616 Y119.343 E1.93437
G1 X109.575 Y116.385 E2.17207
G1 X109.516 Y115.857 E2.20221
G1 X106.558 Y118.816 E2.43991
G1 X106.499 Y118.289 E2.47005
G1 X109.458 Y115.33 E2.70775
G1 X109.399 Y114.803 E2.73789
G1 X106.441 Y117.762 E2.97559
G1 X106.382 Y117.234 E3.00573
G1 X113.355 Y110.261 E3.56595
G1 X114.014 Y110.188 E3.60361
G1 X110.317 Y113.885 E3.90062
G1 X110.976 Y113.812 E3.93828
G1 X114.673 Y110.115 E4.23529
G1 X115.332 Y110.042 E4.27295
G1 X111.635 Y113.739 E4.56996
G1 X112.294 Y113.666 E4.60762
G1 X115.991 Y109.969 E4.90463
G1 X116.65 Y109.896 E4.94229
G1 X112.953 Y113.593 E5.2393
G1 X113.611 Y113.52 E5.27696
G1 X117.308 Y109.823 E5.57397
G1 X117.967 Y109.749 E5.61163
G1 X114.27 Y113.447 E5.90864
G1 X114.929 Y113.373 E5.9463
G1 X118.626 Y109.676 E6.24332
G1 X119.285 Y109.603 E6.28097
G1 X115.588 Y113.3 E6.57799
G1 X116.247 Y113.227 E6.61564
G1 X119.944 Y109.53 E6.91266
G1 X120.603 Y109.457 E6.95031
G1 X116.906 Y113.154 E7.24733
G1 X117.564 Y113.081 E7.28498
G1 X121.261 Y109.384 E7.582
G1 X121.92 Y109.311 E7.61965
G1 X118.223 Y113.008 E7.91667
G1 X118.882 Y112.935 E7.95432
G1 X122.579 Y109.238 E8.25134
G1 X123.238 Y109.165 E8.28899
G1 X119.541 Y112.862 E8.58601
G1 X120.2 Y112.789 E8.62366
G1 X123.897 Y109.092 E8.92068
G1 X124.097 Y109.07 E8.93211
G1 X124.138 Y109.437 E8.9531
G1 X120.859 Y112.716 E9.21653
G1 X121.21 Y112.677 E9.23662
G1 X121.237 Y112.923 E9.25068
G1 X124.196 Y109.964 E9.48838
G1 X124.255 Y110.491 E9.51852
G1 X121.296 Y113.45 E9.75622
G1 X121.354 Y113.977 E9.78636
G1 X124.313 Y111.019 E10.02406
G1 X124.372 Y111.546 E10.0542
G1 X121.413 Y114.505 E10.2919
G1 X121.471 Y115.032 E10.32204
G1 X124.43 Y112.073 E10.55974
G1 X124.489 Y112.6 E10.58988
G1 X121.53 Y115.559 E10.82758
G1 X121.588 Y116.086 E10.85771
G1 X124.547 Y113.128 E11.09542
G1 X124.606 Y113.655 E11.12555
G1 X121.647 Y116.614 E11.36326
G1 X121.705 Y117.141 E11.39339
G1 X124.664 Y114.182 E11.6311
G1 X124.723 Y114.709 E11.66123
G1 X121.764 Y117.668 E11.89894
G1 X121.822 Y118.195 E11.92907
G1 X124.781 Y115.237 E12.16678
G1 X124.839 Y115.764 E12.19691
G1 X121.881 Y118.723 E12.43461
G1 X121.939 Y119.25 E12.46475
G1 X124.898 Y116.291 E12.70245
G1 X124.956 Y116.819 E12.73259
G1 X121.998 Y119.777 E12.97029
G1 X122.05 Y120.25 E12.99733
G1 X122.118 Y120.243 E13.0012
G1 X125.015 Y117.346 E13.23394
G1 X125.073 Y117.873 E13.26408
G1 X122.777 Y120.17 E13.44859
G1 X123.436 Y120.097 E13.48624
G1 X125.132 Y118.4 E13.62252
G1 X125.19 Y118.928 E13.65265
G1 X124.094 Y120.024 E13.7407
G1 X124.753 Y119.95 E13.77835
G1 X125.41 Y119.294 E13.83113
G92 E0
G1 E-5.95 F3000
;WIPE_START
G1 F7200
G1 X124.753 Y119.95 E-6.3177
G1 X124.094 Y120.024 E-6.58009
G1 X125.19 Y118.928 E-7.19357
G1 X125.132 Y118.4 E-7.40356
G1 X123.436 Y120.097 E-8.35311
G1 X123.387 Y120.102 E-8.3725
;WIPE_END
G1 E-8.5 F3000
