; generated by SuperSlicer 2.4 on 2022-11-29 at 15:13:56 UTC

; 

; external perimeters extrusion width = 0.43mm
; perimeters extrusion width = 0.48mm
; infill extrusion width = 0.46mm
; solid infill extrusion width = 0.48mm
; top infill extrusion width = 0.46mm
; first layer extrusion width = 0.58mm

; object:{"name":"D12","id":"D12.stl id:0 copy 0","object_center":[115.500000,115.500000,0.000000],"boundingbox_center":[115.500000,115.500000,14.483802],"boundingbox_size":[34.053464,35.805922,28.967603]}
; Total objects to print: 1
M486 T1
; plater:{"center":[115.500000,115.500000,0.000000],"boundingbox_center":[115.500000,115.500000,14.483802],"boundingbox_size":[34.053464,35.805922,28.967603]}

;TYPE:Custom
G90 ; use absolute coordinates
M83 ; extruder relative mode
M140 S60 ; set final bed temp
M104 S150 ; set temporary nozzle temp to prevent oozing during homing and auto bed leveling
G4 S10 ; allow partial nozzle warmup
G28 ; home all axis
;G29 ; auto bed levelling
G1 Z10 F240
G1 X2 Y10 F3000
G1 Z0 F240
M104 S215 ; set final nozzle temp
M190 S60 ; wait for bed temp to stabilize
M109 S215 ; wait for nozzle temp to stabilize
G1 Z0.32 F240
G92 E0
G1 Y140 E10 F1500 ; prime the nozzle
G1 X2.3 F5000
G92 E0
G1 Y10 E10 F1200 ; prime the nozzle
G92 E0
;start
M107
G21 ; set units to millimeters
G90 ; use absolute coordinates
M82 ; use absolute distances for extrusion
G92 E0
; Filament gcode
;_TOOLCHANGE 0
M107
;LAYER_CHANGE
;Z:0.2
;HEIGHT:0.2
;BEFORE_LAYER_CHANGE
;0.2


G1 E-9 F3600
G1 Z0.15 F9000
;AFTER_LAYER_CHANGE
;0.2
G92 E0
M204 S500
G1 X104.989 Y102.02
G1 E9 F2400
;TYPE:Skirt
;WIDTH:0.48
G1 F1200
G1 X104.103 Y103.469 E9.06172
G1 X99.208 Y118.534 E9.63743
G1 X99.029 Y119.681 E9.67962
G1 X99.431 Y121.331 E9.74134
G1 X100.536 Y122.621 E9.80307
G1 X113.351 Y131.932 E10.37877
G1 X114.387 Y132.457 E10.42096
G1 X116.08 Y132.584 E10.48269
G1 X117.649 Y131.932 E10.54441
G1 X130.464 Y122.621 E11.12012
G1 X131.283 Y121.799 E11.1623
G1 X131.927 Y120.227 E11.22403
G1 X131.792 Y118.534 E11.28575
G1 X126.897 Y103.469 E11.86146
G1 X126.368 Y102.436 E11.90365
G1 X125.072 Y101.337 E11.96537
G1 X123.42 Y100.943 E12.0271
G1 X107.58 Y100.943 E12.6028
G1 X106.434 Y101.127 E12.64499
G1 X105.04 Y101.988 E12.70453
G1 X105.37 Y102.258 F9000
G1 F1200
G1 X104.519 Y103.604 E12.7624
G1 X99.624 Y118.669 E13.3381
G1 X99.471 Y119.48 E13.36807
G1 X99.776 Y121.043 E13.42594
G1 X100.793 Y122.268 E13.4838
G1 X113.608 Y131.579 E14.05951
G1 X114.332 Y131.974 E14.08948
G1 X115.912 Y132.167 E14.14734
G1 X117.392 Y131.579 E14.2052
G1 X130.207 Y122.268 E14.78091
G1 X130.807 Y121.702 E14.81088
G1 X131.479 Y120.258 E14.86874
G1 X131.376 Y118.669 E14.9266
G1 X126.481 Y103.604 E15.50231
G1 X126.128 Y102.859 E15.53228
G1 X124.963 Y101.774 E15.59014
G1 X123.42 Y101.38 E15.648
G1 X107.58 Y101.38 E16.22371
G1 X106.762 Y101.486 E16.25368
G1 X105.422 Y102.229 E16.30936
G92 E0
G1 E-6.3 F3600
;WIPE_START
G1 F7200
G1 X104.519 Y103.604 E-7.08139
G1 X103.358 Y107.175 E-8.865
;WIPE_END
G1 E-9 F3600
; acceleration to travel
M204 S1500
G1 X107.556 Y105.805 F9000
; decel to extrusion
M204 S500
G1 X108.069 Y105.638
; end travel
G1 E0 F2400
;WIDTH:0.576
G1 F1200
G1 X108.417 Y105.385 E0.01903
G1 X108.734 Y105.268 E0.03404
G1 X108.818 Y105.255 E0.03779
G1 X122.182 Y105.255 E0.63016
G1 X122.266 Y105.268 E0.63391
G1 X122.583 Y105.385 E0.64892
G1 X122.931 Y105.638 E0.66796
G1 X122.99 Y105.698 E0.6717
G1 X123.179 Y105.979 E0.68671
G1 X127.308 Y118.689 E1.27908
G1 X127.322 Y118.773 E1.28283
G1 X127.308 Y119.111 E1.29784
G1 X127.176 Y119.519 E1.31688
G1 X127.137 Y119.595 E1.32063
G1 X126.928 Y119.861 E1.33564
G1 X116.116 Y127.716 E1.92801
G1 X115.798 Y127.833 E1.94301
G1 X115.715 Y127.846 E1.94676
G1 X115.285 Y127.846 E1.9658
G1 X115.202 Y127.833 E1.96955
G1 X114.884 Y127.716 E1.98456
G1 X104.072 Y119.861 E2.57693
G1 X103.863 Y119.595 E2.59194
G1 X103.824 Y119.519 E2.59569
G1 X103.692 Y119.111 E2.61472
G1 X103.678 Y119.027 E2.61847
G1 X103.692 Y118.689 E2.63348
G1 X107.821 Y105.979 E3.22585
G1 X108.01 Y105.698 E3.24086
G1 X108.027 Y105.68 E3.24195
G1 X108.419 Y106.048 F9000
G1 F1200
G1 X108.698 Y105.845 E3.25723
G1 X108.86 Y105.792 E3.26478
G1 X122.14 Y105.792 E3.8534
G1 X122.302 Y105.845 E3.86094
G1 X122.581 Y106.048 E3.87623
G1 X122.681 Y106.185 E3.88377
G1 X126.784 Y118.815 E4.4724
G1 X126.784 Y118.985 E4.47994
G1 X126.678 Y119.313 E4.49523
G1 X126.578 Y119.451 E4.50277
G1 X115.834 Y127.256 E5.09139
G1 X115.672 Y127.309 E5.09894
G1 X115.328 Y127.309 E5.11422
G1 X115.166 Y127.256 E5.12177
G1 X104.422 Y119.451 E5.71039
G1 X104.322 Y119.313 E5.71794
G1 X104.216 Y118.985 E5.73322
G1 X104.216 Y118.815 E5.74076
G1 X108.319 Y106.185 E6.32939
G1 X108.384 Y106.096 E6.33427
G1 X108.804 Y106.432 F9000
G1 F1200
G1 X108.945 Y106.33 E6.34201
G1 X122.055 Y106.33 E6.92309
G1 X122.196 Y106.432 E6.93083
G1 X122.35 Y106.907 E6.95295
G1 X126.247 Y118.9 E7.5119
G1 X126.193 Y119.066 E7.51964
G1 X115.587 Y126.772 E8.10072
G1 X115.413 Y126.772 E8.10846
G1 X104.807 Y119.066 E8.68954
G1 X104.753 Y118.9 E8.69728
G1 X108.786 Y106.49 E9.27569
; printing object D12.stl id:0 copy 0
M486 S0
G1 X109.242 Y106.887 F9000
;TYPE:External perimeter
G1 F1200
G1 X121.758 Y106.887 E9.83048
G1 X121.821 Y107.079 E9.83946
G1 X125.626 Y118.79 E10.38527
G1 X115.5 Y126.147 E10.94005
G1 X105.374 Y118.79 E11.49484
G1 X109.223 Y106.944 E12.04697
;WIPE_START
G1 X109.566 Y107.122 F9000
;WIPE_END
G1 X109.632 Y107.424
;TYPE:Internal perimeter
G1 F1200
G1 X121.368 Y107.424 E12.56714
G1 X124.994 Y118.585 E13.08732
G1 X115.5 Y125.483 E13.60749
G1 X106.006 Y118.585 E14.12767
G1 X109.614 Y107.481 E14.64518
G92 E0
G1 E-6.3 F3600
;WIPE_START
G1 F7200
G1 X115.014 Y107.455 E-8.865
;WIPE_END
G1 E-9 F3600
; acceleration to travel
M204 S1500
G1 X119.597 Y107.571 F9000
; decel to extrusion
M204 S500
G1 X120.157 Y107.585
; end travel
G1 E0 F2400
;TYPE:Solid infill
;WIDTH:0.576688
G1 F1200
G1 X121.417 Y108.845 E0.07908
G1 X121.783 Y109.971 E0.13161
G1 X119.628 Y107.816 E0.26685
G1 X118.868 Y107.816 E0.30057
G1 X122.149 Y111.097 E0.50646
G1 X122.514 Y112.222 E0.55899
G1 X118.108 Y107.816 E0.83552
G1 X117.348 Y107.816 E0.86925
G1 X122.88 Y113.348 E1.21644
G1 X123.246 Y114.474 E1.26897
G1 X116.588 Y107.816 E1.68681
G1 X115.828 Y107.816 E1.72054
G1 X123.612 Y115.6 E2.20903
G1 X123.977 Y116.725 E2.26156
G1 X115.068 Y107.816 E2.8207
G1 X114.308 Y107.816 E2.85443
G1 X124.343 Y117.851 E3.48422
G1 X124.533 Y118.435 E3.51147
G1 X124.321 Y118.589 E3.52309
G1 X113.548 Y107.816 E4.1992
G1 X112.788 Y107.816 E4.23293
G1 X123.881 Y118.909 E4.9291
G1 X123.441 Y119.228 E4.95325
G1 X112.028 Y107.816 E5.6695
G1 X111.268 Y107.816 E5.70322
G1 X123.001 Y119.548 E6.43954
G1 X122.56 Y119.868 E6.46368
G1 X110.509 Y107.816 E7.22007
G1 X109.917 Y107.816 E7.24631
G1 X109.876 Y107.944 E7.25225
G1 X122.12 Y120.188 E8.02072
G1 X121.68 Y120.508 E8.04486
G1 X109.69 Y108.517 E8.7974
G1 X109.503 Y109.091 E8.82417
G1 X121.24 Y120.827 E9.56077
G1 X120.8 Y121.147 E9.58492
G1 X109.317 Y109.664 E10.3056
G1 X109.13 Y110.238 E10.33237
G1 X120.36 Y121.467 E11.03712
G1 X119.919 Y121.787 E11.06126
G1 X108.944 Y110.811 E11.75009
G1 X108.758 Y111.385 E11.77685
G1 X119.479 Y122.107 E12.44975
G1 X119.039 Y122.426 E12.47389
G1 X108.571 Y111.959 E13.13086
G1 X108.385 Y112.532 E13.15763
G1 X118.599 Y122.746 E13.79866
G1 X118.159 Y123.066 E13.82281
G1 X108.199 Y113.106 E14.44792
G1 X108.012 Y113.679 E14.47469
G1 X117.719 Y123.386 E15.08387
G1 X117.279 Y123.706 E15.10801
G1 X107.826 Y114.253 E15.70127
G1 X107.64 Y114.827 E15.72803
G1 X116.838 Y124.025 E16.30536
G1 X116.398 Y124.345 E16.32951
G1 X107.453 Y115.4 E16.89091
G1 X107.267 Y115.974 E16.91767
G1 X115.958 Y124.665 E17.46314
G1 X115.518 Y124.985 E17.48729
G1 X107.08 Y116.547 E18.01683
G1 X106.894 Y117.121 E18.04359
G1 X112.834 Y123.061 E18.41637
G1 X110.055 Y121.041 E18.56882
G1 X106.708 Y117.695 E18.77887
G1 X106.521 Y118.268 E18.80564
G1 X108.32 Y120.067 E18.91853
G92 E0
G1 E-6.3 F3600
;WIPE_START
G1 F7200
G1 X106.521 Y118.268 E-7.50829
G1 X106.708 Y117.695 E-7.79477
G1 X108.301 Y119.288 E-8.865
;WIPE_END
G1 E-9 F3600
; acceleration to travel
M204 S1500
G1 X112.564 Y122.754 F9000
; decel to extrusion
M204 S500
G1 X113.084 Y123.178
; end travel
G1 E0 F2400
;TYPE:Gap fill
;WIDTH:0.396182
G1 F1200
G1 X113.147 Y123.231 E0.0024
G1 X113.209 Y123.284 E0.0048
G1 X113.432 Y123.475 E0.01343
;WIDTH:0.316631
G1 X113.656 Y123.666 E0.02012
;WIDTH:0.263794
G1 X113.879 Y123.856 E0.02551
;WIDTH:0.210957
G1 X114.102 Y124.047 E0.02962
;WIDTH:0.15812
G1 X114.326 Y124.238 E0.03243
M106 S84.15
;LAYER_CHANGE
;Z:0.52
;HEIGHT:0.32
;BEFORE_LAYER_CHANGE
;0.52


G92 E0
G1 E-6.3 F3600
;WIPE_START
G1 F7200
G1 X114.102 Y124.047 E-6.43958
;WIPE_END
G1 E-9 F3600
; stop printing object D12.stl id:0 copy 0
M486 S-1
G1 Z0.47 F9000
;AFTER_LAYER_CHANGE
;0.52
G92 E0
; acceleration to travel
M204 S1500
G1 X110.53 Y128.965
; decel to extrusion
M204 S500
G1 X110.093 Y129.565
; end travel
G1 E9 F2400
;TYPE:Skirt
;WIDTH:0.48
G1 F1200
G1 X113.351 Y131.932 E9.22038
G1 X114.387 Y132.457 E9.2839
G1 X116.08 Y132.584 E9.37684
G1 X117.649 Y131.932 E9.46978
G1 X130.464 Y122.621 E10.33664
G1 X131.283 Y121.799 E10.40016
G1 X131.927 Y120.227 E10.4931
G1 X131.792 Y118.534 E10.58604
G1 X126.897 Y103.469 E11.4529
G1 X126.368 Y102.436 E11.51642
G1 X125.072 Y101.337 E11.60936
G1 X123.42 Y100.943 E11.7023
G1 X107.58 Y100.943 E12.56916
G1 X106.434 Y101.127 E12.63268
G1 X104.989 Y102.02 E12.72562
G1 X104.103 Y103.469 E12.81856
G1 X99.208 Y118.534 E13.68542
G1 X99.029 Y119.681 E13.74894
G1 X99.431 Y121.331 E13.84189
G1 X100.536 Y122.621 E13.93483
G1 X110.045 Y129.53 E14.57803
G1 X110.302 Y129.176 F9000
G1 F1200
G1 X113.608 Y131.579 E14.80169
G1 X114.332 Y131.974 E14.84681
G1 X115.912 Y132.167 E14.93394
G1 X117.392 Y131.579 E15.02106
G1 X130.207 Y122.268 E15.88792
G1 X130.807 Y121.702 E15.93305
G1 X131.479 Y120.258 E16.02017
G1 X131.376 Y118.669 E16.1073
G1 X126.481 Y103.604 E16.97416
G1 X126.128 Y102.859 E17.01929
G1 X124.963 Y101.774 E17.10641
G1 X123.42 Y101.38 E17.19354
G1 X107.58 Y101.38 E18.0604
G1 X106.762 Y101.486 E18.10552
G1 X105.37 Y102.258 E18.19265
G1 X104.519 Y103.604 E18.27977
G1 X99.624 Y118.669 E19.14663
G1 X99.471 Y119.48 E19.19176
G1 X99.776 Y121.043 E19.27889
G1 X100.793 Y122.268 E19.36601
G1 X110.253 Y129.141 E20.00593
G92 E0
G1 E-6.3 F3600
;WIPE_START
G1 F7200
G1 X113.608 Y131.579 E-8.26988
G1 X114.332 Y131.974 E-8.66158
G1 X114.757 Y132.026 E-8.865
;WIPE_END
G1 E-9 F3600
; printing object D12.stl id:0 copy 0
M486 S0
; acceleration to travel
M204 S1500
G1 X113.68 Y125.464 F9000
; decel to extrusion
M204 S500
G1 X113.54 Y124.617
; end travel
G1 E0 F2400
;TYPE:Internal perimeter
;WIDTH:0.476
G1 X105.476 Y118.757 E0.54022
G1 X109.305 Y106.973 E1.21169
G1 X121.695 Y106.973 E1.88317
G1 X125.524 Y118.757 E2.55464
G1 X115.5 Y126.04 E3.22611
G1 X113.589 Y124.652 E3.35412
M204 S250
G1 X113.36 Y124.968 F9000
;TYPE:Overhang perimeter
;WIDTH:0.428
G1 F1500
G1 X105.017 Y118.906 E3.8471
G1 X109.021 Y106.583 E4.46655
G1 X121.979 Y106.583 E5.086
G1 X125.983 Y118.906 E5.70546
G1 X115.5 Y126.523 E6.32491
G1 X113.408 Y125.003 E6.44851
G92 E0
G1 E-6.3 F3600
;WIPE_START
G1 F7200
M204 S500
G1 X109.039 Y121.829 E-8.865
;WIPE_END
G1 E-9 F3600
; acceleration to travel
M204 S1500
G1 X120.768 Y121.058 F9000
; decel to extrusion
M204 S500
G1 X122.283 Y120.959
; end travel
G1 E0 F2400
;TYPE:Solid infill
;WIDTH:0.484553
G1 X125.029 Y118.212 E0.21426
G1 X124.886 Y117.77 E0.23991
G1 X120.946 Y121.71 E0.54727
G1 X118.804 Y123.266 E0.69333
G1 X124.742 Y117.328 E1.1566
G1 X124.598 Y116.886 E1.18224
G1 X116.662 Y124.822 E1.80141
G1 X115.5 Y125.667 E1.88064
G1 X115.345 Y125.554 E1.89123
G1 X124.455 Y116.444 E2.60195
G1 X124.311 Y116.002 E2.62759
G1 X115.005 Y125.307 E3.35357
G1 X114.666 Y125.061 E3.37671
G1 X124.168 Y115.559 E4.11795
G1 X124.024 Y115.117 E4.14359
G1 X114.327 Y124.814 E4.9001
G1 X113.988 Y124.568 E4.92323
G1 X123.88 Y114.675 E5.69499
G1 X123.737 Y114.233 E5.72064
G1 X113.648 Y124.321 E6.50766
G1 X113.309 Y124.075 E6.5308
G1 X123.593 Y113.791 E7.33308
G1 X123.449 Y113.349 E7.35873
G1 X112.97 Y123.828 E8.17628
G1 X112.631 Y123.582 E8.19941
G1 X123.306 Y112.907 E9.03222
G1 X123.162 Y112.465 E9.05786
G1 X112.291 Y123.335 E9.90593
G1 X111.952 Y123.089 E9.92906
G1 X123.018 Y112.023 E10.7924
G1 X122.875 Y111.581 E10.81804
G1 X111.613 Y122.842 E11.69663
G1 X111.274 Y122.596 E11.71976
G1 X122.731 Y111.138 E12.61362
G1 X122.587 Y110.696 E12.63926
G1 X110.934 Y122.349 E13.54838
G1 X110.595 Y122.103 E13.57151
G1 X122.444 Y110.254 E14.49588
G1 X122.3 Y109.812 E14.52153
G1 X110.256 Y121.856 E15.46116
G1 X109.916 Y121.61 E15.4843
G1 X122.156 Y109.37 E16.43919
G1 X122.013 Y108.928 E16.46484
G1 X109.577 Y121.363 E17.435
G1 X109.238 Y121.117 E17.45813
G1 X121.869 Y108.486 E18.44355
G1 X121.725 Y108.044 E18.46919
G1 X108.899 Y120.87 E19.46987
G1 X108.559 Y120.624 E19.49301
G1 X121.582 Y107.602 E20.50895
G1 X121.476 Y107.275 E20.52788
G1 X121.323 Y107.275 E20.53634
G1 X108.22 Y120.377 E21.55852
G1 X107.881 Y120.131 E21.58165
G1 X120.737 Y107.275 E22.5846
G1 X120.151 Y107.275 E22.61691
G1 X107.542 Y119.884 E23.60063
G1 X107.202 Y119.638 E23.62377
G1 X119.565 Y107.275 E24.58826
G1 X118.98 Y107.275 E24.62057
G1 X106.863 Y119.391 E25.56583
G1 X106.524 Y119.145 E25.58896
G1 X118.394 Y107.275 E26.51499
G1 X117.808 Y107.275 E26.54731
G1 X106.185 Y118.899 E27.45411
G1 X105.845 Y118.652 E27.47724
G1 X117.222 Y107.275 E28.36481
G1 X116.636 Y107.275 E28.39713
G1 X106.101 Y117.81 E29.21904
G1 X106.383 Y116.943 E29.26937
G1 X116.051 Y107.275 E30.0236
G1 X115.465 Y107.275 E30.05591
G1 X106.665 Y116.075 E30.74244
G1 X106.947 Y115.207 E30.79277
G1 X114.879 Y107.275 E31.41161
G1 X114.293 Y107.275 E31.44393
G1 X107.229 Y114.34 E31.99507
G1 X107.511 Y113.472 E32.0454
G1 X113.708 Y107.275 E32.52886
G1 X113.122 Y107.275 E32.56117
G1 X107.793 Y112.604 E32.97694
G1 X108.075 Y111.737 E33.02727
G1 X112.536 Y107.275 E33.37534
G1 X111.95 Y107.275 E33.40765
G1 X108.356 Y110.869 E33.68803
G1 X108.638 Y110.001 E33.73836
G1 X111.365 Y107.275 E33.95104
G1 X110.779 Y107.275 E33.98336
G1 X108.92 Y109.134 E34.12835
G1 X109.202 Y108.266 E34.17868
G1 X110.193 Y107.275 E34.25598
G1 X109.607 Y107.275 E34.28829
G1 X109.207 Y107.676 E34.31954
G92 E0
G1 E-6.3 F3600
;WIPE_START
G1 F7200
G1 X109.607 Y107.275 E-6.56908
G1 X110.193 Y107.275 E-6.84732
G1 X109.202 Y108.266 E-7.51293
G1 X108.92 Y109.134 E-7.94629
G1 X110.288 Y107.766 E-8.865
;WIPE_END
G1 E-9 F3600
; acceleration to travel
M204 S1500
G1 X122.62 Y118.14 F9000
; decel to extrusion
M204 S500
G1 X124.162 Y119.437
; end travel
G1 E0 F2400
;TYPE:Gap fill
;WIDTH:0.164673
G1 F1800
G1 X124.198 Y119.405 E0.00061
G1 X124.381 Y119.249 E0.00369
;WIDTH:0.211898
G1 X124.564 Y119.093 E0.00828
;WIDTH:0.259124
G1 X124.747 Y118.936 E0.01438
;WIDTH:0.30635
G1 X124.93 Y118.78 E0.02199
;WIDTH:0.338591
G1 X125.114 Y118.624 E0.03064
G1 X125.171 Y118.571 E0.03344
G1 X125.229 Y118.518 E0.03625
M106 S170.85
;LAYER_CHANGE
;Z:0.84
;HEIGHT:0.32
;BEFORE_LAYER_CHANGE
;0.84


G92 E0
G1 E-6.3 F3600
;WIPE_START
G1 F7200
G1 X125.171 Y118.571 E-6.33714
G1 X125.114 Y118.624 E-6.37428
G1 X124.93 Y118.78 E-6.48865
;WIPE_END
G1 E-9 F3600
; stop printing object D12.stl id:0 copy 0
M486 S-1
G1 Z0.79 F9000
;AFTER_LAYER_CHANGE
;0.84
; printing object D12.stl id:0 copy 0
M486 S0
G1 X125.713 Y118.818
G1 E0 F2400
;TYPE:Internal perimeter
;WIDTH:0.476
G1 X115.5 Y126.238 E0.68407
G1 X105.287 Y118.818 E1.36815
G1 X109.188 Y106.813 E2.05222
G1 X121.812 Y106.813 E2.7363
G1 X125.694 Y118.761 E3.41712
M204 S250
G1 X126.171 Y118.967 F9000
;TYPE:Overhang perimeter
;WIDTH:0.428
G1 F1500
G1 X115.5 Y126.72 E4.04768
G1 X104.829 Y118.967 E4.67825
G1 X108.905 Y106.423 E5.30882
G1 X122.095 Y106.423 E5.93938
G1 X126.153 Y118.91 E6.56708
G92 E0
G1 E-6.3 F3600
;WIPE_START
G1 F7200
M204 S500
G1 X121.798 Y122.103 E-8.865
;WIPE_END
G1 E-9 F3600
; acceleration to travel
M204 S1500
G1 X122.089 Y109.778 F9000
; decel to extrusion
M204 S500
G1 X122.127 Y108.186
; end travel
G1 E0 F2400
;TYPE:Solid infill
;WIDTH:0.483769
G1 X121.057 Y107.115 E0.08339
