; generated by SuperSlicer 2.4 on 2022-12-06 at 15:24:42 UTC

; 

; external perimeters extrusion width = 0.43mm
; perimeters extrusion width = 0.48mm
; infill extrusion width = 0.46mm
; solid infill extrusion width = 0.48mm
; top infill extrusion width = 0.46mm
; first layer extrusion width = 0.58mm

; object:{"name":"PART_1","id":"PART_1.stl id:0 copy 0","object_center":[115.500000,115.500000,0.000000],"boundingbox_center":[115.500000,115.500000,10.160000],"boundingbox_size":[14.932209,14.932209,20.320000]}
; Total objects to print: 1
M486 T1
; plater:{"center":[115.500000,115.500000,0.000000],"boundingbox_center":[115.500000,115.500000,10.160000],"boundingbox_size":[14.932209,14.932209,20.320000]}

;TYPE:Custom
G90 ; use absolute coordinates
M83 ; extruder relative mode
M140 S60 ; set final bed temp
M104 S150 ; set temporary nozzle temp to prevent oozing during homing and auto bed leveling
G4 S10 ; allow partial nozzle warmup
G28 ; home all axis
;G29 ; auto bed levelling
G1 Z10 F240
G1 X2 Y10 F3000
G1 Z0 F240
M104 S210 ; set final nozzle temp
M190 S60 ; wait for bed temp to stabilize
M109 S210 ; wait for nozzle temp to stabilize
G1 Z0.28 F240
G92 E0
G1 Y140 E10 F1500 ; prime the nozzle
G1 X2.3 F5000
G92 E0
G1 Y10 E10 F1200 ; prime the nozzle
G92 E0
;start
M107
G21 ; set units to millimeters
G90 ; use absolute coordinates
M82 ; use absolute distances for extrusion
G92 E0
; Filament gcode
;_TOOLCHANGE 0
M107
;LAYER_CHANGE
;Z:0.2
;HEIGHT:0.2
;BEFORE_LAYER_CHANGE
;0.2


G1 E-8.5 F3000
G1 Z0.15 F9000
;AFTER_LAYER_CHANGE
;0.2
G92 E0
M204 S500
G1 X106.14 Y103.544
G1 E8.5 F3000
;TYPE:Skirt
;WIDTH:0.48
G1 F1200
G1 X105.431 Y105.087 E8.56358
G1 X102.214 Y121.271 E9.18123
G1 X102.488 Y123.53 E9.26642
G1 X103.544 Y124.86 E9.33
G1 X105.087 Y125.569 E9.39357
G1 X121.271 Y128.786 E10.01123
G1 X123.53 Y128.512 E10.09642
G1 X124.86 Y127.456 E10.15999
G1 X125.569 Y125.913 E10.22357
G1 X128.786 Y109.729 E10.84122
G1 X128.512 Y107.47 E10.92641
G1 X127.456 Y106.14 E10.98999
G1 X125.913 Y105.431 E11.05356
G1 X119.694 Y104.195 E11.29089
G1 X109.729 Y102.214 E11.67122
G1 X107.47 Y102.488 E11.75641
G1 X106.187 Y103.507 E11.81774
G1 X106.547 Y103.736 F9000
G1 F1200
G1 X105.86 Y105.172 E11.87734
G1 X102.643 Y121.356 E12.49499
G1 X102.805 Y123.162 E12.56286
G1 X103.736 Y124.453 E12.62246
G1 X105.172 Y125.14 E12.68206
G1 X121.356 Y128.357 E13.29972
G1 X123.162 Y128.195 E13.36759
G1 X124.453 Y127.264 E13.42719
G1 X125.14 Y125.828 E13.48679
G1 X128.357 Y109.644 E14.10444
G1 X128.195 Y107.838 E14.17232
G1 X127.264 Y106.547 E14.23191
G1 X125.828 Y105.86 E14.29151
G1 X119.609 Y104.624 E14.52884
G1 X109.644 Y102.643 E14.90917
G1 X107.838 Y102.805 E14.97704
G1 X106.595 Y103.701 E15.03439
G92 E0
G1 E-5.95 F3000
;WIPE_START
G1 F7200
G1 X105.86 Y105.172 E-6.60116
G1 X104.987 Y109.562 E-8.3725
;WIPE_END
G1 E-8.5 F3000
; acceleration to travel
M204 S1500
G1 X109.112 Y107.444 F9000
; decel to extrusion
M204 S500
G1 X109.616 Y107.185
; end travel
G1 E0 F3000
;WIDTH:0.576
G1 F1200
G1 X110.067 Y106.884 E0.02476
G1 X110.165 Y106.843 E0.02959
G1 X110.479 Y106.781 E0.04418
G1 X110.584 Y106.781 E0.04901
G1 X111.583 Y106.979 E0.09548
G1 X113.411 Y107.343 E0.1806
G1 X113.509 Y107.383 E0.18544
G1 X113.775 Y107.561 E0.20003
G1 X113.85 Y107.636 E0.20486
G1 X114.151 Y108.087 E0.22962
G1 X114.192 Y108.184 E0.23445
G1 X114.254 Y108.498 E0.24904
G1 X114.254 Y108.604 E0.25388
G1 X113.968 Y110.043 E0.32088
G1 X119.002 Y111.044 E0.55524
G1 X119.289 Y109.604 E0.62225
G1 X119.329 Y109.507 E0.62708
G1 X119.507 Y109.241 E0.64167
G1 X119.581 Y109.166 E0.64651
G1 X120.032 Y108.865 E0.67126
G1 X120.13 Y108.824 E0.67609
G1 X120.444 Y108.762 E0.69069
G1 X120.549 Y108.762 E0.69552
G1 X123.376 Y109.324 E0.82711
G1 X123.474 Y109.364 E0.83194
G1 X123.74 Y109.542 E0.84654
G1 X123.815 Y109.616 E0.85137
G1 X124.116 Y110.067 E0.87612
G1 X124.157 Y110.165 E0.88096
G1 X124.219 Y110.479 E0.89555
G1 X124.219 Y110.584 E0.90038
G1 X121.676 Y123.376 E1.49583
G1 X121.636 Y123.474 E1.50067
G1 X121.458 Y123.74 E1.51526
G1 X121.384 Y123.815 E1.52009
G1 X120.933 Y124.116 E1.54485
G1 X120.835 Y124.157 E1.54968
G1 X120.521 Y124.219 E1.56427
G1 X120.416 Y124.219 E1.5691
G1 X107.624 Y121.676 E2.16456
G1 X107.526 Y121.636 E2.16939
G1 X107.26 Y121.458 E2.18398
G1 X107.185 Y121.384 E2.18881
G1 X106.884 Y120.933 E2.21357
G1 X106.843 Y120.835 E2.2184
G1 X106.781 Y120.521 E2.23299
G1 X106.781 Y120.416 E2.23783
G1 X109.324 Y107.624 E2.83328
G1 X109.364 Y107.526 E2.83811
G1 X109.542 Y107.26 E2.8527
G1 X109.574 Y107.228 E2.8548
G1 X109.959 Y107.603 F9000
G1 F1200
G1 X110.322 Y107.36 E2.87472
G1 X110.532 Y107.318 E2.88448
G1 X111.478 Y107.506 E2.92853
G1 X113.255 Y107.86 E3.01124
G1 X113.432 Y107.978 E3.021
G1 X113.675 Y108.341 E3.04092
G1 X113.717 Y108.551 E3.05068
G1 X113.336 Y110.465 E3.13981
G1 X119.425 Y111.676 E3.42323
G1 X119.805 Y109.761 E3.51235
G1 X119.924 Y109.583 E3.52211
G1 X120.287 Y109.341 E3.54204
G1 X120.497 Y109.299 E3.5518
G1 X123.22 Y109.84 E3.67855
G1 X123.397 Y109.959 E3.68831
G1 X123.64 Y110.322 E3.70824
G1 X123.682 Y110.532 E3.718
G1 X121.16 Y123.22 E4.30862
G1 X121.041 Y123.397 E4.31838
G1 X120.678 Y123.64 E4.3383
G1 X120.468 Y123.682 E4.34806
G1 X107.78 Y121.16 E4.93868
G1 X107.603 Y121.041 E4.94844
G1 X107.36 Y120.678 E4.96836
G1 X107.318 Y120.468 E4.97812
G1 X109.84 Y107.78 E5.56874
G1 X109.926 Y107.652 E5.57576
G1 X110.347 Y107.99 F9000
G1 F1200
G1 X110.532 Y107.866 E5.58592
G1 X111.373 Y108.033 E5.62509
G1 X113.045 Y108.366 E5.70292
G1 X113.169 Y108.551 E5.71308
G1 X112.704 Y110.888 E5.82186
G1 X119.545 Y112.248 E6.14031
G1 X119.847 Y112.308 E6.15435
G1 X120.312 Y109.971 E6.26313
G1 X120.497 Y109.847 E6.27329
G1 X123.01 Y110.347 E6.39029
G1 X123.134 Y110.532 E6.40045
G1 X120.653 Y123.01 E6.98131
G1 X120.468 Y123.134 E6.99147
G1 X107.99 Y120.653 E7.57233
G1 X107.866 Y120.468 E7.58249
G1 X110.335 Y108.049 E8.16061
; printing object PART_1.stl id:0 copy 0
M486 S0
G1 X110.815 Y108.49 F9000
;TYPE:External perimeter
G1 F1200
G1 X111.265 Y108.58 E8.18155
G1 X112.545 Y108.834 E8.24114
G1 X112.05 Y111.325 E8.35711
G1 X119.437 Y112.794 E8.70098
G1 X120.285 Y112.962 E8.74043
G1 X120.78 Y110.471 E8.8564
G1 X122.51 Y110.815 E8.93693
G1 X120.185 Y122.51 E9.48133
G1 X108.49 Y120.185 E10.02573
G1 X110.803 Y108.549 E10.56738
;WIPE_START
G1 X111.115 Y108.754 F9000
;WIPE_END
G1 X111.237 Y109.122
;TYPE:Internal perimeter
G1 F1200
G1 X111.913 Y109.256 E10.59885
G1 X111.418 Y111.748 E10.71482
G1 X119.332 Y113.321 E11.08322
G1 X120.707 Y113.594 E11.14721
G1 X121.202 Y111.103 E11.26317
G1 X121.878 Y111.237 E11.29464
G1 X119.763 Y121.878 E11.78997
G1 X109.122 Y119.763 E12.2853
G1 X111.225 Y109.181 E12.77789
G92 E0
G1 E-5.95 F3000
;WIPE_START
G1 F7200
G1 X111.913 Y109.256 E-6.22386
G1 X111.418 Y111.748 E-7.22928
G1 X114.251 Y112.311 E-8.3725
;WIPE_END
G1 E-8.5 F3000
; acceleration to travel
M204 S1500
G1 X119.228 Y113.446 F9000
; decel to extrusion
M204 S500
G1 X119.836 Y113.585
; end travel
G1 E0 F3000
;TYPE:Solid infill
;WIDTH:0.586305
G1 F1200
G1 X120.817 Y114.565 E0.06442
G1 X120.691 Y115.199 E0.09446
G1 X119.182 Y113.691 E0.19361
G1 X118.233 Y113.502 E0.23855
G1 X120.565 Y115.833 E0.39176
G1 X120.439 Y116.467 E0.4218
G1 X117.285 Y113.314 E0.62906
G1 X116.336 Y113.125 E0.674
G1 X120.313 Y117.101 E0.93531
G1 X120.187 Y117.735 E0.96535
G1 X115.388 Y112.937 E1.28072
G1 X114.439 Y112.748 E1.32566
G1 X120.061 Y118.369 E1.69508
G1 X119.935 Y119.003 E1.72512
G1 X113.491 Y112.56 E2.1486
G1 X112.543 Y112.371 E2.19354
G1 X119.809 Y119.637 E2.67108
G1 X119.683 Y120.271 E2.70111
G1 X111.594 Y112.183 E3.2327
G1 X111.05 Y112.074 E3.25848
G1 X110.996 Y112.345 E3.27129
G1 X119.557 Y120.905 E3.83387
G1 X119.455 Y121.417 E3.85813
G1 X119.272 Y121.381 E3.86678
G1 X110.87 Y112.979 E4.41897
G1 X110.744 Y113.613 E4.44901
G1 X118.324 Y121.192 E4.94714
G1 X117.375 Y121.004 E4.99208
G1 X110.618 Y114.247 E5.43616
G1 X110.492 Y114.881 E5.46619
G1 X116.427 Y120.815 E5.85622
G1 X115.478 Y120.627 E5.90116
G1 X110.366 Y115.515 E6.23713
G1 X110.24 Y116.148 E6.26717
G1 X114.53 Y120.438 E6.54908
G1 X113.581 Y120.249 E6.59402
G1 X110.114 Y116.782 E6.82188
G1 X109.988 Y117.416 E6.85192
G1 X112.633 Y120.061 E7.02572
G1 X111.684 Y119.872 E7.07066
G1 X109.862 Y118.05 E7.19042
G1 X109.736 Y118.684 E7.22045
G1 X110.736 Y119.684 E7.28615
G1 X109.787 Y119.495 E7.33109
G1 X109.414 Y119.122 E7.35565
G92 E0
G1 E-5.95 F3000
;WIPE_START
G1 F7200
G1 X109.787 Y119.495 E-6.15918
G1 X110.736 Y119.684 E-6.54196
G1 X109.736 Y118.684 E-7.10154
G1 X109.862 Y118.05 E-7.35739
G1 X111.676 Y119.864 E-8.3725
;WIPE_END
G1 E-8.5 F3000
; acceleration to travel
M204 S1500
G1 X111.121 Y112.689 F9000
; decel to extrusion
M204 S500
G1 X111.054 Y111.812
; end travel
G1 E0 F3000
;TYPE:Gap fill
;WIDTH:0.194811
G1 F1200
G1 X111.068 Y111.738 E0.00099
G1 X111.508 Y109.527 E0.03031
G1 X111.523 Y109.453 E0.03129
G92 E0
G1 E-5.95 F3000
;WIPE_START
G1 F7200
G1 X111.508 Y109.527 E-5.98006
G1 X111.068 Y111.738 E-6.87217
G1 X111.054 Y111.812 E-6.90224
;WIPE_END
G1 E-8.5 F3000
; acceleration to travel
M204 S1500
G1 X120.352 Y111.475 F9000
; decel to extrusion
M204 S500
G1 X121.488 Y111.433
; end travel
G1 E0 F3000
;WIDTH:0.218111
G1 F1200
G1 X121.473 Y111.508 E0.00114
G1 X120.993 Y113.925 E0.03811
G1 X120.944 Y113.989 E0.03932
;WIDTH:0.283334
G1 X120.896 Y114.054 E0.04099
G1 X120.892 Y114.126 E0.04246
;WIDTH:0.45445
G1 X120.888 Y114.217 E0.04569
M106 S84.15
;LAYER_CHANGE
;Z:0.52
;HEIGHT:0.32
;BEFORE_LAYER_CHANGE
;0.52


G92 E0
G1 E-5.95 F3000
;WIPE_START
G1 F7200
G1 X120.892 Y114.126 E-5.98623
;WIPE_END
G1 E-8.5 F3000
; stop printing object PART_1.stl id:0 copy 0
M486 S-1
G1 Z0.47 F9000
;AFTER_LAYER_CHANGE
;0.52
G92 E0
; acceleration to travel
M204 S1500
G1 X126.91 Y115.322
; decel to extrusion
M204 S500
G1 X127.645 Y115.468
; end travel
G1 E8.5 F3000
;TYPE:Skirt
;WIDTH:0.48
G1 F1200
G1 X128.786 Y109.729 E8.82977
G1 X128.512 Y107.47 E8.95804
G1 X127.456 Y106.14 E9.05377
G1 X125.913 Y105.431 E9.1495
G1 X119.694 Y104.195 E9.50686
G1 X109.729 Y102.214 E10.07952
G1 X107.47 Y102.488 E10.20779
G1 X106.14 Y103.544 E10.30352
G1 X105.431 Y105.087 E10.39925
G1 X102.214 Y121.271 E11.32927
G1 X102.488 Y123.53 E11.45754
G1 X103.544 Y124.86 E11.55327
G1 X105.087 Y125.569 E11.649
G1 X121.271 Y128.786 E12.57902
G1 X123.53 Y128.512 E12.70729
G1 X124.86 Y127.456 E12.80302
G1 X125.569 Y125.913 E12.89875
G1 X127.633 Y115.527 E13.49562
G1 X127.205 Y115.441 F9000
G1 F1200
G1 X128.357 Y109.644 E13.82877
G1 X128.195 Y107.838 E13.93097
G1 X127.264 Y106.547 E14.02071
G1 X125.828 Y105.86 E14.11045
G1 X119.609 Y104.624 E14.4678
G1 X109.644 Y102.643 E15.04047
G1 X107.838 Y102.805 E15.14267
G1 X106.547 Y103.736 E15.23241
G1 X105.86 Y105.172 E15.32215
G1 X102.643 Y121.356 E16.25217
G1 X102.805 Y123.162 E16.35437
G1 X103.736 Y124.453 E16.44411
G1 X105.172 Y125.14 E16.53385
G1 X121.356 Y128.357 E17.46387
G1 X123.162 Y128.195 E17.56607
G1 X124.453 Y127.264 E17.65581
G1 X125.14 Y125.828 E17.74555
G1 X127.193 Y115.5 E18.33903
G92 E0
G1 E-5.95 F3000
;WIPE_START
G1 F7200
G1 X128.357 Y109.644 E-8.31341
G1 X128.344 Y109.495 E-8.3725
;WIPE_END
G1 E-8.5 F3000
; printing object PART_1.stl id:0 copy 0
M486 S0
; acceleration to travel
M204 S1500
G1 X121.357 Y112.791 F9000
; decel to extrusion
M204 S500
G1 X120.454 Y113.216
; end travel
G1 E0 F3000
;TYPE:Internal perimeter
;WIDTH:0.476
G1 F2400
G1 X120.95 Y110.725 E0.14177
G1 X122.256 Y110.985 E0.2161
G1 X120.015 Y122.256 E0.85753
G1 X108.744 Y120.015 E1.49895
G1 X110.985 Y108.744 E2.14038
G1 X112.291 Y109.004 E2.2147
G1 X111.795 Y111.495 E2.35648
G1 X120.396 Y113.205 E2.8459
G1 X120.148 Y112.757 F9000
;TYPE:External perimeter
;WIDTH:0.428
G1 F1500
G1 X120.643 Y110.266 E2.97097
G1 X122.714 Y110.678 E3.07496
G1 X120.322 Y122.714 E3.67923
G1 X108.286 Y120.322 E4.28349
G1 X110.678 Y108.286 E4.88775
G1 X112.749 Y108.697 E4.99175
G1 X112.254 Y111.189 E5.11681
G1 X120.089 Y112.746 E5.51014
;WIPE_START
G1 X120.54 Y112.835 F9000
;WIPE_END
G1 X120.927 Y111.476
;TYPE:Solid infill
;WIDTH:0.484396
G1 F2400
G1 X121.3 Y111.103 E5.5401
G1 X121.789 Y111.2 E5.56839
G1 X121.008 Y111.98 E5.63107
G1 X120.863 Y112.711 E5.67341
G1 X121.788 Y111.786 E5.74771
G1 X121.643 Y112.517 E5.79005
G1 X113.506 Y120.654 E6.44363
G1 X113.995 Y120.751 E6.47193
G1 X121.497 Y113.249 E7.07459
G1 X121.352 Y113.98 E7.11692
G1 X114.484 Y120.848 E7.66866
G1 X114.972 Y120.945 E7.69695
G1 X121.207 Y114.711 E8.19776
G1 X121.062 Y115.442 E8.2401
G1 X115.461 Y121.042 E8.68998
G1 X115.95 Y121.139 E8.71828
G1 X120.916 Y116.173 E9.11724
G1 X120.771 Y116.904 E9.15958
G1 X116.438 Y121.236 E9.50761
G1 X116.927 Y121.334 E9.53591
G1 X120.626 Y117.635 E9.83302
G1 X120.48 Y118.366 E9.87536
G1 X117.416 Y121.431 E10.12154
G1 X117.904 Y121.528 E10.14984
G1 X120.335 Y119.097 E10.3451
G1 X120.19 Y119.828 E10.38744
G1 X118.393 Y121.625 E10.53178
G1 X118.881 Y121.722 E10.56007
G1 X120.044 Y120.559 E10.65349
G1 X119.899 Y121.29 E10.69583
G1 X119.219 Y121.971 E10.75048
G92 E0
G1 E-5.95 F3000
;WIPE_START
G1 F7200
G1 X119.899 Y121.29 E-6.33088
G1 X120.044 Y120.559 E-6.62592
G1 X118.881 Y121.722 E-7.27689
G1 X118.393 Y121.625 E-7.47409
G1 X119.998 Y120.02 E-8.3725
;WIPE_END
G1 E-8.5 F3000
; acceleration to travel
M204 S1500
G1 X113.682 Y120.629 F9000
; decel to extrusion
M204 S500
G1 X112.866 Y120.708
; end travel
G1 E0 F3000
G1 F2400
G1 X120.117 Y113.457 E0.58244
G1 X119.628 Y113.36 E0.61073
G1 X112.529 Y120.459 E1.181
G1 X112.041 Y120.362 E1.2093
G1 X119.14 Y113.263 E1.77957
G1 X118.651 Y113.166 E1.80787
G1 X111.552 Y120.265 E2.37814
G1 X111.063 Y120.168 E2.40643
G1 X118.162 Y113.069 E2.9767
G1 X117.674 Y112.972 E3.005
G1 X110.575 Y120.071 E3.57527
G1 X110.086 Y119.974 E3.60357
G1 X117.185 Y112.875 E4.17384
G1 X116.697 Y112.778 E4.20213
G1 X109.597 Y119.877 E4.7724
G1 X109.109 Y119.78 E4.8007
G1 X116.208 Y112.68 E5.37097
G1 X115.719 Y112.583 E5.39927
G1 X109.242 Y119.06 E5.91955
G1 X109.388 Y118.329 E5.96189
G1 X115.231 Y112.486 E6.43124
G1 X114.742 Y112.389 E6.45954
G1 X109.533 Y117.598 E6.87798
G1 X109.678 Y116.867 E6.92031
G1 X114.253 Y112.292 E7.28782
G1 X113.765 Y112.195 E7.31612
G1 X109.824 Y116.136 E7.6327
G1 X109.969 Y115.405 E7.67504
G1 X113.276 Y112.098 E7.9407
G1 X112.787 Y112.001 E7.969
G1 X110.114 Y114.674 E8.18374
G1 X110.26 Y113.943 E8.22607
G1 X112.299 Y111.903 E8.38989
G1 X111.81 Y111.806 E8.41818
G1 X110.405 Y113.212 E8.53107
G1 X110.55 Y112.481 E8.57341
G1 X111.475 Y111.556 E8.64771
G1 X111.621 Y110.825 E8.69005
G1 X110.696 Y111.75 E8.76435
G1 X110.841 Y111.018 E8.80669
G1 X111.766 Y110.093 E8.88099
G1 X111.911 Y109.362 E8.92333
G1 X110.986 Y110.287 E8.99764
G1 X111.131 Y109.556 E9.03997
G1 X111.679 Y109.009 E9.08394
M106 S170.85
;LAYER_CHANGE
;Z:0.84
;HEIGHT:0.32
;BEFORE_LAYER_CHANGE
;0.84


G92 E0
G1 E-5.95 F3000
;WIPE_START
G1 F7200
G1 X111.131 Y109.556 E-6.2564
G1 X110.986 Y110.287 E-6.55144
G1 X111.911 Y109.362 E-7.06924
G1 X111.766 Y110.093 E-7.36428
G1 X110.841 Y111.018 E-7.88208
G1 X110.696 Y111.75 E-8.17713
G1 X111.045 Y111.4 E-8.3725
;WIPE_END
G1 E-8.5 F3000
; stop printing object PART_1.stl id:0 copy 0
M486 S-1
G1 Z0.79 F9000
;AFTER_LAYER_CHANGE
;0.84
; printing object PART_1.stl id:0 copy 0
M486 S0
G1 X111.795 Y111.495
G1 E0 F3000
;TYPE:Internal perimeter
;WIDTH:0.476
G1 F1480
G1 X120.454 Y113.216 E0.49277
G1 X120.95 Y110.725 E0.63455
G1 X122.256 Y110.985 E0.70887
G1 X120.015 Y122.256 E1.3503
G1 X108.744 Y120.015 E1.99172
G1 X110.985 Y108.744 E2.63315
G1 X112.291 Y109.004 E2.70747
G1 X111.807 Y111.436 E2.8459
G1 X112.254 Y111.189 F9000
;TYPE:External perimeter
;WIDTH:0.428
G1 F1480
G1 X120.148 Y112.757 E3.24218
G1 X120.643 Y110.266 E3.36725
G1 X122.714 Y110.678 E3.47124
G1 X120.322 Y122.714 E4.0755
G1 X108.286 Y120.322 E4.67977
G1 X110.678 Y108.286 E5.28403
G1 X112.749 Y108.697 E5.38802
G1 X112.266 Y111.13 E5.51014
;WIPE_START
G1 X112.176 Y111.581 F9000
;WIPE_END
G92 E0
G1 E-5.95 F3000
;WIPE_START
G1 F7200
G1 X118.206 Y112.628 E-8.3725
;WIPE_END
G1 E-8.5 F3000
; acceleration to travel
M204 S1500
G1 X112.769 Y109.851 F9000
; decel to extrusion
M204 S500
G1 X112.067 Y109.492
; end travel
