; generated by SuperSlicer 2.4 on 2022-11-29 at 15:10:24 UTC

; 

; external perimeters extrusion width = 0.43mm
; perimeters extrusion width = 0.48mm
; infill extrusion width = 0.46mm
; solid infill extrusion width = 0.48mm
; top infill extrusion width = 0.46mm
; first layer extrusion width = 0.58mm

; object:{"name":"cube","id":"cube.stl id:0 copy 0","object_center":[115.500000,115.500000,0.000000],"boundingbox_center":[115.500000,115.500000,13.459826],"boundingbox_size":[26.919653,26.919655,26.919653]}
; Total objects to print: 1
M486 T1
; plater:{"center":[115.500000,115.500000,0.000000],"boundingbox_center":[115.500000,115.500000,13.459826],"boundingbox_size":[26.919653,26.919655,26.919653]}

;TYPE:Custom
G90 ; use absolute coordinates
M83 ; extruder relative mode
M140 S60 ; set final bed temp
M104 S150 ; set temporary nozzle temp to prevent oozing during homing and auto bed leveling
G4 S10 ; allow partial nozzle warmup
G28 ; home all axis
;G29 ; auto bed levelling
G1 Z10 F240
G1 X2 Y10 F3000
G1 Z0 F240
M104 S215 ; set final nozzle temp
M190 S60 ; wait for bed temp to stabilize
M109 S215 ; wait for nozzle temp to stabilize
G1 Z0.32 F240
G92 E0
G1 Y140 E10 F1500 ; prime the nozzle
G1 X2.3 F5000
G92 E0
G1 Y10 E10 F1200 ; prime the nozzle
G92 E0
;start
M107
G21 ; set units to millimeters
G90 ; use absolute coordinates
M82 ; use absolute distances for extrusion
G92 E0
; Filament gcode
;_TOOLCHANGE 0
M107
;LAYER_CHANGE
;Z:0.2
;HEIGHT:0.2
;BEFORE_LAYER_CHANGE
;0.2


G1 E-9 F3600
G1 Z0.15 F9000
;AFTER_LAYER_CHANGE
;0.2
G92 E0
M204 S500
G1 X98.4 Y97.432
G1 E9 F2400
;TYPE:Skirt
;WIDTH:0.48
G1 F1200
G1 X97.315 Y98.598 E9.05786
G1 X96.922 Y100.14 E9.11573
G1 X96.922 Y130.86 E10.23218
G1 X97.432 Y132.6 E10.29808
G1 X98.598 Y133.685 E10.35594
G1 X100.14 Y134.078 E10.4138
G1 X130.86 Y134.078 E11.53026
G1 X132.6 Y133.568 E11.59615
G1 X133.685 Y132.402 E11.65402
G1 X134.078 Y130.86 E11.71188
G1 X134.078 Y100.14 E12.82833
G1 X133.568 Y98.4 E12.89423
G1 X132.402 Y97.315 E12.95209
G1 X130.86 Y96.922 E13.00995
G1 X100.14 Y96.922 E14.12641
G1 X98.458 Y97.415 E14.19013
G92 E0
G1 E-6.3 F3600
;WIPE_START
G1 F7200
G1 X97.315 Y98.598 E-7.0809
G1 X96.922 Y100.14 E-7.83716
G1 X96.922 Y102.304 E-8.865
;WIPE_END
G1 E-9 F3600
; acceleration to travel
M204 S1500
G1 X100.896 Y101.141 F9000
; decel to extrusion
M204 S500
G1 X101.382 Y100.999
; end travel
G1 E0 F2400
;WIDTH:0.576
G1 F1200
G1 X101.47 Y100.94 E0.00469
G1 X101.765 Y100.817 E0.01886
G1 X101.869 Y100.797 E0.02355
G1 X129.131 Y100.797 E1.23196
G1 X129.235 Y100.817 E1.23665
G1 X129.53 Y100.94 E1.25082
G1 X129.618 Y100.999 E1.25551
G1 X130.001 Y101.382 E1.27954
G1 X130.06 Y101.47 E1.28423
G1 X130.183 Y101.765 E1.2984
G1 X130.203 Y101.869 E1.30309
G1 X130.203 Y129.131 E2.5115
G1 X130.183 Y129.235 E2.51619
G1 X130.06 Y129.53 E2.53036
G1 X130.001 Y129.618 E2.53505
G1 X129.618 Y130.001 E2.55908
G1 X129.53 Y130.06 E2.56378
G1 X129.235 Y130.183 E2.57794
G1 X129.131 Y130.203 E2.58264
G1 X101.869 Y130.203 E3.79104
G1 X101.765 Y130.183 E3.79573
G1 X101.47 Y130.06 E3.8099
G1 X101.382 Y130.001 E3.81459
G1 X100.999 Y129.618 E3.83863
G1 X100.94 Y129.53 E3.84332
G1 X100.817 Y129.235 E3.85749
G1 X100.797 Y129.131 E3.86218
G1 X100.797 Y101.869 E5.07058
G1 X100.817 Y101.765 E5.07527
G1 X100.94 Y101.47 E5.08944
G1 X100.999 Y101.382 E5.09413
G1 X101.339 Y101.041 E5.11551
G1 X101.719 Y101.421 F9000
G1 F1200
G1 X101.922 Y101.334 E5.12528
G1 X129.078 Y101.334 E6.32899
G1 X129.276 Y101.416 E6.33846
G1 X129.584 Y101.724 E6.35781
G1 X129.666 Y101.922 E6.36728
G1 X129.666 Y129.078 E7.57099
G1 X129.584 Y129.276 E7.58047
G1 X129.276 Y129.584 E7.59981
G1 X129.078 Y129.666 E7.60929
G1 X101.922 Y129.666 E8.813
G1 X101.724 Y129.584 E8.82248
G1 X101.416 Y129.276 E8.84182
G1 X101.334 Y129.078 E8.85129
G1 X101.334 Y101.922 E10.05501
G1 X101.416 Y101.724 E10.06448
G1 X101.677 Y101.463 E10.08085
G1 X102.029 Y101.871 F9000
G1 F1200
G1 X128.971 Y101.871 E11.27509
G1 X129.129 Y102.029 E11.28495
G1 X129.129 Y128.971 E12.47919
G1 X128.971 Y129.129 E12.48906
G1 X102.029 Y129.129 E13.68329
G1 X101.871 Y128.971 E13.69316
G1 X101.871 Y102.029 E14.88739
G1 X101.986 Y101.914 E14.8946
; printing object cube.stl id:0 copy 0
M486 S0
G1 X102.428 Y102.428 F9000
;TYPE:External perimeter
G1 F1200
G1 X128.572 Y102.428 E16.05344
G1 X128.572 Y128.572 E17.21228
G1 X102.428 Y128.572 E18.37111
G1 X102.428 Y102.488 E19.52729
;WIPE_START
G1 X102.775 Y102.628 F9000
;WIPE_END
G1 X102.966 Y102.966
;TYPE:Internal perimeter
G1 F1200
G1 X128.034 Y102.966 E20.63849
G1 X128.034 Y128.034 E21.74969
G1 X102.966 Y128.034 E22.86089
G1 X102.966 Y103.026 E23.96942
G92 E0
G1 E-6.3 F3600
;WIPE_START
G1 F7200
G1 X108.366 Y103.013 E-8.865
;WIPE_END
G1 E-9 F3600
; acceleration to travel
M204 S1500
G1 X124.781 Y103.114 F9000
; decel to extrusion
M204 S500
G1 X126.787 Y103.127
; end travel
G1 E0 F2400
;TYPE:Solid infill
;WIDTH:0.577352
G1 F1200
G1 X127.642 Y103.982 E0.05373
G1 X127.642 Y104.742 E0.0875
G1 X126.258 Y103.358 E0.17447
G1 X125.498 Y103.358 E0.20823
G1 X127.642 Y105.502 E0.34295
G1 X127.642 Y106.262 E0.37671
G1 X124.738 Y103.358 E0.55918
G1 X123.978 Y103.358 E0.59295
G1 X127.642 Y107.022 E0.82316
G1 X127.642 Y107.782 E0.85693
G1 X123.218 Y103.358 E1.1349
G1 X122.458 Y103.358 E1.16866
G1 X127.642 Y108.542 E1.49438
G1 X127.642 Y109.302 E1.52815
G1 X121.698 Y103.358 E1.90162
G1 X120.938 Y103.358 E1.93538
G1 X127.642 Y110.062 E2.3566
G1 X127.642 Y110.822 E2.39037
G1 X120.178 Y103.358 E2.85934
G1 X119.418 Y103.358 E2.8931
G1 X127.642 Y111.582 E3.40982
G1 X127.642 Y112.341 E3.44359
G1 X118.659 Y103.358 E4.00806
G1 X117.899 Y103.358 E4.04183
G1 X127.642 Y113.101 E4.65405
G1 X127.642 Y113.861 E4.68781
G1 X117.139 Y103.358 E5.34779
G1 X116.379 Y103.358 E5.38155
G1 X127.642 Y114.621 E6.08928
G1 X127.642 Y115.381 E6.12304
G1 X115.619 Y103.358 E6.87851
G1 X114.859 Y103.358 E6.91228
G1 X127.642 Y116.141 E7.7155
G1 X127.642 Y116.901 E7.74927
G1 X114.099 Y103.358 E8.60024
G1 X113.339 Y103.358 E8.63401
G1 X127.642 Y117.661 E9.53274
G1 X127.642 Y118.421 E9.5665
G1 X112.579 Y103.358 E10.51298
G1 X111.819 Y103.358 E10.54674
G1 X127.642 Y119.181 E11.54097
G1 X127.642 Y119.941 E11.57473
G1 X111.059 Y103.358 E12.61671
G1 X110.299 Y103.358 E12.65048
G1 X127.642 Y120.701 E13.74021
G1 X127.642 Y121.461 E13.77397
G1 X109.539 Y103.358 E14.91145
G1 X108.779 Y103.358 E14.94521
G1 X127.642 Y122.221 E16.13044
G1 X127.642 Y122.981 E16.16421
G1 X108.019 Y103.358 E17.39719
G1 X107.259 Y103.358 E17.43095
G1 X127.642 Y123.741 E18.71168
G1 X127.642 Y124.501 E18.74545
G1 X106.499 Y103.358 E20.07393
G1 X105.739 Y103.358 E20.10769
G1 X127.642 Y125.261 E21.48393
G1 X127.642 Y126.021 E21.51769
G1 X104.979 Y103.358 E22.94167
G1 X104.219 Y103.358 E22.97544
G1 X127.642 Y126.781 E24.44717
G1 X127.642 Y127.541 E24.48094
G1 X103.459 Y103.358 E26.00042
G1 X103.358 Y103.358 E26.00493
G1 X103.358 Y104.016 E26.03418
G1 X126.984 Y127.642 E27.51868
G1 X126.224 Y127.642 E27.55245
G1 X103.358 Y104.776 E28.9892
G1 X103.358 Y105.536 E29.02296
G1 X125.464 Y127.642 E30.41196
G1 X124.704 Y127.642 E30.44572
G1 X103.358 Y106.296 E31.78697
G1 X103.358 Y107.056 E31.82073
G1 X123.944 Y127.642 E33.11423
G1 X123.184 Y127.642 E33.148
G1 X103.358 Y107.816 E34.39374
G1 X103.358 Y108.576 E34.42751
G1 X122.424 Y127.642 E35.6255
G1 X121.664 Y127.642 E35.65927
G1 X103.358 Y109.336 E36.80951
G1 X103.358 Y110.096 E36.84328
G1 X120.904 Y127.642 E37.94577
G1 X120.144 Y127.642 E37.97953
G1 X103.358 Y110.856 E39.03428
G1 X103.358 Y111.616 E39.06804
G1 X119.384 Y127.642 E40.07504
G1 X118.624 Y127.642 E40.1088
G1 X103.358 Y112.376 E41.06804
G1 X103.358 Y113.136 E41.10181
G1 X117.864 Y127.642 E42.0133
G1 X117.104 Y127.642 E42.04706
G1 X103.358 Y113.896 E42.91081
G1 X103.358 Y114.656 E42.94457
G1 X116.344 Y127.642 E43.76056
G1 X115.584 Y127.642 E43.79433
G1 X103.358 Y115.416 E44.56257
G1 X103.358 Y116.175 E44.59633
G1 X114.825 Y127.642 E45.31682
G1 X114.065 Y127.642 E45.35058
G1 X103.358 Y116.935 E46.02332
G1 X103.358 Y117.695 E46.05709
G1 X113.305 Y127.642 E46.68208
G1 X112.545 Y127.642 E46.71584
G1 X103.358 Y118.455 E47.29308
G1 X103.358 Y119.215 E47.32684
G1 X111.785 Y127.642 E47.85633
G1 X111.025 Y127.642 E47.8901
G1 X103.358 Y119.975 E48.37183
G1 X103.358 Y120.735 E48.4056
G1 X110.265 Y127.642 E48.83958
G1 X109.505 Y127.642 E48.87335
G1 X103.358 Y121.495 E49.25958
G1 X103.358 Y122.255 E49.29335
G1 X108.745 Y127.642 E49.63183
G1 X107.985 Y127.642 E49.6656
G1 X103.358 Y123.015 E49.95633
G1 X103.358 Y123.775 E49.9901
G1 X107.225 Y127.642 E50.23308
G1 X106.465 Y127.642 E50.26685
G1 X103.358 Y124.535 E50.46208
G1 X103.358 Y125.295 E50.49584
G1 X105.705 Y127.642 E50.64333
G1 X104.945 Y127.642 E50.67709
G1 X103.358 Y126.055 E50.77682
G1 X103.358 Y126.815 E50.81059
G1 X104.185 Y127.642 E50.86257
G1 X103.425 Y127.642 E50.89634
G1 X103.127 Y127.344 E50.91509
M106 S84.15
;LAYER_CHANGE
;Z:0.52
;HEIGHT:0.32
;BEFORE_LAYER_CHANGE
;0.52


G92 E0
G1 E-6.3 F3600
;WIPE_START
G1 F7200
G1 X103.425 Y127.642 E-6.50046
G1 X104.185 Y127.642 E-6.86144
G1 X103.358 Y126.815 E-7.41717
G1 X103.358 Y126.055 E-7.77815
G1 X104.945 Y127.642 E-8.84439
G1 X104.988 Y127.642 E-8.865
;WIPE_END
G1 E-9 F3600
; stop printing object cube.stl id:0 copy 0
M486 S-1
G1 Z0.47 F9000
;AFTER_LAYER_CHANGE
;0.52
G92 E0
; acceleration to travel
M204 S1500
G1 X104.988 Y133.378
; decel to extrusion
M204 S500
G1 X104.988 Y134.078
; end travel
G1 E9 F2400
;TYPE:Skirt
;WIDTH:0.48
G1 F1200
G1 X130.86 Y134.078 E10.41577
G1 X132.6 Y133.568 E10.51499
G1 X133.685 Y132.402 E10.60211
G1 X134.078 Y130.86 E10.68924
G1 X134.078 Y100.14 E12.37032
G1 X133.568 Y98.4 E12.46954
G1 X132.402 Y97.315 E12.55667
G1 X130.86 Y96.922 E12.64379
G1 X100.14 Y96.922 E14.32487
G1 X98.4 Y97.432 E14.42409
G1 X97.315 Y98.598 E14.51122
G1 X96.922 Y100.14 E14.59834
G1 X96.922 Y130.86 E16.27942
G1 X97.432 Y132.6 E16.37864
G1 X98.598 Y133.685 E16.46577
G1 X100.14 Y134.078 E16.5529
G1 X104.928 Y134.078 E16.81493
G92 E0
G1 E-6.3 F3600
;WIPE_START
G1 F7200
G1 X110.328 Y134.078 E-8.865
;WIPE_END
G1 E-9 F3600
; printing object cube.stl id:0 copy 0
M486 S0
; acceleration to travel
M204 S1500
G1 X103.523 Y129.01 F9000
; decel to extrusion
M204 S500
G1 X102.644 Y128.356
; end travel
G1 E0 F2400
;TYPE:Internal perimeter
;WIDTH:0.476
G1 X102.644 Y102.644 E1.39332
G1 X128.356 Y102.644 E2.78664
G1 X128.356 Y128.356 E4.17996
G1 X102.704 Y128.356 E5.57003
G1 X102.254 Y128.746 F9000
;TYPE:External perimeter
;WIDTH:0.428
G1 F1500
G1 X102.254 Y102.254 E6.83647
G1 X128.746 Y102.254 E8.1029
G1 X128.746 Y128.746 E9.36934
G1 X102.314 Y128.746 E10.63291
;WIPE_START
G1 X102.454 Y128.399 F9000
;WIPE_END
G92 E0
G1 E-6.3 F3600
;WIPE_START
G1 F7200
G1 X102.454 Y122.999 E-8.865
;WIPE_END
G1 E-9 F3600
; acceleration to travel
M204 S1500
G1 X124.541 Y127.633 F9000
; decel to extrusion
M204 S500
G1 X127.394 Y128.231
; end travel
G1 E0 F2400
;TYPE:Solid infill
;WIDTH:0.483908
G1 X128.053 Y127.572 E0.05136
G1 X128.053 Y126.986 E0.08363
G1 X126.986 Y128.053 E0.16675
G1 X126.401 Y128.053 E0.19902
G1 X128.053 Y126.401 E0.32777
G1 X128.053 Y125.815 E0.36004
G1 X125.815 Y128.053 E0.53444
G1 X125.229 Y128.053 E0.56671
G1 X128.053 Y125.229 E0.78674
G1 X128.053 Y124.643 E0.81901
G1 X124.643 Y128.053 E1.08467
G1 X124.058 Y128.053 E1.11694
G1 X128.053 Y124.058 E1.42825
G1 X128.053 Y123.472 E1.46052
G1 X123.472 Y128.053 E1.81746
G1 X122.886 Y128.053 E1.84973
G1 X128.053 Y122.886 E2.25231
G1 X128.053 Y122.3 E2.28458
G1 X122.3 Y128.053 E2.73279
G1 X121.715 Y128.053 E2.76506
G1 X128.053 Y121.715 E3.25892
G1 X128.053 Y121.129 E3.29119
G1 X121.129 Y128.053 E3.83068
G1 X120.543 Y128.053 E3.86295
G1 X128.053 Y120.543 E4.44807
G1 X128.053 Y119.957 E4.48034
G1 X119.957 Y128.053 E5.11111
G1 X119.372 Y128.053 E5.14338
G1 X128.053 Y119.372 E5.81978
G1 X128.053 Y118.786 E5.85205
G1 X118.786 Y128.053 E6.57409
G1 X118.2 Y128.053 E6.60636
G1 X128.053 Y118.2 E7.37403
G1 X128.053 Y117.614 E7.4063
G1 X117.614 Y128.053 E8.21961
G1 X117.029 Y128.053 E8.25188
G1 X128.053 Y117.029 E9.11083
G1 X128.053 Y116.443 E9.1431
G1 X116.443 Y128.053 E10.04769
G1 X115.857 Y128.053 E10.07996
G1 X128.053 Y115.857 E11.03018
G1 X128.053 Y115.271 E11.06245
G1 X115.271 Y128.053 E12.05831
G1 X114.686 Y128.053 E12.09058
G1 X128.053 Y114.686 E13.13208
G1 X128.053 Y114.1 E13.16435
G1 X114.1 Y128.053 E14.25148
G1 X113.514 Y128.053 E14.28375
G1 X128.053 Y113.514 E15.41653
G1 X128.053 Y112.928 E15.4488
G1 X112.928 Y128.053 E16.6272
G1 X112.342 Y128.053 E16.65947
G1 X128.053 Y112.342 E17.88352
G1 X128.053 Y111.757 E17.91579
G1 X111.757 Y128.053 E19.18547
G1 X111.171 Y128.053 E19.21774
G1 X128.053 Y111.171 E20.53306
G1 X128.053 Y110.585 E20.56533
G1 X110.585 Y128.053 E21.92629
G1 X109.999 Y128.053 E21.95856
G1 X128.053 Y109.999 E23.36515
G1 X128.053 Y109.414 E23.39742
G1 X109.414 Y128.053 E24.84965
G1 X108.828 Y128.053 E24.88192
G1 X128.053 Y108.828 E26.37979
G1 X128.053 Y108.242 E26.41206
G1 X108.242 Y128.053 E27.95557
G1 X107.656 Y128.053 E27.98784
G1 X128.053 Y107.656 E29.57698
G1 X128.053 Y107.071 E29.60925
G1 X107.071 Y128.053 E31.24403
G1 X106.485 Y128.053 E31.2763
G1 X128.053 Y106.485 E32.95672
G1 X128.053 Y105.899 E32.98899
G1 X105.899 Y128.053 E34.71504
G1 X105.313 Y128.053 E34.74731
G1 X128.053 Y105.313 E36.519
G1 X128.053 Y104.728 E36.55127
G1 X104.728 Y128.053 E38.3686
G1 X104.142 Y128.053 E38.40087
G1 X128.053 Y104.142 E40.26383
G1 X128.053 Y103.556 E40.2961
G1 X103.556 Y128.053 E42.2047
G1 X102.97 Y128.053 E42.23697
G1 X128.053 Y102.97 E44.19121
G1 X128.053 Y102.947 E44.19251
G1 X127.491 Y102.947 E44.22348
G1 X102.947 Y127.491 E46.13576
G1 X102.947 Y126.905 E46.16803
G1 X126.905 Y102.947 E48.03468
G1 X126.32 Y102.947 E48.06695
G1 X102.947 Y126.32 E49.88795
G1 X102.947 Y125.734 E49.92022
G1 X125.734 Y102.947 E51.69559
G1 X125.148 Y102.947 E51.72786
G1 X102.947 Y125.148 E53.4576
G1 X102.947 Y124.562 E53.48987
G1 X124.562 Y102.947 E55.17396
G1 X123.977 Y102.947 E55.20623
G1 X102.947 Y123.977 E56.84469
G1 X102.947 Y123.391 E56.87696
G1 X123.391 Y102.947 E58.46978
G1 X122.805 Y102.947 E58.50205
G1 X102.947 Y122.805 E60.04923
G1 X102.947 Y122.219 E60.08151
G1 X122.219 Y102.947 E61.58305
G1 X121.634 Y102.947 E61.61532
G1 X102.947 Y121.634 E63.07123
G1 X102.947 Y121.048 E63.1035
G1 X121.048 Y102.947 E64.51378
G1 X120.462 Y102.947 E64.54605
G1 X102.947 Y120.462 E65.91068
G1 X102.947 Y119.876 E65.94295
G1 X119.876 Y102.947 E67.26195
G1 X119.291 Y102.947 E67.29422
G1 X102.947 Y119.291 E68.56758
G1 X102.947 Y118.705 E68.59985
G1 X118.705 Y102.947 E69.82758
G1 X118.119 Y102.947 E69.85985
G1 X102.947 Y118.119 E71.04193
G1 X102.947 Y117.533 E71.0742
G1 X117.533 Y102.947 E72.21065
G1 X116.947 Y102.947 E72.24292
G1 X102.947 Y116.947 E73.33374
G1 X102.947 Y116.362 E73.36601
G1 X116.362 Y102.947 E74.41118
G1 X115.776 Y102.947 E74.44345
G1 X102.947 Y115.776 E75.44299
G1 X102.947 Y115.19 E75.47526
G1 X115.19 Y102.947 E76.42917
G1 X114.604 Y102.947 E76.46144
G1 X102.947 Y114.604 E77.3697
G1 X102.947 Y114.019 E77.40197
G1 X114.019 Y102.947 E78.2646
G1 X113.433 Y102.947 E78.29687
G1 X102.947 Y113.433 E79.11386
G1 X102.947 Y112.847 E79.14613
G1 X112.847 Y102.947 E79.91748
G1 X112.261 Y102.947 E79.94976
G1 X102.947 Y112.261 E80.67547
G1 X102.947 Y111.676 E80.70774
G1 X111.676 Y102.947 E81.38782
G1 X111.09 Y102.947 E81.42009
G1 X102.947 Y111.09 E82.05453
G1 X102.947 Y110.504 E82.0868
G1 X110.504 Y102.947 E82.67561
G1 X109.918 Y102.947 E82.70788
G1 X102.947 Y109.918 E83.25105
G1 X102.947 Y109.333 E83.28332
G1 X109.333 Y102.947 E83.78085
G1 X108.747 Y102.947 E83.81312
G1 X102.947 Y108.747 E84.26502
G1 X102.947 Y108.161 E84.29729
G1 X108.161 Y102.947 E84.70354
G1 X107.575 Y102.947 E84.73581
G1 X102.947 Y107.575 E85.09643
G1 X102.947 Y106.99 E85.1287
G1 X106.99 Y102.947 E85.44369
G1 X106.404 Y102.947 E85.47596
G1 X102.947 Y106.404 E85.7453
G1 X102.947 Y105.818 E85.77757
G1 X105.818 Y102.947 E86.00128
G1 X105.232 Y102.947 E86.03355
G1 X102.947 Y105.232 E86.21162
G1 X102.947 Y104.647 E86.24389
G1 X104.647 Y102.947 E86.37633
G1 X104.061 Y102.947 E86.4086
G1 X102.947 Y104.061 E86.4954
G1 X102.947 Y103.475 E86.52767
