; generated by SuperSlicer 2.4 on 2022-11-29 at 15:10:56 UTC

; 

; external perimeters extrusion width = 0.43mm
; perimeters extrusion width = 0.48mm
; infill extrusion width = 0.46mm
; solid infill extrusion width = 0.48mm
; top infill extrusion width = 0.46mm
; first layer extrusion width = 0.58mm

; object:{"name":"Cylinder","id":"Cylinder.stl id:0 copy 0","object_center":[115.500000,115.500000,0.000000],"boundingbox_center":[115.500000,115.500000,18.761383],"boundingbox_size":[25.015174,25.009056,37.522766]}
; Total objects to print: 1
M486 T1
; plater:{"center":[115.500000,115.500000,0.000000],"boundingbox_center":[115.500000,115.500000,18.761383],"boundingbox_size":[25.015174,25.009056,37.522766]}

;TYPE:Custom
G90 ; use absolute coordinates
M83 ; extruder relative mode
M140 S60 ; set final bed temp
M104 S150 ; set temporary nozzle temp to prevent oozing during homing and auto bed leveling
G4 S10 ; allow partial nozzle warmup
G28 ; home all axis
;G29 ; auto bed levelling
G1 Z10 F240
G1 X2 Y10 F3000
G1 Z0 F240
M104 S215 ; set final nozzle temp
M190 S60 ; wait for bed temp to stabilize
M109 S215 ; wait for nozzle temp to stabilize
G1 Z0.32 F240
G92 E0
G1 Y140 E10 F1500 ; prime the nozzle
G1 X2.3 F5000
G92 E0
G1 Y10 E10 F1200 ; prime the nozzle
G92 E0
;start
M107
G21 ; set units to millimeters
G90 ; use absolute coordinates
M82 ; use absolute distances for extrusion
G92 E0
; Filament gcode
;_TOOLCHANGE 0
M107
;LAYER_CHANGE
;Z:0.2
;HEIGHT:0.2
;BEFORE_LAYER_CHANGE
;0.2


G1 E-9 F3600
G1 Z0.15 F9000
;AFTER_LAYER_CHANGE
;0.2
G92 E0
M204 S500
G1 X103.639 Y102.462
G1 E9 F2400
;TYPE:Skirt
;WIDTH:0.48
G1 F1200
G1 X101.999 Y104.186 E9.08647
G1 X100.789 Y105.792 E9.15956
G1 X99.989 Y107.13 E9.21623
G1 X99.31 Y108.534 E9.2729
G1 X98.757 Y109.992 E9.32957
G1 X98.336 Y111.494 E9.38624
G1 X98.049 Y113.026 E9.44291
G1 X97.886 Y114.862 E9.50991
G1 X97.899 Y116.42 E9.56651
G1 X98.049 Y117.974 E9.62324
G1 X98.336 Y119.506 E9.67992
G1 X98.757 Y121.008 E9.73659
G1 X99.31 Y122.466 E9.79325
G1 X99.855 Y123.618 E9.83958
G1 X100.634 Y124.969 E9.89625
G1 X101.529 Y126.246 E9.95292
G1 X102.533 Y127.438 E10.00959
G1 X103.851 Y128.727 E10.07659
G1 X105.066 Y129.705 E10.13326
G1 X106.362 Y130.572 E10.18993
G1 X107.73 Y131.32 E10.2466
G1 X109.159 Y131.945 E10.30327
G1 X110.637 Y132.441 E10.35994
G1 X112.153 Y132.805 E10.41661
G1 X113.413 Y133.001 E10.46294
G1 X114.968 Y133.117 E10.5196
G1 X116.527 Y133.095 E10.57627
G1 X118.078 Y132.936 E10.63294
G1 X119.885 Y132.571 E10.69995
G1 X121.377 Y132.117 E10.75662
G1 X122.822 Y131.532 E10.81328
G1 X123.962 Y130.961 E10.85961
G1 X125.295 Y130.153 E10.91628
G1 X126.552 Y129.23 E10.97295
G1 X127.722 Y128.199 E11.02962
G1 X128.797 Y127.069 E11.08629
G1 X129.767 Y125.849 E11.14296
G1 X130.626 Y124.548 E11.19963
G1 X131.488 Y122.918 E11.26663
G1 X132.081 Y121.476 E11.3233
G1 X132.545 Y119.987 E11.37997
G1 X132.875 Y118.463 E11.43664
G1 X133.068 Y116.916 E11.49331
G1 X133.125 Y115.642 E11.53963
G1 X133.068 Y114.084 E11.5963
G1 X132.875 Y112.537 E11.65297
G1 X132.545 Y111.013 E11.70964
G1 X131.983 Y109.257 E11.77665
G1 X131.366 Y107.825 E11.83331
G1 X130.626 Y106.452 E11.88998
G1 X129.767 Y105.151 E11.94665
G1 X128.982 Y104.147 E11.99298
G1 X127.926 Y103 E12.04965
G1 X126.772 Y101.951 E12.10632
G1 X125.531 Y101.007 E12.16299
G1 X123.962 Y100.039 E12.22999
G1 X122.562 Y99.351 E12.28666
G1 X121.108 Y98.79 E12.34333
G1 X119.609 Y98.36 E12.4
G1 X118.078 Y98.064 E12.45667
G1 X116.074 Y97.895 E12.52976
G1 X113.696 Y97.967 E12.61623
G1 X112.153 Y98.195 E12.6729
G1 X110.637 Y98.559 E12.72957
G1 X109.159 Y99.055 E12.78623
G1 X107.73 Y99.68 E12.8429
G1 X106.362 Y100.428 E12.89957
G1 X104.838 Y101.465 E12.96658
G1 X103.685 Y102.424 E13.02107
G92 E0
G1 E-6.3 F3600
;WIPE_START
G1 F7200
G1 X101.999 Y104.186 E-7.45848
G1 X100.789 Y105.792 E-8.41374
G1 X100.301 Y106.608 E-8.865
;WIPE_END
G1 E-9 F3600
; acceleration to travel
M204 S1500
G1 X105.657 Y105.416 F9000
; decel to extrusion
M204 S500
G1 X106.311 Y105.27
; end travel
G1 E0 F2400
;WIDTH:0.576
G1 F1200
G1 X107.271 Y104.483 E0.055
G1 X108.277 Y103.799 E0.10894
G1 X109.361 Y103.196 E0.16392
G1 X110.483 Y102.697 E0.21837
G1 X111.623 Y102.307 E0.27177
G1 X112.816 Y102.014 E0.32622
G1 X114.018 Y101.829 E0.38012
G1 X115.172 Y101.753 E0.43139
G1 X115.988 Y101.769 E0.46757
G1 X116.436 Y101.781 E0.48744
G1 X117.597 Y101.91 E0.53923
G1 X118.79 Y102.148 E0.59314
G1 X119.957 Y102.491 E0.64706
G1 X121.089 Y102.936 E0.70099
G1 X122.199 Y103.491 E0.75598
G1 X123.235 Y104.131 E0.80992
G1 X124.228 Y104.874 E0.86491
G1 X125.141 Y105.695 E0.91937
G1 X125.97 Y106.586 E0.97328
G1 X126.696 Y107.517 E1.02561
G1 X127.339 Y108.506 E1.07792
G1 X127.916 Y109.59 E1.13234
G1 X128.386 Y110.699 E1.18575
G1 X128.763 Y111.868 E1.24019
G1 X129.036 Y113.079 E1.2952
G1 X129.199 Y114.309 E1.35021
G1 X129.251 Y115.536 E1.40464
G1 X129.197 Y116.715 E1.45695
G1 X129.042 Y117.885 E1.50928
G1 X128.778 Y119.073 E1.56319
G1 X128.407 Y120.244 E1.61764
G1 X127.942 Y121.355 E1.67104
G1 X127.37 Y122.442 E1.72549
G1 X126.71 Y123.464 E1.77943
G1 X125.946 Y124.442 E1.83442
G1 X125.098 Y125.347 E1.88941
G1 X124.19 Y126.157 E1.94335
G1 X123.204 Y126.89 E1.9978
G1 X122.168 Y127.526 E2.0517
G1 X121.112 Y128.054 E2.10401
G1 X120.014 Y128.489 E2.15634
G1 X118.837 Y128.84 E2.21078
G1 X117.622 Y129.086 E2.26577
G1 X116.412 Y129.221 E2.31971
G1 X115.172 Y129.247 E2.37471
G1 X113.958 Y129.164 E2.42863
G1 X112.756 Y128.974 E2.48256
G1 X111.576 Y128.679 E2.53649
G1 X110.438 Y128.285 E2.58988
G1 X109.36 Y127.804 E2.64219
G1 X108.287 Y127.207 E2.6966
G1 X107.281 Y126.524 E2.75053
G1 X106.329 Y125.746 E2.80499
G1 X105.46 Y124.896 E2.85891
G1 X104.668 Y123.971 E2.91285
G1 X103.949 Y122.961 E2.96785
G1 X103.335 Y121.91 E3.02179
G1 X102.811 Y120.799 E3.07622
G1 X102.404 Y119.692 E3.12853
G1 X102.092 Y118.553 E3.18086
G1 X101.875 Y117.356 E3.23477
G1 X101.764 Y116.131 E3.28929
G1 X101.761 Y114.916 E3.34316
G1 X101.87 Y113.68 E3.39815
G1 X102.09 Y112.459 E3.45315
G1 X102.411 Y111.285 E3.50708
G1 X102.839 Y110.134 E3.56153
G1 X103.346 Y109.068 E3.61386
G1 X103.943 Y108.05 E3.66617
G1 X104.646 Y107.058 E3.72006
G1 X105.443 Y106.123 E3.77452
G1 X106.268 Y105.312 E3.8258
G1 X106.644 Y105.696 F9000
G1 F1200
G1 X106.679 Y105.662 E3.82793
G1 X107.602 Y104.907 E3.88079
G1 X108.569 Y104.25 E3.93261
G1 X109.59 Y103.682 E3.98443
G1 X110.669 Y103.202 E4.03677
G1 X111.763 Y102.826 E4.08806
G1 X112.91 Y102.543 E4.1404
G1 X114.065 Y102.365 E4.19221
G1 X115.196 Y102.29 E4.24245
G1 X115.976 Y102.306 E4.27705
G1 X116.388 Y102.316 E4.29531
G1 X117.526 Y102.443 E4.34608
G1 X118.673 Y102.673 E4.39789
G1 X119.794 Y103.004 E4.4497
G1 X120.881 Y103.432 E4.50152
G1 X121.948 Y103.966 E4.55439
G1 X122.942 Y104.581 E4.6062
G1 X123.878 Y105.282 E4.65802
G1 X124.756 Y106.071 E4.71036
G1 X125.553 Y106.926 E4.76217
G1 X126.265 Y107.838 E4.81346
G1 X126.882 Y108.789 E4.8637
G1 X127.436 Y109.831 E4.91604
G1 X127.886 Y110.898 E4.96733
G1 X128.247 Y112.022 E5.01967
G1 X128.509 Y113.185 E5.07253
G1 X128.663 Y114.344 E5.12435
G1 X128.713 Y115.524 E5.17669
G1 X128.663 Y116.656 E5.22693
G1 X128.511 Y117.803 E5.27821
G1 X128.257 Y118.944 E5.33003
G1 X127.898 Y120.069 E5.38237
G1 X127.451 Y121.136 E5.43366
G1 X126.9 Y122.181 E5.486
G1 X126.265 Y123.162 E5.53781
G1 X125.53 Y124.102 E5.59068
G1 X124.731 Y124.954 E5.6425
G1 X123.859 Y125.733 E5.69431
G1 X122.912 Y126.439 E5.74665
G1 X121.916 Y127.051 E5.79847
G1 X120.903 Y127.558 E5.8487
G1 X119.827 Y127.985 E5.89999
G1 X118.696 Y128.321 E5.95233
G1 X117.55 Y128.554 E6.00415
G1 X116.388 Y128.684 E6.05596
G1 X115.196 Y128.71 E6.10883
G1 X114.029 Y128.631 E6.16064
G1 X112.875 Y128.45 E6.21246
G1 X111.74 Y128.167 E6.26427
G1 X110.625 Y127.781 E6.31662
G1 X109.59 Y127.318 E6.36685
G1 X108.579 Y126.756 E6.41814
G1 X107.611 Y126.1 E6.46995
G1 X106.696 Y125.354 E6.52229
G1 X105.86 Y124.537 E6.57411
G1 X105.099 Y123.65 E6.62592
G1 X104.406 Y122.678 E6.67879
G1 X103.815 Y121.67 E6.73061
G1 X103.311 Y120.602 E6.78295
G1 X102.919 Y119.539 E6.83318
G1 X102.614 Y118.423 E6.88447
G1 X102.406 Y117.272 E6.93629
G1 X102.3 Y116.095 E6.98869
G1 X102.299 Y114.927 E7.04044
G1 X102.401 Y113.763 E7.09226
G1 X102.611 Y112.589 E7.14512
G1 X102.919 Y111.461 E7.19694
G1 X103.33 Y110.354 E7.24928
G1 X103.827 Y109.309 E7.30057
G1 X104.4 Y108.332 E7.3508
G1 X105.077 Y107.379 E7.40262
G1 X105.844 Y106.48 E7.45496
G1 X106.601 Y105.738 E7.50199
G1 X106.977 Y106.122 F9000
G1 F1200
G1 X107.05 Y106.051 E7.50651
G1 X107.909 Y105.348 E7.55569
G1 X108.836 Y104.717 E7.6054
G1 X109.815 Y104.17 E7.65511
G1 X110.838 Y103.712 E7.70481
G1 X111.899 Y103.346 E7.75452
G1 X112.987 Y103.075 E7.80423
G1 X114.107 Y102.901 E7.85446
G1 X115.226 Y102.827 E7.90417
G1 X115.965 Y102.843 E7.93694
G1 X116.347 Y102.852 E7.95388
G1 X117.461 Y102.976 E8.00359
G1 X118.549 Y103.196 E8.05277
G1 X119.624 Y103.514 E8.10248
G1 X120.668 Y103.925 E8.15218
G1 X121.67 Y104.427 E8.20189
G1 X122.625 Y105.016 E8.2516
G1 X123.533 Y105.694 E8.30183
G1 X124.368 Y106.442 E8.35154
G1 X125.134 Y107.261 E8.40125
G1 X125.824 Y108.145 E8.45096
G1 X126.428 Y109.076 E8.50014
G1 X126.953 Y110.067 E8.54985
G1 X127.388 Y111.1 E8.59956
G1 X127.734 Y112.18 E8.64979
G1 X127.979 Y113.274 E8.6995
G1 X128.127 Y114.386 E8.7492
G1 X128.176 Y115.506 E8.79891
G1 X128.126 Y116.626 E8.84862
G1 X127.979 Y117.726 E8.8978
G1 X127.734 Y118.82 E8.94751
G1 X127.392 Y119.888 E8.99722
G1 X126.958 Y120.922 E9.04693
G1 X126.434 Y121.914 E9.09663
G1 X125.824 Y122.855 E9.14634
G1 X125.126 Y123.748 E9.19658
G1 X124.359 Y124.566 E9.24628
G1 X123.524 Y125.314 E9.29599
G1 X122.625 Y125.984 E9.3457
G1 X121.67 Y126.573 E9.39541
G1 X120.678 Y127.07 E9.44459
G1 X119.636 Y127.483 E9.4943
G1 X118.56 Y127.801 E9.544
G1 X117.461 Y128.024 E9.59371
G1 X116.347 Y128.148 E9.64342
G1 X115.214 Y128.173 E9.69365
G1 X114.095 Y128.098 E9.74336
G1 X112.987 Y127.925 E9.79307
G1 X111.899 Y127.654 E9.84278
G1 X110.838 Y127.288 E9.89248
G1 X109.826 Y126.835 E9.94166
G1 X108.846 Y126.289 E9.99137
G1 X107.918 Y125.659 E10.04108
G1 X107.05 Y124.949 E10.09079
G1 X106.248 Y124.165 E10.1405
G1 X105.519 Y123.314 E10.1902
G1 X104.867 Y122.401 E10.23991
G1 X104.299 Y121.434 E10.28962
G1 X103.813 Y120.41 E10.33985
G1 X103.425 Y119.358 E10.38956
G1 X103.131 Y118.276 E10.43927
G1 X102.935 Y117.172 E10.48898
G1 X102.836 Y116.065 E10.53823
G1 X102.836 Y114.945 E10.58787
G1 X102.935 Y113.828 E10.63757
G1 X103.134 Y112.713 E10.68781
G1 X103.429 Y111.631 E10.73752
G1 X103.818 Y110.579 E10.78722
G1 X104.299 Y109.566 E10.83693
G1 X104.867 Y108.599 E10.88664
G1 X105.519 Y107.686 E10.93635
G1 X106.24 Y106.843 E10.98553
G1 X106.934 Y106.164 E11.02858
; printing object Cylinder.stl id:0 copy 0
M486 S0
G1 X107.323 Y106.562 F9000
;TYPE:External perimeter
G1 F1200
G1 X107.417 Y106.47 E11.03441
G1 X108.247 Y105.791 E11.08193
G1 X109.133 Y105.188 E11.12946
G1 X110.07 Y104.665 E11.17698
G1 X111.049 Y104.228 E11.2245
G1 X112.062 Y103.879 E11.27203
G1 X113.103 Y103.62 E11.31955
G1 X114.162 Y103.455 E11.36707
G1 X115.232 Y103.384 E11.4146
G1 X115.952 Y103.4 E11.44653
G1 X116.304 Y103.407 E11.46212
G1 X117.369 Y103.526 E11.50965
G1 X118.42 Y103.738 E11.55717
G1 X119.448 Y104.042 E11.60469
G1 X120.446 Y104.436 E11.65222
G1 X121.404 Y104.916 E11.69974
G1 X122.316 Y105.479 E11.74726
G1 X123.175 Y106.121 E11.79479
G1 X123.974 Y106.836 E11.84231
G1 X124.707 Y107.619 E11.88984
G1 X125.367 Y108.464 E11.93736
G1 X125.951 Y109.363 E11.98488
G1 X126.452 Y110.311 E12.03241
G1 X126.868 Y111.299 E12.07993
G1 X127.195 Y112.32 E12.12745
G1 X127.43 Y113.366 E12.17498
G1 X127.572 Y114.429 E12.2225
G1 X127.619 Y115.5 E12.27002
G1 X127.572 Y116.571 E12.31755
G1 X127.43 Y117.634 E12.36507
G1 X127.195 Y118.68 E12.4126
G1 X126.868 Y119.701 E12.46012
G1 X126.452 Y120.689 E12.50764
G1 X125.951 Y121.637 E12.55517
G1 X125.367 Y122.536 E12.60269
G1 X124.707 Y123.381 E12.65021
G1 X123.974 Y124.164 E12.69774
G1 X123.175 Y124.879 E12.74526
G1 X122.316 Y125.521 E12.79279
G1 X121.404 Y126.084 E12.84031
G1 X120.446 Y126.564 E12.88783
G1 X119.448 Y126.958 E12.93536
G1 X118.42 Y127.262 E12.98288
G1 X117.369 Y127.474 E13.0304
G1 X116.304 Y127.593 E13.07793
G1 X115.232 Y127.616 E13.12545
G1 X114.162 Y127.545 E13.17297
G1 X113.103 Y127.38 E13.2205
G1 X112.062 Y127.121 E13.26802
G1 X111.049 Y126.772 E13.31555
G1 X110.07 Y126.335 E13.36307
G1 X109.133 Y125.812 E13.41059
G1 X108.247 Y125.209 E13.45812
G1 X107.417 Y124.53 E13.50564
G1 X106.651 Y123.781 E13.55316
G1 X105.954 Y122.966 E13.60069
G1 X105.331 Y122.093 E13.64821
G1 X104.788 Y121.169 E13.69574
G1 X104.329 Y120.2 E13.74326
G1 X103.957 Y119.194 E13.79078
G1 X103.676 Y118.159 E13.83831
G1 X103.487 Y117.104 E13.88583
G1 X103.393 Y116.035 E13.93342
G1 X103.393 Y114.964 E13.98088
G1 X103.487 Y113.896 E14.0284
G1 X103.676 Y112.841 E14.07593
G1 X103.957 Y111.806 E14.12345
G1 X104.329 Y110.8 E14.17097
G1 X104.788 Y109.831 E14.2185
G1 X105.331 Y108.907 E14.26602
G1 X105.954 Y108.034 E14.31354
G1 X106.651 Y107.219 E14.36107
G1 X107.28 Y106.604 E14.4001
;WIPE_START
G1 X107.708 Y106.67 F9000
;WIPE_END
G1 X107.834 Y106.823
;TYPE:Internal perimeter
G1 F1200
G1 X108.569 Y106.222 E14.44219
G1 X109.416 Y105.645 E14.4876
G1 X110.311 Y105.146 E14.53302
G1 X111.246 Y104.728 E14.57843
G1 X112.215 Y104.394 E14.62385
G1 X113.209 Y104.148 E14.66926
G1 X114.221 Y103.989 E14.71468
G1 X115.244 Y103.922 E14.76009
G1 X115.94 Y103.937 E14.79097
G1 X116.268 Y103.944 E14.80551
G1 X117.286 Y104.057 E14.85092
G1 X118.291 Y104.26 E14.89633
G1 X119.273 Y104.551 E14.94175
G1 X120.226 Y104.927 E14.98716
G1 X121.142 Y105.386 E15.03258
G1 X122.014 Y105.924 E15.07799
G1 X122.835 Y106.537 E15.12341
G1 X123.598 Y107.221 E15.16882
G1 X124.298 Y107.969 E15.21424
G1 X124.929 Y108.776 E15.25965
G1 X125.487 Y109.636 E15.30506
G1 X125.966 Y110.541 E15.35048
G1 X126.363 Y111.486 E15.39589
G1 X126.676 Y112.461 E15.44131
G1 X126.9 Y113.461 E15.48672
G1 X127.036 Y114.476 E15.53214
G1 X127.081 Y115.5 E15.57755
G1 X127.036 Y116.524 E15.62296
G1 X126.9 Y117.539 E15.66838
G1 X126.676 Y118.539 E15.71379
G1 X126.363 Y119.514 E15.75921
G1 X125.966 Y120.459 E15.80462
G1 X125.487 Y121.364 E15.85004
G1 X124.929 Y122.224 E15.89545
G1 X124.298 Y123.031 E15.94087
G1 X123.598 Y123.779 E15.98628
G1 X122.835 Y124.463 E16.03169
G1 X122.014 Y125.076 E16.07711
G1 X121.142 Y125.614 E16.12252
G1 X120.226 Y126.073 E16.16794
G1 X119.273 Y126.449 E16.21335
G1 X118.291 Y126.74 E16.25877
G1 X117.286 Y126.943 E16.30418
G1 X116.268 Y127.056 E16.3496
G1 X115.244 Y127.078 E16.39501
G1 X114.221 Y127.011 E16.44042
G1 X113.209 Y126.852 E16.48584
G1 X112.215 Y126.606 E16.53125
G1 X111.246 Y126.272 E16.57667
G1 X110.311 Y125.854 E16.62208
G1 X109.416 Y125.355 E16.6675
G1 X108.569 Y124.778 E16.71291
G1 X107.776 Y124.129 E16.75833
G1 X107.044 Y123.413 E16.80374
G1 X106.377 Y122.635 E16.84915
G1 X105.782 Y121.8 E16.89457
G1 X105.264 Y120.917 E16.93998
G1 X104.825 Y119.991 E16.9854
G1 X104.47 Y119.03 E17.03081
G1 X104.201 Y118.041 E17.07623
G1 X104.021 Y117.033 E17.12164
G1 X103.93 Y116.011 E17.16712
G1 X103.93 Y114.988 E17.21247
G1 X104.021 Y113.967 E17.25788
G1 X104.201 Y112.959 E17.3033
G1 X104.47 Y111.97 E17.34871
G1 X104.825 Y111.009 E17.39413
G1 X105.264 Y110.083 E17.43954
G1 X105.782 Y109.2 E17.48496
G1 X106.377 Y108.365 E17.53037
G1 X107.044 Y107.587 E17.57579
G1 X107.788 Y106.861 E17.62186
G92 E0
G1 E-6.3 F3600
;WIPE_START
G1 F7200
G1 X108.569 Y106.222 E-6.77951
G1 X109.416 Y105.645 E-7.26617
G1 X110.311 Y105.146 E-7.75284
G1 X111.246 Y104.728 E-8.2395
G1 X112.215 Y104.394 E-8.72618
G1 X112.498 Y104.324 E-8.865
;WIPE_END
G1 E-9 F3600
; acceleration to travel
M204 S1500
G1 X123.658 Y108.682 F9000
; decel to extrusion
M204 S500
G1 X125.021 Y109.214
; end travel
G1 E0 F2400
;TYPE:Solid infill
;WIDTH:0.577727
G1 F1200
G1 X123.181 Y107.374 E0.1157
G1 X122.586 Y106.841 E0.15121
G1 X121.793 Y106.249 E0.19522
G1 X120.951 Y105.729 E0.23923
G1 X120.601 Y105.553 E0.25664
G1 X125.448 Y110.4 E0.56138
G1 X125.611 Y110.709 E0.57692
G1 X125.995 Y111.622 E0.62093
G1 X126.035 Y111.748 E0.62683
G1 X119.251 Y104.963 E1.05341
G1 X119.145 Y104.922 E1.05845
