; generated by SuperSlicer 2.4 on 2022-11-29 at 15:14:22 UTC

; 

; external perimeters extrusion width = 0.43mm
; perimeters extrusion width = 0.48mm
; infill extrusion width = 0.46mm
; solid infill extrusion width = 0.48mm
; top infill extrusion width = 0.46mm
; first layer extrusion width = 0.58mm

; object:{"name":"D20","id":"D20.stl id:0 copy 0","object_center":[115.500000,115.500000,0.000000],"boundingbox_center":[115.500000,115.500000,13.830849],"boundingbox_size":[29.514519,34.018225,27.661698]}
; Total objects to print: 1
M486 T1
; plater:{"center":[115.500000,115.500000,0.000000],"boundingbox_center":[115.500000,115.500000,13.830849],"boundingbox_size":[29.514519,34.018225,27.661698]}

;TYPE:Custom
G90 ; use absolute coordinates
M83 ; extruder relative mode
M140 S60 ; set final bed temp
M104 S150 ; set temporary nozzle temp to prevent oozing during homing and auto bed leveling
G4 S10 ; allow partial nozzle warmup
G28 ; home all axis
;G29 ; auto bed levelling
G1 Z10 F240
G1 X2 Y10 F3000
G1 Z0 F240
M104 S215 ; set final nozzle temp
M190 S60 ; wait for bed temp to stabilize
M109 S215 ; wait for nozzle temp to stabilize
G1 Z0.32 F240
G92 E0
G1 Y140 E10 F1500 ; prime the nozzle
G1 X2.3 F5000
G92 E0
G1 Y10 E10 F1200 ; prime the nozzle
G92 E0
;start
M107
G21 ; set units to millimeters
G90 ; use absolute coordinates
M82 ; use absolute distances for extrusion
G92 E0
; Filament gcode
;_TOOLCHANGE 0
M107
;LAYER_CHANGE
;Z:0.2
;HEIGHT:0.2
;BEFORE_LAYER_CHANGE
;0.2


G1 E-9 F3600
G1 Z0.15 F9000
;AFTER_LAYER_CHANGE
;0.2
G92 E0
M204 S500
G1 X109.21 Y104.696
G1 E9 F2400
;TYPE:Skirt
;WIDTH:0.48
G1 F1200
G1 X101.222 Y118.275 E9.57257
G1 X100.749 Y120.612 E9.65923
G1 X100.959 Y122.182 E9.71679
G1 X101.277 Y123.26 E9.75764
G1 X102.339 Y124.585 E9.81936
G1 X103.589 Y125.557 E9.8769
G1 X105.836 Y126.326 E9.96321
G1 X125.216 Y126.307 E10.66754
G1 X127.456 Y125.537 E10.75363
G1 X128.682 Y124.584 E10.81005
G1 X129.451 Y123.768 E10.85083
G1 X130.061 Y122.182 E10.91255
G1 X130.267 Y120.643 E10.96902
G1 X129.797 Y118.309 E11.05551
G1 X122.358 Y105.62 E11.59009
G1 X121.415 Y104.558 E11.64172
G1 X118.047 Y102 E11.7954
G1 X116.898 Y101.396 E11.84261
G1 X115.816 Y101.138 E11.88302
G1 X114.137 Y101.395 E11.94474
G1 X113.816 Y101.526 E11.95737
G1 X110.531 Y103.385 E12.09453
G1 X109.253 Y104.654 E12.15999
G1 X109.587 Y104.918 F9000
G1 F1200
G1 X101.599 Y118.497 E12.73256
G1 X101.182 Y120.554 E12.80886
G1 X101.392 Y122.124 E12.86642
G1 X101.631 Y122.983 E12.8988
G1 X102.607 Y124.24 E12.95666
G1 X103.857 Y125.212 E13.0142
G1 X105.836 Y125.889 E13.09019
G1 X125.216 Y125.87 E13.79452
G1 X127.188 Y125.192 E13.87031
G1 X128.413 Y124.239 E13.92673
G1 X129.033 Y123.601 E13.95905
G1 X129.628 Y122.125 E14.01692
G1 X129.834 Y120.585 E14.07338
G1 X129.42 Y118.53 E14.14953
G1 X121.981 Y105.841 E14.68411
G1 X121.151 Y104.906 E14.72957
G1 X117.783 Y102.348 E14.88325
G1 X116.732 Y101.801 E14.92631
G1 X115.88 Y101.583 E14.95831
G1 X114.302 Y101.8 E15.01617
G1 X113.98 Y101.931 E15.0288
G1 X110.75 Y103.763 E15.16377
G1 X109.63 Y104.875 E15.22115
G92 E0
G1 E-6.3 F3600
;WIPE_START
G1 F7200
G1 X106.887 Y109.527 E-8.865
;WIPE_END
G1 E-9 F3600
; acceleration to travel
M204 S1500
G1 X111.804 Y107.983 F9000
; decel to extrusion
M204 S500
G1 X112.404 Y107.794
; end travel
G1 E0 F2400
;WIDTH:0.576
G1 F1200
G1 X112.644 Y107.588 E0.014
G1 X113.079 Y107.389 E0.03519
G1 X113.392 Y107.351 E0.04919
G1 X113.992 Y107.431 E0.07601
G1 X118.303 Y108.01 E0.26883
G1 X118.588 Y108.118 E0.28233
G1 X118.844 Y108.288 E0.29596
G1 X119.017 Y108.461 E0.30678
G1 X125.793 Y120.006 E0.90016
G1 X125.914 Y120.457 E0.92087
G1 X125.917 Y120.643 E0.9291
G1 X125.878 Y120.93 E0.94194
G1 X125.794 Y121.177 E0.95351
G1 X125.663 Y121.405 E0.96515
G1 X125.492 Y121.602 E0.97672
G1 X125.262 Y121.781 E0.98964
G1 X125.101 Y121.872 E0.99783
G1 X124.653 Y121.995 E1.01844
G1 X106.407 Y122.013 E1.82721
G1 X106.167 Y121.97 E1.83803
G1 X105.857 Y121.845 E1.85283
G1 X105.528 Y121.602 E1.87095
G1 X105.387 Y121.448 E1.88022
G1 X105.204 Y121.13 E1.89648
G1 X105.142 Y120.93 E1.90575
G1 X105.098 Y120.6 E1.92052
G1 X105.147 Y120.194 E1.93866
G1 X105.232 Y119.964 E1.94953
G1 X112.355 Y107.855 E2.57223
G1 X112.367 Y107.841 E2.57306
G1 X112.798 Y108.162 F9000
G1 F1200
G1 X112.915 Y108.054 E2.5801
G1 X113.203 Y107.914 E2.59432
G1 X113.36 Y107.889 E2.60135
G1 X113.92 Y107.964 E2.62643
G1 X118.202 Y108.539 E2.8179
G1 X118.316 Y108.582 E2.82332
G1 X118.521 Y108.719 E2.83424
G1 X118.605 Y108.808 E2.83967
G1 X125.311 Y120.245 E3.42736
G1 X125.378 Y120.505 E3.43923
G1 X125.381 Y120.594 E3.44318
G1 X125.349 Y120.833 E3.45388
G1 X125.315 Y120.932 E3.45852
G1 X125.21 Y121.114 E3.46785
G1 X125.142 Y121.193 E3.47249
G1 X124.95 Y121.343 E3.48327
G1 X124.872 Y121.385 E3.4872
G1 X124.615 Y121.458 E3.49901
G1 X106.429 Y121.476 E4.30515
G1 X106.341 Y121.461 E4.3091
G1 X106.093 Y121.361 E4.32094
G1 X105.879 Y121.194 E4.33299
G1 X105.81 Y121.115 E4.33764
G1 X105.705 Y120.932 E4.34697
G1 X105.671 Y120.833 E4.35161
G1 X105.636 Y120.566 E4.36357
G1 X105.674 Y120.3 E4.37546
G1 X105.706 Y120.217 E4.37942
G1 X112.768 Y108.213 E4.99672
G1 X113.221 Y108.503 F9000
G1 F1200
G1 X113.367 Y108.432 E5.00391
G1 X113.849 Y108.496 E5.02547
G1 X118.069 Y109.063 E5.21423
G1 X118.173 Y109.132 E5.21973
G1 X124.825 Y120.479 E5.80273
G1 X124.842 Y120.567 E5.80672
G1 X124.823 Y120.71 E5.81311
G1 X124.771 Y120.801 E5.81779
G1 X124.655 Y120.891 E5.82428
G1 X124.57 Y120.92 E5.82825
G1 X106.473 Y120.938 E6.63045
G1 X106.388 Y120.909 E6.63442
G1 X106.25 Y120.802 E6.64218
G1 X106.197 Y120.71 E6.64687
G1 X106.174 Y120.539 E6.65452
G1 X106.192 Y120.451 E6.65851
G1 X113.191 Y108.554 E7.27031
; printing object D20.stl id:0 copy 0
M486 S0
G1 X113.563 Y109.02 F9000
;TYPE:External perimeter
G1 F1200
G1 X113.775 Y109.048 E7.2798
G1 X117.795 Y109.588 E7.45959
G1 X124.112 Y120.364 E8.01326
G1 X106.879 Y120.381 E8.77715
G1 X113.532 Y109.071 E9.35878
;WIPE_START
G1 X113.844 Y109.304 F9000
;WIPE_END
G1 X113.845 Y109.6
;TYPE:Internal perimeter
G1 F1200
G1 X117.464 Y110.086 E9.52062
G1 X123.175 Y119.828 E10.02117
G1 X107.819 Y119.843 E10.70182
G1 X113.814 Y109.652 E11.22594
G92 E0
G1 E-6.3 F3600
;WIPE_START
G1 F7200
G1 X117.464 Y110.086 E-8.0456
G1 X118.336 Y111.574 E-8.865
;WIPE_END
G1 E-9 F3600
; acceleration to travel
M204 S1500
G1 X116.339 Y110.229 F9000
; decel to extrusion
M204 S500
G1 X116.095 Y110.065
; end travel
G1 E0 F2400
;TYPE:Solid infill
;WIDTH:0.576327
G1 F1200
G1 X118.274 Y112.243 E0.13662
G1 X119.35 Y114.08 E0.23105
G1 X115.487 Y110.216 E0.47338
G1 X114.609 Y110.098 E0.51267
G1 X120.427 Y115.917 E0.8776
G1 X121.504 Y117.753 E0.97203
G1 X113.948 Y110.198 E1.44593
G1 X113.667 Y110.676 E1.47056
G1 X122.427 Y119.436 E2.02
G1 X121.668 Y119.437 E2.05367
G1 X113.385 Y111.155 E2.57315
G1 X113.104 Y111.633 E2.59777
G1 X120.908 Y119.438 E3.08729
G1 X120.149 Y119.438 E3.12096
G1 X112.822 Y112.112 E3.58051
G1 X112.541 Y112.59 E3.60513
G1 X119.39 Y119.439 E4.03472
G1 X118.631 Y119.44 E4.0684
G1 X112.259 Y113.068 E4.46802
G1 X111.978 Y113.547 E4.49264
G1 X117.872 Y119.441 E4.86231
G1 X117.112 Y119.441 E4.89598
G1 X111.696 Y114.025 E5.23568
G1 X111.415 Y114.504 E5.2603
G1 X116.353 Y119.442 E5.57004
G1 X115.594 Y119.443 E5.60371
G1 X111.133 Y114.982 E5.88348
G1 X110.852 Y115.461 E5.9081
G1 X114.835 Y119.444 E6.15791
G1 X114.076 Y119.444 E6.19158
G1 X110.571 Y115.939 E6.41143
G1 X110.289 Y116.418 E6.43605
G1 X113.316 Y119.445 E6.62593
G1 X112.557 Y119.446 E6.6596
G1 X110.008 Y116.896 E6.81952
G1 X109.726 Y117.375 E6.84414
G1 X111.798 Y119.447 E6.9741
G1 X111.039 Y119.447 E7.00777
G1 X109.445 Y117.853 E7.10777
G1 X109.163 Y118.332 E7.13239
G1 X110.28 Y119.448 E7.20242
G1 X109.52 Y119.449 E7.23609
G1 X108.882 Y118.81 E7.27615
G1 X108.6 Y119.289 E7.30077
G1 X108.992 Y119.681 E7.32536
G92 E0
G1 E-6.3 F3600
;WIPE_START
G1 F7200
G1 X108.6 Y119.289 E-6.56327
G1 X108.882 Y118.81 E-6.82696
G1 X109.52 Y119.449 E-7.25607
G1 X110.28 Y119.448 E-7.61669
G1 X109.163 Y118.332 E-8.36671
G1 X109.445 Y117.853 E-8.6304
G1 X109.794 Y118.202 E-8.865
;WIPE_END
G1 E-9 F3600
; acceleration to travel
M204 S1500
G1 X116.977 Y112.122 F9000
; decel to extrusion
M204 S500
G1 X117.855 Y111.379
; end travel
G1 E0 F2400
;TYPE:Gap fill
;WIDTH:0.15812
G1 F1200
G1 X117.743 Y111.234 E0.00176
;WIDTH:0.210245
G1 X117.631 Y111.089 E0.00431
;WIDTH:0.262369
G1 X117.518 Y110.944 E0.00765
;WIDTH:0.314493
G1 X117.406 Y110.799 E0.01179
;WIDTH:0.366617
G1 X117.294 Y110.654 E0.01672
;WIDTH:0.418741
G1 X117.182 Y110.509 E0.02245
G1 X117.12 Y110.463 E0.02486
;WIDTH:0.368935
G1 X117.058 Y110.417 E0.02695
;WIDTH:0.319129
G1 X116.996 Y110.372 E0.02872
;WIDTH:0.268285
G1 X116.934 Y110.326 E0.03016
G1 X116.868 Y110.277 E0.0317
M106 S84.15
;LAYER_CHANGE
;Z:0.52
;HEIGHT:0.32
;BEFORE_LAYER_CHANGE
;0.52


G92 E0
G1 E-6.3 F3600
;WIPE_START
G1 F7200
G1 X116.934 Y110.326 E-6.33898
G1 X116.996 Y110.372 E-6.37559
;WIPE_END
G1 E-9 F3600
; stop printing object D20.stl id:0 copy 0
M486 S-1
G1 Z0.47 F9000
;AFTER_LAYER_CHANGE
;0.52
G92 E0
; acceleration to travel
M204 S1500
G1 X122.4 Y107.204
; decel to extrusion
M204 S500
G1 X123.06 Y106.817
; end travel
G1 E9 F2400
;TYPE:Skirt
;WIDTH:0.48
G1 F1200
G1 X122.358 Y105.62 E9.0759
G1 X121.415 Y104.558 E9.15365
G1 X118.047 Y102 E9.38506
G1 X116.898 Y101.396 E9.45613
G1 X115.816 Y101.138 E9.51698
G1 X114.137 Y101.395 E9.60992
G1 X113.816 Y101.526 E9.62894
G1 X110.531 Y103.385 E9.83546
G1 X109.21 Y104.696 E9.9373
G1 X101.222 Y118.275 E10.79944
G1 X100.749 Y120.612 E10.92992
G1 X100.959 Y122.182 E11.0166
G1 X101.277 Y123.26 E11.0781
G1 X102.339 Y124.585 E11.17104
G1 X103.589 Y125.557 E11.25768
G1 X105.836 Y126.326 E11.38764
G1 X125.216 Y126.307 E12.44817
G1 X127.456 Y125.537 E12.57779
G1 X128.682 Y124.584 E12.66274
G1 X129.451 Y123.768 E12.72415
G1 X130.061 Y122.182 E12.81709
G1 X130.267 Y120.643 E12.90211
G1 X129.797 Y118.309 E13.03235
G1 X123.09 Y106.869 E13.75809
G1 X122.713 Y107.09 F9000
G1 F1200
G1 X121.981 Y105.841 E13.83728
G1 X121.151 Y104.906 E13.90572
G1 X117.783 Y102.348 E14.13713
G1 X116.732 Y101.801 E14.20197
G1 X115.88 Y101.583 E14.25014
G1 X114.302 Y101.8 E14.33727
G1 X113.98 Y101.931 E14.35629
G1 X110.75 Y103.763 E14.55952
G1 X109.587 Y104.918 E14.64919
G1 X101.599 Y118.497 E15.51133
G1 X101.182 Y120.554 E15.62621
G1 X101.392 Y122.124 E15.71288
G1 X101.631 Y122.983 E15.76164
G1 X102.607 Y124.24 E15.84876
G1 X103.857 Y125.212 E15.9354
G1 X105.836 Y125.889 E16.04982
G1 X125.216 Y125.87 E17.11035
G1 X127.188 Y125.192 E17.22448
G1 X128.413 Y124.239 E17.30943
G1 X129.033 Y123.601 E17.3581
G1 X129.628 Y122.125 E17.44522
G1 X129.834 Y120.585 E17.53024
G1 X129.42 Y118.53 E17.64491
G1 X122.743 Y107.141 E18.36736
G92 E0
G1 E-6.3 F3600
;WIPE_START
G1 F7200
G1 X121.981 Y105.841 E-7.01583
G1 X121.151 Y104.906 E-7.60997
G1 X119.047 Y103.308 E-8.865
;WIPE_END
G1 E-9 F3600
; printing object D20.stl id:0 copy 0
M486 S0
; acceleration to travel
M204 S1500
G1 X118.168 Y109.137 F9000
; decel to extrusion
M204 S500
G1 X118.055 Y109.89
; end travel
G1 E0 F2400
;TYPE:Internal perimeter
;WIDTH:0.476
G1 X124.242 Y120.443 E0.66291
G1 X106.748 Y120.46 E1.61091
G1 X113.612 Y108.792 E2.34455
G1 X113.626 Y108.768 E2.34605
G1 X113.699 Y108.644 E2.35386
;TYPE:Overhang perimeter
;WIDTH:0.389872
;HEIGHT:0.389872
G1 F1500
M204 S250
G1 X113.728 Y108.596 E2.35662
G1 X115.515 Y105.558 E2.53157
G1 X117.601 Y109.116 E2.73631
G1 X117.634 Y109.172 E2.73953
G1 X117.719 Y109.318 E2.7479
;TYPE:Internal perimeter
;WIDTH:0.476
;HEIGHT:0.32
G1 F2400
M204 S500
G1 X117.736 Y109.346 E2.74966
G1 X118.024 Y109.838 E2.7806
M204 S250
G1 X118.361 Y109.641 F9000
;TYPE:Overhang perimeter
;WIDTH:0.389872
;HEIGHT:0.389872
G1 F1500
G1 X124.589 Y120.265 E3.39182
G1 X124.585 Y120.297 E3.39343
G1 X124.574 Y120.379 E3.39756
G1 X124.543 Y120.612 E3.40921
G1 X124.36 Y120.755 E3.42074
G1 X124.294 Y120.806 E3.42488
G1 X124.259 Y120.833 E3.42709
G1 X106.783 Y120.851 E4.29446
G1 X106.748 Y120.823 E4.29666
G1 X106.682 Y120.772 E4.30079
G1 X106.477 Y120.613 E4.3137
G1 X106.442 Y120.353 E4.32671
G1 X106.431 Y120.271 E4.33083
G1 X106.427 Y120.237 E4.33251
G1 X115.342 Y105.083 E5.20516
G1 X115.516 Y105.012 E5.21449
G1 X115.689 Y105.083 E5.22376
G1 X118.331 Y109.589 E5.48304
G1 X117.205 Y110.062 F9000
;TYPE:Bridge infill
G1 F1500
G1 X117.512 Y109.539 E5.51316
G1 X117.408 Y109.362 E5.52336
G1 X117.255 Y109.101 E5.53839
G1 X116.82 Y109.841 E5.58104
G1 X116.342 Y109.777 E5.60494
G1 X116.998 Y108.662 E5.66915
G1 X116.741 Y108.224 E5.69439
G1 X115.865 Y109.713 E5.78016
G1 X115.594 Y109.677 E5.79372
G1 X115.387 Y109.649 E5.80406
G1 X116.484 Y107.785 E5.91139
G1 X116.227 Y107.347 E5.93663
G1 X114.91 Y109.585 E6.06552
G1 X114.433 Y109.521 E6.08942
G1 X115.97 Y106.908 E6.23988
G1 X115.713 Y106.47 E6.26511
G1 X113.863 Y109.613 E6.44615
M204 S500
G1 X113.941 Y109.665 F9000
;TYPE:Solid infill
;WIDTH:0.486567
;HEIGHT:0.32
G1 F2400
G1 X112.747 Y110.859 E6.53973
G1 X111.91 Y112.282 E6.63116
G1 X114.299 Y109.892 E6.81835
G1 X114.816 Y109.962 E6.84721
G1 X111.073 Y113.705 E7.14042
G1 X110.236 Y115.127 E7.23186
G1 X115.332 Y110.031 E7.6311
G1 X115.543 Y110.059 E7.64286
G1 X115.849 Y110.1 E7.65996
G1 X109.399 Y116.55 E8.16521
G1 X108.562 Y117.973 E8.25665
G1 X116.365 Y110.17 E8.86793
G1 X116.881 Y110.239 E8.89679
G1 X107.725 Y119.396 E9.61409
G1 X107.277 Y120.157 E9.66306
G1 X107.549 Y120.157 E9.67815
G1 X117.398 Y110.309 E10.44968
G1 X117.914 Y110.378 E10.47854
G1 X108.135 Y120.157 E11.2446
G1 X108.722 Y120.156 E11.27708
G1 X118.179 Y110.699 E12.01792
G1 X118.395 Y111.068 E12.04163
G1 X109.308 Y120.155 E12.75351
G1 X109.894 Y120.155 E12.78598
G1 X118.612 Y111.438 E13.46888
G1 X118.828 Y111.807 E13.49259
G1 X110.481 Y120.154 E14.14652
G1 X111.067 Y120.154 E14.179
G1 X119.045 Y112.176 E14.80395
G1 X119.261 Y112.546 E14.82766
G1 X111.654 Y120.153 E15.42363
G1 X112.24 Y120.153 E15.45611
G1 X119.478 Y112.915 E16.02311
G1 X119.694 Y113.284 E16.04682
G1 X112.826 Y120.152 E16.58485
G1 X113.413 Y120.151 E16.61733
G1 X119.911 Y113.653 E17.12638
G1 X120.127 Y114.023 E17.15009
G1 X113.999 Y120.151 E17.63017
G1 X114.585 Y120.15 E17.66265
G1 X120.344 Y114.392 E18.11376
G1 X120.56 Y114.761 E18.13747
G1 X115.172 Y120.15 E18.5596
G1 X115.758 Y120.149 E18.59208
G1 X120.777 Y115.13 E18.98524
G1 X120.993 Y115.5 E19.00895
G1 X116.344 Y120.148 E19.37313
G1 X116.931 Y120.148 E19.40561
G1 X121.21 Y115.869 E19.74082
G1 X121.426 Y116.238 E19.76453
G1 X117.517 Y120.147 E20.07076
G1 X118.103 Y120.147 E20.10324
G1 X121.643 Y116.608 E20.3805
G1 X121.859 Y116.977 E20.40421
G1 X118.69 Y120.146 E20.6525
G1 X119.276 Y120.146 E20.68498
G1 X122.075 Y117.346 E20.90429
G1 X122.292 Y117.715 E20.928
G1 X119.862 Y120.145 E21.11834
G1 X120.449 Y120.144 E21.15082
G1 X122.508 Y118.085 E21.31218
G1 X122.725 Y118.454 E21.33589
G1 X121.035 Y120.144 E21.46828
G1 X121.621 Y120.143 E21.50076
G1 X122.941 Y118.823 E21.60418
G1 X123.158 Y119.192 E21.62789
G1 X122.208 Y120.143 E21.70233
G1 X122.794 Y120.142 E21.73481
G1 X123.374 Y119.562 E21.78028
G1 X123.591 Y119.931 E21.80399
G1 X123.202 Y120.32 E21.83445
M106 S170.85
;LAYER_CHANGE
;Z:0.84
;HEIGHT:0.32
;BEFORE_LAYER_CHANGE
;0.84


G92 E0
G1 E-6.3 F3600
;WIPE_START
G1 F7200
G1 X123.591 Y119.931 E-6.56119
G1 X123.374 Y119.562 E-6.76451
G1 X122.794 Y120.142 E-7.15439
G1 X122.208 Y120.143 E-7.4329
G1 X123.158 Y119.192 E-8.07122
G1 X122.941 Y118.823 E-8.27455
G1 X122.062 Y119.702 E-8.865
;WIPE_END
G1 E-9 F3600
; stop printing object D20.stl id:0 copy 0
M486 S-1
G1 Z0.79 F9000
;AFTER_LAYER_CHANGE
;0.84
G92 E0
; printing object D20.stl id:0 copy 0
M486 S0
; acceleration to travel
M204 S1500
G1 X124.029 Y120.378
; decel to extrusion
M204 S500
G1 X124.283 Y120.466
; end travel
G1 E9 F2400
;TYPE:Internal perimeter
;WIDTH:0.476
G1 F1901
G1 X123.844 Y120.807 E9.03011
G1 X107.195 Y120.823 E9.93233
G1 X106.736 Y120.466 E9.96387
G1 X106.661 Y119.906 E9.99448
G1 X115.161 Y105.458 E10.90289
G1 X115.515 Y105.314 E10.92361
G1 X115.867 Y105.457 E10.94421
G1 X124.354 Y119.934 E11.85359
G1 X124.291 Y120.406 E11.8794
G1 X124.649 Y120.676 F9000
;TYPE:External perimeter
;WIDTH:0.428
