; generated by SuperSlicer 2.4 on 2022-11-29 at 15:12:01 UTC

; 

; external perimeters extrusion width = 0.43mm
; perimeters extrusion width = 0.48mm
; infill extrusion width = 0.46mm
; solid infill extrusion width = 0.48mm
; top infill extrusion width = 0.46mm
; first layer extrusion width = 0.58mm

; object:{"name":"D4","id":"D4.stl id:0 copy 0","object_center":[115.500000,115.500000,0.000000],"boundingbox_center":[115.500000,115.500000,13.535402],"boundingbox_size":[28.712919,33.154827,27.070804]}
; Total objects to print: 1
M486 T1
; plater:{"center":[115.500000,115.500000,0.000000],"boundingbox_center":[115.500000,115.500000,13.535402],"boundingbox_size":[28.712919,33.154827,27.070804]}

;TYPE:Custom
G90 ; use absolute coordinates
M83 ; extruder relative mode
M140 S60 ; set final bed temp
M104 S150 ; set temporary nozzle temp to prevent oozing during homing and auto bed leveling
G4 S10 ; allow partial nozzle warmup
G28 ; home all axis
;G29 ; auto bed levelling
G1 Z10 F240
G1 X2 Y10 F3000
G1 Z0 F240
M104 S215 ; set final nozzle temp
M190 S60 ; wait for bed temp to stabilize
M109 S215 ; wait for nozzle temp to stabilize
G1 Z0.32 F240
G92 E0
G1 Y140 E10 F1500 ; prime the nozzle
G1 X2.3 F5000
G92 E0
G1 Y10 E10 F1200 ; prime the nozzle
G92 E0
;start
M107
G21 ; set units to millimeters
G90 ; use absolute coordinates
M82 ; use absolute distances for extrusion
G92 E0
; Filament gcode
;_TOOLCHANGE 0
M107
;LAYER_CHANGE
;Z:0.2
;HEIGHT:0.2
;BEFORE_LAYER_CHANGE
;0.2


G1 E-9 F3600
G1 Z0.15 F9000
;AFTER_LAYER_CHANGE
;0.2
G92 E0
M204 S500
G1 X95.805 Y112.713
G1 E9 F2400
;TYPE:Skirt
;WIDTH:0.48
G1 F1200
G1 X94.519 Y114.093 E9.06856
G1 X94.199 Y115.653 E9.12642
G1 X94.666 Y117.175 E9.18428
G1 X95.805 Y118.287 E9.24214
G1 X130.112 Y138.094 E10.68185
G1 X131.95 Y138.517 E10.75041
G1 X133.461 Y138.015 E10.80827
G1 X134.546 Y136.85 E10.86614
G1 X134.94 Y135.307 E10.924
G1 X134.94 Y95.693 E12.36371
G1 X134.387 Y93.889 E12.43227
G1 X133.196 Y92.832 E12.49013
G1 X131.645 Y92.475 E12.54799
G1 X130.112 Y92.906 E12.60585
G1 X95.857 Y112.683 E14.04338
G92 E0
G1 E-6.3 F3600
;WIPE_START
G1 F7200
G1 X94.519 Y114.093 E-7.22331
G1 X94.199 Y115.653 E-7.97956
G1 X94.666 Y117.175 E-8.73582
G1 X94.86 Y117.365 E-8.865
;WIPE_END
G1 E-9 F3600
; acceleration to travel
M204 S1500
G1 X99.536 Y115.252 F9000
; decel to extrusion
M204 S500
G1 X100.107 Y114.993
; end travel
G1 E0 F2400
;WIDTH:0.576
G1 F1200
G1 X100.322 Y114.622 E0.01904
G1 X100.422 Y114.521 E0.02531
G1 X129.37 Y97.809 E1.50693
G1 X129.506 Y97.772 E1.5132
G1 X129.936 Y97.772 E1.53224
G1 X130.073 Y97.809 E1.53851
G1 X130.713 Y98.178 E1.5713
G1 X130.813 Y98.279 E1.57757
G1 X131.028 Y98.65 E1.5966
G1 X131.065 Y98.787 E1.60288
G1 X131.065 Y132.213 E3.0845
G1 X131.028 Y132.35 E3.09077
G1 X130.813 Y132.721 E3.1098
G1 X130.713 Y132.822 E3.11608
G1 X130.073 Y133.191 E3.14886
G1 X129.936 Y133.228 E3.15514
G1 X129.506 Y133.228 E3.17417
G1 X129.37 Y133.191 E3.18044
G1 X100.422 Y116.479 E4.66206
G1 X100.322 Y116.378 E4.66834
G1 X100.107 Y116.007 E4.68737
G1 X100.071 Y115.87 E4.69364
G1 X100.071 Y115.13 E4.72643
G1 X100.092 Y115.051 E4.73004
G1 X100.608 Y115.201 F9000
G1 F1200
G1 X100.752 Y114.951 E4.74281
G1 X129.577 Y98.309 E6.21816
G1 X129.865 Y98.309 E6.23092
G1 X130.383 Y98.609 E6.25744
G1 X130.527 Y98.858 E6.2702
G1 X130.527 Y132.142 E7.74555
G1 X130.383 Y132.391 E7.75832
G1 X129.865 Y132.691 E7.78483
G1 X129.577 Y132.691 E7.7976
G1 X100.752 Y116.048 E9.27294
G1 X100.608 Y115.799 E9.28571
G1 X100.608 Y115.261 E9.30957
G1 X101.146 Y115.345 F9000
G1 F1200
G1 X129.721 Y98.847 E10.77215
G1 X129.99 Y99.002 E10.7859
G1 X129.99 Y131.998 E12.24848
G1 X129.721 Y132.153 E12.26224
G1 X101.146 Y115.655 E13.72482
G1 X101.146 Y115.405 E13.73591
; printing object D4.stl id:0 copy 0
M486 S0
G1 X101.99 Y115.5 F9000
;TYPE:External perimeter
G1 F1200
G1 X129.433 Y99.656 E15.14052
G1 X129.433 Y131.344 E16.54513
G1 X102.042 Y115.53 E17.94707
;WIPE_START
G1 X102.384 Y115.431 F9000
;WIPE_END
G1 X103.065 Y115.5
;TYPE:Internal perimeter
G1 F1200
G1 X128.896 Y100.587 E19.26917
G1 X128.896 Y130.413 E20.59126
G1 X103.117 Y115.53 E21.9107
G92 E0
G1 E-6.3 F3600
;WIPE_START
G1 F7200
G1 X107.789 Y112.822 E-8.865
;WIPE_END
G1 E-9 F3600
; acceleration to travel
M204 S1500
G1 X125.852 Y102.515 F9000
; decel to extrusion
M204 S500
G1 X128.058 Y101.256
; end travel
G1 E0 F2400
;TYPE:Solid infill
;WIDTH:0.576321
G1 F1200
G1 X128.503 Y101.701 E0.02792
G1 X128.503 Y102.461 E0.06162
G1 X127.746 Y101.704 E0.10915
G1 X127.264 Y101.982 E0.13382
G1 X128.503 Y103.221 E0.21157
G1 X128.503 Y103.981 E0.24528
G1 X126.782 Y102.26 E0.35324
G1 X126.3 Y102.538 E0.37791
G1 X128.503 Y104.741 E0.5161
G1 X128.503 Y105.501 E0.5498
G1 X125.819 Y102.816 E0.7182
G1 X125.337 Y103.094 E0.74288
G1 X128.503 Y106.261 E0.9415
G1 X128.503 Y107.021 E0.9752
G1 X124.855 Y103.373 E1.20404
G1 X124.373 Y103.651 E1.22872
G1 X128.503 Y107.781 E1.48777
G1 X128.503 Y108.541 E1.52148
G1 X123.891 Y103.929 E1.81076
G1 X123.41 Y104.207 E1.83543
G1 X128.503 Y109.301 E2.15492
G1 X128.503 Y110.061 E2.18863
G1 X122.928 Y104.485 E2.53834
G1 X122.446 Y104.763 E2.56302
G1 X128.503 Y110.821 E2.94295
G1 X128.503 Y111.581 E2.97665
G1 X121.964 Y105.041 E3.3868
G1 X121.482 Y105.32 E3.41148
G1 X128.503 Y112.341 E3.85185
G1 X128.503 Y113.101 E3.88555
G1 X121.001 Y105.598 E4.35614
G1 X120.519 Y105.876 E4.38081
G1 X128.503 Y113.861 E4.88162
G1 X128.503 Y114.621 E4.91533
G1 X120.037 Y106.154 E5.44635
G1 X119.555 Y106.432 E5.47102
G1 X128.503 Y115.381 E6.03227
G1 X128.503 Y116.141 E6.06597
G1 X119.073 Y106.71 E6.65744
G1 X118.592 Y106.989 E6.68211
G1 X128.503 Y116.9 E7.30379
G1 X128.503 Y117.66 E7.33749
G1 X118.11 Y107.267 E7.98939
G1 X117.628 Y107.545 E8.01407
G1 X128.503 Y118.42 E8.69619
G1 X128.503 Y119.18 E8.72989
G1 X117.146 Y107.823 E9.44223
G1 X116.664 Y108.101 E9.4669
G1 X128.503 Y119.94 E10.20946
G1 X128.503 Y120.7 E10.24316
G1 X116.183 Y108.379 E11.01594
G1 X115.701 Y108.658 E11.04061
G1 X128.503 Y121.46 E11.8436
G1 X128.503 Y122.22 E11.87731
G1 X115.219 Y108.936 E12.71052
G1 X114.737 Y109.214 E12.73519
G1 X128.503 Y122.98 E13.59862
G1 X128.503 Y123.74 E13.63233
G1 X114.255 Y109.492 E14.52597
G1 X113.774 Y109.77 E14.55065
G1 X128.503 Y124.5 E15.47451
G1 X128.503 Y125.26 E15.50822
G1 X113.292 Y110.048 E16.4623
G1 X112.81 Y110.327 E16.48698
G1 X128.503 Y126.02 E17.47128
G1 X128.503 Y126.78 E17.50499
G1 X112.328 Y110.605 E18.51951
G1 X111.847 Y110.883 E18.54418
G1 X128.503 Y127.54 E19.58893
G1 X128.503 Y128.3 E19.62263
G1 X111.365 Y111.161 E20.69759
G1 X110.883 Y111.439 E20.72226
G1 X128.503 Y129.06 E21.82744
G1 X128.503 Y129.734 E21.85734
G1 X128.301 Y129.617 E21.86774
G1 X110.401 Y111.717 E22.9904
G1 X109.919 Y111.996 E23.01508
G1 X126.502 Y128.579 E24.05519
G1 X124.704 Y127.541 E24.14727
G1 X109.438 Y112.274 E25.10482
G1 X108.956 Y112.552 E25.12949
G1 X122.906 Y126.502 E26.00448
G1 X121.108 Y125.464 E26.09656
G1 X108.474 Y112.83 E26.889
G1 X107.992 Y113.108 E26.91367
G1 X119.31 Y124.426 E27.62354
G1 X117.512 Y123.388 E27.71563
G1 X107.51 Y113.386 E28.34294
G1 X107.029 Y113.665 E28.36761
G1 X115.714 Y122.35 E28.91237
G1 X113.916 Y121.312 E29.00445
G1 X106.547 Y113.943 E29.46665
G1 X106.065 Y114.221 E29.49132
G1 X112.118 Y120.274 E29.87096
G1 X110.32 Y119.236 E29.96304
G1 X105.583 Y114.499 E30.26012
G1 X105.101 Y114.777 E30.28479
G1 X108.522 Y118.197 E30.49931
G1 X106.724 Y117.159 E30.5914
G1 X104.62 Y115.055 E30.72336
G1 X104.138 Y115.334 E30.74803
G1 X105.557 Y116.752 E30.83703
M106 S84.15
;LAYER_CHANGE
;Z:0.52
;HEIGHT:0.32
;BEFORE_LAYER_CHANGE
;0.52


G92 E0
G1 E-6.3 F3600
;WIPE_START
G1 F7200
G1 X104.138 Y115.334 E-7.25318
G1 X104.62 Y115.055 E-7.51744
G1 X106.626 Y117.061 E-8.865
;WIPE_END
G1 E-9 F3600
; stop printing object D4.stl id:0 copy 0
M486 S-1
G1 Z0.47 F9000
;AFTER_LAYER_CHANGE
;0.52
G92 E0
; acceleration to travel
M204 S1500
G1 X103.742 Y122.056
; decel to extrusion
M204 S500
G1 X103.39 Y122.666
; end travel
G1 E9 F2400
;TYPE:Skirt
;WIDTH:0.48
G1 F1200
G1 X130.112 Y138.094 E10.68855
G1 X131.95 Y138.517 E10.79177
G1 X133.461 Y138.015 E10.8789
G1 X134.546 Y136.85 E10.96603
G1 X134.94 Y135.307 E11.05315
G1 X134.94 Y95.693 E13.22097
G1 X134.387 Y93.889 E13.32419
G1 X133.196 Y92.832 E13.41132
G1 X131.645 Y92.475 E13.49844
G1 X130.112 Y92.906 E13.58557
G1 X95.805 Y112.713 E15.75338
G1 X94.519 Y114.093 E15.85661
G1 X94.199 Y115.653 E15.94374
G1 X94.666 Y117.175 E16.03086
G1 X95.805 Y118.287 E16.11799
G1 X103.338 Y122.636 E16.59397
G92 E0
G1 E-6.3 F3600
;WIPE_START
G1 F7200
G1 X108.014 Y125.336 E-8.865
;WIPE_END
G1 E-9 F3600
; printing object D4.stl id:0 copy 0
M486 S0
; acceleration to travel
M204 S1500
G1 X103.225 Y116.625 F9000
; decel to extrusion
M204 S500
G1 X102.606 Y115.5
; end travel
G1 E0 F2400
;TYPE:Internal perimeter
;WIDTH:0.476
G1 X129.125 Y100.19 E1.65938
G1 X129.125 Y130.81 E3.31876
G1 X102.658 Y115.53 E4.97489
G1 X101.826 Y115.5 F9000
;TYPE:External perimeter
;WIDTH:0.428
G1 F1500
G1 X129.515 Y99.514 E6.50334
G1 X129.515 Y131.486 E8.0318
G1 X101.878 Y115.53 E9.55738
;WIPE_START
G1 X102.22 Y115.431 F9000
;WIPE_END
G92 E0
G1 E-6.3 F3600
;WIPE_START
G1 F7200
G1 X106.902 Y112.74 E-8.865
;WIPE_END
G1 E-9 F3600
; acceleration to travel
M204 S1500
G1 X104.549 Y114.474 F9000
; decel to extrusion
M204 S500
G1 X104.245 Y114.698
; end travel
G1 E0 F2400
;TYPE:Solid infill
;WIDTH:0.48357
G1 X103.358 Y115.585 E0.06905
G1 X103.729 Y115.799 E0.09265
G1 X105.144 Y114.384 E0.20281
G1 X106.53 Y113.584 E0.29091
G1 X104.1 Y116.013 E0.48005
G1 X104.472 Y116.228 E0.50366
G1 X107.916 Y112.784 E0.77179
G1 X109.302 Y111.984 E0.8599
G1 X104.843 Y116.442 E1.20702
G1 X105.214 Y116.657 E1.23063
G1 X110.688 Y111.184 E1.65674
G1 X112.073 Y110.383 E1.74484
G1 X105.586 Y116.871 E2.24995
G1 X105.957 Y117.085 E2.27356
G1 X113.459 Y109.583 E2.85765
G1 X114.845 Y108.783 E2.94576
G1 X106.329 Y117.3 E3.60884
G1 X106.7 Y117.514 E3.63245
G1 X116.231 Y107.983 E4.37452
G1 X117.617 Y107.183 E4.46263
G1 X107.071 Y117.729 E5.28369
G1 X107.443 Y117.943 E5.3073
G1 X119.003 Y106.383 E6.20736
G1 X120.389 Y105.582 E6.29546
G1 X107.814 Y118.157 E7.27451
G1 X108.185 Y118.372 E7.29812
G1 X121.775 Y104.782 E8.35615
G1 X123.161 Y103.982 E8.44426
G1 X108.557 Y118.586 E9.58128
G1 X108.928 Y118.801 E9.60489
G1 X124.547 Y103.182 E10.82091
G1 X125.933 Y102.382 E10.90901
G1 X109.299 Y119.015 E12.20402
G1 X109.671 Y119.229 E12.22763
G1 X127.319 Y101.582 E13.60163
G1 X128.705 Y100.781 E13.68973
G1 X110.042 Y119.444 E15.14272
G1 X110.413 Y119.658 E15.16633
G1 X128.823 Y101.249 E16.5996
G1 X128.823 Y101.835 E16.63185
G1 X110.785 Y119.873 E18.03621
G1 X111.156 Y120.087 E18.05982
G1 X128.823 Y102.421 E19.43527
G1 X128.823 Y103.006 E19.46752
G1 X111.528 Y120.301 E20.81405
G1 X111.899 Y120.516 E20.83766
G1 X128.823 Y103.592 E22.15528
G1 X128.823 Y104.178 E22.18753
G1 X112.27 Y120.73 E23.47624
G1 X112.642 Y120.945 E23.49985
G1 X128.823 Y104.764 E24.75965
G1 X128.823 Y105.349 E24.7919
G1 X113.013 Y121.159 E26.02278
G1 X113.384 Y121.373 E26.04639
G1 X128.823 Y105.935 E27.24836
G1 X128.823 Y106.521 E27.28061
G1 X113.756 Y121.588 E28.45367
G1 X114.127 Y121.802 E28.47728
G1 X128.823 Y107.107 E29.62143
G1 X128.823 Y107.692 E29.65368
G1 X114.498 Y122.017 E30.76891
G1 X114.87 Y122.231 E30.79252
G1 X128.823 Y108.278 E31.87884
G1 X128.823 Y108.864 E31.91109
G1 X115.241 Y122.445 E32.9685
G1 X115.612 Y122.66 E32.99211
G1 X128.823 Y109.45 E34.02061
G1 X128.823 Y110.035 E34.05286
G1 X115.984 Y122.874 E35.05244
G1 X116.355 Y123.089 E35.07605
G1 X128.823 Y110.621 E36.04672
G1 X128.823 Y111.207 E36.07897
G1 X116.727 Y123.303 E37.02073
G1 X117.098 Y123.517 E37.04434
G1 X128.823 Y111.793 E37.95719
G1 X128.823 Y112.378 E37.98944
G1 X117.469 Y123.732 E38.87337
G1 X117.841 Y123.946 E38.89698
G1 X128.823 Y112.964 E39.75201
G1 X128.823 Y113.55 E39.78425
G1 X118.212 Y124.161 E40.61036
G1 X118.583 Y124.375 E40.63397
G1 X128.823 Y114.136 E41.43117
G1 X128.823 Y114.722 E41.46342
G1 X118.955 Y124.589 E42.23171
G1 X119.326 Y124.804 E42.25531
G1 X128.823 Y115.307 E42.99469
G1 X128.823 Y115.893 E43.02693
G1 X119.697 Y125.018 E43.7374
G1 X120.069 Y125.233 E43.761
G1 X128.823 Y116.479 E44.44255
G1 X128.823 Y117.065 E44.4748
G1 X120.44 Y125.447 E45.12744
G1 X120.811 Y125.662 E45.15104
G1 X128.823 Y117.65 E45.77477
G1 X128.823 Y118.236 E45.80702
G1 X121.183 Y125.876 E46.40183
G1 X121.554 Y126.09 E46.42543
G1 X128.823 Y118.822 E46.99133
G1 X128.823 Y119.408 E47.02358
G1 X121.925 Y126.305 E47.56057
G1 X122.297 Y126.519 E47.58417
G1 X128.823 Y119.993 E48.09225
G1 X128.823 Y120.579 E48.1245
G1 X122.668 Y126.734 E48.60366
G1 X123.04 Y126.948 E48.62727
G1 X128.823 Y121.165 E49.07751
G1 X128.823 Y121.751 E49.10976
G1 X123.411 Y127.162 E49.5311
G1 X123.782 Y127.377 E49.55471
G1 X128.823 Y122.336 E49.94713
G1 X128.823 Y122.922 E49.97938
G1 X124.154 Y127.591 E50.34289
G1 X124.525 Y127.806 E50.3665
G1 X128.823 Y123.508 E50.7011
G1 X128.823 Y124.094 E50.73334
G1 X124.896 Y128.02 E51.03903
G1 X125.268 Y128.234 E51.06264
G1 X128.823 Y124.679 E51.33941
G1 X128.823 Y125.265 E51.37166
G1 X125.639 Y128.449 E51.61952
G1 X126.01 Y128.663 E51.64313
G1 X128.823 Y125.851 E51.86208
G1 X128.823 Y126.437 E51.89433
G1 X126.382 Y128.878 E52.08436
G1 X126.753 Y129.092 E52.10797
G1 X128.823 Y127.022 E52.26909
G1 X128.823 Y127.608 E52.30134
G1 X127.124 Y129.306 E52.43355
G1 X127.496 Y129.521 E52.45716
G1 X128.823 Y128.194 E52.56046
G1 X128.823 Y128.78 E52.59271
G1 X127.867 Y129.735 E52.6671
G1 X128.239 Y129.95 E52.6907
G1 X128.823 Y129.365 E52.73618
G1 X128.823 Y129.951 E52.76842
G1 X128.48 Y130.294 E52.79514
M106 S170.85
;LAYER_CHANGE
;Z:0.84
;HEIGHT:0.32
;BEFORE_LAYER_CHANGE
;0.84


G92 E0
G1 E-6.3 F3600
;WIPE_START
G1 F7200
G1 X128.823 Y129.951 E-6.53048
G1 X128.823 Y129.365 E-6.80872
G1 X128.239 Y129.95 E-7.20107
G1 X127.867 Y129.735 E-7.40476
G1 X128.823 Y128.78 E-8.04657
G1 X128.823 Y128.194 E-8.32481
G1 X128.018 Y128.998 E-8.865
;WIPE_END
G1 E-9 F3600
; stop printing object D4.stl id:0 copy 0
M486 S-1
G1 Z0.79 F9000
;AFTER_LAYER_CHANGE
;0.84
; printing object D4.stl id:0 copy 0
M486 S0
G1 X129.012 Y130.615
G1 E0 F2400
;TYPE:Internal perimeter
;WIDTH:0.476
G1 X102.833 Y115.5 E1.63814
G1 X129.012 Y100.385 E3.27628
G1 X129.012 Y130.555 E4.91118
G1 X129.402 Y131.29 F9000
;TYPE:External perimeter
;WIDTH:0.428
G1 F1500
G1 X102.052 Y115.5 E6.42089
G1 X129.402 Y99.71 E7.93061
G1 X129.402 Y131.23 E9.43746
;WIPE_START
G1 X129.145 Y130.984 F9000
;WIPE_END
G92 E0
G1 E-6.3 F3600
;WIPE_START
G1 F7200
G1 X124.474 Y128.274 E-8.865
;WIPE_END
G1 E-9 F3600
; acceleration to travel
M204 S1500
G1 X106.865 Y117.733 F9000
; decel to extrusion
M204 S500
G1 X104.59 Y116.371
; end travel
G1 E0 F2400
;TYPE:Solid infill
;WIDTH:0.483708
G1 X103.616 Y115.397 E0.07586
G1 X103.987 Y115.183 E0.09948
G1 X105.489 Y116.685 E0.21645
G1 X106.875 Y117.485 E0.30458
G1 X104.359 Y114.968 E0.50058
G1 X104.73 Y114.754 E0.52419
G1 X108.261 Y118.285 E0.79919
G1 X109.647 Y119.085 E0.88732
G1 X105.101 Y114.539 E1.24134
G1 X105.473 Y114.325 E1.26495
G1 X111.033 Y119.885 E1.69799
G1 X112.419 Y120.685 E1.78611
G1 X105.844 Y114.111 E2.29816
G1 X106.215 Y113.896 E2.32177
G1 X113.805 Y121.486 E2.91283
G1 X115.191 Y122.286 E3.00096
G1 X106.587 Y113.682 E3.67103
G1 X106.958 Y113.467 E3.69464
G1 X116.577 Y123.086 E4.44373
G1 X117.963 Y123.886 E4.53186
G1 X107.329 Y113.253 E5.35995
G1 X107.701 Y113.039 E5.38357
G1 X119.349 Y124.686 E6.29068
G1 X120.734 Y125.486 E6.3788
G1 X108.072 Y112.824 E7.36493
G1 X108.444 Y112.61 E7.38854
G1 X122.12 Y126.287 E8.45368
G1 X123.506 Y127.087 E8.54181
G1 X108.815 Y112.395 E9.68596
G1 X109.186 Y112.181 E9.70957
G1 X124.892 Y127.887 E10.93273
G1 X126.278 Y128.687 E11.02086
G1 X109.558 Y111.967 E12.32304
G1 X109.929 Y111.752 E12.34665
G1 X127.664 Y129.487 E13.72784
G1 X128.709 Y130.091 E13.79431
G1 X128.709 Y129.947 E13.80224
G1 X110.3 Y111.538 E15.23592
G1 X110.672 Y111.323 E15.25954
G1 X128.709 Y129.361 E16.6643
G1 X128.709 Y128.775 E16.69656
G1 X111.043 Y111.109 E18.0724
G1 X111.414 Y110.895 E18.09601
G1 X128.709 Y128.19 E19.44294
G1 X128.709 Y127.604 E19.47519
G1 X111.786 Y110.68 E20.79319
