; generated by SuperSlicer 2.4 on 2023-02-14 at 16:25:21 UTC

; 

; external perimeters extrusion width = 0.43mm
; perimeters extrusion width = 0.48mm
; infill extrusion width = 0.46mm
; solid infill extrusion width = 0.48mm
; top infill extrusion width = 0.46mm
; first layer extrusion width = 0.58mm

; object:{"name":"4_tofwer_ver","id":"4_tofwer_ver.stl id:0 copy 0","object_center":[110.735648,113.340299,0.000000],"boundingbox_center":[110.735648,113.340299,11.000000],"boundingbox_size":[24.524832,24.461769,22.000000]}
; Total objects to print: 1
M486 T1
; plater:{"center":[110.735648,113.340299,0.000000],"boundingbox_center":[110.735648,113.340299,11.000000],"boundingbox_size":[24.524832,24.461769,22.000000]}

;TYPE:Custom
G90 ; use absolute coordinates
M83 ; extruder relative mode
M140 S60 ; set final bed temp
M104 S150 ; set temporary nozzle temp to prevent oozing during homing and auto bed leveling
G4 S10 ; allow partial nozzle warmup
G28 ; home all axis
;G29 ; auto bed levelling
G1 Z10 F240
G1 X2 Y10 F3000
G1 Z0 F240
M104 S220 ; set final nozzle temp
M190 S60 ; wait for bed temp to stabilize
M109 S220 ; wait for nozzle temp to stabilize
G1 Z0.28 F240
G92 E0
G1 Y100 E7.1 F1500 ; prime the nozzle
G1 X2.3 F5000
G92 E0
G1 Y10 E10 F1200 ; prime the nozzle
G92 E0
;start
M107
G21 ; set units to millimeters
G90 ; use absolute coordinates
M82 ; use absolute distances for extrusion
G92 E0
; Filament gcode
;_TOOLCHANGE 0
M107
;LAYER_CHANGE
;Z:0.2
;HEIGHT:0.2
;BEFORE_LAYER_CHANGE
;0.2


G1 E-2 F3000
G1 Z0.15 F9000
;AFTER_LAYER_CHANGE
;0.2
G92 E0
M204 S500
G1 X99.716 Y100.274
G1 E2 F3000
;TYPE:Skirt
;WIDTH:0.48
G1 F1200
G1 X99.02 Y101.185 E2.04167
G1 X98.434 Y102.241 E2.08557
G1 X97.877 Y103.897 E2.14906
G1 X94.997 Y117.243 E2.64525
G1 X94.92 Y118.385 E2.68683
G1 X95.016 Y119.581 E2.73047
G1 X95.179 Y120.368 E2.75965
G1 X95.534 Y121.419 E2.79999
G1 X96.297 Y122.835 E2.85845
G1 X96.77 Y123.465 E2.88706
G1 X97.615 Y124.337 E2.93119
G1 X98.489 Y125.01 E2.97132
G1 X99.166 Y125.414 E2.99994
G1 X100.62 Y126.012 E3.05709
G1 X114.55 Y129.047 E3.57523
G1 X115.705 Y129.125 E3.61732
G1 X116.505 Y129.083 E3.64641
G1 X117.726 Y128.863 E3.69152
G1 X118.822 Y128.493 E3.73355
G1 X119.914 Y127.936 E3.77811
G1 X120.597 Y127.471 E3.80814
G1 X121.773 Y126.384 E3.86635
G1 X122.273 Y125.762 E3.89534
G1 X122.882 Y124.784 E3.93723
G1 X123.487 Y123.306 E3.99524
G1 X126.474 Y109.592 E4.50535
G1 X126.546 Y108.759 E4.53574
G1 X126.51 Y107.64 E4.57643
G1 X126.281 Y106.386 E4.62277
G1 X125.922 Y105.324 E4.6635
G1 X125.165 Y103.918 E4.72151
G1 X124.149 Y102.688 E4.77951
G1 X122.889 Y101.662 E4.83855
G1 X121.483 Y100.92 E4.89634
G1 X120.132 Y100.498 E4.94778
G1 X107.411 Y97.727 E5.42093
G1 X105.991 Y97.56 E5.47289
G1 X104.841 Y97.607 E5.51472
G1 X103.65 Y97.835 E5.5588
G1 X102.576 Y98.208 E5.60012
G1 X101.5 Y98.768 E5.64421
G1 X100.586 Y99.429 E5.6852
G1 X99.759 Y100.233 E5.72711
G1 X100.088 Y100.539 F9000
G1 F1200
G1 X99.833 Y100.812 E5.74067
G1 X99.161 Y101.787 E5.78371
G1 X98.701 Y102.722 E5.82156
G1 X98.304 Y103.99 E5.86988
G1 X95.428 Y117.315 E6.36529
G1 X95.357 Y118.371 E6.40376
G1 X95.45 Y119.527 E6.44589
G1 X95.605 Y120.269 E6.47344
G1 X95.932 Y121.241 E6.51072
G1 X96.652 Y122.581 E6.566
G1 X97.098 Y123.176 E6.59305
G1 X97.913 Y124.018 E6.63562
G1 X98.722 Y124.64 E6.67271
G1 X99.36 Y125.023 E6.69976
G1 X100.734 Y125.591 E6.75379
G1 X114.622 Y128.616 E7.27035
G1 X115.692 Y128.688 E7.30933
G1 X116.448 Y128.649 E7.33686
G1 X117.628 Y128.437 E7.38041
G1 X118.643 Y128.095 E7.41934
G1 X119.697 Y127.557 E7.46236
G1 X120.343 Y127.115 E7.4908
G1 X121.454 Y126.085 E7.54587
G1 X121.926 Y125.495 E7.57331
G1 X122.491 Y124.59 E7.6121
G1 X123.065 Y123.192 E7.667
G1 X126.043 Y109.52 E8.17555
G1 X126.11 Y108.731 E8.20432
G1 X126.076 Y107.696 E8.24197
G1 X125.855 Y106.485 E8.28669
G1 X125.523 Y105.503 E8.32437
G1 X124.809 Y104.172 E8.37927
G1 X123.849 Y103.006 E8.43416
G1 X122.658 Y102.033 E8.49004
G1 X121.328 Y101.329 E8.54474
G1 X120.039 Y100.925 E8.59384
G1 X107.318 Y98.154 E9.067
G1 X105.967 Y97.996 E9.11645
G1 X104.902 Y98.04 E9.15517
G1 X103.753 Y98.259 E9.1977
G1 X102.759 Y98.605 E9.23595
G1 X101.721 Y99.146 E9.27849
G1 X100.553 Y100.04 E9.33194
G1 X100.129 Y100.495 E9.35456
G92 E0
G1 E-1.4 F3000
;WIPE_START
G1 F7200
G1 X99.833 Y100.812 E-1.5715
G1 X99.262 Y101.641 E-1.97
;WIPE_END
G1 E-2 F3000
; printing object 4_tofwer_ver.stl id:0 copy 0
M486 S0
; acceleration to travel
M204 S1500
G1 X102.659 Y103.069 F9000
; decel to extrusion
M204 S500
G1 X103.074 Y103.244
; end travel
G1 E0 F3000
;TYPE:Internal perimeter
;WIDTH:0.576
G1 F1200
G1 X103.258 Y103.047 E0.01191
G1 X103.519 Y102.817 E0.02736
G1 X103.795 Y102.617 E0.04244
G1 X104.103 Y102.437 E0.05826
G1 X104.412 Y102.295 E0.07334
G1 X104.741 Y102.181 E0.08879
G1 X105.08 Y102.099 E0.10423
G1 X105.424 Y102.051 E0.11964
G1 X105.781 Y102.036 E0.13545
G1 X106.12 Y102.055 E0.15053
G1 X106.482 Y102.111 E0.16677
G1 X119.159 Y104.872 E0.74183
G1 X119.527 Y104.971 E0.75873
G1 X119.862 Y105.098 E0.77462
G1 X120.184 Y105.257 E0.79051
G1 X120.487 Y105.446 E0.80637
G1 X120.786 Y105.675 E0.82308
G1 X121.046 Y105.921 E0.83892
G1 X121.283 Y106.192 E0.85488
G1 X121.492 Y106.485 E0.87084
G1 X121.671 Y106.798 E0.8868
G1 X121.819 Y107.126 E0.90277
G1 X121.927 Y107.448 E0.91783
G1 X122.015 Y107.82 E0.93475
G1 X122.061 Y108.175 E0.95063
G1 X122.071 Y108.515 E0.9657
G1 X122.047 Y108.896 E0.98262
G1 X121.984 Y109.271 E0.9995
G1 X119.271 Y121.732 E1.56477
G1 X119.172 Y122.099 E1.58163
G1 X119.036 Y122.454 E1.59848
G1 X118.885 Y122.759 E1.61355
G1 X118.695 Y123.064 E1.62949
G1 X118.476 Y123.349 E1.64542
G1 X118.23 Y123.611 E1.66136
G1 X117.961 Y123.848 E1.67724
G1 X117.652 Y124.068 E1.69402
G1 X117.341 Y124.246 E1.70993
G1 X117.019 Y124.391 E1.72556
G1 X116.677 Y124.506 E1.74156
G1 X116.326 Y124.587 E1.75754
G1 X115.969 Y124.634 E1.77353
G1 X115.608 Y124.645 E1.78951
G1 X115.248 Y124.621 E1.8055
G1 X114.871 Y124.558 E1.82244
G1 X102.189 Y121.795 E2.39775
G1 X101.834 Y121.699 E2.41409
G1 X101.51 Y121.575 E2.42945
G1 X101.2 Y121.421 E2.44481
G1 X100.905 Y121.236 E2.46023
G1 X100.646 Y121.037 E2.47469
G1 X100.392 Y120.799 E2.4901
G1 X100.164 Y120.539 E2.50547
G1 X99.962 Y120.257 E2.52083
G1 X99.789 Y119.959 E2.53611
G1 X99.639 Y119.622 E2.55246
G1 X99.535 Y119.314 E2.56688
G1 X99.456 Y118.978 E2.58218
G1 X99.41 Y118.612 E2.59854
G1 X99.4 Y118.286 E2.61298
G1 X99.423 Y117.94 E2.62835
G1 X99.484 Y117.576 E2.64472
G1 X102.251 Y104.871 E3.22109
G1 X102.348 Y104.513 E3.23753
G1 X102.471 Y104.187 E3.25297
G1 X102.621 Y103.881 E3.26806
G1 X102.809 Y103.578 E3.28387
G1 X103.02 Y103.302 E3.29928
G1 X103.033 Y103.287 E3.30015
G1 X102.682 Y102.877 F9000
;TYPE:External perimeter
G1 F1200
G1 X102.883 Y102.661 E3.31322
G1 X103.183 Y102.396 E3.33099
G1 X103.501 Y102.167 E3.34837
G1 X103.855 Y101.96 E3.36652
G1 X104.211 Y101.796 E3.38391
G1 X104.59 Y101.665 E3.40168
G1 X104.979 Y101.57 E3.41944
G1 X105.376 Y101.515 E3.43719
G1 X105.785 Y101.498 E3.45533
G1 X106.176 Y101.52 E3.47272
G1 X106.581 Y101.582 E3.49085
G1 X119.286 Y104.35 E4.06722
G1 X119.692 Y104.459 E4.08586
G1 X120.077 Y104.604 E4.10409
G1 X120.445 Y104.786 E4.12231
G1 X120.794 Y105.003 E4.14052
G1 X121.135 Y105.266 E4.1596
G1 X121.434 Y105.548 E4.1778
G1 X121.705 Y105.859 E4.1961
G1 X121.945 Y106.195 E4.21439
G1 X122.15 Y106.553 E4.23269
G1 X122.32 Y106.929 E4.25099
G1 X122.445 Y107.3 E4.26835
G1 X122.544 Y107.723 E4.2876
G1 X122.597 Y108.132 E4.30587
G1 X122.609 Y108.523 E4.32323
G1 X122.582 Y108.957 E4.34249
G1 X122.512 Y109.373 E4.36117
G1 X119.793 Y121.859 E4.9276
G1 X119.683 Y122.265 E4.94626
G1 X119.529 Y122.67 E4.96546
G1 X119.355 Y123.021 E4.98281
G1 X119.137 Y123.371 E5.00108
G1 X118.886 Y123.697 E5.01935
G1 X118.604 Y123.998 E5.03761
G1 X118.295 Y124.269 E5.05585
G1 X117.943 Y124.521 E5.07502
G1 X117.585 Y124.725 E5.09328
G1 X117.216 Y124.891 E5.11122
G1 X116.824 Y125.024 E5.12956
G1 X116.421 Y125.117 E5.14788
G1 X116.011 Y125.17 E5.16621
G1 X115.598 Y125.183 E5.18454
G1 X115.186 Y125.155 E5.20286
G1 X114.77 Y125.085 E5.22156
G1 X102.062 Y122.318 E5.79805
G1 X101.667 Y122.21 E5.81617
G1 X101.294 Y122.068 E5.83388
G1 X100.936 Y121.89 E5.85159
G1 X100.597 Y121.678 E5.86932
G1 X100.298 Y121.447 E5.88606
G1 X100.006 Y121.174 E5.90379
G1 X99.743 Y120.874 E5.92149
G1 X99.51 Y120.549 E5.9392
G1 X99.31 Y120.204 E5.95688
G1 X99.138 Y119.819 E5.97558
G1 X99.017 Y119.461 E5.99231
G1 X98.927 Y119.073 E6.00999
G1 X98.874 Y118.654 E6.0287
G1 X98.862 Y118.276 E6.04543
G1 X98.889 Y117.878 E6.06315
G1 X98.956 Y117.474 E6.08128
G1 X101.729 Y104.743 E6.65881
G1 X101.836 Y104.347 E6.67699
G1 X101.977 Y103.972 E6.69476
G1 X102.151 Y103.62 E6.71215
G1 X102.366 Y103.272 E6.73029
G1 X102.609 Y102.954 E6.74804
G1 X102.641 Y102.921 E6.75007
;WIPE_START
G1 X103.071 Y102.967 F9000
;WIPE_END
G92 E0
G1 E-1.4 F3000
;WIPE_START
G1 F7200
G1 X103.308 Y102.553 E-1.58896
G1 X103.611 Y102.334 E-1.73656
G1 X103.947 Y102.138 E-1.8909
G1 X104.129 Y102.054 E-1.97
;WIPE_END
G1 E-2 F3000
; acceleration to travel
M204 S1500
G1 X119.699 Y106.516 F9000
; decel to extrusion
M204 S500
G1 X121.602 Y107.061
; end travel
G1 E0 F3000
;TYPE:Solid infill
;WIDTH:0.576298
G1 F1200
G1 X120.482 Y105.942 E0.0702
G1 X119.992 Y105.601 E0.0967
G1 X119.406 Y105.346 E0.12503
G1 X119.049 Y105.269 E0.14122
G1 X121.615 Y107.835 E0.30217
G1 X121.626 Y107.881 E0.30426
G1 X121.678 Y108.518 E0.33263
G1 X121.67 Y108.649 E0.33845
G1 X118.078 Y105.057 E0.56372
G1 X117.107 Y104.846 E0.60779
G1 X121.559 Y109.298 E0.88702
G1 X121.424 Y109.923 E0.91537
G1 X116.136 Y104.635 E1.24703
G1 X115.164 Y104.424 E1.29111
G1 X121.288 Y110.548 E1.67521
G1 X121.153 Y111.173 E1.70356
G1 X114.193 Y104.212 E2.14009
G1 X113.222 Y104.001 E2.18417
G1 X121.018 Y111.797 E2.67314
G1 X120.883 Y112.422 E2.70149
G1 X112.251 Y103.79 E3.24289
G1 X111.28 Y103.579 E3.28697
G1 X120.748 Y113.047 E3.88081
G1 X120.613 Y113.672 E3.90916
G1 X110.308 Y103.367 E4.55544
G1 X109.337 Y103.156 E4.59951
G1 X120.478 Y114.297 E5.29823
G1 X120.342 Y114.921 E5.32658
G1 X108.366 Y102.945 E6.07772
G1 X107.395 Y102.734 E6.1218
G1 X120.207 Y115.546 E6.92538
G1 X120.072 Y116.171 E6.95373
G1 X106.423 Y102.523 E7.80975
G1 X106.077 Y102.447 E7.82548
G1 X105.585 Y102.444 E7.8473
G1 X119.937 Y116.796 E8.74743
G1 X119.802 Y117.421 E8.77578
G1 X104.926 Y102.545 E9.70877
G1 X104.852 Y102.559 E9.71209
G1 X104.373 Y102.752 E9.73502
G1 X119.667 Y118.046 E10.69422
G1 X119.531 Y118.67 E10.72257
G1 X103.898 Y103.037 E11.70306
G1 X103.533 Y103.33 E11.72383
G1 X103.486 Y103.385 E11.72703
G1 X119.396 Y119.295 E12.72491
G1 X119.261 Y119.92 E12.75326
G1 X103.138 Y103.796 E13.7645
G1 X102.97 Y104.063 E13.77848
G1 X102.871 Y104.29 E13.78944
G1 X119.126 Y120.545 E14.8089
G1 X118.991 Y121.17 E14.83725
G1 X102.675 Y104.854 E15.86057
G1 X102.539 Y105.478 E15.88889
G1 X118.842 Y121.781 E16.91141
G1 X118.675 Y122.296 E16.93545
G1 X118.647 Y122.346 E16.93795
G1 X102.403 Y106.102 E17.95675
G1 X102.267 Y106.726 E17.98508
G1 X118.374 Y122.833 E18.99531
G1 X118.182 Y123.087 E19.00944
G1 X118.023 Y123.241 E19.01927
G1 X102.131 Y107.35 E20.01598
G1 X101.995 Y107.974 E20.04431
G1 X117.621 Y123.6 E21.02434
G1 X117.158 Y123.896 E21.04873
G1 X101.859 Y108.598 E22.00823
G1 X101.723 Y109.222 E22.03656
G1 X116.612 Y124.11 E22.97035
G1 X116.561 Y124.13 E22.97277
G1 X116.266 Y124.199 E22.98621
G1 X115.964 Y124.223 E22.99962
G1 X101.588 Y109.846 E23.90132
G1 X101.452 Y110.47 E23.92964
G1 X115.188 Y124.206 E24.79116
G1 X114.218 Y123.996 E24.83516
G1 X101.316 Y111.094 E25.64438
G1 X101.18 Y111.718 E25.6727
G1 X113.248 Y123.787 E26.42962
G1 X112.279 Y123.577 E26.47362
G1 X101.044 Y112.342 E27.17824
G1 X100.908 Y112.966 E27.20657
G1 X111.309 Y123.367 E27.85889
G1 X110.339 Y123.157 E27.9029
G1 X100.772 Y113.59 E28.50292
G1 X100.636 Y114.214 E28.53125
G1 X109.369 Y122.947 E29.07898
G1 X108.4 Y122.738 E29.12298
G1 X100.5 Y114.838 E29.61841
G1 X100.364 Y115.462 E29.64674
G1 X107.43 Y122.528 E30.08987
G1 X106.46 Y122.318 E30.13387
G1 X100.228 Y116.086 E30.52471
G1 X100.093 Y116.71 E30.55303
G1 X105.49 Y122.108 E30.89157
G1 X104.521 Y121.898 E30.93558
G1 X99.957 Y117.334 E31.22182
G1 X99.821 Y117.958 E31.25014
G1 X103.551 Y121.689 E31.48409
G1 X102.581 Y121.479 E31.52809
G1 X99.819 Y118.717 E31.70133
G1 X99.842 Y118.899 E31.70951
G1 X100.008 Y119.488 E31.73663
G1 X100.135 Y119.771 E31.75039
G1 X100.175 Y119.833 E31.75364
G1 X101.862 Y121.52 E31.85948
M106 S84.15
;LAYER_CHANGE
;Z:0.52
;HEIGHT:0.32
;BEFORE_LAYER_CHANGE
;0.52


G92 E0
G1 E-1.4 F3000
;WIPE_START
G1 F7200
G1 X100.844 Y120.502 E-1.97
;WIPE_END
G1 E-2 F3000
; stop printing object 4_tofwer_ver.stl id:0 copy 0
M486 S-1
G1 Z0.47 F9000
;AFTER_LAYER_CHANGE
;0.52
; printing object 4_tofwer_ver.stl id:0 copy 0
M486 S0
G1 X100.27 Y121.124
G1 E0 F3000
;TYPE:Internal perimeter
;WIDTH:0.476
G1 F2400
G1 X100.178 Y121.039 E0.0068
G1 X99.925 Y120.755 E0.02741
G1 X99.702 Y120.447 E0.04803
G1 X99.512 Y120.121 E0.06844
G1 X99.325 Y119.7 E0.09342
G1 X99.229 Y119.414 E0.10978
G1 X99.142 Y119.046 E0.13024
G1 X99.088 Y118.588 E0.15527
G1 X99.078 Y118.285 E0.17166
G1 X99.104 Y117.905 E0.19231
G1 X99.169 Y117.515 E0.21374
G1 X101.939 Y104.795 E0.91922
G1 X102.042 Y104.413 E0.94066
G1 X102.177 Y104.056 E0.9613
G1 X102.332 Y103.741 E0.98033
G1 X102.547 Y103.391 E1.00263
G1 X102.778 Y103.09 E1.02317
G1 X103.038 Y102.812 E1.0438
G1 X103.325 Y102.561 E1.06447
G1 X103.609 Y102.355 E1.08347
G1 X103.965 Y102.147 E1.1058
G1 X104.283 Y102.001 E1.12479
G1 X104.643 Y101.875 E1.14548
G1 X105.013 Y101.784 E1.16611
G1 X105.389 Y101.731 E1.18665
G1 X105.8 Y101.715 E1.20895
G1 X106.15 Y101.735 E1.22796
G1 X106.537 Y101.794 E1.2492
G1 X119.235 Y104.56 E1.95342
G1 X119.62 Y104.663 E1.97506
G1 X119.98 Y104.799 E1.9959
G1 X120.326 Y104.968 E2.01674
G1 X120.651 Y105.169 E2.03746
G1 X121.01 Y105.445 E2.062
G1 X121.287 Y105.708 E2.08271
G1 X121.543 Y106.003 E2.10385
G1 X121.768 Y106.321 E2.125
G1 X121.962 Y106.66 E2.14614
G1 X122.121 Y107.017 E2.16732
G1 X122.222 Y107.315 E2.18439
G1 X122.332 Y107.77 E2.20976
G1 X122.382 Y108.154 E2.23071
G1 X122.391 Y108.469 E2.2478
G1 X122.366 Y108.937 E2.27319
G1 X122.3 Y109.332 E2.29491
G1 X119.583 Y121.808 E2.98685
G1 X119.479 Y122.193 E3.00845
G1 X119.31 Y122.624 E3.03355
G1 X119.17 Y122.907 E3.05063
G1 X118.966 Y123.237 E3.07169
G1 X118.731 Y123.545 E3.09271
G1 X118.467 Y123.829 E3.11372
G1 X118.178 Y124.085 E3.1346
G1 X117.804 Y124.352 E3.15949
G1 X117.468 Y124.542 E3.18044
G1 X117.137 Y124.69 E3.2001
G1 X116.781 Y124.81 E3.22047
G1 X116.381 Y124.904 E3.24273
G1 X115.992 Y124.954 E3.26395
G1 X115.617 Y124.966 E3.28427
G1 X115.207 Y124.939 E3.30655
G1 X114.811 Y124.873 E3.32834
G1 X102.097 Y122.104 E4.03345
G1 X101.718 Y121.999 E4.05478
G1 X101.363 Y121.862 E4.07539
G1 X101.023 Y121.69 E4.09601
G1 X100.7 Y121.485 E4.11677
G1 X100.459 Y121.299 E4.13325
G1 X100.314 Y121.165 E4.14397
G1 X100.005 Y121.411 F9000
;TYPE:External perimeter
;WIDTH:0.428
G1 F1500
G1 X99.899 Y121.313 E4.15089
G1 X99.62 Y120.999 E4.17093
G1 X99.374 Y120.66 E4.19096
G1 X99.164 Y120.299 E4.21093
G1 X98.961 Y119.841 E4.23486
G1 X98.853 Y119.521 E4.25103
G1 X98.757 Y119.114 E4.27101
G1 X98.698 Y118.617 E4.29496
G1 X98.688 Y118.278 E4.31113
G1 X98.716 Y117.86 E4.33118
G1 X98.785 Y117.441 E4.35147
G1 X101.56 Y104.702 E4.97474
G1 X101.67 Y104.293 E4.99501
G1 X101.818 Y103.901 E5.01504
G1 X101.99 Y103.553 E5.0336
G1 X102.225 Y103.169 E5.05511
G1 X102.48 Y102.838 E5.0751
G1 X102.766 Y102.532 E5.09513
G1 X103.081 Y102.255 E5.11516
G1 X103.396 Y102.028 E5.13371
G1 X103.784 Y101.801 E5.15523
G1 X104.137 Y101.639 E5.17378
G1 X104.532 Y101.5 E5.19382
G1 X104.939 Y101.401 E5.21384
G1 X105.354 Y101.342 E5.23384
G1 X105.803 Y101.325 E5.25535
G1 X106.191 Y101.346 E5.2739
G1 X106.609 Y101.411 E5.29412
G1 X119.327 Y104.181 E5.91638
G1 X119.74 Y104.292 E5.93682
G1 X120.135 Y104.44 E5.957
G1 X120.514 Y104.626 E5.97719
G1 X120.873 Y104.847 E5.99734
G1 X121.264 Y105.148 E6.02092
G1 X121.57 Y105.438 E6.04107
G1 X121.85 Y105.762 E6.06154
G1 X122.098 Y106.111 E6.08202
G1 X122.31 Y106.483 E6.10249
G1 X122.485 Y106.874 E6.12298
