; generated by SuperSlicer 2.4 on 2023-02-14 at 16:38:29 UTC

; 

; external perimeters extrusion width = 0.43mm
; perimeters extrusion width = 0.48mm
; infill extrusion width = 0.46mm
; solid infill extrusion width = 0.48mm
; top infill extrusion width = 0.46mm
; first layer extrusion width = 0.58mm

; object:{"name":"cube_1_thick","id":"cube_1_thick.stl id:0 copy 0","object_center":[115.742549,115.482188,0.000000],"boundingbox_center":[115.742549,115.482188,18.372990],"boundingbox_size":[36.750575,36.790215,36.745979]}
; Total objects to print: 1
M486 T1
; plater:{"center":[115.742549,115.482188,0.000000],"boundingbox_center":[115.742549,115.482188,18.372990],"boundingbox_size":[36.750575,36.790215,36.745979]}

;TYPE:Custom
G90 ; use absolute coordinates
M83 ; extruder relative mode
M140 S60 ; set final bed temp
M104 S150 ; set temporary nozzle temp to prevent oozing during homing and auto bed leveling
G4 S10 ; allow partial nozzle warmup
G28 ; home all axis
;G29 ; auto bed levelling
G1 Z10 F240
G1 X2 Y10 F3000
G1 Z0 F240
M104 S220 ; set final nozzle temp
M190 S60 ; wait for bed temp to stabilize
M109 S220 ; wait for nozzle temp to stabilize
G1 Z0.28 F240
G92 E0
G1 Y100 E7.1 F1500 ; prime the nozzle
G1 X2.3 F5000
G92 E0
G1 Y10 E10 F1200 ; prime the nozzle
G92 E0
;start
M107
G21 ; set units to millimeters
G90 ; use absolute coordinates
M82 ; use absolute distances for extrusion
G92 E0
; Filament gcode
;_TOOLCHANGE 0
M107
;LAYER_CHANGE
;Z:0.2
;HEIGHT:0.2
;BEFORE_LAYER_CHANGE
;0.2


G1 E-2 F3000
G1 Z0.15 F9000
;AFTER_LAYER_CHANGE
;0.2
G92 E0
M204 S500
G1 X95.588 Y95.539
G1 E2 F3000
;TYPE:Skirt
;WIDTH:0.48
G1 F1200
G1 X94.902 Y96.577 E2.0452
G1 X94.625 Y97.437 E2.07805
G1 X94.477 Y98.555 E2.11905
G1 X94.454 Y131.354 E3.31108
G1 X94.537 Y132.375 E3.34828
G1 X94.891 Y133.732 E3.39925
G1 X95.302 Y134.557 E3.43276
G1 X96.05 Y135.433 E3.47462
G1 X96.863 Y136.037 E3.51145
G1 X97.744 Y136.476 E3.5472
G1 X98.575 Y136.727 E3.57876
G1 X99.715 Y136.848 E3.62044
G1 X131.868 Y136.777 E4.78898
G1 X133.096 Y136.569 E4.83425
G1 X133.944 Y136.189 E4.86803
G1 X134.605 Y135.699 E4.89793
G1 X135.856 Y134.456 E4.96201
G1 X136.452 Y133.626 E4.99913
G1 X136.788 Y132.847 E5.02996
G1 X137.012 Y131.42 E5.08248
G1 X136.963 Y98.028 E6.29606
G1 X136.851 Y97.279 E6.32356
G1 X136.552 Y96.407 E6.35707
G1 X136.015 Y95.575 E6.39306
G1 X135.233 Y94.897 E6.43067
G1 X134.33 Y94.463 E6.4671
G1 X133.583 Y94.296 E6.4949
G1 X132.833 Y94.242 E6.52225
G1 X99.564 Y94.245 E7.73134
G1 X98.195 Y94.326 E7.7812
G1 X97.044 Y94.58 E7.82403
G1 X95.638 Y95.506 E7.88521
G92 E0
G1 E-1.4 F3000
;WIPE_START
G1 F7200
G1 X94.902 Y96.577 E-1.91426
G1 X94.859 Y96.711 E-1.97
;WIPE_END
G1 E-2 F3000
; printing object cube_1_thick.stl id:0 copy 0
M486 S0
; acceleration to travel
M204 S1500
G1 X112.406 Y113.399 F9000
; decel to extrusion
M204 S500
G1 X114.55 Y115.438
; end travel
G1 E0 F3000
;TYPE:Internal perimeter
;WIDTH:0.576
G1 F1200
G1 X115.068 Y115.29 E0.02389
G1 X115.485 Y114.904 E0.04908
G1 X115.707 Y114.425 E0.07247
G1 X116.201 Y115.138 E0.11089
G1 X116.905 Y115.521 E0.14643
G1 X116.368 Y115.784 E0.17294
G1 X116.085 Y116.038 E0.18982
G1 X115.742 Y116.587 E0.21851
G1 X115.342 Y115.921 E0.25295
G1 X114.601 Y115.469 E0.29141
G92 E0
G1 E-1.4 F3000
;WIPE_START
G1 F7200
G1 X115.068 Y115.29 E-1.59798
G1 X115.485 Y114.904 E-1.82296
G1 X115.641 Y114.567 E-1.97
;WIPE_END
G1 E-2 F3000
; acceleration to travel
M204 S1500
G1 X123.283 Y114.634 F9000
; decel to extrusion
M204 S500
G1 X124.216 Y114.642
; end travel
G1 E0 F3000
G1 F1200
G1 X124.275 Y114.539 E0.00527
G1 X124.752 Y115.162 E0.04003
G1 X125.408 Y115.545 E0.07373
G1 X125.013 Y115.696 E0.09249
G1 X124.65 Y115.964 E0.1125
G1 X124.277 Y116.588 E0.14471
G1 X123.969 Y115.918 E0.17738
G1 X123.163 Y115.485 E0.21795
G1 X123.692 Y115.264 E0.24336
G1 X124.035 Y114.958 E0.26375
G1 X124.186 Y114.694 E0.27722
G92 E0
G1 E-1.4 F3000
;WIPE_START
G1 F7200
G1 X124.275 Y114.539 E-1.47077
G1 X124.752 Y115.162 E-1.78126
G1 X125.164 Y115.402 E-1.97
;WIPE_END
G1 E-2 F3000
; acceleration to travel
M204 S1500
G1 X131.106 Y115.469 F9000
; decel to extrusion
M204 S500
G1 X131.832 Y115.477
; end travel
G1 E0 F3000
G1 F1200
G1 X132.374 Y115.234 E0.02633
G1 X132.928 Y114.583 E0.06424
G1 X132.927 Y115.949 E0.12478
G1 X132.605 Y116.033 E0.13953
G1 X132.528 Y115.894 E0.14657
G1 X131.883 Y115.508 E0.17989
G92 E0
G1 E-1.4 F3000
;WIPE_START
G1 F7200
G1 X132.374 Y115.234 E-1.62238
G1 X132.928 Y114.583 E-1.9609
G1 X132.928 Y114.606 E-1.97
;WIPE_END
G1 E-2 F3000
; acceleration to travel
M204 S1500
G1 X132.049 Y107.812 F9000
; decel to extrusion
M204 S500
G1 X131.942 Y106.982
; end travel
G1 E0 F3000
G1 F1200
G1 X132.527 Y106.564 E0.03187
G1 X132.612 Y106.44 E0.03853
G1 X132.915 Y106.536 E0.05263
G1 X132.904 Y107.761 E0.10695
G1 X132.328 Y107.121 E0.14511
G1 X131.999 Y107.002 E0.16064
G92 E0
G1 E-1.4 F3000
;WIPE_START
G1 F7200
G1 X132.527 Y106.564 E-1.67177
G1 X132.612 Y106.44 E-1.7313
G1 X132.915 Y106.536 E-1.85721
G1 X132.913 Y106.82 E-1.97
;WIPE_END
G1 E-2 F3000
; acceleration to travel
M204 S1500
G1 X132.926 Y99.214 F9000
; decel to extrusion
M204 S500
G1 X132.928 Y98.285
; end travel
G1 E0 F3000
G1 F1200
G1 X132.94 Y98.508 E0.00991
G1 X132.929 Y98.885 E0.02665
G1 X132.627 Y98.972 E0.04058
G1 X132.444 Y98.698 E0.05516
G1 X132.292 Y98.629 E0.06257
G1 X132.363 Y98.292 E0.07784
G1 X132.868 Y98.285 E0.10021
G92 E0
G1 E-1.4 F3000
;WIPE_START
G1 F7200
G1 X132.94 Y98.508 E-1.49265
G1 X132.929 Y98.885 E-1.64213
G1 X132.627 Y98.972 E-1.76647
G1 X132.444 Y98.698 E-1.89669
G1 X132.292 Y98.629 E-1.96287
G1 X132.296 Y98.611 E-1.97
;WIPE_END
G1 E-2 F3000
; acceleration to travel
M204 S1500
G1 X125.126 Y99.175 F9000
; decel to extrusion
M204 S500
G1 X124.25 Y99.244
; end travel
G1 E0 F3000
G1 F1200
G1 X124.134 Y98.932 E0.01476
G1 X123.473 Y98.323 E0.05461
G1 X125.042 Y98.325 E0.12419
G1 X124.29 Y99.199 E0.17531
G92 E0
G1 E-1.4 F3000
;WIPE_START
G1 F7200
G1 X124.134 Y98.932 E-1.52218
G1 X123.473 Y98.323 E-1.87808
G1 X123.705 Y98.323 E-1.97
;WIPE_END
G1 E-2 F3000
; acceleration to travel
M204 S1500
G1 X116.647 Y99.25 F9000
; decel to extrusion
M204 S500
G1 X115.785 Y99.363
; end travel
G1 E0 F3000
G1 F1200
G1 X115.303 Y98.696 E0.03651
G1 X115.196 Y98.644 E0.04176
G1 X115.273 Y98.31 E0.05697
G1 X116.725 Y98.312 E0.12135
G1 X116.052 Y98.882 E0.16045
G1 X115.814 Y99.311 E0.18219
G92 E0
G1 E-1.4 F3000
;WIPE_START
G1 F7200
G1 X115.303 Y98.696 E-1.71666
G1 X115.196 Y98.644 E-1.76354
G1 X115.273 Y98.31 E-1.89937
G1 X115.451 Y98.31 E-1.97
;WIPE_END
G1 E-2 F3000
; acceleration to travel
M204 S1500
G1 X108.144 Y99.266 F9000
; decel to extrusion
M204 S500
G1 X107.252 Y99.383
; end travel
G1 E0 F3000
G1 F1200
G1 X106.408 Y98.296 E0.06099
G1 X108.113 Y98.299 E0.13657
G1 X107.447 Y98.984 E0.17892
G1 X107.278 Y99.329 E0.19597
G92 E0
G1 E-1.4 F3000
;WIPE_START
G1 F7200
G1 X106.408 Y98.296 E-1.93466
G1 X106.497 Y98.296 E-1.97
;WIPE_END
G1 E-2 F3000
; acceleration to travel
M204 S1500
G1 X99.7 Y99.044 F9000
; decel to extrusion
M204 S500
G1 X98.87 Y99.135
; end travel
G1 E0 F3000
G1 F1200
G1 X98.535 Y99.067 E0.01513
G1 X98.523 Y98.634 E0.03435
G1 X98.573 Y98.339 E0.04762
G1 X99.056 Y98.34 E0.069
G1 X99.23 Y98.327 E0.07676
G1 X99.342 Y98.634 E0.09124
G1 X98.98 Y98.892 E0.11095
G1 X98.895 Y99.08 E0.12012
G92 E0
G1 E-1.4 F3000
;WIPE_START
G1 F7200
G1 X98.535 Y99.067 E-1.54239
G1 X98.523 Y98.634 E-1.71404
G1 X98.573 Y98.339 E-1.8325
G1 X98.921 Y98.34 E-1.97
;WIPE_END
G1 E-2 F3000
; acceleration to travel
M204 S1500
G1 X99.585 Y106.018 F9000
; decel to extrusion
M204 S500
G1 X99.666 Y106.956
; end travel
G1 E0 F3000
G1 F1200
G1 X99.145 Y107.292 E0.02745
G1 X98.537 Y107.978 E0.0681
G1 X98.538 Y106.975 E0.11259
G1 X98.538 Y106.352 E0.14021
G1 X98.845 Y106.26 E0.15442
G1 X99.02 Y106.527 E0.16854
G1 X99.616 Y106.923 E0.20027
G92 E0
G1 E-1.4 F3000
;WIPE_START
G1 F7200
G1 X99.145 Y107.292 E-1.63662
G1 X98.587 Y107.922 E-1.97
;WIPE_END
G1 E-2 F3000
; acceleration to travel
M204 S1500
G1 X99.711 Y114.631 F9000
; decel to extrusion
M204 S500
G1 X99.849 Y115.45
; end travel
G1 E0 F3000
G1 F1200
G1 X99.032 Y115.99 E0.04338
G1 X98.842 Y116.312 E0.05998
G1 X98.525 Y116.226 E0.07454
G1 X98.527 Y114.777 E0.13876
G1 X98.848 Y114.693 E0.15347
G1 X99.019 Y114.999 E0.16901
G1 X99.339 Y115.255 E0.18715
G1 X99.793 Y115.429 E0.20869
G92 E0
G1 E-1.4 F3000
;WIPE_START
G1 F7200
G1 X99.032 Y115.99 E-1.77411
G1 X98.842 Y116.312 E-1.92226
G1 X98.725 Y116.28 E-1.97
;WIPE_END
G1 E-2 F3000
; acceleration to travel
M204 S1500
G1 X105.95 Y115.985 F9000
; decel to extrusion
M204 S500
G1 X106.833 Y115.949
; end travel
G1 E0 F3000
G1 F1200
G1 X105.982 Y115.461 E0.04348
G1 X106.561 Y115.261 E0.0706
G1 X106.979 Y114.801 E0.09818
G1 X107.129 Y114.252 E0.1234
G1 X107.602 Y115.121 E0.16727
G1 X108.342 Y115.476 E0.20362
G1 X107.697 Y115.849 E0.23665
G1 X107.377 Y116.269 E0.26004
G1 X107.195 Y116.836 E0.28643
G1 X106.856 Y116.005 E0.32622
G92 E0
G1 E-1.4 F3000
;WIPE_START
G1 F7200
G1 X105.982 Y115.461 E-1.80726
G1 X106.371 Y115.326 E-1.97
;WIPE_END
G1 E-2 F3000
; acceleration to travel
M204 S1500
G1 X106.22 Y123.113 F9000
; decel to extrusion
M204 S500
G1 X106.202 Y124.064
; end travel
G1 E0 F3000
G1 F1200
G1 X106.937 Y123.465 E0.04204
G1 X107.13 Y122.879 E0.0694
G1 X107.655 Y123.72 E0.11334
G1 X108.398 Y124.024 E0.14894
G1 X107.76 Y124.367 E0.18103
G1 X107.479 Y124.652 E0.19881
G1 X107.15 Y125.271 E0.22987
G1 X106.877 Y124.564 E0.26348
G1 X106.25 Y124.1 E0.29804
G92 E0
G1 E-1.4 F3000
;WIPE_START
G1 F7200
G1 X106.937 Y123.465 E-1.7703
G1 X107.095 Y122.986 E-1.97
;WIPE_END
G1 E-2 F3000
; acceleration to travel
M204 S1500
G1 X100.543 Y123.927 F9000
; decel to extrusion
M204 S500
G1 X99.742 Y124.042
; end travel
G1 E0 F3000
G1 F1200
G1 X99.137 Y124.431 E0.03191
G1 X98.814 Y124.827 E0.05453
G1 X98.527 Y124.723 E0.06806
G1 X98.542 Y123.378 E0.12766
G1 X98.869 Y123.3 E0.14254
G1 X99.037 Y123.624 E0.15872
G1 X99.691 Y124.011 E0.19238
G92 E0
G1 E-1.4 F3000
;WIPE_START
G1 F7200
G1 X99.137 Y124.431 E-1.67509
G1 X98.814 Y124.827 E-1.87716
G1 X98.594 Y124.747 E-1.97
;WIPE_END
G1 E-2 F3000
; acceleration to travel
M204 S1500
G1 X99.382 Y131.591 F9000
; decel to extrusion
M204 S500
G1 X99.479 Y132.427
; end travel
G1 E0 F3000
G1 F1200
G1 X99.257 Y132.739 E0.01697
G1 X98.885 Y132.534 E0.03579
G1 X98.746 Y132.417 E0.04383
G1 X98.686 Y132.329 E0.04855
G1 X98.596 Y132.063 E0.06101
G1 X98.873 Y131.88 E0.07573
G1 X99.434 Y132.386 E0.1092
G92 E0
G1 E-1.4 F3000
;WIPE_START
G1 F7200
G1 X99.257 Y132.739 E-1.55608
G1 X98.885 Y132.534 E-1.72416
G1 X98.746 Y132.417 E-1.79591
G1 X98.686 Y132.329 E-1.83812
G1 X98.596 Y132.063 E-1.94935
G1 X98.639 Y132.034 E-1.97
;WIPE_END
G1 E-2 F3000
; acceleration to travel
M204 S1500
G1 X106.209 Y131.382 F9000
; decel to extrusion
M204 S500
G1 X107.133 Y131.303
; end travel
G1 E0 F3000
G1 F1200
G1 X107.618 Y132.22 E0.04597
G1 X107.967 Y132.397 E0.06331
G1 X107.884 Y132.729 E0.07846
G1 X107.192 Y132.717 E0.10913
G1 X106.502 Y132.739 E0.13976
G1 X106.393 Y132.453 E0.15332
G1 X106.94 Y131.993 E0.18499
G1 X107.117 Y131.361 E0.21412
G92 E0
G1 E-1.4 F3000
;WIPE_START
G1 F7200
G1 X107.618 Y132.22 E-1.79365
G1 X107.967 Y132.397 E-1.94852
G1 X107.954 Y132.45 E-1.97
;WIPE_END
G1 E-2 F3000
; acceleration to travel
M204 S1500
G1 X114.898 Y131.528 F9000
; decel to extrusion
M204 S500
G1 X115.747 Y131.415
; end travel
G1 E0 F3000
G1 F1200
G1 X116.16 Y132.162 E0.03783
G1 X116.509 Y132.416 E0.05695
G1 X116.405 Y132.717 E0.07107
G1 X114.77 Y132.654 E0.14357
G1 X115.487 Y132.051 E0.18505
G1 X115.724 Y131.471 E0.21283
G92 E0
G1 E-1.4 F3000
;WIPE_START
G1 F7200
G1 X116.16 Y132.162 E-1.72352
G1 X116.509 Y132.416 E-1.89427
G1 X116.446 Y132.597 E-1.97
;WIPE_END
G1 E-2 F3000
; acceleration to travel
M204 S1500
G1 X115.974 Y125.807 F9000
; decel to extrusion
M204 S500
G1 X115.916 Y124.978
; end travel
G1 E0 F3000
G1 F1200
G1 X115.604 Y124.991 E0.01383
G1 X115.446 Y124.569 E0.03382
G1 X114.634 Y123.974 E0.07846
G1 X115.074 Y123.862 E0.09858
G1 X115.452 Y123.477 E0.1225
G1 X115.704 Y122.939 E0.14882
G1 X116.25 Y123.737 E0.19168
G1 X116.918 Y124.011 E0.2237
G1 X116.28 Y124.399 E0.2568
G1 X115.974 Y124.772 E0.27821
G1 X115.932 Y124.92 E0.28501
G92 E0
G1 E-1.4 F3000
;WIPE_START
G1 F7200
G1 X115.604 Y124.991 E-1.5328
G1 X115.446 Y124.569 E-1.71132
G1 X114.919 Y124.183 E-1.97
;WIPE_END
G1 E-2 F3000
; acceleration to travel
M204 S1500
G1 X123.323 Y125.017 F9000
; decel to extrusion
M204 S500
G1 X124.35 Y125.119
; end travel
G1 E0 F3000
G1 F1200
G1 X123.931 Y124.451 E0.03496
G1 X123.171 Y124.002 E0.07407
G1 X123.655 Y123.859 E0.09645
G1 X124.043 Y123.519 E0.11931
G1 X124.264 Y123.101 E0.1403
G1 X124.869 Y123.813 E0.18172
G1 X125.175 Y123.907 E0.19592
G1 X125.185 Y124.214 E0.20951
G1 X124.999 Y124.285 E0.21838
G1 X124.617 Y124.595 E0.24018
G1 X124.377 Y125.066 E0.2636
G92 E0
G1 E-1.4 F3000
;WIPE_START
G1 F7200
G1 X123.931 Y124.451 E-1.7007
G1 X123.345 Y124.105 E-1.97
;WIPE_END
G1 E-2 F3000
; acceleration to travel
M204 S1500
G1 X130.881 Y124.041 F9000
; decel to extrusion
M204 S500
G1 X131.802 Y124.034
; end travel
G1 E0 F3000
G1 F1200
G1 X132.252 Y123.863 E0.02131
G1 X132.933 Y123.252 E0.0619
G1 X132.941 Y124.944 E0.1369
G1 X132.348 Y124.318 E0.17512
G1 X131.855 Y124.061 E0.19975
G92 E0
G1 E-1.4 F3000
;WIPE_START
G1 F7200
G1 X132.252 Y123.863 E-1.57539
G1 X132.933 Y123.252 E-1.93789
G1 X132.934 Y123.333 E-1.97
;WIPE_END
G1 E-2 F3000
; acceleration to travel
M204 S1500
G1 X125.193 Y130.641 F9000
; decel to extrusion
M204 S500
G1 X124.247 Y131.534
; end travel
G1 E0 F3000
G1 F1200
G1 X124.739 Y132.275 E0.03945
G1 X124.883 Y132.356 E0.04673
G1 X124.797 Y132.677 E0.06147
G1 X124.247 Y132.675 E0.08584
G1 X123.349 Y132.706 E0.12568
G1 X124.107 Y132.001 E0.17155
G1 X124.23 Y131.592 E0.1905
G92 E0
G1 E-1.4 F3000
;WIPE_START
G1 F7200
G1 X124.739 Y132.275 E-1.73759
G1 X124.883 Y132.356 E-1.80267
G1 X124.797 Y132.677 E-1.93423
G1 X124.707 Y132.677 E-1.97
;WIPE_END
G1 E-2 F3000
; acceleration to travel
M204 S1500
G1 X124.349 Y108.789 F9000
; decel to extrusion
M204 S500
G1 X124.305 Y105.871
; end travel
G1 E0 F3000
G1 F1200
G1 X124.484 Y106.397 E0.02464
G1 X124.926 Y106.779 E0.05051
G1 X125.3 Y106.918 E0.06823
G1 X124.742 Y107.28 E0.09774
G1 X124.272 Y107.803 E0.1289
G1 X123.889 Y107.253 E0.15861
G1 X123.176 Y106.92 E0.19348
G1 X123.688 Y106.715 E0.21791
G1 X124.06 Y106.393 E0.23974
G1 X124.279 Y105.925 E0.26265
G92 E0
G1 E-1.4 F3000
;WIPE_START
G1 F7200
G1 X124.484 Y106.397 E-1.60362
G1 X124.926 Y106.779 E-1.83469
G1 X125.246 Y106.898 E-1.97
;WIPE_END
G1 E-2 F3000
; acceleration to travel
M204 S1500
G1 X116.755 Y106.003 F9000
; decel to extrusion
M204 S500
G1 X115.718 Y105.893
; end travel
G1 E0 F3000
G1 F1200
G1 X116.181 Y106.581 E0.03674
G1 X116.976 Y107.001 E0.07662
G1 X116.454 Y107.139 E0.10054
G1 X116.054 Y107.489 E0.12414
G1 X115.811 Y107.96 E0.14761
G1 X115.246 Y107.217 E0.18895
G1 X114.472 Y106.96 E0.22512
G1 X115.106 Y106.707 E0.25542
G1 X115.498 Y106.364 E0.2785
G1 X115.692 Y105.948 E0.29885
G92 E0
G1 E-1.4 F3000
;WIPE_START
G1 F7200
G1 X116.181 Y106.581 E-1.71652
G1 X116.747 Y106.88 E-1.97
;WIPE_END
G1 E-2 F3000
; acceleration to travel
M204 S1500
G1 X107.165 Y106.916 F9000
; decel to extrusion
M204 S500
G1 X105.995 Y106.92
; end travel
G1 E0 F3000
G1 F1200
G1 X106.527 Y106.715 E0.02527
G1 X106.905 Y106.396 E0.04718
G1 X107.188 Y105.838 E0.07491
G1 X107.585 Y106.54 E0.11064
G1 X108.396 Y106.985 E0.15165
G1 X107.844 Y107.19 E0.17772
G1 X107.515 Y107.478 E0.19711
G1 X107.242 Y107.971 E0.22209
G1 X106.706 Y107.281 E0.2608
G1 X106.048 Y106.947 E0.29349
G92 E0
G1 E-1.4 F3000
;WIPE_START
G1 F7200
G1 X106.527 Y106.715 E-1.61053
G1 X106.905 Y106.396 E-1.80621
G1 X107.092 Y106.027 E-1.97
;WIPE_END
G1 E-2 F3000
; acceleration to travel
M204 S1500
G1 X115.476 Y115.259 F9000
; decel to extrusion
M204 S500
G1 X116.5 Y116.387
; end travel
G1 E0 F3000
;TYPE:External perimeter
G1 F1200
G1 X116.376 Y116.587 E0.01043
G1 X116.314 Y116.784 E0.0196
G1 X116.295 Y116.985 E0.02856
G1 X116.38 Y118.154 E0.08049
G1 X116.385 Y121.991 E0.25056
G1 X116.337 Y122.619 E0.27848
