; generated by SuperSlicer 2.4 on 2023-02-14 at 16:39:44 UTC

; 

; external perimeters extrusion width = 0.43mm
; perimeters extrusion width = 0.48mm
; infill extrusion width = 0.46mm
; solid infill extrusion width = 0.48mm
; top infill extrusion width = 0.46mm
; first layer extrusion width = 0.58mm

; object:{"name":"diamond_1_thick","id":"diamond_1_thick.stl id:0 copy 0","object_center":[115.326170,115.533311,0.000000],"boundingbox_center":[115.326170,115.533311,13.978030],"boundingbox_size":[42.160087,33.300946,27.956060]}
; Total objects to print: 1
M486 T1
; plater:{"center":[115.326170,115.533311,0.000000],"boundingbox_center":[115.326170,115.533311,13.978030],"boundingbox_size":[42.160087,33.300946,27.956060]}

;TYPE:Custom
G90 ; use absolute coordinates
M83 ; extruder relative mode
M140 S60 ; set final bed temp
M104 S150 ; set temporary nozzle temp to prevent oozing during homing and auto bed leveling
G4 S10 ; allow partial nozzle warmup
G28 ; home all axis
;G29 ; auto bed levelling
G1 Z10 F240
G1 X2 Y10 F3000
G1 Z0 F240
M104 S220 ; set final nozzle temp
M190 S60 ; wait for bed temp to stabilize
M109 S220 ; wait for nozzle temp to stabilize
G1 Z0.28 F240
G92 E0
G1 Y100 E7.1 F1500 ; prime the nozzle
G1 X2.3 F5000
G92 E0
G1 Y10 E10 F1200 ; prime the nozzle
G92 E0
;start
M107
G21 ; set units to millimeters
G90 ; use absolute coordinates
M82 ; use absolute distances for extrusion
G92 E0
; Filament gcode
;_TOOLCHANGE 0
M107
;LAYER_CHANGE
;Z:0.2
;HEIGHT:0.2
;BEFORE_LAYER_CHANGE
;0.2


G1 E-2 F3000
G1 Z0.15 F9000
;AFTER_LAYER_CHANGE
;0.2
G92 E0
M204 S500
G1 X110.666 Y98.974
G1 E2 F3000
;TYPE:Skirt
;WIDTH:0.48
G1 F900
G1 X109.965 Y99.759 E2.03824
G1 X94.327 Y123.429 E3.06928
G1 X93.189 Y125.387 E3.15158
G1 X92.898 Y126.05 E3.17791
G1 X92.665 Y127.471 E3.23023
G1 X93.215 Y129.245 E3.29775
G1 X94.502 Y130.439 E3.36154
G1 X95.341 Y130.773 E3.39436
G1 X96.126 Y130.897 E3.42322
G1 X98.957 Y130.723 E3.52632
G1 X126.221 Y127.538 E4.5239
G1 X127.694 Y127.222 E4.57865
G1 X128.736 Y126.73 E4.62054
G1 X129.678 Y125.933 E4.66539
G1 X130.11 Y125.314 E4.69283
G1 X130.54 Y123.985 E4.74357
G1 X130.549 Y123.302 E4.76841
G1 X130.375 Y122.457 E4.79977
G1 X130.087 Y121.769 E4.82688
G1 X128.335 Y118.667 E4.95635
G1 X116.891 Y100.131 E5.74805
G1 X116.101 Y99.155 E5.79368
G1 X115.267 Y98.429 E5.83389
G1 X113.499 Y97.851 E5.90148
G1 X112.379 Y97.98 E5.94246
G1 X111.807 Y98.181 E5.96449
G1 X110.793 Y98.832 E6.00828
G1 X110.706 Y98.93 E6.01303
G92 E0
G1 E-1.4 F3000
;WIPE_START
G1 F7200
G1 X109.965 Y99.759 E-1.84021
G1 X109.784 Y100.032 E-1.97
;WIPE_END
G1 E-2 F3000
; printing object diamond_1_thick.stl id:0 copy 0
M486 S0
; acceleration to travel
M204 S1500
G1 X106.383 Y123.337 F9000
; decel to extrusion
M204 S500
G1 X105.967 Y126.184
; end travel
G1 E0 F3000
;TYPE:Thin wall
;WIDTH:0.690517
G1 F900
G1 X105.95 Y126.057 E0.00688
;WIDTH:0.567567
G1 X105.928 Y125.961 E0.0112
;WIDTH:0.491026
G1 X105.91 Y125.891 E0.01387
G1 X105.888 Y125.819 E0.0167
;WIDTH:0.400079
G1 X105.858 Y125.714 E0.01994
G1 X105.834 Y125.643 E0.02215
G1 X105.747 Y125.451 E0.02842
G1 X105.73 Y125.42 E0.02946
G1 X105.627 Y125.267 E0.03495
G1 X105.524 Y125.114 E0.04043
G1 X105.362 Y124.857 E0.04945
G1 X105.201 Y124.6 E0.05847
G1 X102.666 Y120.482 E0.20205
G1 X102.358 Y119.971 E0.21977
G1 X102.282 Y119.834 E0.22443
G1 X102.205 Y119.697 E0.22909
G1 X102.155 Y119.621 E0.23182
G1 X102.041 Y119.471 E0.23739
G1 X101.984 Y119.411 E0.23987
G1 X101.889 Y119.331 E0.24355
;WIDTH:0.462378
G1 X101.84 Y119.282 E0.24597
;WIDTH:0.547495
G1 X101.733 Y119.19 E0.25189
;WIDTH:0.675372
G1 X101.641 Y119.127 E0.25774
;WIDTH:0.86593
G1 X101.593 Y119.046 E0.26415
;WIDTH:0.745782
G1 X101.619 Y118.914 E0.27203
;WIDTH:0.686911
G1 X101.631 Y118.863 E0.27484
;WIDTH:0.643568
G1 X101.66 Y118.756 E0.28037
;WIDTH:0.599136
G1 X101.689 Y118.672 E0.28447
G1 X101.719 Y118.604 E0.28792
;WIDTH:0.546139
G1 X101.775 Y118.49 E0.29326
G1 X101.815 Y118.421 E0.29657
;WIDTH:0.512686
G1 X102.032 Y118.113 E0.31128
G1 X102.254 Y117.795 E0.32644
G1 X102.813 Y116.958 E0.36575
G1 X103.156 Y116.424 E0.39053
G1 X103.499 Y115.89 E0.41532
G1 X103.661 Y115.655 E0.42648
;WIDTH:0.560942
G1 X103.813 Y115.433 E0.43807
G1 X104.031 Y115.087 E0.45569
G1 X104.248 Y114.741 E0.47331
G1 X104.332 Y114.625 E0.47944
G1 X104.707 Y114.053 E0.5089
G1 X105.081 Y113.481 E0.53835
G1 X105.206 Y113.297 E0.54792
G1 X105.331 Y113.114 E0.5575
G1 X105.402 Y112.995 E0.56344
G1 X105.472 Y112.902 E0.56847
G1 X105.721 Y112.519 E0.58813
G1 X105.97 Y112.137 E0.60779
G1 X106.162 Y111.856 E0.62242
G1 X106.346 Y111.586 E0.63653
G1 X106.506 Y111.329 E0.64955
G1 X106.666 Y111.073 E0.66257
G1 X106.781 Y110.896 E0.67163
;WIDTH:0.514639
G1 X106.895 Y110.72 E0.67989
G1 X106.924 Y110.679 E0.68184
G1 X106.987 Y110.6 E0.68581
G1 X107.05 Y110.521 E0.68978
;WIDTH:0.549112
G1 X107.107 Y110.459 E0.6933
G1 X107.181 Y110.391 E0.69752
;WIDTH:0.642764
G1 X107.254 Y110.323 E0.70252
;WIDTH:0.683939
G1 X107.363 Y110.241 E0.7098
;WIDTH:0.776214
G1 X107.475 Y110.171 E0.71781
G92 E0
G1 E-1.4 F3000
;WIPE_START
G1 F7200
G1 X107.363 Y110.241 E-1.45202
;WIPE_END
G1 E-2 F3000
; acceleration to travel
M204 S1500
G1 X102.215 Y118.123 F9000
; decel to extrusion
M204 S500
G1 X101.587 Y119.086
; end travel
G1 E0 F3000
;WIDTH:0.760393
G1 F900
G1 X101.483 Y119.152 E0.00729
;WIDTH:0.670161
G1 X101.38 Y119.232 E0.01409
;WIDTH:0.602181
G1 X101.278 Y119.318 E0.02031
;WIDTH:0.557114
G1 X101.219 Y119.376 E0.02385
G1 X101.156 Y119.449 E0.02796
;WIDTH:0.508969
G1 X101.093 Y119.521 E0.03168
G1 X101.049 Y119.578 E0.03446
G1 X100.901 Y119.807 E0.04502
;WIDTH:0.562402
G1 X100.752 Y120.035 E0.05679
G1 X100.667 Y120.161 E0.06337
G1 X100.52 Y120.386 E0.075
G1 X100.373 Y120.612 E0.08663
G1 X99.541 Y121.856 E0.15127
G1 X99.48 Y121.963 E0.15659
G1 X99.232 Y122.332 E0.17578
G1 X98.984 Y122.7 E0.19497
G1 X98.788 Y123.006 E0.21065
G1 X98.598 Y123.301 E0.22582
G1 X98.503 Y123.438 E0.23303
G1 X98.4 Y123.587 E0.24084
G1 X97.872 Y124.39 E0.28233
G1 X97.344 Y125.192 E0.32382
G1 X97.217 Y125.399 E0.33431
;WIDTH:0.524234
G1 X97.089 Y125.605 E0.34404
G1 X97.023 Y125.696 E0.34853
G1 X96.992 Y125.746 E0.35087
G1 X96.948 Y125.825 E0.35449
G1 X96.787 Y126.058 E0.36584
;WIDTH:0.415725
G1 X96.627 Y126.292 E0.37462
G1 X96.607 Y126.323 E0.37575
G1 X96.509 Y126.497 E0.38194
G1 X96.481 Y126.557 E0.384
G1 X96.444 Y126.656 E0.38727
;WIDTH:0.501551
G1 X96.407 Y126.755 E0.39129
;WIDTH:0.539622
G1 X96.377 Y126.883 E0.39676
;WIDTH:0.633468
G1 X96.36 Y127.023 E0.40368
;WIDTH:0.756096
G1 X96.355 Y127.164 E0.41206
;WIDTH:0.858458
G1 X96.366 Y127.239 E0.41716
G1 X95.884 Y127.409 F9000
;WIDTH:0.316271
G1 F900
G1 X96.021 Y127.379 E0.42035
;WIDTH:0.541666
G1 X96.16 Y127.349 E0.42622
;WIDTH:0.629631
G1 X96.238 Y127.321 E0.43027
;WIDTH:0.743434
G1 X96.299 Y127.286 E0.43435
;WIDTH:0.791534
G1 X96.366 Y127.239 E0.43947
G1 X96.471 Y127.295 E0.44687
;WIDTH:0.731303
G1 X96.601 Y127.34 E0.45476
;WIDTH:0.676067
G1 X96.682 Y127.361 E0.45917
;WIDTH:0.56509
G1 X96.81 Y127.391 E0.46486
;WIDTH:0.528401
G1 X96.872 Y127.401 E0.4674
G1 X96.956 Y127.407 E0.47079
;WIDTH:0.4868
G1 X97.05 Y127.407 E0.47429
G1 X97.194 Y127.404 E0.47958
;WIDTH:0.456374
G1 X97.363 Y127.385 E0.48544
G1 X97.533 Y127.367 E0.4913
;WIDTH:0.488393
G1 X97.623 Y127.348 E0.4947
G1 X97.812 Y127.324 E0.50177
;WIDTH:0.536987
G1 X98.001 Y127.3 E0.50961
G1 X98.34 Y127.268 E0.52357
G1 X98.678 Y127.237 E0.53753
G1 X98.78 Y127.225 E0.54174
G1 X98.896 Y127.212 E0.54655
G1 X99.082 Y127.187 E0.55426
;WIDTH:0.571872
G1 X99.268 Y127.161 E0.56251
G1 X99.663 Y127.12 E0.57999
G1 X100.074 Y127.078 E0.59816
G1 X100.451 Y127.028 E0.61487
G1 X100.827 Y126.979 E0.63157
G1 X101.412 Y126.924 E0.65739
G1 X101.434 Y126.921 E0.65836
G1 X102.016 Y126.843 E0.6842
G1 X102.406 Y126.802 E0.70144
G1 X102.807 Y126.76 E0.71918
G1 X103.428 Y126.682 E0.74673
G1 X104.05 Y126.604 E0.77427
G1 X104.326 Y126.575 E0.78647
G1 X104.601 Y126.546 E0.79868
G1 X104.924 Y126.5 E0.81299
;WIDTH:0.504023
G1 X105.246 Y126.454 E0.82548
G1 X105.288 Y126.446 E0.82712
G1 X105.424 Y126.415 E0.83247
G1 X105.56 Y126.384 E0.83781
;WIDTH:0.54072
G1 X105.663 Y126.348 E0.84233
G1 X105.732 Y126.317 E0.84545
;WIDTH:0.627681
G1 X105.8 Y126.286 E0.8491
;WIDTH:0.665197
G1 X105.902 Y126.228 E0.85515
;WIDTH:0.700858
G1 X105.967 Y126.184 E0.85946
G1 X106.043 Y126.203 E0.86375
;WIDTH:0.657816
G1 X106.163 Y126.227 E0.87003
;WIDTH:0.563212
G1 X106.265 Y126.245 E0.87451
;WIDTH:0.511925
G1 X106.346 Y126.252 E0.87767
;WIDTH:0.464725
G1 X106.441 Y126.263 E0.88102
;WIDTH:0.429601
G1 X106.491 Y126.265 E0.88262
G1 X106.599 Y126.265 E0.8861
;WIDTH:0.4
G1 X106.707 Y126.264 E0.88931
G1 X106.814 Y126.251 E0.89251
G1 X106.871 Y126.245 E0.89422
G1 X107.082 Y126.204 E0.90059
G1 X107.219 Y126.194 E0.90466
G1 X107.261 Y126.191 E0.9059
G1 X107.394 Y126.175 E0.90991
G1 X107.461 Y126.161 E0.91192
G1 X107.588 Y126.153 E0.91571
G1 X107.732 Y126.143 E0.91998
G1 X108.18 Y126.095 E0.93338
;WIDTH:0.505423
G1 X108.629 Y126.047 E0.95074
G1 X108.908 Y126.024 E0.96148
;WIDTH:0.535807
G1 X109.186 Y126.002 E0.97293
G1 X109.305 Y125.989 E0.97782
G1 X109.438 Y125.974 E0.98331
G1 X110.007 Y125.894 E1.00687
G1 X110.449 Y125.848 E1.02508
G1 X110.556 Y125.844 E1.02945
G1 X110.604 Y125.84 E1.03142
G1 X110.986 Y125.791 E1.04722
G1 X111.368 Y125.741 E1.06302
G1 X111.662 Y125.713 E1.0751
G1 X111.972 Y125.684 E1.08788
G1 X113.209 Y125.527 E1.13898
G1 X114.009 Y125.445 E1.17192
G1 X114.409 Y125.391 E1.18849
;WIDTH:0.567635
G1 X114.793 Y125.34 E1.20538
G1 X114.973 Y125.323 E1.21325
G1 X115.402 Y125.269 E1.23214
;WIDTH:0.476135
G1 X115.832 Y125.215 E1.24774
G1 X115.871 Y125.208 E1.24917
G1 X116.129 Y125.154 E1.25867
G1 X116.209 Y125.13 E1.26167
;WIDTH:0.513546
G1 X116.277 Y125.103 E1.26454
;WIDTH:0.571697
G1 X116.345 Y125.077 E1.26776
;WIDTH:0.60236
G1 X116.442 Y125.029 E1.27277
;WIDTH:0.685046
G1 X116.563 Y124.956 E1.28032
;WIDTH:0.722885
G1 X116.605 Y124.932 E1.28304
G1 X116.699 Y124.963 E1.28864
;WIDTH:0.676006
G1 X116.796 Y124.987 E1.2939
;WIDTH:0.645114
G1 X116.889 Y125.003 E1.29863
;WIDTH:0.554432
G1 X116.982 Y125.019 E1.30265
G1 X117.061 Y125.027 E1.30602
G1 X117.211 Y125.031 E1.31238
;WIDTH:0.469307
G1 X117.36 Y125.035 E1.31769
G1 X117.431 Y125.032 E1.32019
G1 X117.668 Y125.002 E1.32867
;WIDTH:0.51792
G1 X117.905 Y124.972 E1.33811
G1 X118.237 Y124.941 E1.35127
G1 X118.569 Y124.911 E1.36442
G1 X118.68 Y124.897 E1.36883
G1 X118.802 Y124.882 E1.37372
G1 X119.061 Y124.843 E1.38404
;WIDTH:0.552111
G1 X119.319 Y124.805 E1.3951
G1 X119.382 Y124.797 E1.39776
G1 X119.654 Y124.772 E1.40935
G1 X119.927 Y124.747 E1.42094
G1 X119.947 Y124.745 E1.42182
G1 X120.522 Y124.671 E1.44636
G1 X120.827 Y124.642 E1.45933
G1 X121.149 Y124.612 E1.473
G1 X121.76 Y124.535 E1.49908
G1 X122.371 Y124.458 E1.52515
G1 X122.872 Y124.404 E1.54649
G1 X123.386 Y124.349 E1.56837
G1 X123.667 Y124.311 E1.58038
G1 X123.948 Y124.274 E1.59238
G1 X124.247 Y124.247 E1.60509
G1 X124.546 Y124.219 E1.6178
G1 X124.567 Y124.216 E1.61871
G1 X124.942 Y124.167 E1.63475
G1 X125.318 Y124.117 E1.65078
G1 X125.5 Y124.1 E1.65854
G1 X125.683 Y124.083 E1.66629
G1 X125.984 Y124.049 E1.67911
;WIDTH:0.504143
G1 X126.284 Y124.014 E1.69073
G1 X126.328 Y124.008 E1.69242
G1 X126.504 Y123.961 E1.69939
G1 X126.679 Y123.915 E1.70636
G1 X126.748 Y123.882 E1.70925
;WIDTH:0.473773
G1 X126.82 Y123.84 E1.71225
G1 X126.892 Y123.798 E1.71524
G1 X126.998 Y123.718 E1.72001
;WIDTH:0.514919
G1 X127.066 Y123.635 E1.72421
;WIDTH:0.470649
G1 X127.097 Y123.561 E1.72707
;WIDTH:0.400415
G1 X127.111 Y123.423 E1.73121
G1 X127.123 Y123.307 E1.73467
;WIDTH:0.22
G1 X127.137 Y123.168 E1.73673
G92 E0
G1 E-1.4 F3000
;WIPE_START
G1 F7200
G1 X127.123 Y123.307 E-1.45542
;WIPE_END
G1 E-2 F3000
; acceleration to travel
M204 S1500
G1 X117.75 Y124.755 F9000
; decel to extrusion
M204 S500
G1 X116.605 Y124.932
; end travel
G1 E0 F3000
;WIDTH:0.713266
G1 F900
G1 X116.58 Y124.824 E0.00623
;WIDTH:0.589967
G1 X116.556 Y124.716 E0.01125
;WIDTH:0.497293
G1 X116.53 Y124.622 E0.01492
;WIDTH:0.425808
G1 X116.49 Y124.515 E0.01856
G1 X116.454 Y124.41 E0.02209
G1 X116.372 Y124.24 E0.02811
G1 X116.356 Y124.212 E0.02913
G1 X116.185 Y123.93 E0.03963
G1 X115.835 Y123.389 E0.06014
G1 X115.767 Y123.266 E0.06461
G1 X115.695 Y123.162 E0.06865
G1 X115.361 Y122.619 E0.08896
G1 X115.026 Y122.075 E0.10928
G1 X114.971 Y121.972 E0.11301
G1 X114.945 Y121.929 E0.11459
G1 X114.883 Y121.841 E0.11802
G1 X114.21 Y120.746 E0.15894
G1 X114.152 Y120.637 E0.16289
G1 X113.392 Y119.419 E0.20857
G1 X113.347 Y119.332 E0.21169
G1 X113.322 Y119.29 E0.21327
G1 X113.251 Y119.189 E0.21719
G1 X112.919 Y118.649 E0.23739
G1 X112.586 Y118.109 E0.25758
G1 X112.539 Y118.018 E0.26082
G1 X112.466 Y117.912 E0.26491
G1 X112.267 Y117.589 E0.27702
G1 X112.067 Y117.265 E0.28913
G1 X112.014 Y117.164 E0.29277
G1 X111.988 Y117.123 E0.29432
G1 X111.926 Y117.034 E0.29776
G1 X111.26 Y115.953 E0.33818
G1 X111.213 Y115.862 E0.34145
G1 X111.186 Y115.818 E0.34309
G1 X111.118 Y115.721 E0.34686
G1 X110.78 Y115.173 E0.36734
G1 X110.443 Y114.625 E0.38782
G1 X110.397 Y114.537 E0.39099
G1 X110.372 Y114.494 E0.39258
G1 X110.3 Y114.391 E0.39659
G1 X109.63 Y113.305 E0.43721
G1 X109.572 Y113.194 E0.44119
G1 X109.543 Y113.148 E0.44291
G1 X109.486 Y113.069 E0.44604
G1 X109.151 Y112.525 E0.46636
G1 X108.816 Y111.982 E0.48669
G1 X108.757 Y111.871 E0.49069
G1 X108.728 Y111.824 E0.49244
G1 X108.673 Y111.748 E0.49543
G1 X108.537 Y111.525 E0.50376
G1 X108.393 Y111.288 E0.51258
G1 X108.067 Y110.736 E0.53298
G1 X108.043 Y110.701 E0.53432
G1 X107.945 Y110.574 E0.53943
G1 X107.913 Y110.538 E0.54098
G1 X107.821 Y110.447 E0.5451
G1 X107.785 Y110.406 E0.54683
;WIDTH:0.504454
G1 X107.7 Y110.326 E0.55132
;WIDTH:0.619669
G1 X107.59 Y110.238 E0.55804
;WIDTH:0.711312
G1 X107.495 Y110.159 E0.56491
;WIDTH:0.740916
G1 X107.525 Y110.019 E0.57322
G1 X107.544 Y109.95 E0.57739
;WIDTH:0.698637
G1 X107.583 Y109.829 E0.58431
;WIDTH:0.588075
G1 X107.622 Y109.708 E0.59006
G1 X107.666 Y109.606 E0.59508
;WIDTH:0.557547
G1 X107.72 Y109.508 E0.5999
G1 X107.801 Y109.368 E0.60681
;WIDTH:0.525861
G1 X107.881 Y109.228 E0.6133
G1 X107.903 Y109.193 E0.61496
G1 X108.086 Y108.927 E0.62791
;WIDTH:0.569838
G1 X108.268 Y108.66 E0.64205
G1 X108.333 Y108.558 E0.64736
G1 X108.398 Y108.456 E0.65268
G1 X108.509 Y108.287 E0.66153
G1 X108.619 Y108.117 E0.67038
G1 X108.629 Y108.103 E0.67116
G1 X108.756 Y107.92 E0.68093
G1 X108.884 Y107.737 E0.69069
G1 X108.969 Y107.598 E0.69782
G1 X109.053 Y107.459 E0.70495
G1 X109.063 Y107.443 E0.70577
G1 X109.2 Y107.235 E0.71668
G1 X109.337 Y107.027 E0.72759
G1 X109.399 Y106.943 E0.73217
G1 X109.449 Y106.857 E0.73653
G1 X109.932 Y106.133 E0.77467
G1 X110.415 Y105.409 E0.81281
G1 X110.454 Y105.344 E0.81609
G1 X110.509 Y105.253 E0.82076
G1 X110.97 Y104.564 E0.85711
G1 X111.432 Y103.875 E0.89345
G1 X112.018 Y102.97 E0.94069
G1 X112.174 Y102.743 E0.95276
G1 X112.322 Y102.529 E0.96415
G1 X112.65 Y102.005 E0.99122
G1 X112.696 Y101.935 E0.99488
;WIDTH:0.530545
G1 X112.777 Y101.817 E1.00069
G1 X112.803 Y101.785 E1.00235
G1 X112.949 Y101.621 E1.01129
;WIDTH:0.565777
G1 X113.023 Y101.551 E1.01571
G1 X113.061 Y101.522 E1.0178
;WIDTH:0.615606
G1 X113.178 Y101.447 E1.02438
G1 X113.257 Y101.414 E1.02849
;WIDTH:0.649104
G1 X113.396 Y101.407 E1.0355
;WIDTH:0.518247
G1 X113.413 Y101.41 E1.03619
G1 X113.527 Y101.47 E1.04134
;WIDTH:0.46098
G1 X113.617 Y101.532 E1.04514
;WIDTH:0.400014
G1 X113.72 Y101.603 E1.04887
G1 X113.769 Y101.642 E1.05074
G1 X113.835 Y101.703 E1.05341
G1 X113.929 Y101.805 E1.05751
G1 X113.955 Y101.839 E1.05878
G1 X114.11 Y102.07 E1.06704
G1 X114.272 Y102.336 E1.07629
G1 X114.363 Y102.478 E1.0813
G1 X114.502 Y102.707 E1.08927
G1 X114.641 Y102.937 E1.09723
G1 X115.056 Y103.611 E1.12075
G1 X115.472 Y104.286 E1.14427
G1 X115.525 Y104.386 E1.14765
G1 X115.743 Y104.744 E1.16007
G1 X115.961 Y105.101 E1.1725
G1 X116.097 Y105.301 E1.17969
G1 X116.233 Y105.501 E1.18688
G1 X116.294 Y105.617 E1.19075
G1 X117.047 Y106.851 E1.2337
;WIDTH:0.432144
G1 X117.8 Y108.086 E1.28051
G1 X117.868 Y108.183 E1.28432
G1 X117.948 Y108.299 E1.2889
G1 X118.391 Y109.02 E1.31629
G1 X118.834 Y109.742 E1.34368
