; generated by SuperSlicer 2.4 on 2023-02-14 at 16:42:57 UTC

; 

; external perimeters extrusion width = 0.43mm
; perimeters extrusion width = 0.48mm
; infill extrusion width = 0.46mm
; solid infill extrusion width = 0.48mm
; top infill extrusion width = 0.46mm
; first layer extrusion width = 0.58mm

; object:{"name":"ffffff","id":"ffffff.stl id:0 copy 0","object_center":[115.500000,115.500000,0.000000],"boundingbox_center":[115.500000,115.500000,7.000000],"boundingbox_size":[30.000000,30.000000,14.000000]}
; Total objects to print: 1
M486 T1
; plater:{"center":[115.500000,115.500000,0.000000],"boundingbox_center":[115.500000,115.500000,7.000000],"boundingbox_size":[30.000000,30.000000,14.000000]}

;TYPE:Custom
G90 ; use absolute coordinates
M83 ; extruder relative mode
M140 S60 ; set final bed temp
M104 S150 ; set temporary nozzle temp to prevent oozing during homing and auto bed leveling
G4 S10 ; allow partial nozzle warmup
G28 ; home all axis
;G29 ; auto bed levelling
G1 Z10 F240
G1 X2 Y10 F3000
G1 Z0 F240
M104 S220 ; set final nozzle temp
M190 S60 ; wait for bed temp to stabilize
M109 S220 ; wait for nozzle temp to stabilize
G1 Z0.28 F240
G92 E0
G1 Y100 E7.1 F1500 ; prime the nozzle
G1 X2.3 F5000
G92 E0
G1 Y10 E10 F1200 ; prime the nozzle
G92 E0
;start
M107
G21 ; set units to millimeters
G90 ; use absolute coordinates
M82 ; use absolute distances for extrusion
G92 E0
; Filament gcode
;_TOOLCHANGE 0
M107
;LAYER_CHANGE
;Z:0.2
;HEIGHT:0.2
;BEFORE_LAYER_CHANGE
;0.2


G1 E-2 F3000
G1 Z0.15 F9000
;AFTER_LAYER_CHANGE
;0.2
G92 E0
M204 S500
G1 X99.015 Y99.969
G1 E2 F3000
;TYPE:Skirt
;WIDTH:0.48
G1 F1200
G1 X98.39 Y100.849 E2.0392
G1 X97.849 Y101.973 E2.08454
G1 X97.541 Y103.007 E2.12374
G1 X97.39 Y104.244 E2.16903
G1 X97.388 Y126.707 E2.98543
G1 X97.477 Y127.637 E3.01937
G1 X97.653 Y128.445 E3.04944
G1 X98.215 Y129.834 E3.10389
G1 X99.079 Y131.112 E3.15994
G1 X100.083 Y132.081 E3.21065
G1 X101.127 Y132.764 E3.25599
G1 X101.973 Y133.151 E3.28981
G1 X102.863 Y133.424 E3.32363
G1 X103.928 Y133.594 E3.36284
G1 X126.707 Y133.612 E4.19071
G1 X127.637 Y133.523 E4.22466
G1 X128.445 Y133.347 E4.25473
G1 X129.744 Y132.835 E4.30543
G1 X131.112 Y131.921 E4.36525
G1 X132.081 Y130.917 E4.41596
G1 X132.764 Y129.873 E4.46129
G1 X133.151 Y129.027 E4.49511
G1 X133.424 Y128.137 E4.52893
G1 X133.594 Y127.072 E4.56814
G1 X133.57 Y103.677 E5.41839
G1 X133.347 Y102.555 E5.45998
G1 X132.835 Y101.256 E5.51069
G1 X132.27 Y100.338 E5.54989
G1 X131.457 Y99.392 E5.59523
G1 X130.626 Y98.704 E5.63443
G1 X129.457 Y98.029 E5.68351
G1 X128.24 Y97.598 E5.7304
G1 X127.175 Y97.418 E5.76966
G1 X103.825 Y97.418 E6.61829
G1 X102.556 Y97.653 E6.66518
G1 X101.256 Y98.165 E6.71594
G1 X100.083 Y98.919 E6.76665
G1 X99.057 Y99.927 E6.81892
G92 E0
G1 E-1.4 F3000
;WIPE_START
G1 F7200
G1 X98.39 Y100.849 E-1.85039
G1 X98.259 Y101.121 E-1.97
;WIPE_END
G1 E-2 F3000
; printing object ffffff.stl id:0 copy 0
M486 S0
; acceleration to travel
M204 S1500
G1 X101.762 Y102.327 F9000
; decel to extrusion
M204 S500
G1 X102.19 Y102.474
; end travel
G1 E0 F3000
;TYPE:Internal perimeter
;WIDTH:0.576
G1 F1200
G1 X102.485 Y102.179 E0.01849
G1 X102.617 Y102.071 E0.02606
G1 X102.976 Y101.831 E0.04522
G1 X103.127 Y101.75 E0.0528
G1 X103.526 Y101.585 E0.07196
G1 X103.704 Y101.531 E0.0802
G1 X103.885 Y101.488 E0.08845
G1 X104.299 Y101.434 E0.10694
G1 X126.701 Y101.434 E1.09992
G1 X127.101 Y101.487 E1.11781
G1 X127.486 Y101.59 E1.13548
G1 X127.859 Y101.744 E1.15337
G1 X128.207 Y101.945 E1.17118
G1 X128.538 Y102.199 E1.18967
G1 X128.663 Y102.316 E1.19724
G1 X128.938 Y102.629 E1.21573
G1 X129.169 Y102.976 E1.23422
G1 X129.25 Y103.127 E1.24179
G1 X129.415 Y103.526 E1.26095
G1 X129.465 Y103.69 E1.26853
G1 X129.549 Y104.114 E1.28769
G1 X129.566 Y104.284 E1.29526
G1 X129.566 Y126.716 E2.28959
G1 X129.549 Y126.886 E2.29716
G1 X129.468 Y127.295 E2.31565
G1 X129.339 Y127.676 E2.33347
G1 X129.161 Y128.036 E2.35128
G1 X128.929 Y128.383 E2.36977
G1 X128.821 Y128.515 E2.37734
G1 X128.515 Y128.821 E2.3965
G1 X128.383 Y128.929 E2.40408
G1 X128.024 Y129.169 E2.42324
G1 X127.873 Y129.25 E2.43081
G1 X127.474 Y129.415 E2.44997
G1 X127.31 Y129.465 E2.45755
G1 X126.901 Y129.546 E2.47603
G1 X126.47 Y129.575 E2.49519
G1 X104.284 Y129.566 E3.47859
G1 X104.114 Y129.549 E3.48617
G1 X103.705 Y129.468 E3.50466
G1 X103.324 Y129.339 E3.52248
G1 X102.964 Y129.161 E3.54029
G1 X102.617 Y128.929 E3.55878
G1 X102.485 Y128.821 E3.56635
G1 X102.179 Y128.515 E3.58552
G1 X102.061 Y128.371 E3.59376
G1 X101.953 Y128.22 E3.602
G1 X101.744 Y127.859 E3.62049
G1 X101.585 Y127.474 E3.63898
G1 X101.535 Y127.31 E3.64656
G1 X101.454 Y126.901 E3.66504
G1 X101.425 Y126.47 E3.6842
G1 X101.434 Y104.299 E4.66693
G1 X101.488 Y103.886 E4.68542
G1 X101.527 Y103.719 E4.693
G1 X101.661 Y103.324 E4.71149
G1 X101.846 Y102.95 E4.72998
G1 X101.936 Y102.805 E4.73755
G1 X102.153 Y102.522 E4.75338
G1 X101.785 Y102.119 F9000
;TYPE:External perimeter
G1 F1200
G1 X102.123 Y101.78 E4.7746
G1 X102.296 Y101.639 E4.78451
G1 X102.7 Y101.369 E4.80601
G1 X102.897 Y101.264 E4.81592
G1 X103.345 Y101.078 E4.83743
G1 X103.565 Y101.011 E4.84762
G1 X103.789 Y100.959 E4.85782
G1 X104.264 Y100.897 E4.87904
G1 X126.736 Y100.897 E5.87514
G1 X127.206 Y100.958 E5.89615
G1 X127.659 Y101.08 E5.91695
G1 X128.097 Y101.261 E5.93796
G1 X128.506 Y101.497 E5.95889
G1 X128.886 Y101.789 E5.98011
G1 X129.049 Y101.942 E5.99003
G1 X129.365 Y102.302 E6.01125
G1 X129.631 Y102.7 E6.03247
G1 X129.736 Y102.897 E6.04238
G1 X129.922 Y103.345 E6.06388
G1 X129.987 Y103.559 E6.07379
G1 X130.082 Y104.035 E6.0953
G1 X130.103 Y104.257 E6.10521
G1 X130.103 Y126.743 E7.10188
G1 X130.082 Y126.965 E7.11179
G1 X129.988 Y127.435 E7.13301
G1 X129.836 Y127.882 E7.15395
G1 X129.627 Y128.306 E7.17489
G1 X129.361 Y128.704 E7.19611
G1 X129.22 Y128.877 E7.20602
G1 X128.877 Y129.22 E7.22752
G1 X128.704 Y129.361 E7.23743
G1 X128.3 Y129.631 E7.25894
G1 X128.103 Y129.736 E7.26885
G1 X127.655 Y129.922 E7.29035
G1 X127.441 Y129.987 E7.30027
G1 X126.971 Y130.08 E7.32149
G1 X126.487 Y130.112 E7.34298
G1 X104.258 Y130.103 E8.32834
G1 X104.035 Y130.082 E8.33825
G1 X103.565 Y129.988 E8.35948
G1 X103.118 Y129.836 E8.38041
G1 X102.694 Y129.627 E8.40135
G1 X102.296 Y129.361 E8.42257
G1 X102.123 Y129.22 E8.43248
G1 X101.78 Y128.877 E8.45399
G1 X101.635 Y128.699 E8.46418
G1 X101.501 Y128.512 E8.47437
G1 X101.261 Y128.097 E8.4956
G1 X101.078 Y127.655 E8.51682
G1 X101.013 Y127.441 E8.52673
G1 X100.92 Y126.971 E8.54795
G1 X100.888 Y126.487 E8.56945
G1 X100.897 Y104.264 E9.55452
G1 X100.959 Y103.789 E9.57574
G1 X101.01 Y103.571 E9.58566
G1 X101.164 Y103.118 E9.60688
G1 X101.375 Y102.689 E9.6281
G1 X101.494 Y102.499 E9.63801
G1 X101.748 Y102.167 E9.65657
;WIPE_START
G1 X102.176 Y102.206 F9000
;WIPE_END
G92 E0
G1 E-1.4 F3000
;WIPE_START
G1 F7200
G1 X102.258 Y101.929 E-1.51429
G1 X102.416 Y101.799 E-1.59504
G1 X102.803 Y101.541 E-1.77928
G1 X102.983 Y101.445 E-1.86002
G1 X103.239 Y101.338 E-1.97
;WIPE_END
G1 E-2 F3000
; acceleration to travel
M204 S1500
G1 X124.929 Y101.752 F9000
; decel to extrusion
M204 S500
G1 X127.579 Y101.803
; end travel
G1 E0 F3000
;TYPE:Solid infill
;WIDTH:0.578218
G1 F1200
G1 X128.49 Y102.714 E0.05732
G1 X128.622 Y102.865 E0.06626
G1 X128.897 Y103.303 E0.08929
G1 X129.085 Y103.794 E0.11267
G1 X129.141 Y104.125 E0.12762
G1 X126.868 Y101.852 E0.27068
G1 X126.675 Y101.826 E0.27932
G1 X126.082 Y101.826 E0.3057
G1 X129.174 Y104.918 E0.50023
G1 X129.174 Y105.678 E0.53404
G1 X125.322 Y101.826 E0.7764
G1 X124.562 Y101.826 E0.81022
G1 X129.174 Y106.438 E1.10039
G1 X129.174 Y107.197 E1.13421
G1 X123.803 Y101.826 E1.47221
G1 X123.043 Y101.826 E1.50602
G1 X129.174 Y107.957 E1.89185
G1 X129.174 Y108.717 E1.92566
G1 X122.283 Y101.826 E2.35931
G1 X121.523 Y101.826 E2.39312
G1 X129.174 Y109.477 E2.87459
G1 X129.174 Y110.237 E2.90841
G1 X120.763 Y101.826 E3.43769
G1 X120.003 Y101.826 E3.47151
G1 X129.174 Y110.997 E4.04862
G1 X129.174 Y111.757 E4.08244
G1 X119.243 Y101.826 E4.70737
G1 X118.483 Y101.826 E4.74119
G1 X129.174 Y112.517 E5.41394
G1 X129.174 Y113.277 E5.44776
G1 X117.723 Y101.826 E6.16833
G1 X116.963 Y101.826 E6.20215
G1 X129.174 Y114.037 E6.97055
G1 X129.174 Y114.797 E7.00437
G1 X116.203 Y101.826 E7.82059
G1 X115.443 Y101.826 E7.8544
G1 X129.174 Y115.557 E8.71845
G1 X129.174 Y116.317 E8.75226
G1 X114.683 Y101.826 E9.66413
G1 X113.923 Y101.826 E9.69795
G1 X129.174 Y117.077 E10.65763
G1 X129.174 Y117.837 E10.69145
G1 X113.163 Y101.826 E11.69896
G1 X112.403 Y101.826 E11.73278
G1 X129.174 Y118.597 E12.78811
G1 X129.174 Y119.357 E12.82192
G1 X111.643 Y101.826 E13.92508
G1 X110.883 Y101.826 E13.9589
G1 X129.174 Y120.117 E15.10987
G1 X129.174 Y120.877 E15.14369
G1 X110.123 Y101.826 E16.34249
G1 X109.363 Y101.826 E16.3763
G1 X129.174 Y121.637 E17.62293
G1 X129.174 Y122.397 E17.65674
G1 X108.603 Y101.826 E18.95119
G1 X107.843 Y101.826 E18.985
G1 X129.174 Y123.157 E20.32727
G1 X129.174 Y123.917 E20.36108
G1 X107.083 Y101.826 E21.75117
G1 X106.324 Y101.826 E21.78499
G1 X129.174 Y124.676 E23.2229
G1 X129.174 Y125.436 E23.25672
G1 X105.564 Y101.826 E24.74245
G1 X104.804 Y101.826 E24.77626
G1 X129.174 Y126.196 E26.30982
G1 X129.174 Y126.683 E26.33148
G1 X129.134 Y126.917 E26.34202
G1 X104.084 Y101.866 E27.91838
G1 X103.807 Y101.911 E27.93088
G1 X103.489 Y102.032 E27.94598
G1 X128.977 Y127.52 E29.54987
G1 X128.823 Y127.835 E29.56547
G1 X128.702 Y128.005 E29.57475
G1 X102.994 Y102.297 E31.19249
G1 X102.858 Y102.382 E31.19964
G1 X102.581 Y102.644 E31.21659
G1 X128.354 Y128.417 E32.83841
G1 X128.142 Y128.618 E32.85143
G1 X127.929 Y128.751 E32.8626
G1 X102.242 Y103.065 E34.479
G1 X102.025 Y103.475 E34.49966
G1 X101.994 Y103.576 E34.50438
G1 X127.421 Y129.003 E36.10441
G1 X127.201 Y129.087 E36.11486
G1 X126.85 Y129.157 E36.1308
G1 X126.817 Y129.159 E36.13228
G1 X101.844 Y104.187 E37.70372
G1 X101.826 Y104.325 E37.70993
G1 X101.826 Y104.928 E37.73677
G1 X126.08 Y129.182 E39.26301
G1 X125.32 Y129.182 E39.29684
G1 X101.826 Y105.688 E40.77526
G1 X101.825 Y106.448 E40.80906
G1 X124.559 Y129.182 E42.23967
G1 X123.799 Y129.181 E42.27349
G1 X101.825 Y107.207 E43.65627
G1 X101.825 Y107.967 E43.69007
G1 X123.039 Y129.181 E45.02503
G1 X122.279 Y129.181 E45.05886
G1 X101.824 Y108.727 E46.34599
G1 X101.824 Y109.486 E46.3798
G1 X121.518 Y129.18 E47.61911
G1 X120.758 Y129.18 E47.65294
G1 X101.824 Y110.246 E48.84443
G1 X101.824 Y111.005 E48.87823
G1 X119.998 Y129.18 E50.0219
G1 X119.238 Y129.18 E50.05572
G1 X101.823 Y111.765 E51.15157
G1 X101.823 Y112.525 E51.18537
G1 X118.477 Y129.179 E52.23339
G1 X117.717 Y129.179 E52.26722
G1 X101.823 Y113.284 E53.26742
G1 X101.822 Y114.044 E53.30123
G1 X116.957 Y129.179 E54.2536
G1 X116.197 Y129.178 E54.28743
G1 X101.822 Y114.804 E55.19199
G1 X101.822 Y115.563 E55.22579
G1 X115.436 Y129.178 E56.08253
G1 X114.676 Y129.178 E56.11635
G1 X101.822 Y116.323 E56.92527
G1 X101.821 Y117.083 E56.95907
G1 X113.916 Y129.178 E57.72016
G1 X113.156 Y129.177 E57.75399
G1 X101.821 Y117.842 E58.46725
G1 X101.821 Y118.602 E58.50106
G1 X112.395 Y129.177 E59.1665
G1 X111.635 Y129.177 E59.20033
G1 X101.82 Y119.362 E59.81795
G1 X101.82 Y120.121 E59.85175
G1 X110.875 Y129.176 E60.42156
G1 X110.115 Y129.176 E60.45538
G1 X101.82 Y120.881 E60.97736
G1 X101.82 Y121.641 E61.01116
G1 X109.354 Y129.176 E61.48532
G1 X108.594 Y129.175 E61.51915
G1 X101.819 Y122.4 E61.94548
G1 X101.819 Y123.16 E61.97929
G1 X107.834 Y129.175 E62.3578
G1 X107.074 Y129.175 E62.39163
G1 X101.819 Y123.92 E62.72232
G1 X101.818 Y124.679 E62.75612
G1 X106.313 Y129.175 E63.03899
G1 X105.553 Y129.174 E63.07281
G1 X101.818 Y125.439 E63.30786
G1 X101.818 Y126.199 E63.34166
G1 X104.793 Y129.174 E63.52888
G1 X104.317 Y129.174 E63.55006
G1 X103.975 Y129.116 E63.5655
G1 X101.605 Y126.746 E63.71463
G1 X101.967 Y127.554 F9000
;TYPE:Gap fill
;WIDTH:0.15812
G1 F1200
G1 X102.015 Y127.628 E63.71547
;WIDTH:0.212266
G1 X102.062 Y127.702 E63.71671
G1 X102.145 Y127.806 E63.71857
;WIDTH:0.253111
G1 X102.227 Y127.91 E63.72089
;WIDTH:0.293955
G1 X102.309 Y128.014 E63.72366
;WIDTH:0.334799
G1 X102.392 Y128.118 E63.72688
G1 X102.578 Y128.309 E63.73336
G1 X102.764 Y128.501 E63.73983
G1 X102.961 Y128.667 E63.74611
;WIDTH:0.26388
G1 X103.159 Y128.834 E63.75086
G1 X103.303 Y128.938 E63.75412
;WIDTH:0.15812
G1 X103.447 Y129.041 E63.75583
M106 S84.15
;LAYER_CHANGE
;Z:0.52
;HEIGHT:0.32
;BEFORE_LAYER_CHANGE
;0.52


G92 E0
G1 E-1.4 F3000
;WIPE_START
G1 F7200
G1 X103.303 Y128.938 E-1.47032
;WIPE_END
G1 E-2 F3000
; stop printing object ffffff.stl id:0 copy 0
M486 S-1
G1 Z0.47 F9000
;AFTER_LAYER_CHANGE
;0.52
; printing object ffffff.stl id:0 copy 0
M486 S0
G1 X103.006 Y129.54
G1 E0 F3000
;TYPE:Internal perimeter
;WIDTH:0.476
G1 F2400
G1 X102.803 Y129.44 E0.01228
G1 X102.425 Y129.188 E0.03688
G1 X102.269 Y129.059 E0.04785
G1 X101.941 Y128.731 E0.07299
G1 X101.806 Y128.567 E0.08449
G1 X101.683 Y128.394 E0.096
G1 X101.456 Y128.001 E0.12059
G1 X101.282 Y127.582 E0.14519
G1 X101.223 Y127.388 E0.15616
G1 X101.135 Y126.943 E0.18076
G1 X101.104 Y126.48 E0.20589
G1 X101.113 Y104.278 E1.40905
G1 X101.172 Y103.828 E1.43366
G1 X101.218 Y103.631 E1.44463
G1 X101.364 Y103.201 E1.46923
G1 X101.565 Y102.794 E1.49383
G1 X101.672 Y102.622 E1.50479
G1 X101.948 Y102.262 E1.52939
G1 X102.269 Y101.941 E1.55399
G1 X102.425 Y101.812 E1.56496
G1 X102.811 Y101.555 E1.5901
G1 X102.989 Y101.459 E1.60107
G1 X103.418 Y101.282 E1.6262
G1 X103.621 Y101.22 E1.63771
G1 X103.828 Y101.172 E1.64921
G1 X104.278 Y101.113 E1.67381
G1 X126.722 Y101.113 E2.89008
G1 X127.162 Y101.171 E2.91414
G1 X127.591 Y101.286 E2.9382
G1 X128.001 Y101.456 E2.96226
G1 X128.386 Y101.678 E2.98632
G1 X128.746 Y101.954 E3.01092
G1 X128.894 Y102.092 E3.02189
G1 X129.193 Y102.434 E3.04649
G1 X129.445 Y102.811 E3.07109
G1 X129.541 Y102.989 E3.08206
G1 X129.718 Y103.418 E3.10719
G1 X129.777 Y103.612 E3.11816
G1 X129.867 Y104.067 E3.1433
G1 X129.887 Y104.268 E3.15427
G1 X129.887 Y126.732 E4.37161
G1 X129.867 Y126.933 E4.38258
G1 X129.779 Y127.379 E4.40718
G1 X129.636 Y127.799 E4.43124
G1 X129.44 Y128.197 E4.4553
G1 X129.188 Y128.575 E4.4799
G1 X129.059 Y128.731 E4.49087
G1 X128.731 Y129.059 E4.516
G1 X128.575 Y129.188 E4.52697
G1 X128.189 Y129.445 E4.55211
G1 X128.011 Y129.541 E4.56308
G1 X127.582 Y129.718 E4.58821
G1 X127.388 Y129.777 E4.59918
G1 X126.943 Y129.865 E4.62378
G1 X126.48 Y129.896 E4.64891
G1 X104.268 Y129.887 E5.85261
G1 X104.067 Y129.867 E5.86358
G1 X103.621 Y129.779 E5.88818
G1 X103.201 Y129.636 E5.91225
G1 X103.06 Y129.567 E5.92078
G1 X102.833 Y129.89 F9000
;TYPE:External perimeter
;WIDTH:0.428
G1 F1500
G1 X102.607 Y129.778 E5.93283
G1 X102.193 Y129.501 E5.95667
G1 X102.007 Y129.349 E5.96818
G1 X101.651 Y128.993 E5.99219
G1 X101.496 Y128.805 E6.00386
G1 X101.354 Y128.606 E6.01554
G1 X101.105 Y128.174 E6.03938
G1 X100.914 Y127.714 E6.06322
G1 X100.844 Y127.483 E6.07473
G1 X100.747 Y126.994 E6.09857
G1 X100.714 Y126.493 E6.12257
G1 X100.723 Y104.252 E7.18579
G1 X100.788 Y103.758 E7.20963
G1 X100.842 Y103.524 E7.22113
G1 X101.003 Y103.051 E7.24497
G1 X101.223 Y102.604 E7.26881
G1 X101.35 Y102.4 E7.28032
G1 X101.654 Y102.004 E7.30416
G1 X102.007 Y101.651 E7.328
G1 X102.193 Y101.499 E7.33951
G1 X102.61 Y101.22 E7.36352
G1 X102.822 Y101.106 E7.37503
G1 X103.286 Y100.914 E7.39903
G1 X103.52 Y100.843 E7.41071
G1 X103.758 Y100.788 E7.42238
G1 X104.252 Y100.723 E7.44622
G1 X126.748 Y100.723 E8.52161
G1 X127.239 Y100.787 E8.54528
G1 X127.717 Y100.915 E8.56895
G1 X128.174 Y101.105 E8.59262
G1 X128.603 Y101.352 E8.61629
G1 X128.999 Y101.656 E8.64014
G1 X129.174 Y101.821 E8.65164
G1 X129.503 Y102.196 E8.67548
G1 X129.78 Y102.61 E8.69932
G1 X129.894 Y102.822 E8.71083
G1 X130.086 Y103.286 E8.73484
G1 X130.156 Y103.517 E8.74635
G1 X130.254 Y104.009 E8.77035
G1 X130.277 Y104.249 E8.78186
G1 X130.277 Y126.751 E9.85758
G1 X130.254 Y126.991 E9.86909
G1 X130.157 Y127.48 E9.89293
G1 X129.997 Y127.949 E9.9166
G1 X129.778 Y128.393 E9.94027
G1 X129.501 Y128.807 E9.96411
G1 X129.349 Y128.993 E9.97562
G1 X128.993 Y129.349 E9.99963
G1 X128.807 Y129.501 E10.01114
G1 X128.39 Y129.78 E10.03514
G1 X128.178 Y129.894 E10.04665
G1 X127.714 Y130.086 E10.07066
