; generated by SuperSlicer 2.4 on 2023-02-14 at 16:27:43 UTC

; 

; external perimeters extrusion width = 0.43mm
; perimeters extrusion width = 0.48mm
; infill extrusion width = 0.46mm
; solid infill extrusion width = 0.48mm
; top infill extrusion width = 0.46mm
; first layer extrusion width = 0.58mm

; object:{"name":"Hanoi_Board","id":"Hanoi_Board.stl id:0 copy 0","object_center":[118.311415,109.806984,0.000000],"boundingbox_center":[118.311415,109.806984,7.138550],"boundingbox_size":[55.330195,20.449041,14.277100]}
; Total objects to print: 1
M486 T1
; plater:{"center":[118.311415,109.806984,0.000000],"boundingbox_center":[118.311415,109.806984,7.138550],"boundingbox_size":[55.330195,20.449041,14.277100]}

;TYPE:Custom
G90 ; use absolute coordinates
M83 ; extruder relative mode
M140 S60 ; set final bed temp
M104 S150 ; set temporary nozzle temp to prevent oozing during homing and auto bed leveling
G4 S10 ; allow partial nozzle warmup
G28 ; home all axis
;G29 ; auto bed levelling
G1 Z10 F240
G1 X2 Y10 F3000
G1 Z0 F240
M104 S220 ; set final nozzle temp
M190 S60 ; wait for bed temp to stabilize
M109 S220 ; wait for nozzle temp to stabilize
G1 Z0.28 F240
G92 E0
G1 Y100 E7.1 F1500 ; prime the nozzle
G1 X2.3 F5000
G92 E0
G1 Y10 E10 F1200 ; prime the nozzle
G92 E0
;start
M107
G21 ; set units to millimeters
G90 ; use absolute coordinates
M82 ; use absolute distances for extrusion
G92 E0
; Filament gcode
;_TOOLCHANGE 0
M107
;LAYER_CHANGE
;Z:0.2
;HEIGHT:0.2
;BEFORE_LAYER_CHANGE
;0.2


G1 E-2 F3000
G1 Z0.15 F9000
;AFTER_LAYER_CHANGE
;0.2
G92 E0
M204 S500
G1 X88.948 Y98.247
G1 E2 F3000
;TYPE:Skirt
;WIDTH:0.48
G1 F1200
G1 X87.89 Y99.436 E2.05786
G1 X87.531 Y100.987 E2.11573
G1 X87.958 Y120.002 E2.80695
G1 X88.508 Y121.729 E2.87284
G1 X89.697 Y122.788 E2.9307
G1 X91.249 Y123.147 E2.98857
G1 X145.947 Y121.917 E4.97698
G1 X147.674 Y121.367 E5.04288
G1 X148.733 Y120.178 E5.10074
G1 X149.092 Y118.627 E5.1586
G1 X148.664 Y99.612 E5.84982
G1 X148.115 Y97.884 E5.91572
G1 X146.925 Y96.826 E5.97358
G1 X145.374 Y96.467 E6.03144
G1 X90.676 Y97.697 E8.01986
G1 X89.006 Y98.229 E8.08357
G92 E0
G1 E-1.4 F3000
;WIPE_START
G1 F7200
G1 X88.028 Y99.286 E-1.97
;WIPE_END
G1 E-2 F3000
; printing object Hanoi_Board.stl id:0 copy 0
M486 S0
; acceleration to travel
M204 S1500
G1 X100.006 Y114.266 F9000
; decel to extrusion
M204 S500
G1 X101.469 Y116.096
; end travel
G1 E0 F3000
;TYPE:Internal perimeter
;WIDTH:0.576
G1 F1200
G1 X102.576 Y117.952 E0.09579
G1 X109.398 Y117.799 E0.39825
G1 X111.458 Y116.57 E0.50459
G1 X118.684 Y103.888 E1.15158
G1 X117.578 Y102.032 E1.24737
G1 X116.574 Y102.055 E1.29188
G1 X110.756 Y102.186 E1.54983
G1 X108.695 Y103.414 E1.65616
G1 X101.499 Y116.044 E2.30049
G1 X102.091 Y116.09 F9000
;TYPE:External perimeter
G1 F1200
G1 X102.877 Y117.408 E2.36851
G1 X109.244 Y117.265 E2.65081
G1 X111.061 Y116.181 E2.7446
G1 X118.062 Y103.894 E3.37142
G1 X117.277 Y102.576 E3.43945
G1 X116.586 Y102.592 E3.47007
G1 X110.909 Y102.72 E3.72175
G1 X109.092 Y103.803 E3.81553
G1 X102.121 Y116.038 E4.4397
;WIPE_START
G1 X101.787 Y116.35 F9000
;WIPE_END
G92 E0
G1 E-1.4 F3000
;WIPE_START
G1 F7200
G1 X102.67 Y117.488 E-1.97
;WIPE_END
G1 E-2 F3000
; acceleration to travel
M204 S1500
G1 X95.622 Y117.356 F9000
; decel to extrusion
M204 S500
G1 X94.761 Y117.34
; end travel
G1 E0 F3000
;TYPE:Internal perimeter
G1 F1200
G1 X102.215 Y104.259 E0.66738
G1 X101.108 Y102.403 E0.76318
G1 X100.104 Y102.425 E0.80768
G1 X94.147 Y102.559 E1.07182
G1 X92.544 Y104.236 E1.17464
G1 X92.828 Y116.851 E1.73398
G1 X94.703 Y117.326 E1.81971
G1 X94.496 Y116.719 F9000
;TYPE:External perimeter
G1 F1200
G1 X101.593 Y104.265 E2.45509
G1 X100.807 Y102.947 E2.52311
G1 X100.116 Y102.962 E2.55373
G1 X94.382 Y103.091 E2.808
G1 X93.086 Y104.446 E2.89109
G1 X93.356 Y116.431 E3.42244
G1 X94.438 Y116.704 E3.47193
;WIPE_START
G1 X94.86 Y116.885 F9000
;WIPE_END
G92 E0
G1 E-1.4 F3000
;WIPE_START
G1 F7200
G1 X95.556 Y115.624 E-1.97
;WIPE_END
G1 E-2 F3000
; acceleration to travel
M204 S1500
G1 X115.502 Y115.715 F9000
; decel to extrusion
M204 S500
G1 X117.938 Y115.726
; end travel
G1 E0 F3000
;TYPE:Internal perimeter
G1 F1200
G1 X119.045 Y117.582 E0.09579
G1 X125.867 Y117.428 E0.39825
G1 X127.927 Y116.2 E0.50459
G1 X135.154 Y103.518 E1.15158
G1 X134.047 Y101.662 E1.24737
G1 X133.043 Y101.684 E1.29188
G1 X127.225 Y101.815 E1.54983
G1 X125.165 Y103.044 E1.65616
G1 X117.968 Y115.673 E2.30049
G1 X118.56 Y115.719 F9000
;TYPE:External perimeter
G1 F1200
G1 X119.346 Y117.038 E2.36851
G1 X125.713 Y116.894 E2.65081
G1 X127.531 Y115.811 E2.7446
G1 X134.532 Y103.524 E3.37142
G1 X133.746 Y102.206 E3.43945
G1 X133.055 Y102.222 E3.47007
G1 X127.379 Y102.349 E3.72175
G1 X125.562 Y103.433 E3.81553
G1 X118.59 Y115.667 E4.4397
;WIPE_START
G1 X118.257 Y115.98 F9000
;WIPE_END
G92 E0
G1 E-1.4 F3000
;WIPE_START
G1 F7200
G1 X119.139 Y117.118 E-1.97
;WIPE_END
G1 E-2 F3000
; acceleration to travel
M204 S1500
G1 X132.746 Y115.547 F9000
; decel to extrusion
M204 S500
G1 X134.408 Y115.355
; end travel
G1 E0 F3000
;TYPE:Internal perimeter
G1 F1200
G1 X135.515 Y117.211 E0.09579
G1 X142.476 Y117.055 E0.40444
G1 X144.079 Y115.378 E0.50726
G1 X143.795 Y102.763 E1.0666
G1 X141.862 Y102.274 E1.15499
G1 X141.269 Y103.314 E1.20805
G1 X134.438 Y115.303 E1.81971
G1 X135.03 Y115.349 F9000
;TYPE:External perimeter
G1 F1200
G1 X135.816 Y116.667 E1.88773
G1 X142.241 Y116.523 E2.17262
G1 X143.537 Y115.168 E2.25571
G1 X143.267 Y103.183 E2.78706
G1 X142.126 Y102.895 E2.83922
G1 X141.736 Y103.58 E2.87416
G1 X135.059 Y115.297 E3.47193
;WIPE_START
G1 X134.726 Y115.61 F9000
;WIPE_END
G92 E0
G1 E-1.4 F3000
;WIPE_START
G1 F7200
G1 X135.609 Y116.747 E-1.97
;WIPE_END
G1 E-2 F3000
; acceleration to travel
M204 S1500
G1 X144.005 Y117.768 F9000
; decel to extrusion
M204 S500
G1 X145.031 Y117.892
; end travel
G1 E0 F3000
;TYPE:Internal perimeter
G1 F1200
G1 X91.983 Y119.086 E2.35198
G1 X91.592 Y101.722 E3.12185
G1 X144.64 Y100.528 E5.47382
G1 X145.029 Y117.832 E6.24103
G1 X145.58 Y118.418 F9000
;TYPE:External perimeter
G1 F1200
G1 X91.458 Y119.635 E8.64065
G1 X91.043 Y101.196 E9.45815
G1 X145.165 Y99.979 E11.85777
G1 X145.168 Y100.084 E11.86242
G1 X145.579 Y118.358 E12.67262
;WIPE_START
G1 X145.229 Y118.225 F9000
;WIPE_END
G92 E0
G1 E-1.4 F3000
;WIPE_START
G1 F7200
G1 X143.789 Y118.258 E-1.97
;WIPE_END
G1 E-2 F3000
; acceleration to travel
M204 S1500
G1 X113.726 Y104.142 F9000
; decel to extrusion
M204 S500
G1 X110.053 Y102.417
; end travel
G1 E0 F3000
;TYPE:Solid infill
;WIDTH:0.641103
G1 F1200
G1 X109.35 Y101.714 E0.04902
G1 X108.607 Y101.731 E0.0857
G1 X109.408 Y102.532 E0.1416
G1 X108.932 Y102.816 E0.16894
G1 X107.864 Y101.748 E0.24348
G1 X107.121 Y101.765 E0.28016
G1 X108.456 Y103.1 E0.37334
G1 X108.406 Y103.13 E0.37624
G1 X108.159 Y103.563 E0.40081
G1 X106.377 Y101.781 E0.52512
G1 X105.634 Y101.798 E0.5618
G1 X107.883 Y104.047 E0.71872
G1 X107.607 Y104.531 E0.74621
G1 X104.891 Y101.815 E0.93574
G1 X104.148 Y101.831 E0.97242
G1 X107.331 Y105.015 E1.19456
G1 X107.056 Y105.499 E1.22205
G1 X103.404 Y101.848 E1.4768
G1 X102.661 Y101.865 E1.51348
G1 X106.78 Y105.984 E1.80084
G1 X106.504 Y106.468 E1.82833
G1 X101.918 Y101.882 E2.1483
G1 X101.263 Y101.896 E2.18062
G1 X101.397 Y102.12 E2.19348
G1 X106.228 Y106.952 E2.53058
G1 X105.952 Y107.436 E2.55807
G1 X102.519 Y104.003 E2.79761
G1 X102.669 Y104.254 E2.81207
G1 X102.43 Y104.674 E2.83588
G1 X105.676 Y107.92 E3.06238
G1 X105.401 Y108.404 E3.08987
G1 X102.154 Y105.158 E3.31637
G1 X101.878 Y105.642 E3.34385
G1 X105.125 Y108.888 E3.57035
G1 X104.849 Y109.372 E3.59784
G1 X101.603 Y106.126 E3.82434
G1 X101.327 Y106.61 E3.85183
G1 X104.573 Y109.856 E4.07833
G1 X104.297 Y110.341 E4.10582
G1 X101.051 Y107.094 E4.33232
G1 X100.775 Y107.578 E4.3598
G1 X104.021 Y110.825 E4.5863
G1 X103.745 Y111.309 E4.61379
G1 X100.499 Y108.062 E4.84029
G1 X100.223 Y108.547 E4.86778
G1 X103.47 Y111.793 E5.09428
G1 X103.194 Y112.277 E5.12177
G1 X99.947 Y109.031 E5.34826
G1 X99.672 Y109.515 E5.37575
G1 X102.918 Y112.761 E5.60225
G1 X102.642 Y113.245 E5.62974
G1 X99.396 Y109.999 E5.85624
G1 X99.12 Y110.483 E5.88373
G1 X102.366 Y113.729 E6.11023
G1 X102.09 Y114.213 E6.13772
G1 X98.844 Y110.967 E6.36421
G1 X98.568 Y111.451 E6.3917
G1 X101.814 Y114.697 E6.6182
G1 X101.539 Y115.182 E6.64569
G1 X98.292 Y111.935 E6.87219
G1 X98.016 Y112.419 E6.89968
G1 X101.263 Y115.666 E7.12618
G1 X101.015 Y116.101 E7.15087
G1 X101.129 Y116.292 E7.16187
G1 X97.741 Y112.903 E7.39829
G1 X97.465 Y113.388 E7.42578
G1 X102.252 Y118.174 E7.75976
G1 X102.421 Y118.458 E7.77608
G1 X101.79 Y118.473 E7.80722
G1 X97.189 Y113.872 E8.12824
G1 X96.913 Y114.356 E8.15573
G1 X101.047 Y118.489 E8.44413
G1 X100.303 Y118.506 E8.48081
G1 X96.637 Y114.84 E8.7366
G1 X96.361 Y115.324 E8.76409
G1 X99.56 Y118.523 E8.98727
G1 X98.817 Y118.539 E9.02395
G1 X96.085 Y115.808 E9.21452
G1 X95.81 Y116.292 E9.24201
G1 X98.074 Y118.556 E9.39998
G1 X97.33 Y118.573 E9.43665
G1 X95.534 Y116.776 E9.56201
G1 X95.258 Y117.26 E9.5895
G1 X96.587 Y118.59 E9.68224
G1 X95.844 Y118.606 E9.71892
G1 X94.982 Y117.745 E9.77905
G1 X94.954 Y117.794 E9.78185
G1 X94.04 Y117.563 E9.82834
G1 X95.101 Y118.623 E9.90232
G1 X94.357 Y118.64 E9.939
G1 X93.023 Y117.305 E10.03209
G1 X92.331 Y117.13 E10.0673
G1 X92.337 Y117.379 E10.07957
G1 X93.614 Y118.657 E10.1687
G1 X92.871 Y118.673 E10.20538
G1 X92.118 Y117.92 E10.25792
G92 E0
G1 E-1.4 F3000
;WIPE_START
G1 F7200
G1 X92.871 Y118.673 E-1.82159
G1 X93.246 Y118.665 E-1.97
;WIPE_END
G1 E-2 F3000
; acceleration to travel
M204 S1500
G1 X122.899 Y103.856 F9000
; decel to extrusion
M204 S500
G1 X126.522 Y102.047
; end travel
G1 E0 F3000
G1 F1200
G1 X125.82 Y101.344 E0.04902
G1 X125.076 Y101.361 E0.0857
G1 X125.878 Y102.162 E0.1416
G1 X125.402 Y102.446 E0.16894
G1 X124.333 Y101.377 E0.24348
G1 X123.59 Y101.394 E0.28016
G1 X124.926 Y102.73 E0.37334
G1 X124.875 Y102.76 E0.37624
G1 X124.628 Y103.193 E0.40081
G1 X122.847 Y101.411 E0.52512
G1 X122.104 Y101.428 E0.5618
G1 X124.353 Y103.677 E0.71872
G1 X124.077 Y104.161 E0.74621
G1 X121.36 Y101.444 E0.93574
G1 X120.617 Y101.461 E0.97242
G1 X123.801 Y104.645 E1.19456
G1 X123.525 Y105.129 E1.22205
G1 X119.874 Y101.478 E1.4768
G1 X119.131 Y101.495 E1.51348
G1 X123.249 Y105.613 E1.80084
G1 X122.973 Y106.097 E1.82833
G1 X118.387 Y101.511 E2.1483
G1 X117.733 Y101.526 E2.18062
G1 X117.866 Y101.75 E2.19348
G1 X122.697 Y106.581 E2.53058
G1 X122.422 Y107.065 E2.55807
G1 X118.988 Y103.632 E2.79761
G1 X119.138 Y103.884 E2.81207
G1 X118.899 Y104.303 E2.83588
G1 X122.146 Y107.55 E3.06238
G1 X121.87 Y108.034 E3.08987
G1 X118.624 Y104.787 E3.31637
G1 X118.348 Y105.271 E3.34386
G1 X121.594 Y108.518 E3.57035
G1 X121.318 Y109.002 E3.59784
G1 X118.072 Y105.756 E3.82434
G1 X117.796 Y106.24 E3.85183
G1 X121.042 Y109.486 E4.07833
G1 X120.767 Y109.97 E4.10582
G1 X117.52 Y106.724 E4.33232
G1 X117.244 Y107.208 E4.3598
G1 X120.491 Y110.454 E4.5863
G1 X120.215 Y110.938 E4.61379
G1 X116.969 Y107.692 E4.84029
G1 X116.693 Y108.176 E4.86778
G1 X119.939 Y111.422 E5.09428
G1 X119.663 Y111.907 E5.12177
G1 X116.417 Y108.66 E5.34827
G1 X116.141 Y109.144 E5.37575
G1 X119.387 Y112.391 E5.60225
G1 X119.111 Y112.875 E5.62974
G1 X115.865 Y109.628 E5.85624
G1 X115.589 Y110.113 E5.88373
G1 X118.836 Y113.359 E6.11023
G1 X118.56 Y113.843 E6.13772
G1 X115.313 Y110.597 E6.36422
G1 X115.038 Y111.081 E6.3917
G1 X118.284 Y114.327 E6.6182
G1 X118.008 Y114.811 E6.64569
G1 X114.762 Y111.565 E6.87219
G1 X114.486 Y112.049 E6.89968
G1 X117.732 Y115.295 E7.12618
G1 X117.484 Y115.73 E7.15087
G1 X117.599 Y115.922 E7.16187
G1 X114.21 Y112.533 E7.39829
G1 X113.934 Y113.017 E7.42578
G1 X118.721 Y117.804 E7.75976
G1 X118.89 Y118.088 E7.77608
G1 X118.259 Y118.102 E7.80722
G1 X113.658 Y113.501 E8.12824
G1 X113.382 Y113.985 E8.15573
G1 X117.516 Y118.119 E8.44413
G1 X116.773 Y118.136 E8.48081
G1 X113.107 Y114.469 E8.7366
G1 X112.831 Y114.954 E8.76409
G1 X116.03 Y118.152 E8.98728
G1 X115.286 Y118.169 E9.02395
G1 X112.555 Y115.438 E9.21453
G1 X112.279 Y115.922 E9.24202
G1 X114.543 Y118.186 E9.39998
G1 X113.8 Y118.203 E9.43666
G1 X112.003 Y116.406 E9.56201
G1 X111.748 Y116.854 E9.58746
G1 X111.713 Y116.875 E9.58949
G1 X113.057 Y118.219 E9.68326
G1 X112.313 Y118.236 E9.71994
G1 X111.236 Y117.159 E9.79508
G1 X110.76 Y117.443 E9.82242
G1 X111.57 Y118.253 E9.87892
G1 X110.827 Y118.269 E9.9156
G1 X110.116 Y117.558 E9.96521
G92 E0
G1 E-1.4 F3000
;WIPE_START
G1 F7200
G1 X110.827 Y118.269 E-1.79807
G1 X111.261 Y118.26 E-1.97
;WIPE_END
G1 E-2 F3000
; acceleration to travel
M204 S1500
G1 X140.888 Y103.596 F9000
; decel to extrusion
M204 S500
G1 X144.507 Y101.804
; end travel
G1 E0 F3000
G1 F1200
G1 X143.646 Y100.943 E0.0601
G1 X142.903 Y100.96 E0.09677
G1 X144.289 Y102.345 E0.19345
G1 X144.292 Y102.483 E0.20026
G1 X143.455 Y102.272 E0.24284
G1 X142.16 Y100.977 E0.33321
G1 X141.416 Y100.993 E0.36989
G1 X142.438 Y102.015 E0.44115
G1 X141.669 Y101.82 E0.48028
G1 X141.602 Y101.938 E0.48699
G1 X140.673 Y101.01 E0.55176
G1 X139.93 Y101.027 E0.58844
G1 X141.326 Y102.422 E0.68582
G1 X141.05 Y102.907 E0.71331
G1 X139.187 Y101.043 E0.8433
G1 X138.443 Y101.06 E0.87998
G1 X140.774 Y103.391 E1.04258
G1 X140.498 Y103.875 E1.07007
G1 X137.7 Y101.077 E1.26528
G1 X136.957 Y101.094 E1.30196
G1 X140.222 Y104.359 E1.52978
G1 X139.946 Y104.843 E1.55727
G1 X136.214 Y101.11 E1.8177
G1 X135.471 Y101.127 E1.85438
G1 X139.671 Y105.327 E2.14742
G1 X139.395 Y105.811 E2.17491
G1 X134.727 Y101.144 E2.50057
G1 X134.202 Y101.156 E2.52649
G1 X134.531 Y101.707 E2.55819
G1 X139.119 Y106.295 E2.87829
G1 X138.843 Y106.779 E2.90578
G1 X135.597 Y103.533 E3.13228
G1 X135.321 Y104.017 E3.15977
G1 X138.567 Y107.263 E3.38627
G1 X138.291 Y107.748 E3.41376
G1 X135.045 Y104.501 E3.64025
G1 X134.769 Y104.985 E3.66774
G1 X138.015 Y108.232 E3.89424
G1 X137.74 Y108.716 E3.92173
G1 X134.493 Y105.469 E4.14823
G1 X134.217 Y105.954 E4.17572
G1 X137.464 Y109.2 E4.40222
G1 X137.188 Y109.684 E4.4297
G1 X133.942 Y106.438 E4.6562
G1 X133.666 Y106.922 E4.68369
G1 X136.912 Y110.168 E4.91019
G1 X136.636 Y110.652 E4.93768
G1 X133.39 Y107.406 E5.16418
G1 X133.114 Y107.89 E5.19167
G1 X136.36 Y111.136 E5.41817
G1 X136.084 Y111.62 E5.44565
G1 X132.838 Y108.374 E5.67215
G1 X132.562 Y108.858 E5.69964
G1 X135.809 Y112.105 E5.92614
G1 X135.533 Y112.589 E5.95363
G1 X132.286 Y109.342 E6.18013
G1 X132.011 Y109.826 E6.20762
G1 X135.257 Y113.073 E6.43411
G1 X134.981 Y113.557 E6.4616
G1 X131.735 Y110.311 E6.6881
G1 X131.459 Y110.795 E6.71559
G1 X134.705 Y114.041 E6.94209
G1 X134.429 Y114.525 E6.96958
G1 X131.183 Y111.279 E7.19608
G1 X130.907 Y111.763 E7.22357
G1 X134.154 Y115.009 E7.45006
G1 X133.954 Y115.36 E7.46997
G1 X134.264 Y115.879 E7.4998
G1 X130.631 Y112.247 E7.75322
G1 X130.356 Y112.731 E7.78071
G1 X135.342 Y117.718 E8.12866
G1 X134.599 Y117.735 E8.16533
G1 X130.08 Y113.215 E8.48067
G1 X129.804 Y113.699 E8.50816
G1 X133.856 Y117.751 E8.79088
G1 X133.113 Y117.768 E8.82756
G1 X129.528 Y114.183 E9.07767
G1 X129.252 Y114.667 E9.10516
G1 X132.369 Y117.785 E9.32266
G1 X131.626 Y117.802 E9.35934
G1 X128.976 Y115.152 E9.54423
G1 X128.7 Y115.636 E9.57172
G1 X130.883 Y117.818 E9.724
G1 X130.14 Y117.835 E9.76068
G1 X128.425 Y116.12 E9.88035
G1 X128.217 Y116.484 E9.90102
G1 X128.099 Y116.554 E9.90781
G1 X129.396 Y117.852 E9.99834
G1 X128.653 Y117.868 E10.03501
G1 X127.623 Y116.838 E10.1069
G1 X127.147 Y117.122 E10.13425
G1 X127.91 Y117.885 E10.1875
G1 X127.167 Y117.902 E10.22417
G1 X126.502 Y117.237 E10.27054
G92 E0
G1 E-1.4 F3000
;WIPE_START
G1 F7200
G1 X127.167 Y117.902 E-1.77202
G1 X127.667 Y117.891 E-1.97
;WIPE_END
G1 E-2 F3000
; acceleration to travel
M204 S1500
G1 X142.957 Y116.143 F9000
; decel to extrusion
M204 S500
G1 X144.825 Y115.929
; end travel
G1 E0 F3000
G1 F1200
G1 X144.452 Y115.556 E0.02606
G1 X144.08 Y115.944 E0.05258
G1 X144.606 Y116.47 E0.08927
G1 X144.624 Y117.248 E0.12764
G1 X143.709 Y116.333 E0.19147
G1 X143.337 Y116.721 E0.21799
G1 X144.136 Y117.52 E0.27373
G1 X143.393 Y117.537 E0.3104
G1 X142.966 Y117.11 E0.3402
G1 X142.595 Y117.498 E0.36672
G1 X142.876 Y117.78 E0.38634
G92 E0
G1 E-1.4 F3000
;WIPE_START
G1 F7200
G1 X142.595 Y117.498 E-1.55746
