; generated by SuperSlicer 2.4 on 2023-02-14 at 16:32:24 UTC

; 

; external perimeters extrusion width = 0.43mm
; perimeters extrusion width = 0.48mm
; infill extrusion width = 0.46mm
; solid infill extrusion width = 0.48mm
; top infill extrusion width = 0.46mm
; first layer extrusion width = 0.58mm

; object:{"name":"Kuwait_Towers","id":"Kuwait_Towers.stl id:0 copy 0","object_center":[115.500000,115.500000,0.000000],"boundingbox_center":[115.500000,115.500000,24.954874],"boundingbox_size":[23.294600,16.363415,49.909424]}
; Total objects to print: 1
M486 T1
; plater:{"center":[115.500000,115.500000,0.000000],"boundingbox_center":[115.500000,115.500000,24.954874],"boundingbox_size":[23.294600,16.363415,49.909424]}

;TYPE:Custom
G90 ; use absolute coordinates
M83 ; extruder relative mode
M140 S60 ; set final bed temp
M104 S150 ; set temporary nozzle temp to prevent oozing during homing and auto bed leveling
G4 S10 ; allow partial nozzle warmup
G28 ; home all axis
;G29 ; auto bed levelling
G1 Z10 F240
G1 X2 Y10 F3000
G1 Z0 F240
M104 S220 ; set final nozzle temp
M190 S60 ; wait for bed temp to stabilize
M109 S220 ; wait for nozzle temp to stabilize
G1 Z0.28 F240
G92 E0
G1 Y100 E7.1 F1500 ; prime the nozzle
G1 X2.3 F5000
G92 E0
G1 Y10 E10 F1200 ; prime the nozzle
G92 E0
;start
M107
G21 ; set units to millimeters
G90 ; use absolute coordinates
M82 ; use absolute distances for extrusion
G92 E0
; Filament gcode
;_TOOLCHANGE 0
M107
;LAYER_CHANGE
;Z:0.2
;HEIGHT:0.2
;BEFORE_LAYER_CHANGE
;0.2


G1 E-2 F3000
G1 Z0.15 F9000
;AFTER_LAYER_CHANGE
;0.2
G92 E0
M204 S500
G1 X104.665 Y112.963
G1 E2 F3000
;TYPE:Skirt
;WIDTH:0.48
G1 F912
G1 X103.656 Y113.972 E2.05186
G1 X102.91 Y115.088 E2.10062
G1 X102.365 Y116.405 E2.15245
G1 X102.102 Y117.722 E2.20125
G1 X102.102 Y119.149 E2.25312
G1 X102.365 Y120.466 E2.30192
G1 X102.91 Y121.784 E2.35376
G1 X103.656 Y122.899 E2.40252
G1 X104.664 Y123.907 E2.45432
G1 X105.78 Y124.653 E2.50312
G1 X107.097 Y125.2 E2.55495
G1 X108.414 Y125.462 E2.60372
G1 X109.841 Y125.462 E2.65562
G1 X124.023 Y122.452 E3.18251
G1 X125.29 Y121.917 E3.23247
G1 X126.406 Y121.171 E3.28126
G1 X127.416 Y120.161 E3.33317
G1 X128.161 Y119.045 E3.38196
G1 X128.707 Y117.729 E3.43373
G1 X128.969 Y116.413 E3.4825
G1 X128.969 Y114.985 E3.53439
G1 X128.707 Y113.668 E3.58319
G1 X128.161 Y112.352 E3.63497
G1 X127.416 Y111.235 E3.68376
G1 X126.406 Y110.225 E3.73567
G1 X125.29 Y109.48 E3.78445
G1 X123.972 Y108.934 E3.8363
G1 X122.655 Y108.673 E3.88506
G1 X121.232 Y108.673 E3.93681
G1 X107.048 Y111.683 E4.46377
G1 X105.781 Y112.218 E4.51374
G1 X104.715 Y112.93 E4.56034
G1 X104.958 Y113.293 F9000
G1 F912
G1 X104.908 Y113.327 E4.56252
G1 X104.019 Y114.215 E4.60818
G1 X103.274 Y115.33 E4.65695
G1 X102.793 Y116.49 E4.70258
G1 X102.531 Y117.807 E4.75138
G1 X102.531 Y119.064 E4.79705
G1 X102.793 Y120.381 E4.84585
G1 X103.274 Y121.541 E4.89148
G1 X104.019 Y122.657 E4.94025
G1 X104.907 Y123.544 E4.98586
G1 X106.023 Y124.29 E5.03465
G1 X107.183 Y124.771 E5.08028
G1 X108.499 Y125.033 E5.12906
G1 X109.756 Y125.033 E5.17475
G1 X123.932 Y122.024 E5.70142
G1 X125.047 Y121.553 E5.74541
G1 X126.163 Y120.808 E5.7942
G1 X127.052 Y119.919 E5.8399
G1 X127.798 Y118.802 E5.88869
G1 X128.278 Y117.644 E5.93427
G1 X128.54 Y116.327 E5.98304
G1 X128.54 Y115.07 E6.02873
G1 X128.278 Y113.753 E6.07752
G1 X127.798 Y112.595 E6.12311
G1 X127.052 Y111.478 E6.1719
G1 X126.163 Y110.589 E6.21761
G1 X125.047 Y109.843 E6.26639
G1 X123.886 Y109.363 E6.31204
G1 X122.57 Y109.102 E6.3608
G1 X121.317 Y109.102 E6.40637
G1 X107.139 Y112.11 E6.93309
G1 X106.024 Y112.581 E6.97708
G1 X105.008 Y113.26 E7.02151
G92 E0
G1 E-1.4 F3000
;WIPE_START
G1 F7200
G1 X104.908 Y113.327 E-1.4475
G1 X104.019 Y114.215 E-1.94479
G1 X103.984 Y114.268 E-1.97
;WIPE_END
G1 E-2 F3000
; printing object Kuwait_Towers.stl id:0 copy 0
M486 S0
; acceleration to travel
M204 S1500
G1 X106.93 Y116.345 F9000
; decel to extrusion
M204 S500
G1 X107.29 Y116.598
; end travel
G1 E0 F3000
;TYPE:Internal perimeter
;WIDTH:0.576
G1 F912
G1 X108.134 Y116.035 E0.04495
G1 X109.128 Y115.838 E0.08988
G1 X109.4 Y115.892 E0.10216
G1 X110.123 Y116.035 E0.13485
G1 X110.966 Y116.598 E0.17979
G1 X111.529 Y117.441 E0.22471
G1 X111.727 Y118.436 E0.26967
G1 X111.529 Y119.43 E0.31463
G1 X110.966 Y120.273 E0.35956
G1 X110.123 Y120.837 E0.40453
G1 X109.128 Y121.035 E0.44948
G1 X108.134 Y120.837 E0.49441
G1 X107.29 Y120.273 E0.53938
G1 X106.727 Y119.43 E0.58431
G1 X106.529 Y118.436 E0.62927
G1 X106.727 Y117.441 E0.67423
G1 X107.257 Y116.648 E0.71649
G1 X106.955 Y116.176 F9000
;TYPE:External perimeter
G1 F912
G1 X107.924 Y115.529 E0.76813
G1 X109.128 Y115.29 E0.82254
G1 X109.504 Y115.365 E0.83955
G1 X110.332 Y115.529 E0.87697
G1 X111.354 Y116.211 E0.9314
G1 X112.035 Y117.231 E0.9858
G1 X112.275 Y118.436 E1.04023
G1 X112.035 Y119.64 E1.09467
G1 X111.353 Y120.661 E1.14907
G1 X110.332 Y121.343 E1.20352
G1 X109.128 Y121.583 E1.25795
G1 X107.924 Y121.343 E1.31236
G1 X106.903 Y120.661 E1.3668
G1 X106.221 Y119.64 E1.4212
G1 X105.981 Y118.436 E1.47564
G1 X106.221 Y117.231 E1.53007
G1 X106.905 Y116.209 E1.58458
;WIPE_START
G1 X107.314 Y116.353 F9000
;WIPE_END
G92 E0
G1 E-1.4 F3000
;WIPE_START
G1 F7200
G1 X108.002 Y115.717 E-1.77084
G1 X108.496 Y115.619 E-1.97
;WIPE_END
G1 E-2 F3000
; acceleration to travel
M204 S1500
G1 X111.081 Y117.387 F9000
; decel to extrusion
M204 S500
G1 X111.397 Y117.603
; end travel
G1 E0 F3000
;TYPE:Solid infill
;WIDTH:0.556654
G1 F912
G1 X110.659 Y116.865 E0.04472
G1 X109.97 Y116.405 E0.08021
G1 X109.307 Y116.273 E0.10915
G1 X111.292 Y118.258 E0.22937
G1 X111.327 Y118.436 E0.23714
G1 X111.225 Y118.951 E0.25963
G1 X108.614 Y116.34 E0.4178
G1 X108.287 Y116.405 E0.4321
G1 X108.066 Y116.552 E0.44345
G1 X111.012 Y119.498 E0.62193
G1 X110.708 Y119.954 E0.6454
G1 X107.61 Y116.856 E0.83304
G1 X107.573 Y116.881 E0.83496
G1 X107.294 Y117.299 E0.85651
G1 X110.265 Y120.27 E1.03649
G1 X109.969 Y120.468 E1.0517
G1 X109.746 Y120.512 E1.06144
G1 X107.052 Y117.818 E1.22466
G1 X106.929 Y118.436 E1.25164
G1 X106.934 Y118.46 E1.25268
G1 X109.105 Y120.63 E1.3842
G1 X108.287 Y120.468 E1.41993
G1 X107.97 Y120.256 E1.43625
G1 X106.829 Y119.114 E1.5054
G92 E0
G1 E-1.4 F3000
;WIPE_START
G1 F7200
G1 X107.847 Y120.132 E-1.97
;WIPE_END
G1 E-2 F3000
; acceleration to travel
M204 S1500
G1 X118.268 Y117.067 F9000
; decel to extrusion
M204 S500
G1 X119.541 Y116.693
; end travel
G1 E0 F3000
;TYPE:Internal perimeter
;WIDTH:0.576
G1 F912
G1 X119.344 Y115.699 E0.04493
G1 X119.541 Y114.704 E0.08989
G1 X120.105 Y113.861 E0.13484
G1 X120.948 Y113.298 E0.17978
G1 X121.943 Y113.1 E0.22475
G1 X122.666 Y113.244 E0.25743
G1 X122.938 Y113.297 E0.26969
G1 X123.781 Y113.861 E0.31462
G1 X124.344 Y114.704 E0.35957
G1 X124.542 Y115.699 E0.40454
G1 X124.344 Y116.693 E0.44946
G1 X123.781 Y117.536 E0.49442
G1 X122.937 Y118.099 E0.53937
G1 X121.943 Y118.297 E0.5843
G1 X120.948 Y118.099 E0.62927
G1 X120.105 Y117.536 E0.67422
G1 X119.575 Y116.743 E0.71651
G1 X119.035 Y116.903 F9000
;TYPE:External perimeter
G1 F912
G1 X118.797 Y115.699 E0.7709
G1 X119.035 Y114.494 E0.82533
G1 X119.718 Y113.473 E0.87977
G1 X120.739 Y112.791 E0.93419
G1 X121.943 Y112.552 E0.98863
G1 X122.771 Y112.717 E1.02604
G1 X123.147 Y112.791 E1.04303
G1 X124.168 Y113.473 E1.09745
G1 X124.85 Y114.494 E1.15188
G1 X125.09 Y115.699 E1.20632
G1 X124.85 Y116.902 E1.26072
G1 X124.168 Y117.924 E1.31515
G1 X123.147 Y118.605 E1.36958
G1 X121.943 Y118.845 E1.42398
G1 X120.739 Y118.605 E1.47843
G1 X119.718 Y117.923 E1.53285
G1 X119.068 Y116.952 E1.58463
;WIPE_START
G1 X119.299 Y116.602 F9000
;WIPE_END
G92 E0
G1 E-1.4 F3000
;WIPE_START
G1 F7200
G1 X119.001 Y115.699 E-1.77653
G1 X119.095 Y115.219 E-1.97
;WIPE_END
G1 E-2 F3000
; acceleration to travel
M204 S1500
G1 X122.375 Y113.625 F9000
; decel to extrusion
M204 S500
G1 X122.776 Y113.43
; end travel
G1 E0 F3000
;TYPE:Solid infill
;WIDTH:0.556678
G1 F912
G1 X123.514 Y114.168 E0.04471
G1 X123.974 Y114.857 E0.08021
G1 X124.106 Y115.52 E0.10917
G1 X122.122 Y113.535 E0.2294
G1 X121.943 Y113.5 E0.2372
G1 X121.429 Y113.602 E0.25968
G1 X124.039 Y116.213 E0.41785
G1 X123.974 Y116.54 E0.43212
G1 X123.827 Y116.76 E0.4435
G1 X120.881 Y113.814 E0.62199
G1 X120.425 Y114.119 E0.64546
G1 X123.523 Y117.216 E0.83312
G1 X123.498 Y117.253 E0.83504
G1 X123.079 Y117.533 E0.8566
G1 X120.108 Y114.562 E1.0366
G1 X119.911 Y114.857 E1.0518
G1 X119.867 Y115.08 E1.06156
G1 X122.561 Y117.774 E1.22479
G1 X121.943 Y117.897 E1.25177
G1 X121.919 Y117.893 E1.25282
G1 X119.749 Y115.722 E1.38431
G1 X119.911 Y116.54 E1.42002
G1 X120.121 Y116.854 E1.43621
G1 X121.265 Y117.998 E1.50549
M106 S84.15
;LAYER_CHANGE
;Z:0.52
;HEIGHT:0.32
;BEFORE_LAYER_CHANGE
;0.52


G92 E0
G1 E-1.4 F3000
;WIPE_START
G1 F7200
G1 X120.246 Y116.98 E-1.97
;WIPE_END
G1 E-2 F3000
; stop printing object Kuwait_Towers.stl id:0 copy 0
M486 S-1
G1 Z0.47 F9000
;AFTER_LAYER_CHANGE
;0.52
G92 E0
; printing object Kuwait_Towers.stl id:0 copy 0
M486 S0
; acceleration to travel
M204 S1500
G1 X112.839 Y118.271
; decel to extrusion
M204 S500
G1 X111.892 Y118.436
; end travel
G1 E2 F3000
;TYPE:Internal perimeter
;WIDTH:0.476
G1 F900
G1 X111.682 Y119.494 E2.05846
G1 X111.083 Y120.39 E2.11687
G1 X110.186 Y120.989 E2.17534
G1 X109.128 Y121.2 E2.23378
G1 X108.071 Y120.989 E2.29219
G1 X107.174 Y120.39 E2.35066
G1 X106.575 Y119.494 E2.40908
G1 X106.364 Y118.436 E2.46753
G1 X106.575 Y117.378 E2.52598
G1 X107.174 Y116.482 E2.58439
G1 X108.07 Y115.883 E2.64283
G1 X109.128 Y115.673 E2.70125
G1 X110.186 Y115.883 E2.75971
G1 X111.083 Y116.482 E2.81815
G1 X111.682 Y117.378 E2.87656
G1 X111.88 Y118.377 E2.93175
M106 S84.15
G1 X112.29 Y118.436 F9000
;TYPE:External perimeter
;WIDTH:0.428
G1 F900
M106 S255
G1 X112.049 Y119.646 E2.99074
G1 X111.364 Y120.671 E3.04969
G1 X110.338 Y121.357 E3.10869
G1 X109.128 Y121.598 E3.16767
G1 X107.919 Y121.357 E3.22662
G1 X106.892 Y120.671 E3.28562
G1 X106.207 Y119.646 E3.34457
G1 X105.966 Y118.436 E3.40356
G1 X106.207 Y117.226 E3.46254
G1 X106.892 Y116.2 E3.52149
G1 X107.918 Y115.515 E3.58047
G1 X109.128 Y115.275 E3.63942
G1 X110.338 Y115.515 E3.6984
G1 X111.364 Y116.2 E3.75738
G1 X112.049 Y117.226 E3.81633
G1 X112.278 Y118.377 E3.87244
M106 S84.15
;WIPE_START
G1 X111.931 Y118.613 F9000
;WIPE_END
G92 E0
G1 E-1.4 F3000
;WIPE_START
G1 F7200
G1 X111.861 Y119.568 E-1.77916
G1 X111.593 Y119.969 E-1.97
;WIPE_END
G1 E-2 F3000
G1 X110.199 Y120.831 F9000
G1 E0 F3000
;TYPE:Solid infill
;WIDTH:0.49063
G1 F900
G1 X110.877 Y120.153 E0.05355
G1 X111.397 Y119.376 E0.10577
G1 X111.478 Y118.966 E0.12908
G1 X109.658 Y120.786 E0.27284
G1 X109.128 Y120.892 E0.30305
G1 X108.994 Y120.865 E0.31069
G1 X111.557 Y118.302 E0.51318
G1 X111.46 Y117.813 E0.541
G1 X108.505 Y120.768 E0.7744
G1 X108.189 Y120.705 E0.79242
G1 X108.065 Y120.622 E0.80073
G1 X111.314 Y117.373 E1.0574
G1 X111.08 Y117.022 E1.08099
G1 X107.714 Y120.387 E1.34686
G1 X107.392 Y120.172 E1.36852
G1 X107.373 Y120.143 E1.37045
G1 X110.836 Y116.68 E1.644
G1 X110.484 Y116.446 E1.66759
G1 X107.138 Y119.792 E1.93193
G1 X106.903 Y119.441 E1.95552
G1 X110.133 Y116.211 E2.21066
G1 X110.068 Y116.168 E2.21503
G1 X109.67 Y116.089 E2.2377
G1 X106.78 Y118.978 E2.46594
G1 X106.683 Y118.489 E2.49377
G1 X109.181 Y115.992 E2.69108
G1 X109.128 Y115.981 E2.69411
G1 X108.477 Y116.11 E2.7312
G1 X106.575 Y118.011 E2.88137
M106 S84.15
G1 X106.93 Y117.298 F9000
;TYPE:Gap fill
;WIDTH:0.164273
G1 F900
G1 X106.96 Y117.261 E2.88198
G1 X107.072 Y117.124 E2.88423
M106 S84.15
;WIDTH:0.21074
G1 X107.184 Y116.988 E2.88756
M106 S84.15
;WIDTH:0.256807
G1 X107.296 Y116.852 E2.89197
M106 S84.15
;WIDTH:0.302875
G1 X107.407 Y116.715 E2.89746
G1 X107.544 Y116.604 E2.90295
M106 S84.15
;WIDTH:0.256807
G1 X107.68 Y116.492 E2.90736
M106 S84.15
;WIDTH:0.21074
G1 X107.816 Y116.38 E2.91069
M106 S84.15
;WIDTH:0.164673
G1 X107.952 Y116.269 E2.91294
G1 X107.989 Y116.238 E2.91355
M106 S84.15
G92 E0
G1 E-1.4 F3000
;WIPE_START
G1 F7200
G1 X107.952 Y116.269 E-1.419
G1 X107.816 Y116.38 E-1.48871
;WIPE_END
G1 E-2 F3000
; acceleration to travel
M204 S1500
G1 X111.536 Y111.412 F9000
; decel to extrusion
M204 S250
G1 X111.766 Y111.106
; end travel
G1 E0 F3000
;TYPE:Overhang perimeter
;WIDTH:0.389872
;HEIGHT:0.389872
G1 F1500
G1 X111.375 Y110.52 E0.03495
G1 X111.238 Y109.83 E0.06988
G1 X111.375 Y109.14 E0.10479
G1 X111.766 Y108.555 E0.1397
G1 X112.351 Y108.165 E0.1746
G1 X113.041 Y108.027 E0.20953
G1 X113.732 Y108.165 E0.24449
G1 X114.317 Y108.555 E0.27939
G1 X114.708 Y109.14 E0.3143
G1 X114.845 Y109.83 E0.34921
G1 X114.707 Y110.52 E0.38413
G1 X114.317 Y111.106 E0.41909
G1 X113.732 Y111.496 E0.454
G1 X113.041 Y111.634 E0.48895
G1 X112.351 Y111.496 E0.52387
G1 X111.816 Y111.139 E0.5558
G1 X111.599 Y111.463 F9000
G1 F1500
G1 X111.485 Y111.387 E0.56264
G1 X111.008 Y110.672 E0.60529
G1 X110.84 Y109.83 E0.64792
G1 X111.008 Y108.988 E0.69054
G1 X111.485 Y108.274 E0.73316
G1 X112.199 Y107.797 E0.77577
G1 X113.041 Y107.63 E0.81839
G1 X113.884 Y107.797 E0.86105
G1 X114.598 Y108.274 E0.90365
G1 X115.075 Y108.988 E0.94627
G1 X115.243 Y109.83 E0.98889
G1 X115.075 Y110.672 E1.03151
G1 X114.598 Y111.387 E1.07417
G1 X113.884 Y111.864 E1.11679
G1 X113.041 Y112.032 E1.15945
G1 X112.199 Y111.864 E1.20207
G1 X111.649 Y111.497 E1.23488
G92 E0
G1 E-1.4 F3000
;WIPE_START
G1 F7200
M204 S500
G1 X111.485 Y111.387 E-1.47827
G1 X111.008 Y110.672 E-1.81845
G1 X110.933 Y110.297 E-1.97
;WIPE_END
G1 E-2 F3000
M204 S250
G1 X113.87 Y111.256 F9000
G1 E0 F3000
;TYPE:Bridge infill
G1 F1500
G1 X112.631 Y111.256 E0.06151
G1 X112.464 Y111.223 E0.06994
G1 X111.976 Y110.896 E0.09912
G1 X111.891 Y110.768 E0.10673
G1 X114.192 Y110.768 E0.22097
G1 X114.434 Y110.407 E0.24257
G1 X114.459 Y110.281 E0.24892
G1 X111.624 Y110.281 E0.38961
G1 X111.534 Y109.83 E0.41245
G1 X111.541 Y109.794 E0.41427
G1 X114.541 Y109.794 E0.56317
G1 X114.444 Y109.306 E0.58783
G1 X111.638 Y109.306 E0.7271
G1 X111.649 Y109.253 E0.72979
G1 X111.939 Y108.819 E0.75571
G1 X114.345 Y108.819 E0.87514
G1 X113.76 Y108.332 F9000
G1 F1500
G1 X112.322 Y108.332 E0.9465
G92 E0
G1 E-1.4 F3000
;WIPE_START
G1 F7200
M204 S500
G1 X113.76 Y108.332 E-1.96918
;WIPE_END
G1 E-2 F3000
; acceleration to travel
M204 S1500
G1 X119.283 Y113.131 F9000
; decel to extrusion
M204 S500
G1 X119.988 Y113.744
; end travel
G1 E0 F3000
;TYPE:Internal perimeter
;WIDTH:0.476
;HEIGHT:0.32
G1 F900
G1 X120.885 Y113.146 E0.0584
G1 X121.95 Y112.936 E0.11724
G1 X123.001 Y113.145 E0.17528
G1 X123.897 Y113.744 E0.23371
G1 X124.496 Y114.641 E0.29216
G1 X124.707 Y115.699 E0.35061
G1 X124.496 Y116.756 E0.40903
G1 X123.897 Y117.653 E0.46747
G1 X123.001 Y118.252 E0.52592
G1 X121.943 Y118.462 E0.58433
G1 X120.885 Y118.252 E0.64279
G1 X119.988 Y117.653 E0.70124
G1 X119.389 Y116.756 E0.75969
G1 X119.179 Y115.699 E0.8181
G1 X119.389 Y114.641 E0.87654
G1 X119.955 Y113.794 E0.93174
M106 S84.15
G1 X119.707 Y113.463 F9000
;TYPE:External perimeter
;WIDTH:0.428
G1 F900
M106 S255
G1 X120.733 Y112.778 E0.9907
G1 X121.95 Y112.539 E1.05002
G1 X123.153 Y112.777 E1.10862
G1 X124.179 Y113.463 E1.16759
G1 X124.864 Y114.489 E1.22657
G1 X125.105 Y115.699 E1.28556
G1 X124.864 Y116.908 E1.34451
G1 X124.179 Y117.934 E1.40349
G1 X123.153 Y118.619 E1.46246
G1 X121.943 Y118.86 E1.52142
G1 X120.733 Y118.619 E1.5804
G1 X119.707 Y117.934 E1.63938
G1 X119.021 Y116.908 E1.69837
G1 X118.782 Y115.699 E1.75731
G1 X119.021 Y114.489 E1.81629
G1 X119.674 Y113.513 E1.87241
M106 S84.15
;WIPE_START
G1 X120.086 Y113.591 F9000
;WIPE_END
G1 X119.39 Y115.274
;TYPE:Solid infill
;WIDTH:0.490635
G1 F900
G1 X121.291 Y113.374 E2.02253
G1 X121.95 Y113.245 E2.06005
G1 X121.996 Y113.254 E2.06271
G1 X119.498 Y115.752 E2.26004
G1 X119.595 Y116.241 E2.28788
G1 X122.485 Y113.351 E2.51616
G1 X122.883 Y113.43 E2.53881
G1 X122.948 Y113.474 E2.5432
G1 X119.718 Y116.704 E2.79838
G1 X119.953 Y117.055 E2.82197
G1 X123.299 Y113.708 E3.08635
G1 X123.651 Y113.943 E3.10994
G1 X120.187 Y117.406 E3.38352
G1 X120.206 Y117.435 E3.38543
G1 X120.529 Y117.65 E3.40711
G1 X123.895 Y114.284 E3.67298
G1 X124.129 Y114.636 E3.69657
G1 X120.88 Y117.885 E3.95322
G1 X121.003 Y117.967 E3.96149
G1 X121.321 Y118.03 E3.97956
