; generated by SuperSlicer 2.4 on 2023-02-14 at 16:35:40 UTC

; 

; external perimeters extrusion width = 0.43mm
; perimeters extrusion width = 0.48mm
; infill extrusion width = 0.46mm
; solid infill extrusion width = 0.48mm
; top infill extrusion width = 0.46mm
; first layer extrusion width = 0.58mm

; object:{"name":"PART_20A","id":"PART_20A.stl id:0 copy 0","object_center":[115.436950,112.495302,0.000000],"boundingbox_center":[115.436950,112.495302,7.620000],"boundingbox_size":[20.320000,12.700000,15.240000]}
; Total objects to print: 1
M486 T1
; plater:{"center":[115.436950,112.495302,0.000000],"boundingbox_center":[115.436950,112.495302,7.620000],"boundingbox_size":[20.320000,12.700000,15.240000]}

;TYPE:Custom
G90 ; use absolute coordinates
M83 ; extruder relative mode
M140 S60 ; set final bed temp
M104 S150 ; set temporary nozzle temp to prevent oozing during homing and auto bed leveling
G4 S10 ; allow partial nozzle warmup
G28 ; home all axis
;G29 ; auto bed levelling
G1 Z10 F240
G1 X2 Y10 F3000
G1 Z0 F240
M104 S220 ; set final nozzle temp
M190 S60 ; wait for bed temp to stabilize
M109 S220 ; wait for nozzle temp to stabilize
G1 Z0.28 F240
G92 E0
G1 Y100 E7.1 F1500 ; prime the nozzle
G1 X2.3 F5000
G92 E0
G1 Y10 E10 F1200 ; prime the nozzle
G92 E0
;start
M107
G21 ; set units to millimeters
G90 ; use absolute coordinates
M82 ; use absolute distances for extrusion
G92 E0
; Filament gcode
;_TOOLCHANGE 0
M107
;LAYER_CHANGE
;Z:0.2
;HEIGHT:0.2
;BEFORE_LAYER_CHANGE
;0.2


G1 E-2 F3000
G1 Z0.15 F9000
;AFTER_LAYER_CHANGE
;0.2
G92 E0
M204 S500
G1 X103.214 Y103.298
G1 E2 F3000
;TYPE:Skirt
;WIDTH:0.48
G1 F1200
G1 X102.116 Y104.593 E2.06172
G1 X101.721 Y106.245 E2.12345
G1 X101.721 Y118.745 E2.57774
G1 X102.43 Y120.908 E2.66045
G1 X103.725 Y122.006 E2.72217
G1 X105.377 Y122.401 E2.7839
G1 X125.497 Y122.401 E3.51512
G1 X127.66 Y121.693 E3.59783
G1 X128.758 Y120.397 E3.65956
G1 X129.153 Y118.745 E3.72128
G1 X129.153 Y106.245 E4.17557
G1 X128.444 Y104.083 E4.25828
G1 X127.149 Y102.984 E4.32
G1 X125.497 Y102.59 E4.38173
G1 X105.377 Y102.59 E5.11296
G1 X103.271 Y103.279 E5.19348
G1 X103.596 Y103.582 F9000
G1 F1200
G1 X102.552 Y104.703 E5.24915
G1 X102.158 Y106.245 E5.30701
G1 X102.158 Y118.745 E5.7613
G1 X102.669 Y120.485 E5.8272
G1 X103.834 Y121.57 E5.88506
G1 X105.377 Y121.964 E5.94293
G1 X125.497 Y121.964 E6.67415
G1 X127.237 Y121.453 E6.74005
G1 X128.322 Y120.288 E6.79791
G1 X128.715 Y118.745 E6.85578
G1 X128.715 Y106.245 E7.31007
G1 X128.205 Y104.506 E7.37596
G1 X127.04 Y103.421 E7.43383
G1 X125.497 Y103.027 E7.49169
G1 X105.377 Y103.027 E8.22292
G1 X103.637 Y103.538 E8.28883
G92 E0
G1 E-1.4 F3000
;WIPE_START
G1 F7200
G1 X102.656 Y104.592 E-1.97
;WIPE_END
G1 E-2 F3000
; printing object PART_20A.stl id:0 copy 0
M486 S0
; acceleration to travel
M204 S1500
G1 X105.816 Y106.801 F9000
; decel to extrusion
M204 S500
G1 X106.202 Y107.071
; end travel
G1 E0 F3000
;TYPE:Internal perimeter
;WIDTH:0.576
G1 F1200
G1 X124.672 Y107.071 E0.81866
G1 X124.672 Y117.92 E1.29957
G1 X106.202 Y117.92 E2.11823
G1 X106.202 Y107.131 E2.59647
G1 X105.665 Y106.533 F9000
;TYPE:External perimeter
G1 F1200
G1 X125.209 Y106.533 E3.46277
G1 X125.209 Y118.457 E3.99131
G1 X105.665 Y118.457 E4.85762
G1 X105.665 Y106.593 E5.3835
;WIPE_START
G1 X106.011 Y106.733 F9000
;WIPE_END
G92 E0
G1 E-1.4 F3000
;WIPE_START
G1 F7200
G1 X107.451 Y106.733 E-1.97
;WIPE_END
G1 E-2 F3000
; acceleration to travel
M204 S1500
G1 X121.685 Y107.178 F9000
; decel to extrusion
M204 S500
G1 X123.424 Y107.232
; end travel
G1 E0 F3000
;TYPE:Solid infill
;WIDTH:0.575736
G1 F1200
G1 X124.279 Y108.087 E0.05358
G1 X124.279 Y108.847 E0.08725
G1 X122.895 Y107.463 E0.17398
G1 X122.135 Y107.463 E0.20765
G1 X124.279 Y109.607 E0.34199
G1 X124.279 Y110.367 E0.37566
G1 X121.375 Y107.463 E0.55762
G1 X120.615 Y107.463 E0.59129
G1 X124.279 Y111.127 E0.82086
G1 X124.279 Y111.887 E0.85453
G1 X119.855 Y107.463 E1.13172
G1 X119.095 Y107.463 E1.16539
G1 X124.279 Y112.647 E1.4902
G1 X124.279 Y113.407 E1.52387
G1 X118.335 Y107.463 E1.89629
G1 X117.576 Y107.463 E1.92996
G1 X124.279 Y114.167 E2.35
G1 X124.279 Y114.927 E2.38367
G1 X116.816 Y107.463 E2.85133
G1 X116.056 Y107.463 E2.885
G1 X124.279 Y115.687 E3.40028
G1 X124.279 Y116.447 E3.43395
G1 X115.296 Y107.463 E3.99684
G1 X114.536 Y107.463 E4.03051
G1 X124.279 Y117.207 E4.64102
G1 X124.279 Y117.528 E4.65525
G1 X123.84 Y117.528 E4.67469
G1 X113.776 Y107.463 E5.30532
G1 X113.016 Y107.463 E5.33899
G1 X123.081 Y117.528 E5.96962
G1 X122.321 Y117.528 E6.00329
G1 X112.256 Y107.463 E6.63392
G1 X111.496 Y107.463 E6.66759
G1 X121.561 Y117.528 E7.29822
G1 X120.801 Y117.528 E7.33189
G1 X110.736 Y107.463 E7.96252
G1 X109.976 Y107.463 E7.99619
G1 X120.041 Y117.528 E8.62682
G1 X119.281 Y117.528 E8.66049
G1 X109.216 Y107.463 E9.29112
G1 X108.456 Y107.463 E9.32479
G1 X118.521 Y117.528 E9.95542
G1 X117.761 Y117.528 E9.98909
G1 X107.696 Y107.463 E10.61972
G1 X106.936 Y107.463 E10.65339
G1 X117.001 Y117.528 E11.28402
G1 X116.241 Y117.528 E11.31769
G1 X106.595 Y107.881 E11.9221
G1 X106.595 Y108.641 E11.95577
G1 X115.481 Y117.528 E12.51256
G1 X114.721 Y117.528 E12.54623
G1 X106.595 Y109.401 E13.05541
G1 X106.595 Y110.161 E13.08908
G1 X113.961 Y117.528 E13.55065
G1 X113.201 Y117.528 E13.58432
G1 X106.595 Y110.921 E13.99826
G1 X106.595 Y111.681 E14.03193
G1 X112.441 Y117.528 E14.39826
G1 X111.681 Y117.528 E14.43193
G1 X106.595 Y112.441 E14.75064
G1 X106.595 Y113.201 E14.78431
G1 X110.921 Y117.528 E15.05541
G1 X110.161 Y117.528 E15.08908
G1 X106.595 Y113.961 E15.31256
G1 X106.595 Y114.721 E15.34623
G1 X109.401 Y117.528 E15.52209
G1 X108.641 Y117.528 E15.55576
G1 X106.595 Y115.481 E15.684
G1 X106.595 Y116.241 E15.71767
G1 X107.881 Y117.528 E15.7983
G1 X107.121 Y117.528 E15.83197
G1 X106.364 Y116.77 E15.87946
M106 S84.15
;LAYER_CHANGE
;Z:0.52
;HEIGHT:0.32
;BEFORE_LAYER_CHANGE
;0.52


G92 E0
G1 E-1.4 F3000
;WIPE_START
G1 F7200
G1 X107.121 Y117.528 E-1.82427
G1 X107.49 Y117.528 E-1.97
;WIPE_END
G1 E-2 F3000
; stop printing object PART_20A.stl id:0 copy 0
M486 S-1
G1 Z0.47 F9000
;AFTER_LAYER_CHANGE
;0.52
; printing object PART_20A.stl id:0 copy 0
M486 S0
G1 X105.881 Y118.241
G1 E0 F3000
;TYPE:Internal perimeter
;WIDTH:0.476
G1 F2400
G1 X105.881 Y106.749 E0.62274
G1 X124.993 Y106.749 E1.65842
G1 X124.993 Y118.241 E2.28116
G1 X105.941 Y118.241 E3.31359
G1 X105.491 Y118.631 F9000
;TYPE:External perimeter
;WIDTH:0.428
G1 F1500
G1 X105.491 Y106.359 E3.90026
G1 X125.383 Y106.359 E4.85119
G1 X125.383 Y118.631 E5.43786
G1 X105.551 Y118.631 E6.38593
;WIPE_START
G1 X105.691 Y118.285 F9000
;WIPE_END
G92 E0
G1 E-1.4 F3000
;WIPE_START
G1 F7200
G1 X105.691 Y116.845 E-1.97
;WIPE_END
G1 E-2 F3000
; acceleration to travel
M204 S1500
G1 X105.969 Y108.516 F9000
; decel to extrusion
M204 S500
G1 X106.005 Y107.441
; end travel
G1 E0 F3000
;TYPE:Solid infill
;WIDTH:0.483855
G1 F2400
G1 X106.394 Y107.052 E0.03028
G1 X106.98 Y107.052 E0.06254
G1 X106.183 Y107.848 E0.12458
G1 X106.183 Y108.434 E0.15685
G1 X107.566 Y107.052 E0.26451
G1 X108.151 Y107.052 E0.29678
G1 X106.183 Y109.02 E0.45008
G1 X106.183 Y109.605 E0.48234
G1 X108.737 Y107.052 E0.68127
G1 X109.323 Y107.052 E0.71354
G1 X106.183 Y110.191 E0.9581
G1 X106.183 Y110.777 E0.99037
G1 X109.909 Y107.052 E1.28056
G1 X110.494 Y107.052 E1.31283
G1 X106.183 Y111.363 E1.64866
G1 X106.183 Y111.948 E1.68092
G1 X111.08 Y107.052 E2.06238
G1 X111.666 Y107.052 E2.09465
G1 X106.183 Y112.534 E2.52174
G1 X106.183 Y113.12 E2.55401
G1 X112.252 Y107.052 E3.02673
G1 X112.837 Y107.052 E3.059
G1 X106.183 Y113.706 E3.57735
G1 X106.183 Y114.292 E3.60962
G1 X113.423 Y107.052 E4.1736
G1 X114.009 Y107.052 E4.20587
G1 X106.183 Y114.877 E4.81549
G1 X106.183 Y115.463 E4.84775
G1 X114.595 Y107.052 E5.50301
G1 X115.18 Y107.052 E5.53527
G1 X106.183 Y116.049 E6.23615
G1 X106.183 Y116.635 E6.26842
G1 X115.766 Y107.052 E7.01494
G1 X116.352 Y107.052 E7.0472
G1 X106.183 Y117.22 E7.83935
G1 X106.183 Y117.806 E7.87161
G1 X116.938 Y107.052 E8.70939
G1 X117.523 Y107.052 E8.74166
G1 X106.637 Y117.939 E9.58978
G1 X107.222 Y117.939 E9.62204
G1 X118.109 Y107.052 E10.47016
G1 X118.695 Y107.052 E10.50243
G1 X107.808 Y117.939 E11.35054
G1 X108.394 Y117.939 E11.38281
G1 X119.281 Y107.052 E12.23092
G1 X119.867 Y107.052 E12.26319
G1 X108.98 Y117.939 E13.11131
G1 X109.565 Y117.939 E13.14357
G1 X120.452 Y107.052 E13.99169
G1 X121.038 Y107.052 E14.02396
G1 X110.151 Y117.939 E14.87207
G1 X110.737 Y117.939 E14.90434
G1 X121.624 Y107.052 E15.75245
G1 X122.21 Y107.052 E15.78472
G1 X111.323 Y117.939 E16.63284
G1 X111.908 Y117.939 E16.6651
G1 X122.795 Y107.052 E17.51322
G1 X123.381 Y107.052 E17.54549
G1 X112.494 Y117.939 E18.3936
G1 X113.08 Y117.939 E18.42587
G1 X123.967 Y107.052 E19.27399
G1 X124.553 Y107.052 E19.30625
G1 X113.666 Y117.939 E20.15437
G1 X114.251 Y117.939 E20.18663
G1 X124.69 Y107.5 E20.99986
G1 X124.69 Y108.086 E21.03212
G1 X114.837 Y117.939 E21.79971
G1 X115.423 Y117.939 E21.83198
G1 X124.69 Y108.671 E22.55394
G1 X124.69 Y109.257 E22.5862
G1 X116.009 Y117.939 E23.26253
G1 X116.594 Y117.939 E23.29479
G1 X124.69 Y109.843 E23.92549
G1 X124.69 Y110.429 E23.95775
G1 X117.18 Y117.939 E24.54282
G1 X117.766 Y117.939 E24.57508
G1 X124.69 Y111.014 E25.11451
G1 X124.69 Y111.6 E25.14678
G1 X118.352 Y117.939 E25.64058
G1 X118.937 Y117.939 E25.67284
G1 X124.69 Y112.186 E26.12101
G1 X124.69 Y112.772 E26.15327
G1 X119.523 Y117.939 E26.55581
G1 X120.109 Y117.939 E26.58807
G1 X124.69 Y113.357 E26.94498
G1 X124.69 Y113.943 E26.97724
G1 X120.695 Y117.939 E27.28851
G1 X121.281 Y117.939 E27.32078
G1 X124.69 Y114.529 E27.58642
G1 X124.69 Y115.115 E27.61868
G1 X121.866 Y117.939 E27.83869
G1 X122.452 Y117.939 E27.87096
G1 X124.69 Y115.7 E28.04533
G1 X124.69 Y116.286 E28.0776
G1 X123.038 Y117.939 E28.20634
G1 X123.624 Y117.939 E28.2386
G1 X124.69 Y116.872 E28.32171
G1 X124.69 Y117.458 E28.35398
G1 X124.031 Y118.117 E28.40533
M106 S170.85
;LAYER_CHANGE
;Z:0.84
;HEIGHT:0.32
;BEFORE_LAYER_CHANGE
;0.84


G92 E0
G1 E-1.4 F3000
;WIPE_START
G1 F7200
G1 X124.69 Y117.458 E-1.76901
G1 X124.69 Y116.95 E-1.97
;WIPE_END
G1 E-2 F3000
; stop printing object PART_20A.stl id:0 copy 0
M486 S-1
G1 Z0.79 F9000
;AFTER_LAYER_CHANGE
;0.84
; printing object PART_20A.stl id:0 copy 0
M486 S0
G1 X124.993 Y118.241
G1 E0 F3000
;TYPE:Internal perimeter
;WIDTH:0.476
G1 F2012
G1 X105.881 Y118.241 E1.03568
G1 X105.881 Y106.749 E1.65842
G1 X124.993 Y106.749 E2.6941
G1 X124.993 Y118.181 E3.31359
G1 X125.383 Y118.631 F9000
;TYPE:External perimeter
;WIDTH:0.428
G1 F1500
G1 X105.491 Y118.631 E4.26453
G1 X105.491 Y106.359 E4.85119
G1 X125.383 Y106.359 E5.80213
G1 X125.383 Y118.571 E6.38593
;WIPE_START
G1 X125.037 Y118.431 F9000
;WIPE_END
G92 E0
G1 E-1.4 F3000
;WIPE_START
G1 F7200
G1 X123.597 Y118.431 E-1.97
;WIPE_END
G1 E-2 F3000
; acceleration to travel
M204 S1500
G1 X124.723 Y108.938 F9000
; decel to extrusion
M204 S500
G1 X124.869 Y107.711
; end travel
G1 E0 F3000
;TYPE:Solid infill
;WIDTH:0.483855
G1 F2012
G1 X124.209 Y107.052 E0.05135
G1 X123.624 Y107.052 E0.08362
G1 X124.69 Y108.119 E0.16673
G1 X124.69 Y108.704 E0.199
G1 X123.038 Y107.052 E0.32774
G1 X122.452 Y107.052 E0.36
G1 X124.69 Y109.29 E0.53438
G1 X124.69 Y109.876 E0.56664
G1 X121.866 Y107.052 E0.78665
G1 X121.281 Y107.052 E0.81892
G1 X124.69 Y110.462 E1.08455
G1 X124.69 Y111.047 E1.11682
G1 X120.695 Y107.052 E1.42809
G1 X120.109 Y107.052 E1.46036
G1 X124.69 Y111.633 E1.81726
G1 X124.69 Y112.219 E1.84952
G1 X119.523 Y107.052 E2.25206
G1 X118.937 Y107.052 E2.28432
G1 X124.69 Y112.805 E2.73249
G1 X124.69 Y113.391 E2.76476
G1 X118.352 Y107.052 E3.25855
G1 X117.766 Y107.052 E3.29082
G1 X124.69 Y113.976 E3.83025
G1 X124.69 Y114.562 E3.86252
G1 X117.18 Y107.052 E4.44758
G1 X116.594 Y107.052 E4.47984
G1 X124.69 Y115.148 E5.11054
G1 X124.69 Y115.734 E5.1428
G1 X116.009 Y107.052 E5.81913
G1 X115.423 Y107.052 E5.8514
G1 X124.69 Y116.319 E6.57335
G1 X124.69 Y116.905 E6.60562
G1 X114.837 Y107.052 E7.37321
G1 X114.251 Y107.052 E7.40548
G1 X124.69 Y117.491 E8.2187
G1 X124.69 Y117.939 E8.24337
G1 X124.553 Y117.939 E8.25097
G1 X113.666 Y107.052 E9.09908
G1 X113.08 Y107.052 E9.13135
G1 X123.967 Y117.939 E9.97946
G1 X123.381 Y117.939 E10.01173
G1 X112.494 Y107.052 E10.85985
G1 X111.908 Y107.052 E10.89211
G1 X122.795 Y117.939 E11.74023
G1 X122.21 Y117.939 E11.7725
G1 X111.323 Y107.052 E12.62061
G1 X110.737 Y107.052 E12.65288
G1 X121.624 Y117.939 E13.50099
G1 X121.038 Y117.939 E13.53326
G1 X110.151 Y107.052 E14.38138
G1 X109.565 Y107.052 E14.41364
G1 X120.452 Y117.939 E15.26176
G1 X119.866 Y117.939 E15.29403
G1 X108.98 Y107.052 E16.14214
G1 X108.394 Y107.052 E16.17441
G1 X119.281 Y117.939 E17.02252
G1 X118.695 Y117.939 E17.05479
G1 X107.808 Y107.052 E17.90291
G1 X107.222 Y107.052 E17.93517
G1 X118.109 Y117.939 E18.78329
G1 X117.523 Y117.939 E18.81556
G1 X106.637 Y107.052 E19.66367
G1 X106.183 Y107.052 E19.68863
G1 X106.183 Y107.185 E19.69594
G1 X116.938 Y117.939 E20.53372
G1 X116.352 Y117.939 E20.56598
G1 X106.183 Y107.77 E21.35813
G1 X106.183 Y108.356 E21.3904
G1 X115.766 Y117.939 E22.13691
G1 X115.18 Y117.939 E22.16918
G1 X106.183 Y108.942 E22.87006
G1 X106.183 Y109.528 E22.90233
G1 X114.595 Y117.939 E23.55758
G1 X114.009 Y117.939 E23.58984
G1 X106.183 Y110.113 E24.19946
G1 X106.183 Y110.699 E24.23173
G1 X113.423 Y117.939 E24.79571
G1 X112.837 Y117.939 E24.82798
G1 X106.183 Y111.285 E25.34634
G1 X106.183 Y111.871 E25.3786
G1 X112.252 Y117.939 E25.85133
G1 X111.666 Y117.939 E25.88359
G1 X106.183 Y112.456 E26.31068
G1 X106.183 Y113.042 E26.34295
G1 X111.08 Y117.939 E26.72441
G1 X110.494 Y117.939 E26.75667
G1 X106.183 Y113.628 E27.0925
G1 X106.183 Y114.214 E27.12477
G1 X109.909 Y117.939 E27.41496
G1 X109.323 Y117.939 E27.44723
G1 X106.183 Y114.799 E27.69179
G1 X106.183 Y115.385 E27.72406
G1 X108.737 Y117.939 E27.92299
G1 X108.151 Y117.939 E27.95525
G1 X106.183 Y115.971 E28.10855
G1 X106.183 Y116.557 E28.14082
G1 X107.566 Y117.939 E28.24849
G1 X106.98 Y117.939 E28.28075
G1 X106.183 Y117.142 E28.34279
G1 X106.183 Y117.728 E28.37505
G1 X106.572 Y118.117 E28.40533
M106 S255
;LAYER_CHANGE
;Z:1.16
;HEIGHT:0.32
;BEFORE_LAYER_CHANGE
;1.16


G92 E0
G1 E-1.4 F3000
;WIPE_START
G1 F7200
G1 X106.183 Y117.728 E-1.61757
G1 X106.183 Y117.142 E-1.84943
G1 X106.399 Y117.358 E-1.97
;WIPE_END
G1 E-2 F3000
; stop printing object PART_20A.stl id:0 copy 0
M486 S-1
G1 Z1.11 F9000
;AFTER_LAYER_CHANGE
;1.16
; printing object PART_20A.stl id:0 copy 0
M486 S0
G1 X105.881 Y118.241
G1 E0 F3000
;TYPE:Internal perimeter
;WIDTH:0.476
G1 F2012
G1 X105.881 Y106.749 E0.62274
G1 X124.993 Y106.749 E1.65842
G1 X124.993 Y118.241 E2.28116
G1 X105.941 Y118.241 E3.31359
G1 X105.491 Y118.631 F9000
;TYPE:External perimeter
;WIDTH:0.428
G1 F1500
G1 X105.491 Y106.359 E3.90026
G1 X125.383 Y106.359 E4.85119
G1 X125.383 Y118.631 E5.43786
G1 X105.551 Y118.631 E6.38593
;WIPE_START
G1 X105.691 Y118.285 F9000
;WIPE_END
G92 E0
G1 E-1.4 F3000
;WIPE_START
G1 F7200
G1 X105.691 Y116.845 E-1.97
;WIPE_END
G1 E-2 F3000
; acceleration to travel
M204 S1500
G1 X105.969 Y108.516 F9000
; decel to extrusion
M204 S500
G1 X106.005 Y107.441
; end travel
G1 E0 F3000
;TYPE:Solid infill
;WIDTH:0.483855
G1 F2012
G1 X106.394 Y107.052 E0.03028
G1 X106.98 Y107.052 E0.06254
G1 X106.183 Y107.848 E0.12458
G1 X106.183 Y108.434 E0.15685
G1 X107.566 Y107.052 E0.26451
G1 X108.151 Y107.052 E0.29678
G1 X106.183 Y109.02 E0.45008
G1 X106.183 Y109.605 E0.48234
G1 X108.737 Y107.052 E0.68127
G1 X109.323 Y107.052 E0.71354
G1 X106.183 Y110.191 E0.9581
G1 X106.183 Y110.777 E0.99037
G1 X109.909 Y107.052 E1.28056
G1 X110.494 Y107.052 E1.31283
G1 X106.183 Y111.363 E1.64866
G1 X106.183 Y111.948 E1.68092
G1 X111.08 Y107.052 E2.06238
G1 X111.666 Y107.052 E2.09465
G1 X106.183 Y112.534 E2.52174
G1 X106.183 Y113.12 E2.55401
G1 X112.252 Y107.052 E3.02673
G1 X112.837 Y107.052 E3.059
G1 X106.183 Y113.706 E3.57735
G1 X106.183 Y114.292 E3.60962
G1 X113.423 Y107.052 E4.1736
G1 X114.009 Y107.052 E4.20587
G1 X106.183 Y114.877 E4.81549
G1 X106.183 Y115.463 E4.84775
G1 X114.595 Y107.052 E5.50301
G1 X115.18 Y107.052 E5.53527
G1 X106.183 Y116.049 E6.23615
G1 X106.183 Y116.635 E6.26842
