; generated by SuperSlicer 2.4 on 2023-02-14 at 16:36:55 UTC

; 

; external perimeters extrusion width = 0.43mm
; perimeters extrusion width = 0.48mm
; infill extrusion width = 0.46mm
; solid infill extrusion width = 0.48mm
; top infill extrusion width = 0.46mm
; first layer extrusion width = 0.58mm

; object:{"name":"PART_1","id":"PART_1.stl id:0 copy 0","object_center":[112.705379,111.106580,0.000000],"boundingbox_center":[112.705379,111.106580,10.160000],"boundingbox_size":[14.607508,14.607508,20.320000]}
; Total objects to print: 1
M486 T1
; plater:{"center":[112.705379,111.106580,0.000000],"boundingbox_center":[112.705379,111.106580,10.160000],"boundingbox_size":[14.607508,14.607508,20.320000]}

;TYPE:Custom
G90 ; use absolute coordinates
M83 ; extruder relative mode
M140 S60 ; set final bed temp
M104 S150 ; set temporary nozzle temp to prevent oozing during homing and auto bed leveling
G4 S10 ; allow partial nozzle warmup
G28 ; home all axis
;G29 ; auto bed levelling
G1 Z10 F240
G1 X2 Y10 F3000
G1 Z0 F240
M104 S220 ; set final nozzle temp
M190 S60 ; wait for bed temp to stabilize
M109 S220 ; wait for nozzle temp to stabilize
G1 Z0.28 F240
G92 E0
G1 Y100 E7.1 F1500 ; prime the nozzle
G1 X2.3 F5000
G92 E0
G1 Y10 E10 F1200 ; prime the nozzle
G92 E0
;start
M107
G21 ; set units to millimeters
G90 ; use absolute coordinates
M82 ; use absolute distances for extrusion
G92 E0
; Filament gcode
;_TOOLCHANGE 0
M107
;LAYER_CHANGE
;Z:0.2
;HEIGHT:0.2
;BEFORE_LAYER_CHANGE
;0.2


G1 E-2 F3000
G1 Z0.15 F9000
;AFTER_LAYER_CHANGE
;0.2
G92 E0
M204 S500
G1 X104.616 Y101.754
G1 E2 F3000
;TYPE:Skirt
;WIDTH:0.48
G1 F1200
G1 X103.956 Y103.319 E2.06172
G1 X101.91 Y115.651 E2.51602
G1 X102.255 Y117.9 E2.59872
G1 X103.353 Y119.196 E2.66045
G1 X104.918 Y119.856 E2.72217
G1 X117.25 Y121.902 E3.17646
G1 X119.499 Y121.557 E3.25917
G1 X120.795 Y120.459 E3.3209
G1 X121.454 Y118.894 E3.38262
G1 X123.5 Y106.562 E3.83691
G1 X123.156 Y104.313 E3.91962
G1 X122.058 Y103.017 E3.98134
G1 X120.492 Y102.358 E4.04307
G1 X108.898 Y100.434 E4.47022
G1 X108.161 Y100.312 E4.49736
G1 X105.912 Y100.656 E4.58007
G1 X104.662 Y101.716 E4.63961
G1 X105.029 Y101.934 F9000
G1 F1200
G1 X104.388 Y103.391 E4.69747
G1 X102.342 Y115.722 E5.15176
G1 X102.561 Y117.522 E5.21766
G1 X103.532 Y118.783 E5.27552
G1 X104.99 Y119.424 E5.33339
G1 X117.321 Y121.47 E5.78768
G1 X119.121 Y121.251 E5.85358
G1 X120.382 Y120.28 E5.91144
G1 X121.023 Y118.822 E5.9693
G1 X123.069 Y106.491 E6.42359
G1 X122.85 Y104.691 E6.48949
G1 X121.878 Y103.43 E6.54735
G1 X120.421 Y102.789 E6.60521
G1 X108.826 Y100.865 E7.03237
G1 X108.09 Y100.743 E7.05951
G1 X106.29 Y100.962 E7.1254
G1 X105.076 Y101.897 E7.18108
G92 E0
G1 E-1.4 F3000
;WIPE_START
G1 F7200
G1 X104.473 Y103.205 E-1.97
;WIPE_END
G1 E-2 F3000
; printing object PART_1.stl id:0 copy 0
M486 S0
; acceleration to travel
M204 S1500
G1 X107.832 Y104.686 F9000
; decel to extrusion
M204 S500
G1 X108.242 Y104.867
; end travel
G1 E0 F3000
;TYPE:Internal perimeter
;WIDTH:0.576
G1 F1200
G1 X108.922 Y104.98 E0.03055
G1 X108.506 Y107.486 E0.14314
G1 X115.527 Y108.651 E0.45859
G1 X117.849 Y109.036 E0.56294
G1 X118.265 Y106.53 E0.67552
G1 X118.945 Y106.643 E0.70608
G1 X117.169 Y117.346 E1.18698
G1 X106.466 Y115.57 E1.66788
G1 X108.232 Y104.926 E2.14612
G1 X107.8 Y104.249 F9000
;TYPE:External perimeter
G1 F1200
G1 X107.835 Y104.255 E2.14769
G1 X109.54 Y104.538 E2.22431
G1 X109.124 Y107.044 E2.3369
G1 X115.615 Y108.121 E2.62853
G1 X117.407 Y108.418 E2.70906
G1 X117.823 Y105.912 E2.82165
G1 X119.563 Y106.201 E2.89984
G1 X117.611 Y117.964 E3.42838
G1 X105.848 Y116.012 E3.95692
G1 X107.79 Y104.308 E4.4828
;WIPE_START
G1 X108.109 Y104.503 F9000
;WIPE_END
G92 E0
G1 E-1.4 F3000
;WIPE_START
G1 F7200
G1 X109.31 Y104.702 E-1.88196
G1 X109.273 Y104.922 E-1.97
;WIPE_END
G1 E-2 F3000
; acceleration to travel
M204 S1500
G1 X117.218 Y109.638 F9000
; decel to extrusion
M204 S500
G1 X118.189 Y110.214
; end travel
G1 E0 F3000
;TYPE:Solid infill
;WIDTH:0.586664
G1 F1200
G1 X117.321 Y109.346 E0.0554
G1 X116.41 Y109.195 E0.0971
G1 X117.88 Y110.665 E0.19094
G1 X117.772 Y111.316 E0.22077
G1 X115.499 Y109.044 E0.36588
G1 X115.462 Y109.038 E0.36755
G1 X114.588 Y108.892 E0.40758
G1 X117.664 Y111.968 E0.60395
G1 X117.555 Y112.62 E0.63378
G1 X113.677 Y108.741 E0.88143
G1 X112.766 Y108.59 E0.92313
G1 X117.447 Y113.272 E1.22204
G1 X117.339 Y113.924 E1.25187
G1 X111.854 Y108.439 E1.60205
G1 X110.943 Y108.288 E1.64375
G1 X117.231 Y114.575 E2.0452
G1 X117.123 Y115.227 E2.07503
G1 X110.032 Y108.137 E2.52774
G1 X109.121 Y107.985 E2.56944
G1 X117.015 Y115.879 E3.07343
G1 X116.907 Y116.531 E3.10325
G1 X108.21 Y107.834 E3.65851
G1 X108.149 Y107.824 E3.6613
G1 X108.048 Y108.432 E3.68913
G1 X116.444 Y116.828 E4.22517
G1 X115.533 Y116.677 E4.26687
G1 X107.94 Y109.084 E4.75164
G1 X107.832 Y109.736 E4.78147
G1 X114.621 Y116.526 E5.21498
G1 X113.71 Y116.374 E5.25667
G1 X107.723 Y110.388 E5.63891
G1 X107.615 Y111.039 E5.66874
G1 X112.799 Y116.223 E5.99971
G1 X111.888 Y116.072 E6.04141
G1 X107.507 Y111.691 E6.32111
G1 X107.399 Y112.343 E6.35094
G1 X110.977 Y115.921 E6.57937
G1 X110.066 Y115.77 E6.62107
G1 X107.291 Y112.995 E6.79823
G1 X107.183 Y113.647 E6.82806
G1 X109.155 Y115.619 E6.95396
G1 X108.243 Y115.467 E6.99565
G1 X107.075 Y114.299 E7.07028
G1 X106.966 Y114.95 E7.10011
G1 X107.613 Y115.597 E7.1414
G92 E0
G1 E-1.4 F3000
;WIPE_START
G1 F7200
G1 X106.966 Y114.95 E-1.76203
G1 X107.052 Y114.432 E-1.97
;WIPE_END
G1 E-2 F3000
; acceleration to travel
M204 S1500
G1 X108.025 Y108.31 F9000
; decel to extrusion
M204 S500
G1 X108.144 Y107.562
; end travel
G1 E0 F3000
;TYPE:Gap fill
;WIDTH:0.19481
G1 F1200
G1 X108.157 Y107.487 E0.00096
G1 X108.525 Y105.264 E0.02942
G1 X108.538 Y105.189 E0.03038
G92 E0
G1 E-1.4 F3000
;WIPE_START
G1 F7200
G1 X108.525 Y105.264 E-1.43006
G1 X108.302 Y106.609 E-1.97
;WIPE_END
G1 E-2 F3000
; acceleration to travel
M204 S1500
G1 X117.444 Y106.825 F9000
; decel to extrusion
M204 S500
G1 X118.561 Y106.852
; end travel
G1 E0 F3000
;WIDTH:0.217773
G1 F1200
G1 X118.548 Y106.927 E0.0011
G1 X118.145 Y109.357 E0.03693
G1 X118.099 Y109.423 E0.03809
;WIDTH:0.281354
G1 X118.053 Y109.489 E0.03968
G1 X118.055 Y109.577 E0.04143
;WIDTH:0.439194
G1 X118.057 Y109.661 E0.04421
;WIDTH:0.518346
G1 X118.058 Y109.698 E0.04566
M106 S84.15
;LAYER_CHANGE
;Z:0.52
;HEIGHT:0.32
;BEFORE_LAYER_CHANGE
;0.52


G92 E0
G1 E-1.4 F3000
;WIPE_START
G1 F7200
G1 X118.057 Y109.661 E-1.41454
;WIPE_END
G1 E-2 F3000
; stop printing object PART_1.stl id:0 copy 0
M486 S-1
G1 Z0.47 F9000
;AFTER_LAYER_CHANGE
;0.52
; printing object PART_1.stl id:0 copy 0
M486 S0
G1 X117.585 Y108.667
G1 E0 F3000
;TYPE:Internal perimeter
;WIDTH:0.476
G1 F1561
G1 X118.001 Y106.161 E0.13765
G1 X119.314 Y106.379 E0.20981
G1 X117.433 Y117.715 E0.83255
G1 X106.097 Y115.834 E1.45529
G1 X107.978 Y104.498 E2.07803
G1 X109.291 Y104.716 E2.1502
G1 X108.875 Y107.221 E2.28784
G1 X117.526 Y108.657 E2.76301
G1 X117.264 Y108.218 F9000
;TYPE:External perimeter
;WIDTH:0.428
G1 F1500
G1 X117.679 Y105.712 E2.88444
G1 X119.763 Y106.058 E2.9854
G1 X117.754 Y118.164 E3.57206
G1 X105.648 Y116.155 E4.15873
G1 X107.657 Y104.049 E4.74539
G1 X109.74 Y104.395 E4.84636
G1 X109.324 Y106.9 E4.96778
G1 X117.205 Y108.208 E5.34965
;WIPE_START
G1 X117.658 Y108.283 F9000
;WIPE_END
G1 X117.929 Y107.35
;TYPE:Solid infill
;WIDTH:0.485618
G1 F1561
G1 X118.696 Y106.583 E5.40964
G1 X118.966 Y106.628 E5.42477
G1 X118.913 Y106.952 E5.44298
G1 X118.029 Y107.836 E5.51205
G1 X117.913 Y108.538 E5.55141
G1 X118.796 Y107.655 E5.62048
G1 X118.679 Y108.357 E5.65984
G1 X110.738 Y116.298 E6.28072
G1 X111.241 Y116.381 E6.30887
G1 X118.563 Y109.059 E6.88136
G1 X118.446 Y109.762 E6.92072
G1 X111.743 Y116.465 E7.44482
G1 X112.246 Y116.548 E7.47298
G1 X118.33 Y110.464 E7.94869
G1 X118.213 Y111.166 E7.98804
G1 X112.748 Y116.632 E8.41536
G1 X113.25 Y116.715 E8.44352
G1 X118.097 Y111.868 E8.82244
G1 X117.98 Y112.571 E8.8618
G1 X113.753 Y116.798 E9.19233
G1 X114.255 Y116.882 E9.22049
G1 X117.864 Y113.273 E9.50263
G1 X117.747 Y113.975 E9.54199
G1 X114.758 Y116.965 E9.77574
G1 X115.26 Y117.048 E9.8039
G1 X117.631 Y114.678 E9.98926
G1 X117.514 Y115.38 E10.02861
G1 X115.762 Y117.132 E10.16558
G1 X116.265 Y117.215 E10.19374
G1 X117.398 Y116.082 E10.28232
G1 X117.281 Y116.784 E10.32167
G1 X116.612 Y117.453 E10.37397
G92 E0
G1 E-1.4 F3000
;WIPE_START
G1 F7200
G1 X117.281 Y116.784 E-1.77441
G1 X117.362 Y116.297 E-1.97
;WIPE_END
G1 E-2 F3000
; acceleration to travel
M204 S1500
G1 X110.914 Y116.361 F9000
; decel to extrusion
M204 S500
G1 X110.081 Y116.37
; end travel
G1 E0 F3000
G1 F1561
G1 X117.493 Y108.958 E0.5795
G1 X116.991 Y108.874 E0.60765
G1 X109.734 Y116.131 E1.17505
G1 X109.231 Y116.048 E1.2032
G1 X116.488 Y108.791 E1.77059
G1 X115.986 Y108.708 E1.79875
G1 X108.729 Y115.965 E2.36614
G1 X108.226 Y115.881 E2.3943
G1 X115.483 Y108.624 E2.96169
G1 X114.981 Y108.541 E2.98984
G1 X107.724 Y115.798 E3.55724
G1 X107.222 Y115.715 E3.58539
G1 X114.479 Y108.458 E4.15278
G1 X113.976 Y108.374 E4.18094
G1 X106.719 Y115.631 E4.74833
G1 X106.444 Y115.586 E4.76374
G1 X106.497 Y115.268 E4.78156
G1 X113.474 Y108.291 E5.32704
G1 X112.971 Y108.208 E5.35519
G1 X106.614 Y114.565 E5.85228
G1 X106.73 Y113.863 E5.89163
G1 X112.469 Y108.124 E6.34033
G1 X111.967 Y108.041 E6.36848
G1 X106.847 Y113.161 E6.76878
G1 X106.963 Y112.458 E6.80814
G1 X111.464 Y107.957 E7.16005
G1 X110.962 Y107.874 E7.18821
G1 X107.08 Y111.756 E7.49173
G1 X107.196 Y111.054 E7.53108
G1 X110.459 Y107.791 E7.78621
G1 X109.957 Y107.707 E7.81437
G1 X107.313 Y110.352 E8.0211
G1 X107.429 Y109.649 E8.06046
G1 X109.455 Y107.624 E8.21881
G1 X108.952 Y107.541 E8.24696
G1 X107.546 Y108.947 E8.35692
G1 X107.662 Y108.245 E8.39627
G1 X108.546 Y107.361 E8.46535
G1 X108.662 Y106.659 E8.5047
G1 X107.779 Y107.542 E8.57377
G1 X107.895 Y106.84 E8.61313
G1 X108.779 Y105.957 E8.6822
G1 X108.895 Y105.254 E8.72156
G1 X108.012 Y106.138 E8.79063
G1 X108.128 Y105.436 E8.82999
G1 X108.803 Y104.761 E8.88275
M106 S170.85
;LAYER_CHANGE
;Z:0.84
;HEIGHT:0.32
;BEFORE_LAYER_CHANGE
;0.84


G92 E0
G1 E-1.4 F3000
;WIPE_START
G1 F7200
G1 X108.128 Y105.436 E-1.77778
G1 X108.049 Y105.915 E-1.97
;WIPE_END
G1 E-2 F3000
; stop printing object PART_1.stl id:0 copy 0
M486 S-1
G1 Z0.79 F9000
;AFTER_LAYER_CHANGE
;0.84
; printing object PART_1.stl id:0 copy 0
M486 S0
G1 X108.875 Y107.221
G1 E0 F3000
;TYPE:Internal perimeter
;WIDTH:0.476
G1 F1085
G1 X117.585 Y108.667 E0.47842
G1 X118.001 Y106.161 E0.61607
G1 X119.314 Y106.379 E0.68823
G1 X117.433 Y117.715 E1.31097
G1 X106.097 Y115.834 E1.93371
G1 X107.978 Y104.498 E2.55645
G1 X109.291 Y104.716 E2.62862
G1 X108.885 Y107.162 E2.76301
G1 X109.324 Y106.9 F9000
;TYPE:External perimeter
;WIDTH:0.428
G1 F1085
G1 X117.264 Y108.218 E3.14775
G1 X117.679 Y105.712 E3.26917
G1 X119.763 Y106.058 E3.37014
G1 X117.754 Y118.164 E3.9568
G1 X105.648 Y116.155 E4.54346
G1 X107.657 Y104.049 E5.13013
G1 X109.74 Y104.395 E5.23109
G1 X109.334 Y106.841 E5.34965
;WIPE_START
G1 X109.259 Y107.295 F9000
;WIPE_END
G92 E0
G1 E-1.4 F3000
;WIPE_START
G1 F7200
G1 X110.685 Y107.496 E-1.97
;WIPE_END
G1 E-2 F3000
; acceleration to travel
M204 S1500
G1 X108.604 Y105.005 F9000
; decel to extrusion
M204 S500
G1 X108.335 Y104.683
; end travel
G1 E0 F3000
;TYPE:Solid infill
;WIDTH:0.48539
G1 F1085
G1 X108.897 Y105.245 E0.04393
G1 X108.814 Y105.747 E0.07207
G1 X108.182 Y105.116 E0.12146
G1 X108.098 Y105.618 E0.1496
G1 X108.73 Y106.25 E0.19899
G1 X108.647 Y106.752 E0.22713
G1 X108.015 Y106.12 E0.27652
G1 X107.931 Y106.623 E0.30467
G1 X117.397 Y116.088 E1.04437
G1 X117.48 Y115.586 E1.07251
G1 X109.531 Y107.637 E1.69371
G1 X110.234 Y107.753 E1.73305
G1 X117.563 Y115.083 E2.30587
G1 X117.647 Y114.581 E2.33401
G1 X110.936 Y107.87 E2.85847
G1 X111.638 Y107.986 E2.89781
G1 X117.73 Y114.078 E3.3739
G1 X117.814 Y113.576 E3.40204
G1 X112.34 Y108.103 E3.82976
G1 X113.043 Y108.219 E3.8691
G1 X117.897 Y113.074 E4.24845
G1 X117.98 Y112.571 E4.27659
G1 X113.745 Y108.336 E4.60757
G1 X114.447 Y108.452 E4.64691
G1 X118.064 Y112.069 E4.92952
G1 X118.147 Y111.566 E4.95767
G1 X115.15 Y108.569 E5.19191
G1 X115.852 Y108.686 E5.23125
G1 X118.23 Y111.064 E5.41712
G1 X118.314 Y110.562 E5.44527
G1 X116.554 Y108.802 E5.58277
G1 X117.256 Y108.919 E5.62211
G1 X118.397 Y110.059 E5.71125
G1 X118.48 Y109.557 E5.73939
G1 X117.848 Y108.925 E5.78878
G1 X117.932 Y108.422 E5.81693
G1 X118.564 Y109.054 E5.86631
G1 X118.647 Y108.552 E5.89446
G1 X118.015 Y107.92 E5.94385
G1 X118.098 Y107.418 E5.97199
G1 X118.73 Y108.05 E6.02138
G1 X118.814 Y107.547 E6.04952
G1 X118.182 Y106.915 E6.09891
G1 X118.249 Y106.509 E6.12169
G1 X118.383 Y106.531 E6.12919
G1 X119.052 Y107.2 E6.18146
G92 E0
G1 E-1.4 F3000
;WIPE_START
G1 F7200
G1 X118.383 Y106.531 E-1.77441
G1 X118.249 Y106.509 E-1.82813
G1 X118.191 Y106.862 E-1.97
;WIPE_END
G1 E-2 F3000
; acceleration to travel
M204 S1500
G1 X117.551 Y115.615 F9000
; decel to extrusion
M204 S500
G1 X117.468 Y116.745
; end travel
G1 E0 F3000
G1 F1085
G1 X107.848 Y107.125 E0.75181
G1 X107.765 Y107.628 E0.77995
G1 X117.23 Y117.093 E1.51965
G1 X117.184 Y117.368 E1.53505
G1 X116.866 Y117.315 E1.55287
G1 X107.681 Y108.13 E2.27067
G1 X107.598 Y108.632 E2.29881
G1 X116.164 Y117.198 E2.96824
G1 X115.462 Y117.082 E3.00758
G1 X107.515 Y109.135 E3.62864
G1 X107.431 Y109.637 E3.65678
G1 X114.759 Y116.965 E4.22948
G1 X114.057 Y116.849 E4.26881
G1 X107.348 Y110.14 E4.79314
G1 X107.265 Y110.642 E4.82128
G1 X113.355 Y116.732 E5.29724
G1 X112.653 Y116.616 E5.33658
G1 X107.181 Y111.144 E5.76416
G1 X107.098 Y111.647 E5.79231
G1 X111.95 Y116.499 E6.17153
G1 X111.248 Y116.383 E6.21086
G1 X107.015 Y112.149 E6.54171
G1 X106.931 Y112.652 E6.56986
G1 X110.546 Y116.266 E6.85234
G1 X109.844 Y116.15 E6.89168
G1 X106.848 Y113.154 E7.12579
G1 X106.764 Y113.656 E7.15393
G1 X109.141 Y116.033 E7.33968
G1 X108.439 Y115.917 E7.37901
G1 X106.681 Y114.159 E7.51639
G1 X106.598 Y114.661 E7.54453
G1 X107.737 Y115.8 E7.63354
G1 X107.034 Y115.684 E7.67288
G1 X106.36 Y115.009 E7.72562
M106 S255
;LAYER_CHANGE
;Z:1.16
;HEIGHT:0.32
;BEFORE_LAYER_CHANGE
;1.16


G92 E0
G1 E-1.4 F3000
;WIPE_START
G1 F7200
G1 X107.034 Y115.684 E-1.77778
G1 X107.513 Y115.763 E-1.97
;WIPE_END
G1 E-2 F3000
; stop printing object PART_1.stl id:0 copy 0
M486 S-1
G1 Z1.11 F9000
;AFTER_LAYER_CHANGE
;1.16
; printing object PART_1.stl id:0 copy 0
M486 S0
G1 X106.097 Y115.834
G1 E0 F3000
;TYPE:Internal perimeter
;WIDTH:0.476
G1 F1088
G1 X107.978 Y104.498 E0.62274
G1 X109.291 Y104.716 E0.6949
G1 X108.875 Y107.221 E0.83255
G1 X117.585 Y108.667 E1.31097
G1 X118.001 Y106.161 E1.44861
G1 X119.314 Y106.379 E1.52078
G1 X117.433 Y117.715 E2.14352
G1 X106.156 Y115.844 E2.76301
G1 X105.648 Y116.155 F9000
;TYPE:External perimeter
;WIDTH:0.428
G1 F1088
G1 X107.657 Y104.049 E3.34967
G1 X109.74 Y104.395 E3.45064
G1 X109.324 Y106.9 E3.57206
G1 X117.264 Y108.218 E3.9568
G1 X117.679 Y105.712 E4.07822
G1 X119.763 Y106.058 E4.17919
G1 X117.754 Y118.164 E4.76585
G1 X105.707 Y116.165 E5.34965
;WIPE_START
G1 X105.902 Y115.846 F9000
;WIPE_END
G92 E0
G1 E-1.4 F3000
;WIPE_START
G1 F7200
G1 X106.137 Y114.426 E-1.97
;WIPE_END
G1 E-2 F3000
; acceleration to travel
M204 S1500
G1 X109.63 Y116.147 F9000
; decel to extrusion
M204 S500
G1 X110.081 Y116.37
; end travel
G1 E0 F3000
;TYPE:Solid infill
;WIDTH:0.485618
G1 F1088
G1 X117.493 Y108.958 E0.5795
G1 X116.991 Y108.874 E0.60765
G1 X109.734 Y116.131 E1.17505
G1 X109.231 Y116.048 E1.2032
G1 X116.488 Y108.791 E1.77059
G1 X115.986 Y108.708 E1.79875
G1 X108.729 Y115.965 E2.36614
G1 X108.226 Y115.881 E2.3943
G1 X115.483 Y108.624 E2.96169
G1 X114.981 Y108.541 E2.98984
G1 X107.724 Y115.798 E3.55724
G1 X107.222 Y115.715 E3.58539
G1 X114.479 Y108.458 E4.15278
G1 X113.976 Y108.374 E4.18094
G1 X106.719 Y115.631 E4.74833
G1 X106.444 Y115.586 E4.76374
G1 X106.497 Y115.268 E4.78156
G1 X113.474 Y108.291 E5.32704
G1 X112.971 Y108.208 E5.35519
G1 X106.614 Y114.565 E5.85228
G1 X106.73 Y113.863 E5.89163
G1 X112.469 Y108.124 E6.34033
G1 X111.967 Y108.041 E6.36848
G1 X106.847 Y113.161 E6.76878
G1 X106.963 Y112.458 E6.80814
G1 X111.464 Y107.957 E7.16005
