; generated by SuperSlicer 2.4 on 2023-02-14 at 16:37:25 UTC

; 

; external perimeters extrusion width = 0.43mm
; perimeters extrusion width = 0.48mm
; infill extrusion width = 0.46mm
; solid infill extrusion width = 0.48mm
; top infill extrusion width = 0.46mm
; first layer extrusion width = 0.58mm

; object:{"name":"PART_18A","id":"PART_18A.stl id:0 copy 0","object_center":[115.662638,110.275403,0.000000],"boundingbox_center":[115.662638,110.275403,12.700000],"boundingbox_size":[20.389268,12.821758,25.400001]}
; Total objects to print: 1
M486 T1
; plater:{"center":[115.662638,110.275403,0.000000],"boundingbox_center":[115.662638,110.275403,12.700000],"boundingbox_size":[20.389268,12.821758,25.400001]}

;TYPE:Custom
G90 ; use absolute coordinates
M83 ; extruder relative mode
M140 S60 ; set final bed temp
M104 S150 ; set temporary nozzle temp to prevent oozing during homing and auto bed leveling
G4 S10 ; allow partial nozzle warmup
G28 ; home all axis
;G29 ; auto bed levelling
G1 Z10 F240
G1 X2 Y10 F3000
G1 Z0 F240
M104 S220 ; set final nozzle temp
M190 S60 ; wait for bed temp to stabilize
M109 S220 ; wait for nozzle temp to stabilize
G1 Z0.28 F240
G92 E0
G1 Y100 E7.1 F1500 ; prime the nozzle
G1 X2.3 F5000
G92 E0
G1 Y10 E10 F1200 ; prime the nozzle
G92 E0
;start
M107
G21 ; set units to millimeters
G90 ; use absolute coordinates
M82 ; use absolute distances for extrusion
G92 E0
; Filament gcode
;_TOOLCHANGE 0
M107
;LAYER_CHANGE
;Z:0.2
;HEIGHT:0.2
;BEFORE_LAYER_CHANGE
;0.2


G1 E-2 F3000
G1 Z0.15 F9000
;AFTER_LAYER_CHANGE
;0.2
G92 E0
M204 S500
G1 X103.973 Y101.903
G1 E2 F3000
;TYPE:Skirt
;WIDTH:0.48
G1 F1200
G1 X103.127 Y102.854 E2.04628
G1 X102.563 Y103.816 E2.08681
G1 X102.272 Y104.558 E2.11577
G1 X102.015 Y105.805 E2.16205
G1 X101.913 Y116.422 E2.54793
G1 X102.607 Y118.59 E2.63064
G1 X103.894 Y119.697 E2.69236
G1 X105.544 Y120.103 E2.75409
G1 X125.663 Y120.241 E3.48531
G1 X127.831 Y119.548 E3.56802
G1 X128.938 Y118.26 E3.62974
G1 X129.344 Y116.611 E3.69147
G1 X129.413 Y106.554 E4.05696
G1 X129.329 Y105.519 E4.09472
G1 X129.148 Y104.743 E4.12368
G1 X128.728 Y103.709 E4.16421
G1 X128.028 Y102.646 E4.21049
G1 X127.483 Y102.064 E4.23945
G1 X126.603 Y101.379 E4.27998
G1 X125.465 Y100.808 E4.32626
G1 X124.703 Y100.576 E4.35522
G1 X123.917 Y100.446 E4.38419
G1 X122.513 Y100.408 E4.43523
G1 X107.562 Y100.334 E4.9786
G1 X106.774 Y100.453 E5.00756
G1 X105.565 Y100.854 E5.05384
G1 X104.596 Y101.405 E5.09436
G1 X104.02 Y101.865 E5.12115
G1 X104.293 Y102.206 F9000
G1 F1200
G1 X104.259 Y102.233 E5.12274
G1 X103.489 Y103.1 E5.16487
G1 X102.953 Y104.012 E5.20332
G1 X102.573 Y105.107 E5.24545
G1 X102.451 Y105.837 E5.27234
G1 X102.35 Y116.425 E5.65718
G1 X102.849 Y118.169 E5.72307
G1 X104.007 Y119.262 E5.78094
G1 X105.547 Y119.666 E5.8388
G1 X125.666 Y119.804 E6.57003
G1 X127.409 Y119.305 E6.63592
G1 X128.502 Y118.148 E6.69379
G1 X128.907 Y116.608 E6.75165
G1 X128.976 Y106.551 E7.11714
G1 X128.899 Y105.601 E7.15179
G1 X128.733 Y104.88 E7.17867
G1 X128.335 Y103.9 E7.21712
G1 X127.697 Y102.932 E7.25926
G1 X127.193 Y102.391 E7.28614
G1 X126.358 Y101.741 E7.32459
G1 X125.322 Y101.221 E7.36672
G1 X124.615 Y101.005 E7.39361
G1 X123.885 Y100.882 E7.42049
G1 X122.51 Y100.845 E7.4705
G1 X107.587 Y100.77 E8.01283
G1 X106.856 Y100.883 E8.03971
G1 X105.756 Y101.248 E8.08185
G1 X104.836 Y101.77 E8.12029
G1 X104.34 Y102.168 E8.14341
G92 E0
G1 E-1.4 F3000
;WIPE_START
G1 F7200
G1 X104.259 Y102.233 E-1.44106
G1 X103.489 Y103.1 E-1.89997
G1 X103.399 Y103.252 E-1.97
;WIPE_END
G1 E-2 F3000
; printing object PART_18A.stl id:0 copy 0
M486 S0
; acceleration to travel
M204 S1500
G1 X109.001 Y106.896 F9000
; decel to extrusion
M204 S500
G1 X109.686 Y107.341
; end travel
G1 E0 F3000
;TYPE:Internal perimeter
;WIDTH:0.576
G1 F1200
G1 X121.696 Y107.423 E0.53239
G1 X121.714 Y104.883 E0.64497
G1 X123.298 Y104.894 E0.7152
G1 X123.539 Y104.912 E0.7259
G1 X123.745 Y104.954 E0.73525
G1 X123.945 Y105.023 E0.7446
G1 X124.133 Y105.118 E0.75395
G1 X124.308 Y105.236 E0.7633
G1 X124.465 Y105.377 E0.77265
G1 X124.603 Y105.536 E0.782
G1 X124.719 Y105.712 E0.79135
G1 X124.811 Y105.902 E0.8007
G1 X124.878 Y106.102 E0.81005
G1 X124.918 Y106.31 E0.8194
G1 X124.932 Y106.55 E0.83009
G1 X124.869 Y115.755 E1.23808
G1 X106.4 Y115.628 E2.05675
G1 X106.463 Y106.424 E2.46474
G1 X106.48 Y106.183 E2.47543
G1 X106.523 Y105.976 E2.48478
G1 X106.592 Y105.777 E2.49413
G1 X106.687 Y105.589 E2.50348
G1 X106.805 Y105.414 E2.51283
G1 X106.945 Y105.256 E2.52218
G1 X107.105 Y105.118 E2.53153
G1 X107.281 Y105.002 E2.54088
G1 X107.471 Y104.91 E2.55023
G1 X107.671 Y104.844 E2.55958
G1 X107.863 Y104.807 E2.56825
G1 X108.524 Y104.793 E2.59755
G1 X109.703 Y104.801 E2.64983
G1 X109.686 Y107.281 E2.75976
G1 X110.227 Y106.807 F9000
;TYPE:External perimeter
G1 F1200
G1 X121.163 Y106.882 E3.24451
G1 X121.18 Y104.342 E3.35709
G1 X123.319 Y104.357 E3.45192
G1 X123.613 Y104.378 E3.46496
G1 X123.888 Y104.435 E3.47743
G1 X124.154 Y104.527 E3.4899
G1 X124.406 Y104.654 E3.50237
G1 X124.639 Y104.811 E3.51485
G1 X124.849 Y104.998 E3.52732
G1 X125.033 Y105.211 E3.53979
G1 X125.188 Y105.446 E3.55227
G1 X125.31 Y105.7 E3.56474
G1 X125.399 Y105.967 E3.57721
G1 X125.452 Y106.243 E3.58968
G1 X125.469 Y106.537 E3.60272
G1 X125.402 Y116.296 E4.03531
G1 X105.859 Y116.161 E4.90161
G1 X105.926 Y106.402 E5.3342
G1 X105.947 Y106.109 E5.34724
G1 X106.004 Y105.833 E5.35971
G1 X106.096 Y105.568 E5.37218
G1 X106.222 Y105.316 E5.38465
G1 X106.38 Y105.083 E5.39713
G1 X106.567 Y104.873 E5.4096
G1 X106.78 Y104.689 E5.42207
G1 X107.015 Y104.534 E5.43454
G1 X107.268 Y104.411 E5.44702
G1 X107.535 Y104.323 E5.45949
G1 X107.806 Y104.271 E5.47173
G1 X108.52 Y104.255 E5.50336
G1 X110.244 Y104.267 E5.57981
G1 X110.227 Y106.747 E5.68973
;WIPE_START
G1 X110.224 Y107.207 F9000
;WIPE_END
G92 E0
G1 E-1.4 F3000
;WIPE_START
G1 F7200
G1 X111.664 Y107.191 E-1.97
;WIPE_END
G1 E-2 F3000
; acceleration to travel
M204 S1500
G1 X122.317 Y105.329 F9000
; decel to extrusion
M204 S500
G1 X123.619 Y105.101
; end travel
G1 E0 F3000
;TYPE:Solid infill
;WIDTH:0.572756
G1 F1200
G1 X124.281 Y105.763 E0.04129
G1 X124.445 Y106.051 E0.05588
G1 X124.525 Y106.359 E0.06989
G1 X124.523 Y106.765 E0.08779
G1 X123.055 Y105.297 E0.17933
G1 X122.283 Y105.285 E0.21335
G1 X124.519 Y107.521 E0.35276
G1 X124.515 Y108.277 E0.38608
G1 X122.099 Y105.861 E0.53666
G1 X122.094 Y106.616 E0.56993
G1 X124.511 Y109.033 E0.72059
G1 X124.507 Y109.789 E0.75391
G1 X122.089 Y107.371 E0.90465
G1 X122.086 Y107.818 E0.92437
G1 X121.774 Y107.816 E0.9381
G1 X124.503 Y110.545 E1.10821
G1 X124.499 Y111.301 E1.14153
G1 X121.009 Y107.811 E1.35909
G1 X120.244 Y107.806 E1.39282
G1 X124.495 Y112.057 E1.65783
G1 X124.492 Y112.813 E1.69115
G1 X119.479 Y107.8 E2.00361
G1 X118.714 Y107.795 E2.03734
G1 X124.488 Y113.569 E2.39726
G1 X124.484 Y114.325 E2.43058
G1 X117.948 Y107.79 E2.83795
G1 X117.183 Y107.785 E2.87168
G1 X124.48 Y115.081 E3.3265
G1 X124.478 Y115.36 E3.33877
G1 X123.995 Y115.356 E3.36008
G1 X116.418 Y107.779 E3.83238
G1 X115.653 Y107.774 E3.8661
G1 X123.23 Y115.351 E4.3384
G1 X122.464 Y115.346 E4.37213
G1 X114.887 Y107.769 E4.84442
G1 X114.122 Y107.764 E4.87815
G1 X121.699 Y115.341 E5.35044
G1 X120.934 Y115.335 E5.38417
G1 X113.357 Y107.758 E5.85646
G1 X112.592 Y107.753 E5.89019
G1 X120.169 Y115.33 E6.36248
G1 X119.404 Y115.325 E6.39621
G1 X111.827 Y107.748 E6.86851
G1 X111.061 Y107.743 E6.90223
G1 X118.638 Y115.32 E7.37453
G1 X117.873 Y115.314 E7.40826
G1 X110.064 Y107.505 E7.89505
G92 E0
G1 E-1.4 F3000
;WIPE_START
G1 F7200
G1 X111.082 Y108.523 E-1.97
;WIPE_END
G1 E-2 F3000
; acceleration to travel
M204 S1500
G1 X109.706 Y105.792 F9000
; decel to extrusion
M204 S500
G1 X109.538 Y105.459
; end travel
G1 E0 F3000
G1 F1200
G1 X109.273 Y105.195 E0.01647
G1 X108.516 Y105.197 E0.04986
G1 X109.303 Y105.984 E0.09891
G1 X109.298 Y106.739 E0.13218
G1 X107.781 Y105.223 E0.2267
G1 X107.464 Y105.351 E0.24178
G1 X107.342 Y105.432 E0.24824
G1 X107.282 Y105.483 E0.25172
G1 X117.108 Y115.309 E0.86418
G1 X116.343 Y115.304 E0.89791
G1 X106.968 Y105.93 E1.48223
G1 X106.905 Y106.081 E1.48946
G1 X106.855 Y106.451 E1.50594
G1 X106.854 Y106.575 E1.5114
G1 X115.578 Y115.299 E2.05516
G1 X114.812 Y115.293 E2.08889
G1 X106.849 Y107.33 E2.58527
G1 X106.844 Y108.085 E2.61853
G1 X114.047 Y115.288 E3.06754
G1 X113.282 Y115.283 E3.10127
G1 X106.839 Y108.839 E3.5029
G1 X106.833 Y109.594 E3.53617
G1 X112.517 Y115.278 E3.89042
G1 X111.751 Y115.272 E3.92415
G1 X106.828 Y110.349 E4.23103
G1 X106.823 Y111.104 E4.2643
G1 X110.986 Y115.267 E4.5238
G1 X110.221 Y115.262 E4.55753
G1 X106.818 Y111.859 E4.76966
G1 X106.813 Y112.613 E4.80293
G1 X109.456 Y115.257 E4.96769
G1 X108.691 Y115.251 E5.00141
G1 X106.807 Y113.368 E5.11879
G1 X106.802 Y114.123 E5.15206
G1 X107.925 Y115.246 E5.22207
G1 X107.16 Y115.241 E5.2558
G1 X106.568 Y114.648 E5.29273
M106 S84.15
;LAYER_CHANGE
;Z:0.52
;HEIGHT:0.32
;BEFORE_LAYER_CHANGE
;0.52


G92 E0
G1 E-1.4 F3000
;WIPE_START
G1 F7200
G1 X107.16 Y115.241 E-1.73171
G1 X107.762 Y115.245 E-1.97
;WIPE_END
G1 E-2 F3000
; stop printing object PART_18A.stl id:0 copy 0
M486 S-1
G1 Z0.47 F9000
;AFTER_LAYER_CHANGE
;0.52
; printing object PART_18A.stl id:0 copy 0
M486 S0
G1 X106.076 Y115.947
G1 E0 F3000
;TYPE:Internal perimeter
;WIDTH:0.476
G1 F2400
G1 X106.142 Y106.411 E0.51677
G1 X106.162 Y106.139 E0.53155
G1 X106.213 Y105.891 E0.54527
G1 X106.296 Y105.652 E0.55898
G1 X106.409 Y105.426 E0.57269
G1 X106.551 Y105.216 E0.58641
G1 X106.719 Y105.027 E0.60012
G1 X106.911 Y104.862 E0.61383
G1 X107.122 Y104.723 E0.62754
G1 X107.35 Y104.612 E0.64126
G1 X107.59 Y104.532 E0.65497
G1 X107.838 Y104.485 E0.66868
G1 X108.111 Y104.469 E0.68347
G1 X110.027 Y104.482 E0.7873
G1 X110.009 Y107.022 E0.92495
G1 X121.377 Y107.1 E1.54101
G1 X121.395 Y104.56 E1.67866
G1 X123.311 Y104.573 E1.78249
G1 X123.583 Y104.593 E1.79727
G1 X123.831 Y104.644 E1.81099
G1 X124.07 Y104.727 E1.8247
G1 X124.296 Y104.84 E1.83841
G1 X124.505 Y104.982 E1.85213
G1 X124.695 Y105.151 E1.86584
G1 X124.86 Y105.342 E1.87955
G1 X124.999 Y105.553 E1.89327
G1 X125.11 Y105.781 E1.90698
G1 X125.189 Y106.021 E1.92069
G1 X125.237 Y106.27 E1.9344
G1 X125.253 Y106.542 E1.94919
G1 X125.187 Y116.078 E2.46596
G1 X106.136 Y115.947 E3.49838
G1 X105.683 Y116.334 F9000
;TYPE:External perimeter
;WIDTH:0.428
G1 F1500
G1 X105.752 Y106.396 E3.97352
G1 X105.774 Y106.085 E3.9884
G1 X105.836 Y105.787 E4.00294
G1 X105.935 Y105.5 E4.01748
G1 X106.072 Y105.228 E4.03202
G1 X106.242 Y104.976 E4.04657
G1 X106.445 Y104.749 E4.06111
G1 X106.675 Y104.55 E4.07565
G1 X106.929 Y104.383 E4.09019
G1 X107.203 Y104.25 E4.10473
G1 X107.491 Y104.154 E4.11928
G1 X107.79 Y104.097 E4.13382
G1 X108.101 Y104.079 E4.1487
G1 X110.42 Y104.094 E4.25956
G1 X110.402 Y106.634 E4.38098
G1 X120.99 Y106.707 E4.88714
G1 X121.007 Y104.167 E5.00857
G1 X123.326 Y104.183 E5.11943
G1 X123.637 Y104.206 E5.1343
G1 X123.935 Y104.267 E5.14885
G1 X124.222 Y104.367 E5.16339
G1 X124.494 Y104.503 E5.17793
G1 X124.746 Y104.674 E5.19247
G1 X124.973 Y104.876 E5.20701
G1 X125.172 Y105.106 E5.22156
G1 X125.339 Y105.36 E5.2361
G1 X125.472 Y105.634 E5.25064
G1 X125.568 Y105.923 E5.26518
G1 X125.625 Y106.221 E5.27972
G1 X125.643 Y106.532 E5.2946
G1 X125.575 Y116.471 E5.76974
G1 X105.743 Y116.335 E6.71781
;WIPE_START
G1 X105.886 Y115.989 F9000
;WIPE_END
G92 E0
G1 E-1.4 F3000
;WIPE_START
G1 F7200
G1 X105.896 Y114.549 E-1.97
;WIPE_END
G1 E-2 F3000
; acceleration to travel
M204 S1500
G1 X106.229 Y107.312 F9000
; decel to extrusion
M204 S500
G1 X106.272 Y106.377
; end travel
G1 E0 F3000
;TYPE:Solid infill
;WIDTH:0.48485
G1 F2400
G1 X107.856 Y104.793 E0.12368
G1 X107.886 Y104.785 E0.12537
G1 X108.119 Y104.771 E0.13824
G1 X108.461 Y104.774 E0.15714
G1 X106.442 Y106.793 E0.31478
G1 X106.437 Y107.383 E0.34734
G1 X109.043 Y104.778 E0.55071
G1 X109.624 Y104.782 E0.58283
G1 X106.433 Y107.973 E0.83193
G1 X106.429 Y108.562 E0.86449
G1 X109.719 Y105.273 E1.12128
G1 X109.715 Y105.863 E1.15384
G1 X106.425 Y109.152 E1.41063
G1 X106.421 Y109.742 E1.44318
G1 X109.711 Y106.453 E1.69998
G1 X109.707 Y107.042 E1.73253
G1 X106.417 Y110.332 E1.98933
G1 X106.413 Y110.922 E2.02188
G1 X110.011 Y107.324 E2.30271
G1 X110.592 Y107.328 E2.33482
G1 X106.409 Y111.511 E2.66137
G1 X106.405 Y112.101 E2.69393
G1 X111.174 Y107.332 E3.06621
G1 X111.756 Y107.336 E3.09832
G1 X106.401 Y112.691 E3.51634
G1 X106.397 Y113.281 E3.54889
G1 X112.338 Y107.34 E4.01264
G1 X112.919 Y107.344 E4.04475
G1 X106.393 Y113.871 E4.55422
G1 X106.389 Y114.461 E4.58678
G1 X113.501 Y107.348 E5.14198
G1 X114.083 Y107.352 E5.1741
G1 X106.385 Y115.05 E5.77503
G1 X106.381 Y115.64 E5.80759
G1 X114.665 Y107.356 E6.45425
G1 X115.246 Y107.36 E6.48636
G1 X106.956 Y115.65 E7.13352
G1 X107.538 Y115.654 E7.16563
G1 X115.828 Y107.364 E7.81278
G1 X116.41 Y107.368 E7.8449
G1 X108.12 Y115.658 E8.49205
G1 X108.702 Y115.662 E8.52417
G1 X116.992 Y107.372 E9.17132
G1 X117.574 Y107.376 E9.20343
G1 X109.283 Y115.666 E9.85059
G1 X109.865 Y115.67 E9.8827
G1 X118.155 Y107.38 E10.52986
G1 X118.737 Y107.384 E10.56197
G1 X110.447 Y115.674 E11.20912
G1 X111.029 Y115.678 E11.24124
G1 X119.319 Y107.388 E11.88839
G1 X119.901 Y107.392 E11.9205
G1 X111.61 Y115.682 E12.56766
G1 X112.192 Y115.686 E12.59977
G1 X120.482 Y107.396 E13.24693
G1 X121.064 Y107.4 E13.27904
G1 X112.774 Y115.69 E13.92619
G1 X113.356 Y115.694 E13.95831
G1 X124.009 Y105.042 E14.7899
G1 X124.327 Y105.228 E14.81027
G1 X124.37 Y105.266 E14.81342
G1 X113.937 Y115.698 E15.62779
G1 X114.519 Y115.702 E15.6599
G1 X124.641 Y105.581 E16.45002
G1 X124.734 Y105.704 E16.45855
G1 X124.841 Y105.967 E16.4742
G1 X115.101 Y115.706 E17.23451
G1 X115.683 Y115.71 E17.26662
G1 X124.934 Y106.459 E17.98877
G1 X124.931 Y107.048 E18.02127
G1 X116.265 Y115.714 E18.69778
G1 X116.846 Y115.718 E18.72989
G1 X124.928 Y107.637 E19.36075
G1 X124.925 Y108.226 E19.39325
G1 X117.428 Y115.722 E19.97846
G1 X118.01 Y115.726 E20.01057
G1 X124.922 Y108.814 E20.55014
G1 X124.919 Y109.403 E20.58264
G1 X118.592 Y115.73 E21.07656
G1 X119.173 Y115.734 E21.10867
G1 X124.916 Y109.992 E21.55695
G1 X124.913 Y110.581 E21.58945
G1 X119.755 Y115.738 E21.99207
G1 X120.337 Y115.742 E22.02419
G1 X124.91 Y111.169 E22.38117
G1 X124.907 Y111.758 E22.41367
G1 X120.919 Y115.746 E22.72501
G1 X121.5 Y115.75 E22.75712
G1 X124.904 Y112.347 E23.02281
G1 X124.901 Y112.935 E23.05531
G1 X122.082 Y115.754 E23.27535
G1 X122.664 Y115.758 E23.30747
G1 X124.898 Y113.524 E23.48187
G1 X124.895 Y114.113 E23.51436
G1 X123.246 Y115.762 E23.64312
G1 X123.827 Y115.766 E23.67523
G1 X124.892 Y114.702 E23.75834
G1 X124.889 Y115.29 E23.79084
G1 X124.232 Y115.947 E23.84211
G92 E0
G1 E-1.4 F3000
;WIPE_START
G1 F7200
G1 X124.889 Y115.29 E-1.76766
G1 X124.892 Y114.779 E-1.97
;WIPE_END
G1 E-2 F3000
; acceleration to travel
M204 S1500
G1 X121.89 Y107.856 F9000
; decel to extrusion
M204 S500
G1 X121.503 Y106.962
; end travel
G1 E0 F3000
G1 F2400
G1 X123.563 Y104.901 E0.16086
G1 X123.54 Y104.895 E0.16219
G1 X122.992 Y104.886 E0.19243
G1 X121.686 Y106.193 E0.29439
G1 X121.69 Y105.603 E0.32695
G1 X122.415 Y104.878 E0.38354
G1 X121.838 Y104.869 E0.4154
G1 X121.515 Y105.192 E0.44063
M106 S170.85
;LAYER_CHANGE
;Z:0.84
;HEIGHT:0.32
;BEFORE_LAYER_CHANGE
;0.84


G92 E0
G1 E-1.4 F3000
;WIPE_START
G1 F7200
G1 X121.838 Y104.869 E-1.58091
G1 X122.415 Y104.878 E-1.80937
G1 X122.128 Y105.165 E-1.97
;WIPE_END
G1 E-2 F3000
; stop printing object PART_18A.stl id:0 copy 0
M486 S-1
G1 Z0.79 F9000
;AFTER_LAYER_CHANGE
;0.84
G92 E0
; printing object PART_18A.stl id:0 copy 0
M486 S0
G1 X121.377 Y107.1
G1 E2 F3000
;TYPE:Internal perimeter
;WIDTH:0.476
G1 F1787
G1 X121.395 Y104.56 E2.13765
G1 X123.311 Y104.573 E2.24148
G1 X123.583 Y104.593 E2.25626
G1 X123.831 Y104.644 E2.26998
G1 X124.07 Y104.727 E2.28369
G1 X124.296 Y104.84 E2.2974
G1 X124.505 Y104.982 E2.31112
G1 X124.695 Y105.151 E2.32483
G1 X124.86 Y105.342 E2.33854
G1 X124.999 Y105.553 E2.35225
G1 X125.11 Y105.781 E2.36597
G1 X125.189 Y106.021 E2.37968
G1 X125.237 Y106.27 E2.39339
G1 X125.253 Y106.542 E2.40818
G1 X125.187 Y116.078 E2.92495
G1 X106.076 Y115.947 E3.96062
G1 X106.142 Y106.411 E4.47739
