; generated by SuperSlicer 2.4 on 2023-02-14 at 16:34:31 UTC

; 

; external perimeters extrusion width = 0.43mm
; perimeters extrusion width = 0.48mm
; infill extrusion width = 0.46mm
; solid infill extrusion width = 0.48mm
; top infill extrusion width = 0.46mm
; first layer extrusion width = 0.58mm

; object:{"name":"PART_19A","id":"PART_19A.stl id:0 copy 0","object_center":[113.935978,111.209067,0.000000],"boundingbox_center":[113.935978,111.209067,11.430000],"boundingbox_size":[17.786103,10.170685,22.860001]}
; Total objects to print: 1
M486 T1
; plater:{"center":[113.935978,111.209067,0.000000],"boundingbox_center":[113.935978,111.209067,11.430000],"boundingbox_size":[17.786103,10.170685,22.860001]}

;TYPE:Custom
G90 ; use absolute coordinates
M83 ; extruder relative mode
M140 S60 ; set final bed temp
M104 S150 ; set temporary nozzle temp to prevent oozing during homing and auto bed leveling
G4 S10 ; allow partial nozzle warmup
G28 ; home all axis
;G29 ; auto bed levelling
G1 Z10 F240
G1 X2 Y10 F3000
G1 Z0 F240
M104 S220 ; set final nozzle temp
M190 S60 ; wait for bed temp to stabilize
M109 S220 ; wait for nozzle temp to stabilize
G1 Z0.28 F240
G92 E0
G1 Y100 E7.1 F1500 ; prime the nozzle
G1 X2.3 F5000
G92 E0
G1 Y10 E10 F1200 ; prime the nozzle
G92 E0
;start
M107
G21 ; set units to millimeters
G90 ; use absolute coordinates
M82 ; use absolute distances for extrusion
G92 E0
; Filament gcode
;_TOOLCHANGE 0
M107
;LAYER_CHANGE
;Z:0.2
;HEIGHT:0.2
;BEFORE_LAYER_CHANGE
;0.2


G1 E-2 F3000
G1 Z0.15 F9000
;AFTER_LAYER_CHANGE
;0.2
G92 E0
M204 S500
G1 X102.979 Y103.288
G1 E2 F3000
;TYPE:Skirt
;WIDTH:0.48
G1 F1200
G1 X101.881 Y104.584 E2.06172
G1 X101.487 Y106.237 E2.12345
G1 X101.493 Y116.197 E2.48543
G1 X102.203 Y118.359 E2.56814
G1 X103.499 Y119.456 E2.62986
G1 X105.151 Y119.85 E2.69159
G1 X122.731 Y119.839 E3.3305
G1 X124.893 Y119.13 E3.41321
G1 X125.991 Y117.834 E3.47493
G1 X126.385 Y116.182 E3.53666
G1 X126.379 Y106.222 E3.89864
G1 X125.669 Y104.059 E3.98134
G1 X124.373 Y102.962 E4.04307
G1 X122.721 Y102.568 E4.10479
G1 X105.141 Y102.579 E4.74371
G1 X103.036 Y103.27 E4.82423
G1 X103.36 Y103.572 F9000
G1 F1200
G1 X102.317 Y104.693 E4.8799
G1 X101.924 Y106.236 E4.93776
G1 X101.93 Y116.196 E5.29974
G1 X102.442 Y117.936 E5.36564
G1 X103.608 Y119.02 E5.4235
G1 X105.151 Y119.413 E5.48137
G1 X122.731 Y119.402 E6.12028
G1 X124.47 Y118.891 E6.18618
G1 X125.555 Y117.725 E6.24404
G1 X125.948 Y116.182 E6.3019
G1 X125.942 Y106.222 E6.66388
G1 X125.43 Y104.482 E6.72978
G1 X124.264 Y103.398 E6.78764
G1 X122.721 Y103.005 E6.8455
G1 X105.141 Y103.016 E7.48442
G1 X103.401 Y103.528 E7.55033
G92 E0
G1 E-1.4 F3000
;WIPE_START
G1 F7200
G1 X102.421 Y104.582 E-1.97
;WIPE_END
G1 E-2 F3000
; printing object PART_19A.stl id:0 copy 0
M486 S0
; acceleration to travel
M204 S1500
G1 X105.583 Y106.79 F9000
; decel to extrusion
M204 S500
G1 X105.969 Y107.059
; end travel
G1 E0 F3000
;TYPE:Internal perimeter
;WIDTH:0.576
G1 F1200
G1 X121.898 Y107.05 E0.70608
G1 X121.903 Y115.359 E1.07439
G1 X105.974 Y115.368 E1.78047
G1 X105.969 Y107.119 E2.14612
G1 X105.431 Y106.522 F9000
;TYPE:External perimeter
G1 F1200
G1 X122.435 Y106.512 E2.89984
G1 X122.435 Y106.608 E2.90408
G1 X122.441 Y115.896 E3.31579
G1 X105.437 Y115.906 E4.06951
G1 X105.431 Y106.582 E4.4828
;WIPE_START
G1 X105.778 Y106.722 F9000
;WIPE_END
G92 E0
G1 E-1.4 F3000
;WIPE_START
G1 F7200
G1 X107.218 Y106.721 E-1.97
;WIPE_END
G1 E-2 F3000
; acceleration to travel
M204 S1500
G1 X120.157 Y108.126 F9000
; decel to extrusion
M204 S500
G1 X121.738 Y108.298
; end travel
G1 E0 F3000
;TYPE:Solid infill
;WIDTH:0.573488
G1 F1200
G1 X120.882 Y107.443 E0.05338
G1 X120.123 Y107.443 E0.0869
G1 X121.507 Y108.827 E0.17329
G1 X121.507 Y109.587 E0.20685
G1 X119.363 Y107.443 E0.34066
G1 X118.604 Y107.444 E0.37418
G1 X121.508 Y110.348 E0.55543
G1 X121.508 Y111.108 E0.58899
G1 X117.844 Y107.444 E0.81766
G1 X117.085 Y107.445 E0.85118
G1 X121.509 Y111.869 E1.12729
G1 X121.509 Y112.629 E1.16085
G1 X116.325 Y107.445 E1.48439
G1 X115.566 Y107.446 E1.51791
G1 X121.51 Y113.39 E1.88888
G1 X121.51 Y114.15 E1.92244
G1 X114.806 Y107.446 E2.34084
G1 X114.047 Y107.447 E2.37436
G1 X121.511 Y114.91 E2.84019
G1 X121.511 Y114.967 E2.84269
G1 X120.808 Y114.967 E2.87372
G1 X113.287 Y107.447 E3.34307
G1 X112.528 Y107.448 E3.37659
G1 X120.048 Y114.968 E3.84595
G1 X119.289 Y114.968 E3.87947
G1 X111.768 Y107.448 E4.34883
G1 X111.009 Y107.448 E4.38234
G1 X118.529 Y114.969 E4.8517
G1 X117.77 Y114.969 E4.88522
G1 X110.249 Y107.449 E5.35458
G1 X109.49 Y107.449 E5.3881
G1 X117.01 Y114.97 E5.85745
G1 X116.251 Y114.97 E5.89097
G1 X108.73 Y107.45 E6.36033
G1 X107.971 Y107.45 E6.39385
G1 X115.491 Y114.971 E6.86321
G1 X114.732 Y114.971 E6.89672
G1 X107.211 Y107.451 E7.36608
G1 X106.452 Y107.451 E7.3996
G1 X113.972 Y114.971 E7.86896
G1 X113.213 Y114.972 E7.90248
G1 X106.362 Y108.121 E8.33005
G1 X106.362 Y108.882 E8.36361
G1 X112.453 Y114.972 E8.74376
G1 X111.694 Y114.973 E8.77728
G1 X106.363 Y109.642 E9.10999
G1 X106.363 Y110.402 E9.14355
G1 X110.934 Y114.973 E9.42883
G1 X110.175 Y114.974 E9.46235
G1 X106.364 Y111.163 E9.7002
G1 X106.364 Y111.923 E9.73376
G1 X109.415 Y114.974 E9.92418
G1 X108.656 Y114.975 E9.9577
G1 X106.364 Y112.684 E10.10069
G1 X106.365 Y113.444 E10.13425
G1 X107.896 Y114.975 E10.22981
G1 X107.137 Y114.976 E10.26333
G1 X106.365 Y114.204 E10.31145
G1 X106.366 Y114.965 E10.34501
G1 X106.608 Y115.207 E10.36012
M106 S84.15
;LAYER_CHANGE
;Z:0.52
;HEIGHT:0.32
;BEFORE_LAYER_CHANGE
;0.52


G92 E0
G1 E-1.4 F3000
;WIPE_START
G1 F7200
G1 X106.366 Y114.965 E-1.53552
G1 X106.365 Y114.204 E-1.83652
G1 X106.604 Y114.443 E-1.97
;WIPE_END
G1 E-2 F3000
; stop printing object PART_19A.stl id:0 copy 0
M486 S-1
G1 Z0.47 F9000
;AFTER_LAYER_CHANGE
;0.52
; printing object PART_19A.stl id:0 copy 0
M486 S0
G1 X105.653 Y115.69
G1 E0 F3000
;TYPE:Internal perimeter
;WIDTH:0.476
G1 F2185
G1 X105.647 Y106.738 E0.4851
G1 X122.219 Y106.728 E1.38313
G1 X122.224 Y115.68 E1.86823
G1 X105.713 Y115.69 E2.76301
G1 X105.263 Y116.08 F9000
;TYPE:External perimeter
;WIDTH:0.428
G1 F1500
G1 X105.257 Y106.348 E3.22825
G1 X122.609 Y106.338 E4.05776
G1 X122.615 Y116.07 E4.523
G1 X105.323 Y116.08 E5.34965
;WIPE_START
G1 X105.463 Y115.734 F9000
;WIPE_END
G92 E0
G1 E-1.4 F3000
;WIPE_START
G1 F7200
G1 X105.462 Y114.294 E-1.97
;WIPE_END
G1 E-2 F3000
; acceleration to travel
M204 S1500
G1 X106.404 Y107.712 F9000
; decel to extrusion
M204 S500
G1 X106.526 Y106.862
; end travel
G1 E0 F3000
;TYPE:Solid infill
;WIDTH:0.484275
G1 F2185
G1 X105.95 Y107.438 E0.04491
G1 X105.951 Y108.023 E0.07719
G1 X106.934 Y107.04 E0.15387
G1 X107.52 Y107.039 E0.18619
G1 X105.951 Y108.609 E0.30855
G1 X105.951 Y109.194 E0.34082
G1 X108.106 Y107.039 E0.50885
G1 X108.692 Y107.039 E0.54117
G1 X105.952 Y109.78 E0.75487
G1 X105.952 Y110.365 E0.78714
G1 X109.279 Y107.038 E1.04652
G1 X109.865 Y107.038 E1.07883
G1 X105.952 Y110.95 E1.38388
G1 X105.953 Y111.536 E1.41615
G1 X110.451 Y107.038 E1.76687
G1 X111.037 Y107.037 E1.79919
G1 X105.953 Y112.121 E2.19557
G1 X105.953 Y112.707 E2.22785
G1 X111.623 Y107.037 E2.66991
G1 X112.209 Y107.037 E2.70222
G1 X105.954 Y113.292 E3.18996
G1 X105.954 Y113.877 E3.22223
G1 X112.795 Y107.036 E3.75564
G1 X113.381 Y107.036 E3.78795
G1 X105.954 Y114.463 E4.36703
G1 X105.955 Y115.048 E4.3993
G1 X113.967 Y107.036 E5.02405
G1 X114.554 Y107.035 E5.05636
G1 X106.202 Y115.387 E5.70756
G1 X106.788 Y115.387 E5.73988
G1 X115.14 Y107.035 E6.39108
G1 X115.726 Y107.035 E6.42339
G1 X107.374 Y115.386 E7.07459
G1 X107.96 Y115.386 E7.1069
G1 X116.312 Y107.034 E7.7581
G1 X116.898 Y107.034 E7.79042
G1 X108.546 Y115.386 E8.44162
G1 X109.132 Y115.385 E8.47393
G1 X117.484 Y107.033 E9.12513
G1 X118.07 Y107.033 E9.15745
G1 X109.718 Y115.385 E9.80865
G1 X110.304 Y115.385 E9.84096
G1 X118.656 Y107.033 E10.49216
G1 X119.242 Y107.032 E10.52448
G1 X110.891 Y115.384 E11.17568
G1 X111.477 Y115.384 E11.20799
G1 X119.829 Y107.032 E11.85919
G1 X120.415 Y107.032 E11.8915
G1 X112.063 Y115.384 E12.5427
G1 X112.649 Y115.383 E12.57502
G1 X121.001 Y107.031 E13.22622
G1 X121.587 Y107.031 E13.25853
G1 X113.235 Y115.383 E13.90973
G1 X113.821 Y115.383 E13.94205
G1 X121.917 Y107.287 E14.57329
G1 X121.917 Y107.872 E14.60556
G1 X114.407 Y115.382 E15.19113
G1 X114.993 Y115.382 E15.22345
G1 X121.918 Y108.457 E15.76334
G1 X121.918 Y109.043 E15.79562
G1 X115.579 Y115.382 E16.28985
G1 X116.166 Y115.381 E16.32216
G1 X121.918 Y109.628 E16.77072
G1 X121.919 Y110.214 E16.80299
G1 X116.752 Y115.381 E17.20587
G1 X117.338 Y115.38 E17.23819
G1 X121.919 Y110.799 E17.5954
G1 X121.92 Y111.384 E17.62767
G1 X117.924 Y115.38 E17.93921
G1 X118.51 Y115.38 E17.97153
G1 X121.92 Y111.97 E18.2374
G1 X121.92 Y112.555 E18.26967
G1 X119.096 Y115.379 E18.48987
G1 X119.682 Y115.379 E18.52218
G1 X121.921 Y113.141 E18.69671
G1 X121.921 Y113.726 E18.72898
G1 X120.268 Y115.379 E18.85784
G1 X120.854 Y115.378 E18.89015
G1 X121.921 Y114.312 E18.97333
G1 X121.922 Y114.897 E19.00561
G1 X121.262 Y115.556 E19.05701
M106 S170.85
;LAYER_CHANGE
;Z:0.84
;HEIGHT:0.32
;BEFORE_LAYER_CHANGE
;0.84


G92 E0
G1 E-1.4 F3000
;WIPE_START
G1 F7200
G1 X121.922 Y114.897 E-1.76907
G1 X121.921 Y114.389 E-1.97
;WIPE_END
G1 E-2 F3000
; stop printing object PART_19A.stl id:0 copy 0
M486 S-1
G1 Z0.79 F9000
;AFTER_LAYER_CHANGE
;0.84
; printing object PART_19A.stl id:0 copy 0
M486 S0
G1 X122.224 Y115.68
G1 E0 F3000
;TYPE:Internal perimeter
;WIDTH:0.476
G1 F1367
G1 X105.653 Y115.69 E0.89803
G1 X105.647 Y106.738 E1.38313
G1 X122.219 Y106.728 E2.28116
G1 X122.224 Y115.62 E2.76301
G1 X122.615 Y116.07 F9000
;TYPE:External perimeter
;WIDTH:0.428
G1 F1367
G1 X105.263 Y116.08 E3.59252
G1 X105.257 Y106.348 E4.05776
G1 X122.609 Y106.338 E4.88728
G1 X122.615 Y116.01 E5.34965
;WIPE_START
G1 X122.268 Y115.87 F9000
;WIPE_END
G92 E0
G1 E-1.4 F3000
;WIPE_START
G1 F7200
G1 X120.828 Y115.871 E-1.97
;WIPE_END
G1 E-2 F3000
; acceleration to travel
M204 S1500
G1 X121.95 Y108.626 F9000
; decel to extrusion
M204 S500
G1 X122.095 Y107.69
; end travel
G1 E0 F3000
;TYPE:Solid infill
;WIDTH:0.484292
G1 F1367
G1 X121.436 Y107.031 E0.05141
G1 X120.851 Y107.031 E0.08368
G1 X121.918 Y108.098 E0.16687
G1 X121.918 Y108.684 E0.19918
G1 X120.265 Y107.032 E0.32804
G1 X119.68 Y107.032 E0.36032
G1 X121.918 Y109.271 E0.53485
G1 X121.919 Y109.857 E0.56716
G1 X119.094 Y107.033 E0.78737
G1 X118.509 Y107.033 E0.81965
G1 X121.919 Y110.443 E1.08552
G1 X121.919 Y111.029 E1.11784
G1 X117.924 Y107.033 E1.42939
G1 X117.338 Y107.034 E1.46167
G1 X121.92 Y111.615 E1.81889
G1 X121.92 Y112.201 E1.85121
G1 X116.753 Y107.034 E2.2541
G1 X116.167 Y107.034 E2.28638
G1 X121.92 Y112.787 E2.73495
G1 X121.921 Y113.373 E2.76727
G1 X115.582 Y107.035 E3.26151
G1 X114.997 Y107.035 E3.29379
G1 X121.921 Y113.959 E3.8337
G1 X121.921 Y114.546 E3.86602
G1 X114.411 Y107.035 E4.45161
G1 X113.826 Y107.036 E4.48389
G1 X121.922 Y115.132 E5.11515
G1 X121.922 Y115.378 E5.12872
G1 X121.582 Y115.378 E5.14744
G1 X113.24 Y107.036 E5.79788
G1 X112.655 Y107.036 E5.83016
G1 X120.997 Y115.378 E6.4806
G1 X120.412 Y115.379 E6.51288
G1 X112.07 Y107.037 E7.16332
G1 X111.484 Y107.037 E7.19559
G1 X119.826 Y115.379 E7.84603
G1 X119.241 Y115.379 E7.87831
G1 X110.899 Y107.037 E8.52875
G1 X110.313 Y107.038 E8.56103
G1 X118.655 Y115.38 E9.21147
G1 X118.07 Y115.38 E9.24374
G1 X109.728 Y107.038 E9.89418
G1 X109.143 Y107.038 E9.92646
G1 X117.484 Y115.38 E10.5769
G1 X116.899 Y115.381 E10.60918
G1 X108.557 Y107.039 E11.25962
G1 X107.972 Y107.039 E11.29189
G1 X116.314 Y115.381 E11.94233
G1 X115.728 Y115.381 E11.97461
G1 X107.386 Y107.04 E12.62505
G1 X106.801 Y107.04 E12.65733
G1 X115.143 Y115.382 E13.30777
G1 X114.557 Y115.382 E13.34004
G1 X106.216 Y107.04 E13.99049
G1 X105.95 Y107.04 E14.00513
G1 X105.95 Y107.361 E14.02278
G1 X113.972 Y115.382 E14.64827
G1 X113.387 Y115.383 E14.68054
G1 X105.951 Y107.947 E15.26035
G1 X105.951 Y108.533 E15.29267
G1 X112.801 Y115.383 E15.82681
G1 X112.216 Y115.384 E15.85908
G1 X105.951 Y109.119 E16.34755
G1 X105.952 Y109.705 E16.37986
G1 X111.63 Y115.384 E16.82265
G1 X111.045 Y115.384 E16.85493
G1 X105.952 Y110.291 E17.25205
G1 X105.952 Y110.877 E17.28436
G1 X110.46 Y115.385 E17.63581
G1 X109.874 Y115.385 E17.66808
G1 X105.953 Y111.463 E17.97385
G1 X105.953 Y112.05 E18.00617
G1 X109.289 Y115.385 E18.26627
G1 X108.703 Y115.386 E18.29854
G1 X105.953 Y112.636 E18.51297
G1 X105.954 Y113.222 E18.54528
G1 X108.118 Y115.386 E18.71404
G1 X107.533 Y115.386 E18.74631
G1 X105.954 Y113.808 E18.86939
G1 X105.954 Y114.394 E18.9017
G1 X106.947 Y115.387 E18.97911
G1 X106.362 Y115.387 E19.01139
G1 X105.777 Y114.802 E19.05701
M106 S255
;LAYER_CHANGE
;Z:1.16
;HEIGHT:0.32
;BEFORE_LAYER_CHANGE
;1.16


G92 E0
G1 E-1.4 F3000
;WIPE_START
G1 F7200
G1 X106.362 Y115.387 E-1.72757
G1 X106.947 Y115.387 E-1.9593
G1 X106.928 Y115.368 E-1.97
;WIPE_END
G1 E-2 F3000
; stop printing object PART_19A.stl id:0 copy 0
M486 S-1
G1 Z1.11 F9000
;AFTER_LAYER_CHANGE
;1.16
; printing object PART_19A.stl id:0 copy 0
M486 S0
G1 X105.653 Y115.69
G1 E0 F3000
;TYPE:Internal perimeter
;WIDTH:0.476
G1 F1367
G1 X105.647 Y106.738 E0.4851
G1 X122.219 Y106.728 E1.38313
G1 X122.224 Y115.68 E1.86823
G1 X105.713 Y115.69 E2.76301
G1 X105.263 Y116.08 F9000
;TYPE:External perimeter
;WIDTH:0.428
G1 F1367
G1 X105.257 Y106.348 E3.22825
G1 X122.609 Y106.338 E4.05776
G1 X122.615 Y116.07 E4.523
G1 X105.323 Y116.08 E5.34965
;WIPE_START
G1 X105.463 Y115.734 F9000
;WIPE_END
G92 E0
G1 E-1.4 F3000
;WIPE_START
G1 F7200
G1 X105.462 Y114.294 E-1.97
;WIPE_END
G1 E-2 F3000
; acceleration to travel
M204 S1500
G1 X106.404 Y107.712 F9000
; decel to extrusion
M204 S500
G1 X106.526 Y106.862
; end travel
G1 E0 F3000
;TYPE:Solid infill
;WIDTH:0.484275
G1 F1367
G1 X105.95 Y107.438 E0.04491
G1 X105.951 Y108.023 E0.07719
G1 X106.934 Y107.04 E0.15387
G1 X107.52 Y107.039 E0.18619
G1 X105.951 Y108.609 E0.30855
G1 X105.951 Y109.194 E0.34082
G1 X108.106 Y107.039 E0.50885
G1 X108.692 Y107.039 E0.54117
G1 X105.952 Y109.78 E0.75487
G1 X105.952 Y110.365 E0.78714
G1 X109.279 Y107.038 E1.04652
G1 X109.865 Y107.038 E1.07883
G1 X105.952 Y110.95 E1.38388
G1 X105.953 Y111.536 E1.41615
G1 X110.451 Y107.038 E1.76687
G1 X111.037 Y107.037 E1.79919
G1 X105.953 Y112.121 E2.19557
G1 X105.953 Y112.707 E2.22785
G1 X111.623 Y107.037 E2.66991
G1 X112.209 Y107.037 E2.70222
G1 X105.954 Y113.292 E3.18996
G1 X105.954 Y113.877 E3.22223
G1 X112.795 Y107.036 E3.75564
G1 X113.381 Y107.036 E3.78795
G1 X105.954 Y114.463 E4.36703
G1 X105.955 Y115.048 E4.3993
G1 X113.967 Y107.036 E5.02405
G1 X114.554 Y107.035 E5.05636
G1 X106.202 Y115.387 E5.70756
G1 X106.788 Y115.387 E5.73988
G1 X115.14 Y107.035 E6.39108
G1 X115.726 Y107.035 E6.42339
G1 X107.374 Y115.386 E7.07459
G1 X107.96 Y115.386 E7.1069
G1 X116.312 Y107.034 E7.7581
G1 X116.898 Y107.034 E7.79042
G1 X108.546 Y115.386 E8.44162
G1 X109.132 Y115.385 E8.47393
G1 X117.484 Y107.033 E9.12513
G1 X118.07 Y107.033 E9.15745
G1 X109.718 Y115.385 E9.80865
G1 X110.304 Y115.385 E9.84096
G1 X118.656 Y107.033 E10.49216
G1 X119.242 Y107.032 E10.52448
G1 X110.891 Y115.384 E11.17568
G1 X111.477 Y115.384 E11.20799
G1 X119.829 Y107.032 E11.85919
G1 X120.415 Y107.032 E11.8915
G1 X112.063 Y115.384 E12.5427
G1 X112.649 Y115.383 E12.57502
G1 X121.001 Y107.031 E13.22622
G1 X121.587 Y107.031 E13.25853
G1 X113.235 Y115.383 E13.90973
G1 X113.821 Y115.383 E13.94205
G1 X121.917 Y107.287 E14.57329
G1 X121.917 Y107.872 E14.60556
G1 X114.407 Y115.382 E15.19113
G1 X114.993 Y115.382 E15.22345
G1 X121.918 Y108.457 E15.76334
G1 X121.918 Y109.043 E15.79562
G1 X115.579 Y115.382 E16.28985
G1 X116.166 Y115.381 E16.32216
G1 X121.918 Y109.628 E16.77072
G1 X121.919 Y110.214 E16.80299
G1 X116.752 Y115.381 E17.20587
G1 X117.338 Y115.38 E17.23819
G1 X121.919 Y110.799 E17.5954
G1 X121.92 Y111.384 E17.62767
G1 X117.924 Y115.38 E17.93921
G1 X118.51 Y115.38 E17.97153
G1 X121.92 Y111.97 E18.2374
G1 X121.92 Y112.555 E18.26967
G1 X119.096 Y115.379 E18.48987
G1 X119.682 Y115.379 E18.52218
G1 X121.921 Y113.141 E18.69671
G1 X121.921 Y113.726 E18.72898
G1 X120.268 Y115.379 E18.85784
G1 X120.854 Y115.378 E18.89015
G1 X121.921 Y114.312 E18.97333
