; generated by SuperSlicer 2.4 on 2023-02-14 at 16:29:51 UTC

; 

; external perimeters extrusion width = 0.43mm
; perimeters extrusion width = 0.48mm
; infill extrusion width = 0.46mm
; solid infill extrusion width = 0.48mm
; top infill extrusion width = 0.46mm
; first layer extrusion width = 0.58mm

; object:{"name":"Stringing_Testingfff","id":"Stringing_Testingfff.stl id:0 copy 0","object_center":[112.871229,117.879703,0.000000],"boundingbox_center":[112.871229,117.879703,10.772359],"boundingbox_size":[27.848075,20.743092,21.544718]}
; Total objects to print: 1
M486 T1
; plater:{"center":[112.871229,117.879703,0.000000],"boundingbox_center":[112.871229,117.879703,10.772359],"boundingbox_size":[27.848075,20.743092,21.544718]}

;TYPE:Custom
G90 ; use absolute coordinates
M83 ; extruder relative mode
M140 S60 ; set final bed temp
M104 S150 ; set temporary nozzle temp to prevent oozing during homing and auto bed leveling
G4 S10 ; allow partial nozzle warmup
G28 ; home all axis
;G29 ; auto bed levelling
G1 Z10 F240
G1 X2 Y10 F3000
G1 Z0 F240
M104 S220 ; set final nozzle temp
M190 S60 ; wait for bed temp to stabilize
M109 S220 ; wait for nozzle temp to stabilize
G1 Z0.28 F240
G92 E0
G1 Y100 E7.1 F1500 ; prime the nozzle
G1 X2.3 F5000
G92 E0
G1 Y10 E10 F1200 ; prime the nozzle
G92 E0
;start
M107
G21 ; set units to millimeters
G90 ; use absolute coordinates
M82 ; use absolute distances for extrusion
G92 E0
; Filament gcode
;_TOOLCHANGE 0
M107
;LAYER_CHANGE
;Z:0.2
;HEIGHT:0.2
;BEFORE_LAYER_CHANGE
;0.2


G1 E-2 F3000
G1 Z0.15 F9000
;AFTER_LAYER_CHANGE
;0.2
G92 E0
M204 S500
G1 X101.616 Y105.445
G1 E2 F3000
;TYPE:Skirt
;WIDTH:0.48
G1 F1200
G1 X100.948 Y107.006 E2.06172
G1 X98.083 Y123.725 E2.67822
G1 X98.415 Y125.977 E2.76093
G1 X99.507 Y127.278 E2.82265
G1 X101.068 Y127.946 E2.88438
G1 X123.197 Y131.739 E3.70033
G1 X125.448 Y131.406 E3.78304
G1 X126.749 Y130.315 E3.84476
G1 X127.417 Y128.753 E3.90648
G1 X130.283 Y112.034 E4.52298
G1 X129.95 Y109.783 E4.60569
G1 X128.859 Y108.481 E4.66741
G1 X127.297 Y107.813 E4.72914
G1 X112.35 Y105.251 E5.28028
G1 X105.169 Y104.021 E5.54509
G1 X102.918 Y104.353 E5.6278
G1 X101.662 Y105.406 E5.68734
G1 X102.028 Y105.626 F9000
G1 F1200
G1 X101.379 Y107.08 E5.7452
G1 X98.513 Y123.799 E6.3617
G1 X98.723 Y125.6 E6.4276
G1 X99.688 Y126.867 E6.48546
G1 X101.142 Y127.515 E6.54332
G1 X123.27 Y131.308 E7.35927
G1 X125.071 Y131.099 E7.42517
G1 X126.338 Y130.133 E7.48303
G1 X126.986 Y128.68 E7.54089
G1 X129.852 Y111.96 E8.15739
G1 X129.643 Y110.159 E8.22329
G1 X128.677 Y108.893 E8.28115
G1 X127.224 Y108.244 E8.33901
G1 X112.277 Y105.682 E8.89016
G1 X105.095 Y104.451 E9.15496
G1 X103.294 Y104.661 E9.22086
G1 X102.076 Y105.59 E9.27654
G92 E0
G1 E-1.4 F3000
;WIPE_START
G1 F7200
G1 X101.466 Y106.894 E-1.97
;WIPE_END
G1 E-2 F3000
; printing object Stringing_Testingfff.stl id:0 copy 0
M486 S0
; acceleration to travel
M204 S1500
G1 X105.717 Y118.808 F9000
; decel to extrusion
M204 S500
G1 X106.236 Y120.263
; end travel
G1 E0 F3000
;TYPE:Internal perimeter
;WIDTH:0.576
G1 F1200
G1 X106.399 Y120.253 E0.00723
G1 X106.443 Y120.257 E0.00918
G1 X106.6 Y120.301 E0.01641
G1 X106.723 Y120.363 E0.02255
G1 X106.832 Y120.449 E0.02869
G1 X106.921 Y120.556 E0.03483
G1 X106.987 Y120.677 E0.04097
G1 X107.028 Y120.81 E0.04711
G1 X107.041 Y120.947 E0.05325
G1 X107.027 Y121.085 E0.05939
G1 X106.986 Y121.218 E0.06554
G1 X106.919 Y121.339 E0.07168
G1 X106.829 Y121.444 E0.07782
G1 X106.72 Y121.53 E0.08396
G1 X106.596 Y121.592 E0.0901
G1 X106.463 Y121.628 E0.09624
G1 X106.3 Y121.639 E0.10347
G1 X106.256 Y121.634 E0.10542
G1 X106.099 Y121.591 E0.11265
G1 X105.975 Y121.528 E0.11879
G1 X105.867 Y121.442 E0.12493
G1 X105.778 Y121.336 E0.13107
G1 X105.711 Y121.214 E0.13721
G1 X105.671 Y121.082 E0.14335
G1 X105.657 Y120.944 E0.14949
G1 X105.672 Y120.806 E0.15563
G1 X105.713 Y120.674 E0.16177
G1 X105.78 Y120.553 E0.16791
G1 X105.87 Y120.447 E0.17406
G1 X105.978 Y120.361 E0.1802
G1 X106.102 Y120.299 E0.18634
G1 X106.178 Y120.279 E0.18982
G92 E0
G1 E-1.4 F3000
;WIPE_START
G1 F7200
G1 X106.399 Y120.253 E-1.48795
G1 X106.443 Y120.257 E-1.5054
G1 X106.6 Y120.301 E-1.56994
G1 X106.723 Y120.363 E-1.62478
G1 X106.832 Y120.449 E-1.67961
G1 X106.921 Y120.556 E-1.73445
G1 X106.987 Y120.677 E-1.78929
G1 X107.028 Y120.81 E-1.84413
G1 X107.041 Y120.947 E-1.89896
G1 X107.027 Y121.085 E-1.9538
G1 X107.015 Y121.124 E-1.97
;WIPE_END
G1 E-2 F3000
; acceleration to travel
M204 S1500
G1 X119.064 Y123.111 F9000
; decel to extrusion
M204 S500
G1 X120.536 Y123.354
; end travel
G1 E0 F3000
G1 F1200
G1 X120.577 Y123.222 E0.00614
G1 X120.644 Y123.1 E0.01228
G1 X120.734 Y122.995 E0.01842
G1 X120.843 Y122.909 E0.02456
G1 X120.967 Y122.847 E0.0307
G1 X121.101 Y122.811 E0.03684
G1 X121.263 Y122.8 E0.04407
G1 X121.307 Y122.805 E0.04603
G1 X121.464 Y122.848 E0.05325
G1 X121.588 Y122.911 E0.05939
G1 X121.696 Y122.997 E0.06554
G1 X121.785 Y123.103 E0.07168
G1 X121.852 Y123.225 E0.07782
G1 X121.892 Y123.357 E0.08396
G1 X121.906 Y123.495 E0.0901
G1 X121.892 Y123.633 E0.09624
G1 X121.85 Y123.765 E0.10238
G1 X121.783 Y123.887 E0.10852
G1 X121.694 Y123.992 E0.11466
G1 X121.585 Y124.078 E0.1208
G1 X121.461 Y124.14 E0.12694
G1 X121.327 Y124.176 E0.13308
G1 X121.164 Y124.187 E0.14031
G1 X121.121 Y124.182 E0.14227
G1 X120.963 Y124.139 E0.14949
G1 X120.84 Y124.076 E0.15563
G1 X120.731 Y123.99 E0.16177
G1 X120.642 Y123.884 E0.16791
G1 X120.576 Y123.762 E0.17406
G1 X120.535 Y123.629 E0.1802
G1 X120.522 Y123.492 E0.18634
G1 X120.53 Y123.413 E0.18982
G92 E0
G1 E-1.4 F3000
;WIPE_START
G1 F7200
G1 X120.577 Y123.222 E-1.47826
G1 X120.644 Y123.1 E-1.53309
G1 X120.734 Y122.995 E-1.58793
G1 X120.843 Y122.909 E-1.64277
G1 X120.967 Y122.847 E-1.6976
G1 X121.101 Y122.811 E-1.75244
G1 X121.263 Y122.8 E-1.81699
G1 X121.307 Y122.805 E-1.83443
G1 X121.464 Y122.848 E-1.89898
G1 X121.588 Y122.911 E-1.95382
G1 X121.62 Y122.937 E-1.97
;WIPE_END
G1 E-2 F3000
; acceleration to travel
M204 S1500
G1 X110.566 Y113.176 F9000
; decel to extrusion
M204 S500
G1 X109.216 Y111.984
; end travel
G1 E0 F3000
G1 F1200
G1 X120.913 Y113.989 E0.52605
G1 X123.477 Y114.428 E0.64137
G1 X123.241 Y115.807 E0.70337
G1 X119.86 Y115.227 E0.8554
G1 X108.979 Y113.362 E1.34475
G1 X109.205 Y112.043 E1.40409
G92 E0
G1 E-1.4 F3000
;WIPE_START
G1 F7200
G1 X110.626 Y112.279 E-1.97
;WIPE_END
G1 E-2 F3000
; acceleration to travel
M204 S1500
G1 X105.514 Y108.442 F9000
; decel to extrusion
M204 S500
G1 X104.889 Y107.974
; end travel
G1 E0 F3000
;TYPE:External perimeter
G1 F1200
G1 X126.347 Y111.652 E0.965
G1 X123.579 Y127.803 E1.69138
G1 X102.018 Y124.108 E2.66101
G1 X104.787 Y107.956 E3.38738
G1 X104.83 Y107.964 E3.38935
;WIPE_START
G1 X105.028 Y108.349 F9000
;WIPE_END
G92 E0
G1 E-1.4 F3000
;WIPE_START
G1 F7200
G1 X106.449 Y108.583 E-1.97
;WIPE_END
G1 E-2 F3000
; acceleration to travel
M204 S1500
G1 X109.025 Y112.265 F9000
; decel to extrusion
M204 S500
G1 X109.34 Y112.715
; end travel
G1 E0 F3000
;TYPE:Gap fill
;WIDTH:0.950039
G1 F1200
G1 X109.787 Y112.791 E0.03421
G1 X122.67 Y114.999 E1.02011
G1 X122.893 Y115.038 E1.03721
G1 X123.117 Y115.076 E1.05432
G92 E0
G1 E-1.4 F3000
;WIPE_START
G1 F7200
G1 X122.893 Y115.038 E-1.48977
G1 X122.67 Y114.999 E-1.57953
G1 X121.697 Y114.833 E-1.97
;WIPE_END
G1 E-2 F3000
; acceleration to travel
M204 S1500
G1 X125.533 Y112.942 F9000
; decel to extrusion
M204 S500
G1 X126.002 Y112.711
; end travel
G1 E0 F3000
;TYPE:Solid infill
;WIDTH:0.572246
G1 F1200
G1 X125.132 Y111.841 E0.05418
G1 X124.215 Y111.684 E0.09515
G1 X125.691 Y113.16 E0.18706
G1 X125.58 Y113.809 E0.21604
G1 X123.298 Y111.527 E0.35814
G1 X122.381 Y111.37 E0.39912
G1 X125.468 Y114.457 E0.59141
G1 X125.357 Y115.106 E0.6204
G1 X121.464 Y111.213 E0.86288
G1 X120.546 Y111.055 E0.90386
G1 X125.246 Y115.755 E1.19654
G1 X125.135 Y116.404 E1.22553
G1 X123.77 Y115.039 E1.3105
G1 X123.659 Y115.688 E1.33948
G1 X125.024 Y117.052 E1.42445
G1 X124.912 Y117.701 E1.45344
G1 X123.452 Y116.241 E1.54437
G1 X122.535 Y116.084 E1.58535
G1 X124.801 Y118.35 E1.72647
G1 X124.69 Y118.999 E1.75546
G1 X121.618 Y115.927 E1.94678
G1 X120.701 Y115.77 E1.98775
G1 X124.579 Y119.647 E2.22926
G1 X124.468 Y120.296 E2.25825
G1 X119.784 Y115.612 E2.54995
G1 X118.867 Y115.455 E2.59093
G1 X124.356 Y120.945 E2.93283
G1 X124.245 Y121.594 E2.96182
G1 X117.949 Y115.298 E3.35391
G1 X117.032 Y115.141 E3.39488
G1 X124.134 Y122.243 E3.83717
G1 X124.023 Y122.891 E3.86615
G1 X116.115 Y114.984 E4.35863
G1 X115.198 Y114.826 E4.39961
G1 X123.912 Y123.54 E4.94228
G1 X123.8 Y124.189 E4.97127
G1 X114.281 Y114.669 E5.56413
G1 X113.364 Y114.512 E5.60511
G1 X121.259 Y122.407 E6.09683
G1 X121.38 Y122.418 E6.10217
G1 X121.607 Y122.481 E6.11254
G1 X121.801 Y122.579 E6.12211
G1 X121.971 Y122.715 E6.13169
G1 X122.111 Y122.881 E6.14126
G1 X122.215 Y123.072 E6.15084
G1 X122.279 Y123.28 E6.16042
G1 X122.295 Y123.443 E6.16765
G1 X123.889 Y125.038 E6.26694
G92 E0
G1 E-1.4 F3000
;WIPE_START
G1 F7200
G1 X122.871 Y124.019 E-1.97
;WIPE_END
G1 E-2 F3000
G1 X121.971 Y123.88 F9000
G1 E0 F3000
G1 F1200
G1 X123.578 Y125.486 E0.10006
G1 X123.467 Y126.135 E0.12905
G1 X121.588 Y124.256 E0.24605
G1 X120.828 Y122.736 F9000
G1 F1200
G1 X112.446 Y114.355 E0.76804
G1 X111.529 Y114.198 E0.80902
G1 X120.45 Y123.118 E1.36459
G92 E0
G1 E-1.4 F3000
;WIPE_START
G1 F7200
G1 X119.432 Y122.1 E-1.97
;WIPE_END
G1 E-2 F3000
; acceleration to travel
M204 S1500
G1 X123.107 Y126.452 F9000
; decel to extrusion
M204 S500
G1 X123.556 Y126.984
; end travel
G1 E0 F3000
G1 F1200
G1 X121.151 Y124.58 E0.14974
G1 X121.048 Y124.569 E0.15433
G1 X120.821 Y124.506 E0.1647
G1 X120.627 Y124.408 E0.17428
G1 X120.457 Y124.272 E0.18385
G1 X120.317 Y124.106 E0.19343
G1 X120.213 Y123.915 E0.20301
G1 X120.149 Y123.707 E0.21258
G1 X120.135 Y123.563 E0.21896
G1 X110.612 Y114.04 E0.812
G1 X109.695 Y113.883 E0.85298
G1 X123.425 Y127.613 E1.70807
G92 E0
G1 E-1.4 F3000
;WIPE_START
G1 F7200
G1 X122.407 Y126.595 E-1.97
;WIPE_END
G1 E-2 F3000
; acceleration to travel
M204 S1500
G1 X122.843 Y115.518 F9000
; decel to extrusion
M204 S500
G1 X122.896 Y114.165
; end travel
G1 E0 F3000
G1 F1200
G1 X119.629 Y110.898 E0.20346
G1 X118.712 Y110.741 E0.24444
G1 X121.696 Y113.725 E0.43028
G1 X120.979 Y113.602 E0.46232
G1 X120.779 Y113.568 E0.47125
G1 X117.795 Y110.584 E0.65709
G1 X116.878 Y110.427 E0.69807
G1 X119.862 Y113.411 E0.88391
G1 X118.945 Y113.253 E0.92489
G1 X115.961 Y110.269 E1.11073
G1 X115.043 Y110.112 E1.15171
G1 X118.028 Y113.096 E1.33755
G1 X117.11 Y112.939 E1.37852
G1 X114.126 Y109.955 E1.56436
G1 X113.209 Y109.798 E1.60534
G1 X116.193 Y112.782 E1.79118
G1 X115.276 Y112.625 E1.83216
G1 X112.292 Y109.641 E2.018
G1 X111.375 Y109.483 E2.05898
G1 X114.359 Y112.467 E2.24482
G1 X113.442 Y112.31 E2.28579
G1 X110.458 Y109.326 E2.47163
G1 X109.541 Y109.169 E2.51261
G1 X112.525 Y112.153 E2.69845
G1 X111.607 Y111.996 E2.73943
G1 X108.623 Y109.012 E2.92527
G1 X107.706 Y108.855 E2.96625
G1 X110.69 Y111.839 E3.15208
G1 X109.773 Y111.681 E3.19306
G1 X106.789 Y108.697 E3.3789
G1 X105.872 Y108.54 E3.41988
G1 X108.89 Y111.559 E3.60787
G1 X108.779 Y112.207 E3.63686
G1 X105.088 Y108.517 E3.86671
G1 X104.977 Y109.165 E3.8957
G1 X108.868 Y113.056 E4.13801
G92 E0
G1 E-1.4 F3000
;WIPE_START
G1 F7200
G1 X107.85 Y112.038 E-1.97
;WIPE_END
G1 E-2 F3000
; acceleration to travel
M204 S1500
G1 X105.013 Y109.878 F9000
; decel to extrusion
M204 S500
G1 X104.666 Y109.614
; end travel
G1 E0 F3000
G1 F1200
G1 X122.225 Y127.173 E1.09354
G1 X121.308 Y127.016 E1.13452
G1 X104.755 Y110.463 E2.16541
G1 X104.644 Y111.112 E2.1944
G1 X120.391 Y126.859 E3.17509
G1 X119.474 Y126.702 E3.21607
G1 X104.532 Y111.76 E4.14657
G1 X104.421 Y112.409 E4.17556
G1 X118.557 Y126.544 E5.05586
G1 X117.639 Y126.387 E5.09684
G1 X104.31 Y113.058 E5.92696
G1 X104.199 Y113.707 E5.95594
G1 X116.722 Y126.23 E6.73586
G1 X115.805 Y126.073 E6.77684
G1 X104.088 Y114.355 E7.50657
G1 X103.976 Y115.004 E7.53555
G1 X114.888 Y125.916 E8.21509
G1 X113.971 Y125.758 E8.25607
G1 X103.865 Y115.653 E8.88541
G1 X103.754 Y116.302 E8.91439
G1 X113.054 Y125.601 E9.49354
G1 X112.136 Y125.444 E9.53452
G1 X103.643 Y116.951 E10.06348
G1 X103.532 Y117.599 E10.09246
G1 X105.896 Y119.964 E10.23972
G1 X105.767 Y120.029 E10.24607
G1 X105.596 Y120.163 E10.25565
G1 X105.476 Y120.304 E10.2638
G1 X103.22 Y118.048 E10.40429
G92 E0
G1 E-1.4 F3000
;WIPE_START
G1 F7200
G1 X104.239 Y119.066 E-1.97
;WIPE_END
G1 E-2 F3000
; acceleration to travel
M204 S1500
G1 X106.836 Y120.986 F9000
; decel to extrusion
M204 S500
G1 X107.153 Y121.221
; end travel
G1 E0 F3000
G1 F1200
G1 X111.219 Y125.287 E0.25321
G1 X110.302 Y125.13 E0.29418
G1 X106.825 Y121.653 E0.51073
G92 E0
G1 E-1.4 F3000
;WIPE_START
G1 F7200
G1 X107.843 Y122.671 E-1.97
;WIPE_END
G1 E-2 F3000
; acceleration to travel
M204 S1500
G1 X109.469 Y124.974 F9000
; decel to extrusion
M204 S500
G1 X109.668 Y125.255
; end travel
G1 E0 F3000
G1 F1200
G1 X106.436 Y122.023 E0.2013
G1 X106.292 Y122.032 E0.20762
G1 X106.183 Y122.021 E0.21246
G1 X105.956 Y121.958 E0.22282
G1 X105.762 Y121.86 E0.2324
G1 X105.592 Y121.724 E0.24197
G1 X105.452 Y121.558 E0.25155
G1 X105.348 Y121.367 E0.26113
G1 X105.284 Y121.159 E0.2707
G1 X105.263 Y120.943 E0.28028
G1 X105.272 Y120.859 E0.28398
G1 X103.309 Y118.897 E0.40619
G1 X103.198 Y119.546 E0.43518
G1 X108.468 Y124.815 E0.76336
G1 X107.551 Y124.658 E0.80434
G1 X103.087 Y120.194 E1.08233
G1 X102.976 Y120.843 E1.11131
G1 X106.633 Y124.501 E1.33911
G1 X105.716 Y124.344 E1.38009
G1 X102.865 Y121.492 E1.55769
G1 X102.753 Y122.141 E1.58667
G1 X104.799 Y124.186 E1.71408
G1 X103.882 Y124.029 E1.75506
G1 X102.642 Y122.789 E1.83228
G1 X102.531 Y123.438 E1.86126
G1 X103.248 Y124.155 E1.90591
G92 E0
G1 E-1.4 F3000
;WIPE_START
G1 F7200
G1 X102.531 Y123.438 E-1.80128
G1 X102.603 Y123.018 E-1.97
;WIPE_END
G1 E-2 F3000
; acceleration to travel
M204 S1500
G1 X105.816 Y121.318 F9000
; decel to extrusion
M204 S500
G1 X106.208 Y121.11
; end travel
G1 E0 F3000
;TYPE:Gap fill
;WIDTH:0.491542
G1 F1200
G1 X106.167 Y121.07 E0.00214
G1 X106.133 Y120.989 E0.00542
G1 X106.133 Y120.901 E0.0087
G1 X106.168 Y120.82 E0.01198
G1 X106.231 Y120.759 E0.01526
G1 X106.305 Y120.73 E0.01823
G1 X106.386 Y120.728 E0.02123
G1 X106.429 Y120.74 E0.02292
G1 X106.503 Y120.787 E0.0262
G1 X106.553 Y120.86 E0.02948
G1 X106.57 Y120.946 E0.03276
G1 X106.552 Y121.032 E0.03604
G1 X106.502 Y121.105 E0.03932
G1 X106.428 Y121.152 E0.04259
G1 X106.394 Y121.161 E0.04393
G1 X106.313 Y121.163 E0.04693
G1 X106.258 Y121.142 E0.04915
G92 E0
G1 E-1.4 F3000
;WIPE_START
G1 F7200
G1 X106.167 Y121.07 E-1.44579
G1 X106.133 Y120.989 E-1.48059
G1 X106.133 Y120.901 E-1.51538
G1 X106.168 Y120.82 E-1.55018
G1 X106.231 Y120.759 E-1.58498
G1 X106.305 Y120.73 E-1.61646
G1 X106.386 Y120.728 E-1.64832
G1 X106.429 Y120.74 E-1.66625
G1 X106.503 Y120.787 E-1.70104
G1 X106.553 Y120.86 E-1.73584
G1 X106.57 Y120.946 E-1.77063
G1 X106.552 Y121.032 E-1.80543
G1 X106.502 Y121.105 E-1.84023
G1 X106.428 Y121.152 E-1.87502
G1 X106.394 Y121.161 E-1.88918
G1 X106.313 Y121.163 E-1.92103
G1 X106.258 Y121.142 E-1.94458
;WIPE_END
G1 E-2 F3000
; acceleration to travel
M204 S1500
G1 X119.393 Y123.198 F9000
; decel to extrusion
M204 S500
G1 X120.998 Y123.449
; end travel
G1 E0 F3000
;WIDTH:0.491543
G1 F1200
G1 X121.032 Y123.368 E0.00328
G1 X121.096 Y123.307 E0.00656
G1 X121.17 Y123.278 E0.00953
G1 X121.25 Y123.276 E0.01253
G1 X121.294 Y123.288 E0.01422
G1 X121.368 Y123.335 E0.0175
G1 X121.417 Y123.408 E0.02078
G1 X121.435 Y123.494 E0.02405
G1 X121.417 Y123.58 E0.02733
G1 X121.367 Y123.652 E0.03061
G1 X121.293 Y123.7 E0.03389
G1 X121.258 Y123.709 E0.03523
G1 X121.178 Y123.711 E0.03823
G1 X121.095 Y123.679 E0.04155
G1 X121.032 Y123.618 E0.04483
G1 X120.997 Y123.537 E0.04811
G1 X120.998 Y123.509 E0.04915
M106 S84.15
;LAYER_CHANGE
;Z:0.52
;HEIGHT:0.32
;BEFORE_LAYER_CHANGE
;0.52


G92 E0
G1 E-1.4 F3000
;WIPE_START
G1 F7200
G1 X121.032 Y123.368 E-1.45741
G1 X121.096 Y123.307 E-1.49221
G1 X121.17 Y123.278 E-1.5237
G1 X121.25 Y123.276 E-1.55555
G1 X121.294 Y123.288 E-1.57349
G1 X121.368 Y123.335 E-1.60828
G1 X121.417 Y123.408 E-1.64308
G1 X121.435 Y123.494 E-1.67787
