; generated by SuperSlicer 2.4 on 2023-02-14 at 16:42:08 UTC

; 

; external perimeters extrusion width = 0.43mm
; perimeters extrusion width = 0.48mm
; infill extrusion width = 0.46mm
; solid infill extrusion width = 0.48mm
; top infill extrusion width = 0.46mm
; first layer extrusion width = 0.58mm

; object:{"name":"Stringing_Extreme_Test","id":"Stringing_Extreme_Test.stl id:0 copy 0","object_center":[115.500000,115.500000,0.000000],"boundingbox_center":[115.500000,115.500000,10.000000],"boundingbox_size":[30.011194,7.048132,20.000000]}
; Total objects to print: 1
M486 T1
; plater:{"center":[115.500000,115.500000,0.000000],"boundingbox_center":[115.500000,115.500000,10.000000],"boundingbox_size":[30.011194,7.048132,20.000000]}

;TYPE:Custom
G90 ; use absolute coordinates
M83 ; extruder relative mode
M140 S60 ; set final bed temp
M104 S150 ; set temporary nozzle temp to prevent oozing during homing and auto bed leveling
G4 S10 ; allow partial nozzle warmup
G28 ; home all axis
;G29 ; auto bed levelling
G1 Z10 F240
G1 X2 Y10 F3000
G1 Z0 F240
M104 S220 ; set final nozzle temp
M190 S60 ; wait for bed temp to stabilize
M109 S220 ; wait for nozzle temp to stabilize
G1 Z0.28 F240
G92 E0
G1 Y100 E7.1 F1500 ; prime the nozzle
G1 X2.3 F5000
G92 E0
G1 Y10 E10 F1200 ; prime the nozzle
G92 E0
;start
M107
G21 ; set units to millimeters
G90 ; use absolute coordinates
M82 ; use absolute distances for extrusion
G92 E0
; Filament gcode
;_TOOLCHANGE 0
M107
;LAYER_CHANGE
;Z:0.2
;HEIGHT:0.2
;BEFORE_LAYER_CHANGE
;0.2


G1 E-2 F3000
G1 Z0.15 F9000
;AFTER_LAYER_CHANGE
;0.2
G92 E0
M204 S500
G1 X98.448 Y109.125
G1 E2 F3000
;TYPE:Skirt
;WIDTH:0.48
G1 F1200
G1 X97.347 Y110.419 E2.06172
G1 X96.95 Y112.07 E2.12345
G1 X96.939 Y118.87 E2.37058
G1 X97.644 Y121.034 E2.45329
G1 X98.937 Y122.135 E2.51502
G1 X100.589 Y122.532 E2.57674
G1 X130.389 Y122.58 E3.65977
G1 X132.552 Y121.875 E3.74248
G1 X133.653 Y120.581 E3.8042
G1 X134.05 Y118.93 E3.86593
G1 X134.061 Y112.13 E4.11306
G1 X133.356 Y109.966 E4.19577
G1 X132.063 Y108.865 E4.25749
G1 X130.411 Y108.468 E4.31922
G1 X101.511 Y108.422 E5.36954
G1 X100.611 Y108.42 E5.40225
G1 X98.505 Y109.107 E5.48278
G1 X98.829 Y109.41 F9000
G1 F1200
G1 X97.783 Y110.529 E5.53844
G1 X97.387 Y112.071 E5.5963
G1 X97.376 Y118.871 E5.84344
G1 X97.884 Y120.611 E5.90934
G1 X99.047 Y121.698 E5.9672
G1 X100.589 Y122.095 E6.02506
G1 X130.389 Y122.142 E7.10809
G1 X132.13 Y121.635 E7.17399
G1 X133.217 Y120.471 E7.23185
G1 X133.613 Y118.929 E7.28971
G1 X133.624 Y112.129 E7.53685
G1 X133.116 Y110.389 E7.60275
G1 X131.953 Y109.302 E7.66061
G1 X130.411 Y108.905 E7.71847
G1 X101.511 Y108.859 E8.76879
G1 X100.611 Y108.858 E8.8015
G1 X98.87 Y109.366 E8.86741
G92 E0
G1 E-1.4 F3000
;WIPE_START
G1 F7200
G1 X97.887 Y110.418 E-1.97
;WIPE_END
G1 E-2 F3000
; printing object Stringing_Extreme_Test.stl id:0 copy 0
M486 S0
; acceleration to travel
M204 S1500
G1 X101.044 Y112.632 F9000
; decel to extrusion
M204 S500
G1 X101.43 Y112.903
; end travel
G1 E0 F3000
;TYPE:Internal perimeter
;WIDTH:0.576
G1 F1200
G1 X129.579 Y112.948 E1.24774
G1 X129.57 Y118.097 E1.47598
G1 X101.421 Y118.052 E2.72372
G1 X101.429 Y112.963 E2.9493
G1 X100.893 Y112.365 F9000
;TYPE:External perimeter
G1 F1200
G1 X101.005 Y112.365 E2.95427
G1 X130.117 Y112.411 E4.24468
G1 X130.107 Y118.635 E4.52056
G1 X100.883 Y118.589 E5.81594
G1 X100.893 Y112.425 E6.08916
;WIPE_START
G1 X101.239 Y112.565 F9000
;WIPE_END
G92 E0
G1 E-1.4 F3000
;WIPE_START
G1 F7200
G1 X102.679 Y112.567 E-1.97
;WIPE_END
G1 E-2 F3000
; acceleration to travel
M204 S1500
G1 X125.537 Y113.048 F9000
; decel to extrusion
M204 S500
G1 X128.329 Y113.107
; end travel
G1 E0 F3000
;TYPE:Solid infill
;WIDTH:0.572498
G1 F1200
G1 X129.185 Y113.963 E0.05331
G1 X129.184 Y114.721 E0.08673
G1 X127.8 Y113.337 E0.17297
G1 X127.038 Y113.336 E0.2065
G1 X129.182 Y115.48 E0.34009
G1 X129.181 Y116.239 E0.37352
G1 X126.277 Y113.335 E0.55445
G1 X125.516 Y113.334 E0.58799
G1 X129.18 Y116.998 E0.81627
G1 X129.179 Y117.704 E0.8474
G1 X129.127 Y117.704 E0.8497
G1 X124.755 Y113.332 E1.12209
G1 X123.994 Y113.331 E1.15562
G1 X128.365 Y117.703 E1.428
G1 X127.604 Y117.702 E1.46154
G1 X123.232 Y113.33 E1.73392
G1 X122.471 Y113.329 E1.76745
G1 X126.843 Y117.701 E2.03984
G1 X126.082 Y117.699 E2.07337
G1 X121.71 Y113.328 E2.34575
G1 X120.949 Y113.326 E2.37929
G1 X125.321 Y117.698 E2.65167
G1 X124.56 Y117.697 E2.6852
G1 X120.188 Y113.325 E2.95759
G1 X119.427 Y113.324 E2.99112
G1 X123.798 Y117.696 E3.2635
G1 X123.037 Y117.694 E3.29704
G1 X118.665 Y113.323 E3.56942
G1 X117.904 Y113.321 E3.60295
G1 X122.276 Y117.693 E3.87534
G1 X121.515 Y117.692 E3.90887
G1 X117.143 Y113.32 E4.18125
G1 X116.382 Y113.319 E4.21479
G1 X120.754 Y117.691 E4.48717
G1 X119.992 Y117.69 E4.5207
G1 X115.621 Y113.318 E4.79309
G1 X114.86 Y113.317 E4.82662
G1 X119.231 Y117.688 E5.099
G1 X118.47 Y117.687 E5.13254
G1 X114.098 Y113.315 E5.40492
G1 X113.337 Y113.314 E5.43845
G1 X117.709 Y117.686 E5.71084
G1 X116.948 Y117.685 E5.74437
G1 X112.576 Y113.313 E6.01675
G1 X111.815 Y113.312 E6.05029
G1 X116.187 Y117.683 E6.32267
G1 X115.425 Y117.682 E6.3562
G1 X111.054 Y113.31 E6.62858
G1 X110.292 Y113.309 E6.66212
G1 X114.664 Y117.681 E6.9345
G1 X113.903 Y117.68 E6.96804
G1 X109.531 Y113.308 E7.24042
G1 X108.77 Y113.307 E7.27395
G1 X113.142 Y117.679 E7.54633
G1 X112.381 Y117.677 E7.57987
G1 X108.009 Y113.306 E7.85225
G1 X107.248 Y113.304 E7.88579
G1 X111.619 Y117.676 E8.15817
G1 X110.858 Y117.675 E8.1917
G1 X106.487 Y113.303 E8.46408
G1 X105.725 Y113.302 E8.49762
G1 X110.097 Y117.674 E8.77
G1 X109.336 Y117.672 E8.80354
G1 X104.964 Y113.301 E9.07592
G1 X104.203 Y113.3 E9.10945
G1 X108.575 Y117.671 E9.38183
G1 X107.814 Y117.67 E9.41537
G1 X103.442 Y113.298 E9.68775
G1 X102.681 Y113.297 E9.72129
G1 X107.052 Y117.669 E9.99367
G1 X106.291 Y117.668 E10.0272
G1 X101.919 Y113.296 E10.29958
G1 X101.821 Y113.296 E10.30391
G1 X101.82 Y113.956 E10.33302
G1 X105.53 Y117.666 E10.56417
G1 X104.769 Y117.665 E10.59771
G1 X101.819 Y114.715 E10.78151
G1 X101.818 Y115.474 E10.81493
G1 X104.008 Y117.664 E10.95138
G1 X103.247 Y117.663 E10.98492
G1 X101.816 Y116.233 E11.07402
G1 X101.815 Y116.991 E11.10744
G1 X102.717 Y117.893 E11.16361
M106 S84.15
;LAYER_CHANGE
;Z:0.52
;HEIGHT:0.32
;BEFORE_LAYER_CHANGE
;0.52


G92 E0
G1 E-1.4 F3000
;WIPE_START
G1 F7200
G1 X101.815 Y116.991 E-1.90468
G1 X101.815 Y116.826 E-1.97
;WIPE_END
G1 E-2 F3000
; stop printing object Stringing_Extreme_Test.stl id:0 copy 0
M486 S-1
G1 Z0.47 F9000
;AFTER_LAYER_CHANGE
;0.52
; printing object Stringing_Extreme_Test.stl id:0 copy 0
M486 S0
G1 X101.1 Y118.373
G1 E0 F3000
;TYPE:Internal perimeter
;WIDTH:0.476
G1 F2400
G1 X101.109 Y112.581 E0.31385
G1 X129.9 Y112.627 E1.8741
G1 X129.891 Y118.419 E2.18796
G1 X101.16 Y118.373 E3.74495
G1 X100.709 Y118.762 F9000
;TYPE:External perimeter
;WIDTH:0.428
G1 F1500
G1 X100.719 Y112.19 E4.05913
G1 X130.291 Y112.238 E5.47282
G1 X130.281 Y118.81 E5.78699
G1 X100.769 Y118.762 E7.19782
;WIPE_START
G1 X100.909 Y118.416 F9000
;WIPE_END
G92 E0
G1 E-1.4 F3000
;WIPE_START
G1 F7200
G1 X100.912 Y116.976 E-1.97
;WIPE_END
G1 E-2 F3000
; acceleration to travel
M204 S1500
G1 X101.623 Y113.195 F9000
; decel to extrusion
M204 S500
G1 X101.715 Y112.706
; end travel
G1 E0 F3000
;TYPE:Solid infill
;WIDTH:0.483563
G1 F2400
G1 X101.411 Y113.011 E0.02374
G1 X101.41 Y113.598 E0.05604
G1 X102.122 Y112.885 E0.11154
G1 X102.707 Y112.886 E0.14373
G1 X101.409 Y114.185 E0.24484
G1 X101.408 Y114.771 E0.27714
G1 X103.292 Y112.887 E0.42385
G1 X103.877 Y112.888 E0.45604
G1 X101.407 Y115.358 E0.64836
G1 X101.406 Y115.945 E0.68066
G1 X104.462 Y112.889 E0.91857
G1 X105.047 Y112.89 E0.95077
G1 X101.405 Y116.531 E1.23429
G1 X101.404 Y117.118 E1.26659
G1 X105.631 Y112.891 E1.59572
G1 X106.216 Y112.892 E1.62792
G1 X101.403 Y117.705 E2.00265
G1 X101.402 Y118.071 E2.0228
G1 X101.622 Y118.071 E2.03491
G1 X106.801 Y112.893 E2.43809
G1 X107.386 Y112.894 E2.47029
G1 X102.207 Y118.072 E2.87347
G1 X102.792 Y118.073 E2.90567
G1 X107.971 Y112.894 E3.30885
G1 X108.555 Y112.895 E3.34104
G1 X103.377 Y118.074 E3.74423
G1 X103.962 Y118.075 E3.77642
G1 X109.14 Y112.896 E4.1796
G1 X109.725 Y112.897 E4.2118
G1 X104.547 Y118.076 E4.61498
G1 X105.131 Y118.077 E4.64718
G1 X110.31 Y112.898 E5.05036
G1 X110.895 Y112.899 E5.08255
G1 X105.716 Y118.078 E5.48574
G1 X106.301 Y118.079 E5.51793
G1 X111.48 Y112.9 E5.92111
G1 X112.064 Y112.901 E5.95331
G1 X106.886 Y118.08 E6.35649
G1 X107.471 Y118.081 E6.38869
G1 X112.649 Y112.902 E6.79187
G1 X113.234 Y112.903 E6.82407
G1 X108.055 Y118.082 E7.22725
G1 X108.64 Y118.082 E7.25944
G1 X113.819 Y112.904 E7.66263
G1 X114.404 Y112.905 E7.69482
G1 X109.225 Y118.083 E8.098
G1 X109.81 Y118.084 E8.1302
G1 X114.988 Y112.906 E8.53338
G1 X115.573 Y112.907 E8.56558
G1 X110.395 Y118.085 E8.96876
G1 X110.98 Y118.086 E9.00096
G1 X116.158 Y112.908 E9.40414
G1 X116.743 Y112.909 E9.43633
G1 X111.564 Y118.087 E9.83952
G1 X112.149 Y118.088 E9.87171
G1 X117.328 Y112.909 E10.27489
G1 X117.913 Y112.91 E10.30709
G1 X112.734 Y118.089 E10.71027
G1 X113.319 Y118.09 E10.74247
G1 X118.497 Y112.911 E11.14565
G1 X119.082 Y112.912 E11.17784
G1 X113.904 Y118.091 E11.58103
G1 X114.488 Y118.092 E11.61322
G1 X119.667 Y112.913 E12.0164
G1 X120.252 Y112.914 E12.0486
G1 X115.073 Y118.093 E12.45178
G1 X115.658 Y118.094 E12.48398
G1 X120.837 Y112.915 E12.88716
G1 X121.422 Y112.916 E12.91936
G1 X116.243 Y118.095 E13.32254
G1 X116.828 Y118.096 E13.35473
G1 X122.006 Y112.917 E13.75792
G1 X122.591 Y112.918 E13.79011
G1 X117.413 Y118.097 E14.19329
G1 X117.997 Y118.097 E14.22549
G1 X123.176 Y112.919 E14.62867
G1 X123.761 Y112.92 E14.66087
G1 X118.582 Y118.098 E15.06405
G1 X119.167 Y118.099 E15.09624
G1 X124.346 Y112.921 E15.49943
G1 X124.93 Y112.922 E15.53162
G1 X119.752 Y118.1 E15.9348
G1 X120.337 Y118.101 E15.967
G1 X125.515 Y112.923 E16.37018
G1 X126.1 Y112.924 E16.40238
G1 X120.921 Y118.102 E16.80556
G1 X121.506 Y118.103 E16.83776
G1 X126.685 Y112.924 E17.24094
G1 X127.27 Y112.925 E17.27313
G1 X122.091 Y118.104 E17.67632
G1 X122.676 Y118.105 E17.70851
G1 X127.855 Y112.926 E18.11169
G1 X128.439 Y112.927 E18.14389
G1 X123.261 Y118.106 E18.54707
G1 X123.846 Y118.107 E18.57927
G1 X129.024 Y112.928 E18.98245
G1 X129.598 Y112.929 E19.01402
G1 X129.598 Y112.941 E19.01465
G1 X124.43 Y118.108 E19.41694
G1 X125.015 Y118.109 E19.44914
G1 X129.597 Y113.527 E19.80582
G1 X129.596 Y114.114 E19.83812
G1 X125.6 Y118.11 E20.14921
G1 X126.185 Y118.111 E20.1814
G1 X129.595 Y114.701 E20.44688
G1 X129.594 Y115.287 E20.47918
G1 X126.77 Y118.112 E20.69905
G1 X127.354 Y118.112 E20.73125
G1 X129.593 Y115.874 E20.90552
G1 X129.592 Y116.461 E20.93782
G1 X127.939 Y118.113 E21.06648
G1 X128.524 Y118.114 E21.09868
G1 X129.591 Y117.048 E21.18174
G1 X129.59 Y117.634 E21.21404
G1 X128.931 Y118.293 E21.26534
M106 S170.85
;LAYER_CHANGE
;Z:0.84
;HEIGHT:0.32
;BEFORE_LAYER_CHANGE
;0.84


G92 E0
G1 E-1.4 F3000
;WIPE_START
G1 F7200
G1 X129.59 Y117.634 E-1.76885
G1 X129.591 Y117.126 E-1.97
;WIPE_END
G1 E-2 F3000
; stop printing object Stringing_Extreme_Test.stl id:0 copy 0
M486 S-1
G1 Z0.79 F9000
;AFTER_LAYER_CHANGE
;0.84
; printing object Stringing_Extreme_Test.stl id:0 copy 0
M486 S0
G1 X129.891 Y118.419
G1 E0 F3000
;TYPE:Internal perimeter
;WIDTH:0.476
G1 F1615
G1 X101.1 Y118.373 E1.56025
G1 X101.109 Y112.581 E1.8741
G1 X129.9 Y112.627 E3.43435
G1 X129.891 Y118.359 E3.74495
G1 X130.281 Y118.81 F9000
;TYPE:External perimeter
;WIDTH:0.428
G1 F1500
G1 X100.709 Y118.762 E5.15864
G1 X100.719 Y112.19 E5.47282
G1 X130.291 Y112.238 E6.88651
G1 X130.281 Y118.75 E7.19782
;WIPE_START
G1 X129.935 Y118.609 F9000
;WIPE_END
G92 E0
G1 E-1.4 F3000
;WIPE_START
G1 F7200
G1 X128.495 Y118.607 E-1.97
;WIPE_END
G1 E-2 F3000
; acceleration to travel
M204 S1500
G1 X129.628 Y114.162 F9000
; decel to extrusion
M204 S500
G1 X129.775 Y113.587
; end travel
G1 E0 F3000
;TYPE:Solid infill
;WIDTH:0.483497
G1 F1615
G1 X129.116 Y112.928 E0.05129
G1 X128.529 Y112.927 E0.08359
G1 X129.596 Y113.994 E0.16664
G1 X129.595 Y114.579 E0.19883
G1 X127.942 Y112.927 E0.32747
G1 X127.356 Y112.926 E0.35977
G1 X129.594 Y115.164 E0.53401
G1 X129.593 Y115.749 E0.56621
G1 X126.769 Y112.925 E0.78605
G1 X126.182 Y112.924 E0.81834
G1 X129.592 Y116.334 E1.08379
G1 X129.591 Y116.918 E1.11598
G1 X125.596 Y112.923 E1.42702
G1 X125.009 Y112.922 E1.45931
G1 X129.59 Y117.503 E1.81595
G1 X129.589 Y118.088 E1.84814
G1 X124.422 Y112.921 E2.25038
G1 X123.835 Y112.92 E2.28268
G1 X129.031 Y118.115 E2.6871
G1 X128.444 Y118.114 E2.71939
G1 X123.249 Y112.919 E3.12382
G1 X122.662 Y112.918 E3.15611
G1 X127.857 Y118.113 E3.56054
G1 X127.271 Y118.112 E3.59283
G1 X122.075 Y112.917 E3.99725
G1 X121.489 Y112.916 E4.02955
G1 X126.684 Y118.111 E4.43397
G1 X126.097 Y118.11 E4.46627
G1 X120.902 Y112.915 E4.87069
G1 X120.315 Y112.914 E4.90298
G1 X125.51 Y118.11 E5.30741
G1 X124.924 Y118.109 E5.3397
G1 X119.729 Y112.913 E5.74412
G1 X119.142 Y112.912 E5.77642
G1 X124.337 Y118.108 E6.18084
G1 X123.75 Y118.107 E6.21314
G1 X118.555 Y112.911 E6.61756
G1 X117.968 Y112.911 E6.64986
G1 X123.164 Y118.106 E7.05428
G1 X122.577 Y118.105 E7.08657
G1 X117.382 Y112.91 E7.491
G1 X116.795 Y112.909 E7.52329
G1 X121.99 Y118.104 E7.92771
G1 X121.404 Y118.103 E7.96001
G1 X116.208 Y112.908 E8.36443
G1 X115.622 Y112.907 E8.39673
G1 X120.817 Y118.102 E8.80115
G1 X120.23 Y118.101 E8.83344
G1 X115.035 Y112.906 E9.23787
G1 X114.448 Y112.905 E9.27016
G1 X119.643 Y118.1 E9.67459
G1 X119.057 Y118.099 E9.70688
G1 X113.862 Y112.904 E10.1113
G1 X113.275 Y112.903 E10.1436
G1 X118.47 Y118.098 E10.54802
G1 X117.883 Y118.097 E10.58032
G1 X112.688 Y112.902 E10.98474
G1 X112.101 Y112.901 E11.01703
G1 X117.297 Y118.096 E11.42146
G1 X116.71 Y118.095 E11.45375
G1 X111.515 Y112.9 E11.85817
G1 X110.928 Y112.899 E11.89047
G1 X116.123 Y118.094 E12.29489
G1 X115.537 Y118.094 E12.32719
G1 X110.341 Y112.898 E12.73161
G1 X109.755 Y112.897 E12.76391
G1 X114.95 Y118.093 E13.16833
G1 X114.363 Y118.092 E13.20062
G1 X109.168 Y112.896 E13.60505
G1 X108.581 Y112.895 E13.63734
G1 X113.776 Y118.091 E14.04176
G1 X113.19 Y118.09 E14.07406
G1 X107.995 Y112.894 E14.47848
G1 X107.408 Y112.894 E14.51078
G1 X112.603 Y118.089 E14.9152
G1 X112.016 Y118.088 E14.94749
G1 X106.821 Y112.893 E15.35192
G1 X106.234 Y112.892 E15.38421
G1 X111.43 Y118.087 E15.78864
G1 X110.843 Y118.086 E15.82093
G1 X105.648 Y112.891 E16.22535
G1 X105.061 Y112.89 E16.25765
G1 X110.256 Y118.085 E16.66207
G1 X109.67 Y118.084 E16.69437
G1 X104.474 Y112.889 E17.09879
G1 X103.888 Y112.888 E17.13108
G1 X109.083 Y118.083 E17.53551
G1 X108.496 Y118.082 E17.5678
G1 X103.301 Y112.887 E17.97222
G1 X102.714 Y112.886 E18.00452
G1 X107.909 Y118.081 E18.40894
G1 X107.323 Y118.08 E18.44124
G1 X102.128 Y112.885 E18.84566
G1 X101.541 Y112.884 E18.87796
G1 X106.736 Y118.079 E19.28238
G1 X106.149 Y118.078 E19.31467
G1 X101.41 Y113.339 E19.68361
G1 X101.409 Y113.924 E19.7158
G1 X105.563 Y118.078 E20.03914
G1 X104.976 Y118.077 E20.07143
G1 X101.408 Y114.509 E20.34917
G1 X101.407 Y115.094 E20.38136
G1 X104.389 Y118.076 E20.6135
G1 X103.803 Y118.075 E20.6458
G1 X101.406 Y115.678 E20.83234
G1 X101.405 Y116.263 E20.86453
G1 X103.216 Y118.074 E21.00547
G1 X102.629 Y118.073 E21.03777
G1 X101.404 Y116.848 E21.13311
G1 X101.403 Y117.433 E21.16531
G1 X102.042 Y118.072 E21.21505
G1 X101.456 Y118.071 E21.24735
G1 X101.225 Y117.84 E21.26534
M106 S255
;LAYER_CHANGE
;Z:1.16
;HEIGHT:0.32
;BEFORE_LAYER_CHANGE
;1.16


G92 E0
G1 E-1.4 F3000
;WIPE_START
G1 F7200
G1 X101.456 Y118.071 E-1.52937
G1 X102.042 Y118.072 E-1.76161
G1 X101.67 Y117.7 E-1.97
;WIPE_END
G1 E-2 F3000
; stop printing object Stringing_Extreme_Test.stl id:0 copy 0
M486 S-1
G1 Z1.11 F9000
;AFTER_LAYER_CHANGE
;1.16
G92 E0
; printing object Stringing_Extreme_Test.stl id:0 copy 0
M486 S0
G1 X102.928 Y116.087
G1 E2 F3000
;TYPE:Internal perimeter
;WIDTH:0.476
G1 F900
G1 X102.731 Y115.851 E2.01667
G1 X102.626 Y115.562 E2.03333
G1 X102.626 Y115.255 E2.04999
G1 X102.732 Y114.966 E2.06666
G1 X102.93 Y114.731 E2.08333
G1 X103.197 Y114.577 E2.09999
G1 X103.5 Y114.524 E2.11665
G1 X103.802 Y114.578 E2.13332
G1 X104.068 Y114.732 E2.14998
