; generated by SuperSlicer 2.4 on 2023-02-14 at 16:41:19 UTC

; 

; external perimeters extrusion width = 0.43mm
; perimeters extrusion width = 0.48mm
; infill extrusion width = 0.46mm
; solid infill extrusion width = 0.48mm
; top infill extrusion width = 0.46mm
; first layer extrusion width = 0.58mm

; object:{"name":"Stringing_sdfTest","id":"Stringing_sdfTest.stl id:0 copy 0","object_center":[115.500000,115.500000,0.000000],"boundingbox_center":[115.500000,115.500000,9.410000],"boundingbox_size":[41.091095,41.091095,18.820000]}
; Total objects to print: 1
M486 T1
; plater:{"center":[115.500000,115.500000,0.000000],"boundingbox_center":[115.500000,115.500000,9.410000],"boundingbox_size":[41.091095,41.091095,18.820000]}

;TYPE:Custom
G90 ; use absolute coordinates
M83 ; extruder relative mode
M140 S60 ; set final bed temp
M104 S150 ; set temporary nozzle temp to prevent oozing during homing and auto bed leveling
G4 S10 ; allow partial nozzle warmup
G28 ; home all axis
;G29 ; auto bed levelling
G1 Z10 F240
G1 X2 Y10 F3000
G1 Z0 F240
M104 S220 ; set final nozzle temp
M190 S60 ; wait for bed temp to stabilize
M109 S220 ; wait for nozzle temp to stabilize
G1 Z0.28 F240
G92 E0
G1 Y100 E7.1 F1500 ; prime the nozzle
G1 X2.3 F5000
G92 E0
G1 Y10 E10 F1200 ; prime the nozzle
G92 E0
;start
M107
G21 ; set units to millimeters
G90 ; use absolute coordinates
M82 ; use absolute distances for extrusion
G92 E0
; Filament gcode
;_TOOLCHANGE 0
M107
;LAYER_CHANGE
;Z:0.2
;HEIGHT:0.2
;BEFORE_LAYER_CHANGE
;0.2


G1 E-2 F3000
G1 Z0.15 F9000
;AFTER_LAYER_CHANGE
;0.2
G92 E0
M204 S500
G1 X107.49 Y93.453
G1 E2 F3000
;TYPE:Skirt
;WIDTH:0.48
G1 F1200
G1 X92.321 Y119.101 E3.08296
G1 X91.875 Y120.858 E3.14885
G1 X92.326 Y122.385 E3.20672
G1 X93.453 Y123.51 E3.26458
G1 X119.101 Y138.679 E4.34754
G1 X120.858 Y139.125 E4.41344
G1 X122.385 Y138.674 E4.4713
G1 X123.51 Y137.547 E4.52916
G1 X138.679 Y111.899 E5.61212
G1 X139.125 Y110.142 E5.67802
G1 X138.674 Y108.615 E5.73588
G1 X137.547 Y107.49 E5.79374
G1 X111.899 Y92.321 E6.8767
G1 X110.142 Y91.875 E6.9426
G1 X108.615 Y92.326 E7.00046
G1 X107.533 Y93.41 E7.05614
G92 E0
G1 E-1.4 F3000
;WIPE_START
G1 F7200
G1 X106.799 Y94.65 E-1.97
;WIPE_END
G1 E-2 F3000
; printing object Stringing_sdfTest.stl id:0 copy 0
M486 S0
; acceleration to travel
M204 S1500
G1 X110.142 Y96.051 F9000
; decel to extrusion
M204 S500
G1 X110.551 Y96.222
; end travel
G1 E0 F3000
;TYPE:Internal perimeter
;WIDTH:0.576
G1 F1200
G1 X134.778 Y110.551 E1.24765
G1 X120.449 Y134.778 E2.4953
G1 X96.222 Y120.449 E3.74295
G1 X110.52 Y96.274 E4.98794
G1 X110.362 Y95.486 F9000
;TYPE:External perimeter
G1 F1200
G1 X110.458 Y95.543 E4.9929
G1 X135.514 Y110.362 E6.28322
G1 X120.638 Y135.514 E7.57851
G1 X95.486 Y120.638 E8.8738
G1 X110.331 Y95.538 E10.16642
;WIPE_START
G1 X110.558 Y95.834 F9000
;WIPE_END
G92 E0
G1 E-1.4 F3000
;WIPE_START
G1 F7200
G1 X111.798 Y96.567 E-1.97
;WIPE_END
G1 E-2 F3000
; acceleration to travel
M204 S1500
G1 X131.717 Y109.691 F9000
; decel to extrusion
M204 S500
G1 X134.151 Y111.295
; end travel
G1 E0 F3000
;TYPE:Solid infill
;WIDTH:0.577979
G1 F1200
G1 X132.537 Y109.681 E0.10149
G1 X130.677 Y108.581 E0.19761
G1 X133.7 Y111.604 E0.38773
G1 X133.417 Y112.081 E0.41241
G1 X128.817 Y107.481 E0.70177
G1 X126.957 Y106.381 E0.79789
G1 X133.135 Y112.559 E1.18648
G1 X132.852 Y113.036 E1.21116
G1 X125.097 Y105.281 E1.69899
G1 X123.237 Y104.181 E1.79511
G1 X132.57 Y113.514 E2.38218
G1 X132.287 Y113.991 E2.40685
G1 X121.377 Y103.081 E3.09316
G1 X119.517 Y101.98 E3.18928
G1 X132.005 Y114.469 E3.97482
G1 X131.723 Y114.946 E3.9995
G1 X117.656 Y100.88 E4.88428
G1 X115.796 Y99.78 E4.9804
G1 X131.44 Y115.424 E5.96441
G1 X131.158 Y115.901 E5.98909
G1 X113.936 Y98.68 E7.07234
G1 X112.076 Y97.58 E7.16846
G1 X130.875 Y116.379 E8.35095
G1 X130.593 Y116.856 E8.37563
G1 X110.617 Y96.881 E9.63214
G1 X110.335 Y97.358 E9.65681
G1 X130.31 Y117.334 E10.91332
G1 X130.028 Y117.812 E10.938
G1 X110.052 Y97.836 E12.1945
G1 X109.77 Y98.313 E12.21918
G1 X129.746 Y118.289 E13.47569
G1 X129.463 Y118.767 E13.50036
G1 X109.487 Y98.791 E14.75687
G1 X109.205 Y99.268 E14.78155
G1 X129.181 Y119.244 E16.03805
G1 X128.898 Y119.722 E16.06273
G1 X108.922 Y99.746 E17.31924
G1 X108.64 Y100.223 E17.34391
G1 X128.616 Y120.199 E18.60042
G1 X128.333 Y120.677 E18.6251
G1 X108.358 Y100.701 E19.8816
G1 X108.075 Y101.178 E19.90628
G1 X128.051 Y121.154 E21.16279
G1 X127.769 Y121.632 E21.18746
G1 X107.793 Y101.656 E22.44397
G1 X107.51 Y102.134 E22.46865
G1 X127.486 Y122.109 E23.72515
G1 X127.204 Y122.587 E23.74983
G1 X107.228 Y102.611 E25.00634
G1 X106.945 Y103.089 E25.03101
G1 X126.921 Y123.064 E26.28752
G1 X126.639 Y123.542 E26.3122
G1 X106.663 Y103.566 E27.5687
G1 X106.381 Y104.044 E27.59338
G1 X126.356 Y124.019 E28.84989
G1 X126.074 Y124.497 E28.87456
G1 X106.098 Y104.521 E30.13107
G1 X105.816 Y104.999 E30.15575
G1 X125.792 Y124.974 E31.41225
G1 X125.509 Y125.452 E31.43693
G1 X105.533 Y105.476 E32.69344
G1 X105.251 Y105.954 E32.71811
G1 X125.227 Y125.93 E33.97462
G1 X124.944 Y126.407 E33.9993
G1 X104.968 Y106.431 E35.2558
G1 X104.686 Y106.909 E35.28048
G1 X124.662 Y126.885 E36.53699
G1 X124.379 Y127.362 E36.56166
G1 X104.404 Y107.386 E37.81817
G1 X104.121 Y107.864 E37.84284
G1 X124.097 Y127.84 E39.09935
G1 X123.815 Y128.317 E39.12403
G1 X103.839 Y108.341 E40.38054
G1 X103.556 Y108.819 E40.40521
G1 X123.532 Y128.795 E41.66172
G1 X123.25 Y129.272 E41.68639
G1 X103.274 Y109.296 E42.9429
G1 X102.991 Y109.774 E42.96758
G1 X122.967 Y129.75 E44.22409
G1 X122.685 Y130.227 E44.24876
G1 X102.709 Y110.251 E45.50527
G1 X102.427 Y110.729 E45.52994
G1 X122.402 Y130.705 E46.78645
G1 X122.12 Y131.182 E46.81113
G1 X102.144 Y111.207 E48.06763
G1 X101.862 Y111.684 E48.09231
G1 X121.838 Y131.66 E49.34882
G1 X121.555 Y132.137 E49.37349
G1 X101.579 Y112.162 E50.63
G1 X101.297 Y112.639 E50.65468
G1 X121.273 Y132.615 E51.91118
G1 X120.99 Y133.092 E51.93586
G1 X101.014 Y113.117 E53.19237
G1 X100.732 Y113.594 E53.21704
G1 X120.708 Y133.57 E54.47355
G1 X120.425 Y134.048 E54.49823
G1 X100.45 Y114.072 E55.75473
G1 X100.167 Y114.549 E55.77941
G1 X119.203 Y133.586 E56.97682
G1 X117.343 Y132.485 E57.07294
G1 X99.885 Y115.027 E58.17112
G1 X99.602 Y115.504 E58.19579
G1 X115.483 Y131.385 E59.19473
G1 X113.623 Y130.285 E59.29085
G1 X99.32 Y115.982 E60.19055
G1 X99.037 Y116.459 E60.21522
G1 X111.763 Y129.185 E61.01569
G1 X109.903 Y128.085 E61.11181
G1 X98.755 Y116.937 E61.81303
G1 X98.473 Y117.414 E61.83771
G1 X108.043 Y126.985 E62.4397
G1 X106.183 Y125.885 E62.53582
G1 X98.19 Y117.892 E63.03857
G1 X97.908 Y118.369 E63.06324
G1 X104.323 Y124.784 E63.46676
G1 X102.463 Y123.684 E63.56288
G1 X97.625 Y118.847 E63.86716
G1 X97.343 Y119.325 E63.89183
G1 X100.603 Y122.584 E64.09687
G1 X98.742 Y121.484 E64.19299
G1 X97.06 Y119.802 E64.29879
G1 X96.778 Y120.28 E64.32347
G1 X97.539 Y121.041 E64.37137
M106 S84.15
;LAYER_CHANGE
;Z:0.52
;HEIGHT:0.32
;BEFORE_LAYER_CHANGE
;0.52


G92 E0
G1 E-1.4 F3000
;WIPE_START
G1 F7200
G1 X96.778 Y120.28 E-1.82626
G1 X96.963 Y119.967 E-1.97
;WIPE_END
G1 E-2 F3000
; stop printing object Stringing_sdfTest.stl id:0 copy 0
M486 S-1
G1 Z0.47 F9000
;AFTER_LAYER_CHANGE
;0.52
; printing object Stringing_sdfTest.stl id:0 copy 0
M486 S0
G1 X95.782 Y120.562
G1 E0 F3000
;TYPE:Internal perimeter
;WIDTH:0.476
G1 F2400
G1 X110.438 Y95.782 E1.56014
G1 X135.218 Y110.438 E3.12028
G1 X120.562 Y135.218 E4.68042
G1 X95.834 Y120.593 E6.23731
G1 X95.248 Y120.699 F9000
;TYPE:External perimeter
;WIDTH:0.428
G1 F1500
G1 X110.301 Y95.248 E7.65091
G1 X135.752 Y110.301 E9.0645
G1 X120.699 Y135.752 E10.4781
G1 X95.299 Y120.73 E11.88883
;WIPE_START
G1 X95.596 Y120.503 F9000
;WIPE_END
G92 E0
G1 E-1.4 F3000
;WIPE_START
G1 F7200
G1 X96.329 Y119.263 E-1.97
;WIPE_END
G1 E-2 F3000
; acceleration to travel
M204 S1500
G1 X107.782 Y100.446 F9000
; decel to extrusion
M204 S500
G1 X109.262 Y98.015
; end travel
G1 E0 F3000
;TYPE:Solid infill
;WIDTH:0.48401
G1 F2400
G1 X110.881 Y96.395 E0.12619
G1 X111.249 Y96.613 E0.14975
G1 X108.92 Y98.942 E0.33124
G1 X108.072 Y100.376 E0.42302
G1 X111.617 Y96.831 E0.69927
G1 X111.985 Y97.049 E0.72283
G1 X107.224 Y101.809 E1.09384
G1 X106.376 Y103.243 E1.18562
G1 X112.353 Y97.266 E1.65139
G1 X112.721 Y97.484 E1.67496
G1 X105.528 Y104.677 E2.23549
G1 X104.681 Y106.111 E2.32727
G1 X113.09 Y97.702 E2.98257
G1 X113.458 Y97.919 E3.00613
G1 X103.833 Y107.544 E3.75618
G1 X102.985 Y108.978 E3.84797
G1 X113.826 Y98.137 E4.69278
G1 X114.194 Y98.355 E4.71635
G1 X102.137 Y110.412 E5.65593
G1 X101.289 Y111.845 E5.74771
G1 X114.562 Y98.572 E6.78205
G1 X114.93 Y98.79 E6.80561
G1 X100.441 Y113.279 E7.93471
G1 X99.593 Y114.713 E8.0265
G1 X115.298 Y99.008 E9.25036
G1 X115.666 Y99.225 E9.27393
G1 X98.745 Y116.147 E10.59255
G1 X97.897 Y117.58 E10.68433
G1 X116.034 Y99.443 E12.09772
G1 X116.402 Y99.661 E12.12128
G1 X97.049 Y119.014 E13.62943
G1 X96.201 Y120.448 E13.72122
G1 X116.77 Y99.879 E15.32413
G1 X117.138 Y100.096 E15.34769
G1 X96.562 Y120.672 E16.95112
G1 X96.93 Y120.89 E16.97469
G1 X117.506 Y100.314 E18.57812
G1 X117.874 Y100.532 E18.60168
G1 X97.298 Y121.108 E20.20512
G1 X97.666 Y121.325 E20.22868
G1 X118.242 Y100.749 E21.83212
G1 X118.611 Y100.967 E21.85568
G1 X98.035 Y121.543 E23.45912
G1 X98.403 Y121.761 E23.48268
G1 X118.979 Y101.185 E25.08611
G1 X119.347 Y101.402 E25.10968
G1 X98.771 Y121.978 E26.71311
G1 X99.139 Y122.196 E26.73667
G1 X119.715 Y101.62 E28.34011
G1 X120.083 Y101.838 E28.36367
G1 X99.507 Y122.414 E29.96711
G1 X99.875 Y122.631 E29.99067
G1 X120.451 Y102.055 E31.5941
G1 X120.819 Y102.273 E31.61767
G1 X100.243 Y122.849 E33.2211
G1 X100.611 Y123.067 E33.24467
G1 X121.187 Y102.491 E34.8481
G1 X121.555 Y102.708 E34.87166
G1 X100.979 Y123.284 E36.4751
G1 X101.347 Y123.502 E36.49866
G1 X121.923 Y102.926 E38.1021
G1 X122.291 Y103.144 E38.12566
G1 X101.715 Y123.72 E39.72909
G1 X102.083 Y123.938 E39.75266
G1 X122.659 Y103.362 E41.35609
G1 X123.027 Y103.579 E41.37966
G1 X102.451 Y124.155 E42.98309
G1 X102.819 Y124.373 E43.00665
G1 X123.395 Y103.797 E44.61009
G1 X123.764 Y104.015 E44.63365
G1 X103.187 Y124.591 E46.23709
G1 X103.556 Y124.808 E46.26065
G1 X124.132 Y104.232 E47.86408
G1 X124.5 Y104.45 E47.88765
G1 X103.924 Y125.026 E49.49108
G1 X104.292 Y125.244 E49.51464
G1 X124.868 Y104.668 E51.11808
G1 X125.236 Y104.885 E51.14164
G1 X104.66 Y125.461 E52.74508
G1 X105.028 Y125.679 E52.76864
G1 X125.604 Y105.103 E54.37207
G1 X125.972 Y105.321 E54.39564
G1 X105.396 Y125.897 E55.99907
G1 X105.764 Y126.114 E56.02264
G1 X126.34 Y105.538 E57.62607
G1 X126.708 Y105.756 E57.64963
G1 X106.132 Y126.332 E59.25307
G1 X106.5 Y126.55 E59.27663
G1 X127.076 Y105.974 E60.88007
G1 X127.444 Y106.192 E60.90363
G1 X106.868 Y126.768 E62.50706
G1 X107.236 Y126.985 E62.53063
G1 X127.812 Y106.409 E64.13406
G1 X128.18 Y106.627 E64.15763
G1 X107.604 Y127.203 E65.76106
G1 X107.972 Y127.421 E65.78462
G1 X128.548 Y106.845 E67.38806
G1 X128.916 Y107.062 E67.41162
G1 X108.34 Y127.638 E69.01506
G1 X108.709 Y127.856 E69.03862
G1 X129.285 Y107.28 E70.64205
G1 X129.653 Y107.498 E70.66562
G1 X109.077 Y128.074 E72.26905
G1 X109.445 Y128.291 E72.29261
G1 X130.021 Y107.715 E73.89605
G1 X130.389 Y107.933 E73.91961
G1 X109.813 Y128.509 E75.52305
G1 X110.181 Y128.727 E75.54661
G1 X130.757 Y108.151 E77.15004
G1 X131.125 Y108.368 E77.17361
G1 X110.549 Y128.944 E78.77704
G1 X110.917 Y129.162 E78.80061
G1 X131.493 Y108.586 E80.40404
G1 X131.861 Y108.804 E80.4276
G1 X111.285 Y129.38 E82.03104
G1 X111.653 Y129.598 E82.0546
G1 X132.229 Y109.022 E83.65804
G1 X132.597 Y109.239 E83.6816
G1 X112.021 Y129.815 E85.28503
G1 X112.389 Y130.033 E85.3086
G1 X132.965 Y109.457 E86.91203
G1 X133.333 Y109.675 E86.9356
G1 X112.757 Y130.251 E88.53903
G1 X113.125 Y130.468 E88.56259
G1 X133.701 Y109.892 E90.16603
G1 X134.069 Y110.11 E90.18959
G1 X113.493 Y130.686 E91.79303
G1 X113.861 Y130.904 E91.81659
G1 X134.437 Y110.328 E93.42002
G1 X134.804 Y110.544 E93.44347
G1 X114.23 Y131.121 E95.04688
G1 X114.598 Y131.339 E95.07044
G1 X133.952 Y111.985 E96.57865
G1 X133.104 Y113.419 E96.67044
G1 X114.966 Y131.557 E98.08389
G1 X115.334 Y131.774 E98.10745
G1 X132.256 Y114.852 E99.42614
G1 X131.408 Y116.286 E99.51793
G1 X115.702 Y131.992 E100.74185
G1 X116.07 Y132.21 E100.76542
G1 X130.56 Y117.72 E101.89458
G1 X129.712 Y119.154 E101.98637
G1 X116.438 Y132.427 E103.02077
G1 X116.806 Y132.645 E103.04433
G1 X128.864 Y120.587 E103.98397
G1 X128.016 Y122.021 E104.07576
G1 X117.174 Y132.863 E104.92064
G1 X117.542 Y133.081 E104.9442
G1 X127.168 Y123.455 E105.69432
G1 X126.32 Y124.888 E105.78611
G1 X117.91 Y133.298 E106.44146
G1 X118.278 Y133.516 E106.46503
G1 X125.472 Y126.322 E107.02562
G1 X124.624 Y127.756 E107.11741
G1 X118.646 Y133.734 E107.58324
G1 X119.014 Y133.951 E107.6068
G1 X123.776 Y129.19 E107.97788
G1 X122.928 Y130.623 E108.06966
G1 X119.382 Y134.169 E108.34597
G1 X119.751 Y134.387 E108.36953
G1 X122.08 Y132.057 E108.55108
G1 X121.232 Y133.491 E108.64287
G1 X119.989 Y134.734 E108.73979
M106 S170.85
;LAYER_CHANGE
;Z:0.84
;HEIGHT:0.32
;BEFORE_LAYER_CHANGE
;0.84


G92 E0
G1 E-1.4 F3000
;WIPE_START
G1 F7200
G1 X121.007 Y133.716 E-1.97
;WIPE_END
G1 E-2 F3000
; stop printing object Stringing_sdfTest.stl id:0 copy 0
M486 S-1
G1 Z0.79 F9000
;AFTER_LAYER_CHANGE
;0.84
; printing object Stringing_sdfTest.stl id:0 copy 0
M486 S0
G1 X120.562 Y135.218
G1 E0 F3000
;TYPE:Internal perimeter
;WIDTH:0.476
G1 F2400
G1 X95.782 Y120.562 E1.56014
G1 X110.438 Y95.782 E3.12028
G1 X135.218 Y110.438 E4.68042
G1 X120.593 Y135.166 E6.23731
G1 X120.699 Y135.752 F9000
;TYPE:External perimeter
;WIDTH:0.428
G1 F1500
G1 X95.248 Y120.699 E7.6509
G1 X110.301 Y95.248 E9.0645
G1 X135.752 Y110.301 E10.4781
G1 X120.73 Y135.701 E11.88883
;WIPE_START
G1 X120.503 Y135.404 F9000
;WIPE_END
G92 E0
G1 E-1.4 F3000
;WIPE_START
G1 F7200
G1 X119.263 Y134.671 E-1.97
;WIPE_END
G1 E-2 F3000
; acceleration to travel
M204 S1500
G1 X100.446 Y123.218 F9000
; decel to extrusion
M204 S500
G1 X98.015 Y121.738
; end travel
G1 E0 F3000
;TYPE:Solid infill
;WIDTH:0.48401
G1 F2400
G1 X96.395 Y120.119 E0.12619
G1 X96.613 Y119.751 E0.14975
G1 X98.942 Y122.08 E0.33124
G1 X100.376 Y122.928 E0.42302
G1 X96.831 Y119.383 E0.69927
G1 X97.049 Y119.015 E0.72283
G1 X101.809 Y123.776 E1.09384
G1 X103.243 Y124.624 E1.18562
G1 X97.266 Y118.647 E1.65139
G1 X97.484 Y118.279 E1.67495
G1 X104.677 Y125.472 E2.23548
G1 X106.111 Y126.319 E2.32727
G1 X97.702 Y117.91 E2.98256
G1 X97.919 Y117.542 E3.00612
G1 X107.544 Y127.167 E3.75618
G1 X108.978 Y128.015 E3.84796
G1 X98.137 Y117.174 E4.69278
G1 X98.355 Y116.806 E4.71634
G1 X110.412 Y128.863 E5.65592
G1 X111.845 Y129.711 E5.7477
G1 X98.572 Y116.438 E6.78204
G1 X98.79 Y116.07 E6.80561
G1 X113.279 Y130.559 E7.93471
G1 X114.713 Y131.407 E8.02649
G1 X99.008 Y115.702 E9.25035
G1 X99.225 Y115.334 E9.27392
G1 X116.147 Y132.255 E10.59254
G1 X117.58 Y133.103 E10.68433
G1 X99.443 Y114.966 E12.09771
G1 X99.661 Y114.598 E12.12128
G1 X119.014 Y133.951 E13.62942
G1 X120.448 Y134.799 E13.72121
G1 X99.878 Y114.23 E15.32412
G1 X100.096 Y113.862 E15.34768
G1 X120.672 Y134.438 E16.95112
G1 X120.89 Y134.07 E16.97468
G1 X100.314 Y113.494 E18.57811
G1 X100.532 Y113.126 E18.60168
G1 X121.108 Y133.702 E20.20511
G1 X121.325 Y133.334 E20.22868
G1 X100.749 Y112.758 E21.83211
G1 X100.967 Y112.389 E21.85567
G1 X121.543 Y132.965 E23.45911
G1 X121.761 Y132.597 E23.48267
G1 X101.185 Y112.021 E25.08611
G1 X101.402 Y111.653 E25.10967
G1 X121.978 Y132.229 E26.7131
G1 X122.196 Y131.861 E26.73667
G1 X101.62 Y111.285 E28.3401
G1 X101.838 Y110.917 E28.36366
G1 X122.414 Y131.493 E29.9671
G1 X122.631 Y131.125 E29.99066
G1 X102.055 Y110.549 E31.5941
G1 X102.273 Y110.181 E31.61766
G1 X122.849 Y130.757 E33.22109
G1 X123.067 Y130.389 E33.24466
G1 X102.491 Y109.813 E34.84809
G1 X102.708 Y109.445 E34.87166
G1 X123.284 Y130.021 E36.47509
G1 X123.502 Y129.653 E36.49865
G1 X102.926 Y109.077 E38.10209
G1 X103.144 Y108.709 E38.12565
G1 X123.72 Y129.285 E39.72909
G1 X123.938 Y128.917 E39.75265
G1 X103.362 Y108.341 E41.35608
G1 X103.579 Y107.973 E41.37965
G1 X124.155 Y128.549 E42.98308
G1 X124.373 Y128.181 E43.00664
G1 X103.797 Y107.605 E44.61008
