; generated by SuperSlicer 2.4 on 2023-02-14 at 16:31:25 UTC

; 

; external perimeters extrusion width = 0.43mm
; perimeters extrusion width = 0.48mm
; infill extrusion width = 0.46mm
; solid infill extrusion width = 0.48mm
; top infill extrusion width = 0.46mm
; first layer extrusion width = 0.58mm

; object:{"name":"variable_size_ooze_test","id":"variable_size_ooze_test.stl id:0 copy 0","object_center":[115.500000,115.500000,0.000000],"boundingbox_center":[115.500000,115.500000,14.475646],"boundingbox_size":[52.079926,52.079926,28.951293]}
; Total objects to print: 1
M486 T1
; plater:{"center":[115.500000,115.500000,0.000000],"boundingbox_center":[115.500000,115.500000,14.475646],"boundingbox_size":[52.079926,52.079926,28.951293]}

;TYPE:Custom
G90 ; use absolute coordinates
M83 ; extruder relative mode
M140 S60 ; set final bed temp
M104 S150 ; set temporary nozzle temp to prevent oozing during homing and auto bed leveling
G4 S10 ; allow partial nozzle warmup
G28 ; home all axis
;G29 ; auto bed levelling
G1 Z10 F240
G1 X2 Y10 F3000
G1 Z0 F240
M104 S220 ; set final nozzle temp
M190 S60 ; wait for bed temp to stabilize
M109 S220 ; wait for nozzle temp to stabilize
G1 Z0.28 F240
G92 E0
G1 Y100 E7.1 F1500 ; prime the nozzle
G1 X2.3 F5000
G92 E0
G1 Y10 E10 F1200 ; prime the nozzle
G92 E0
;start
M107
G21 ; set units to millimeters
G90 ; use absolute coordinates
M82 ; use absolute distances for extrusion
G92 E0
; Filament gcode
;_TOOLCHANGE 0
M107
;LAYER_CHANGE
;Z:0.2
;HEIGHT:0.2
;BEFORE_LAYER_CHANGE
;0.2


G1 E-2 F3000
G1 Z0.15 F9000
;AFTER_LAYER_CHANGE
;0.2
G92 E0
M204 S500
G1 X94.94 Y87.56
G1 E2 F3000
;TYPE:Skirt
;WIDTH:0.48
G1 F1200
G1 X94.28 Y89.009 E2.05786
G1 X86.408 Y132.984 E3.68148
G1 X86.604 Y134.787 E3.74738
G1 X87.56 Y136.06 E3.80524
G1 X89.009 Y136.72 E3.8631
G1 X132.984 Y144.592 E5.48672
G1 X134.787 Y144.396 E5.55262
G1 X136.06 Y143.44 E5.61048
G1 X136.72 Y141.991 E5.66835
G1 X144.592 Y98.016 E7.29197
G1 X144.396 Y96.213 E7.35786
G1 X143.44 Y94.94 E7.41573
G1 X141.991 Y94.28 E7.47359
G1 X98.408 Y86.478 E9.08272
G1 X98.016 Y86.408 E9.09721
G1 X96.213 Y86.604 E9.16311
G1 X94.988 Y87.524 E9.21879
G92 E0
G1 E-1.4 F3000
;WIPE_START
G1 F7200
G1 X94.368 Y88.824 E-1.97
;WIPE_END
G1 E-2 F3000
; printing object variable_size_ooze_test.stl id:0 copy 0
M486 S0
; acceleration to travel
M204 S1500
G1 X97.708 Y90.348 F9000
; decel to extrusion
M204 S500
G1 X98.116 Y90.534
; end travel
G1 E0 F3000
;TYPE:Internal perimeter
;WIDTH:0.576
G1 F1200
G1 X140.466 Y98.116 E1.90706
G1 X132.884 Y140.466 E3.81412
G1 X90.534 Y132.884 E5.72118
G1 X98.105 Y90.593 E7.62558
G1 X97.681 Y89.91 F9000
;TYPE:External perimeter
G1 F1200
G1 X97.79 Y89.93 E7.63049
G1 X141.09 Y97.681 E9.58028
G1 X133.319 Y141.09 E11.53498
G1 X89.91 Y133.319 E13.48968
G1 X97.671 Y89.969 E15.44172
;WIPE_START
G1 X97.987 Y90.168 F9000
;WIPE_END
G92 E0
G1 E-1.4 F3000
;WIPE_START
G1 F7200
G1 X99.404 Y90.422 E-1.97
;WIPE_END
G1 E-2 F3000
; acceleration to travel
M204 S1500
G1 X134.649 Y97.183 F9000
; decel to extrusion
M204 S500
G1 X138.955 Y98.009
; end travel
G1 E0 F3000
;TYPE:Solid infill
;WIDTH:0.57872
G1 F1200
G1 X139.915 Y98.969 E0.06046
G1 X139.799 Y99.613 E0.08962
G1 X138.315 Y98.129 E0.18311
G1 X137.389 Y97.963 E0.22499
G1 X139.684 Y100.258 E0.36951
G1 X139.569 Y100.902 E0.39867
G1 X136.464 Y97.798 E0.59423
G1 X135.538 Y97.632 E0.63611
G1 X139.453 Y101.547 E0.88269
G1 X139.338 Y102.192 E0.91186
G1 X134.612 Y97.466 E1.20948
G1 X133.687 Y97.3 E1.25136
G1 X139.222 Y102.836 E1.60001
G1 X139.107 Y103.481 E1.62917
G1 X132.761 Y97.135 E2.02886
G1 X131.835 Y96.969 E2.07074
G1 X138.992 Y104.125 E2.52146
G1 X138.876 Y104.77 E2.55062
G1 X130.91 Y96.803 E3.05237
G1 X129.984 Y96.638 E3.09425
G1 X138.761 Y105.414 E3.64703
G1 X138.645 Y106.059 E3.6762
G1 X129.058 Y96.472 E4.28002
G1 X128.133 Y96.306 E4.3219
G1 X138.53 Y106.704 E4.97675
G1 X138.415 Y107.348 E5.00591
G1 X127.207 Y96.14 E5.71179
G1 X126.281 Y95.975 E5.75367
G1 X138.299 Y107.993 E6.51059
G1 X138.184 Y108.637 E6.53975
G1 X125.356 Y95.809 E7.3477
G1 X124.43 Y95.643 E7.38958
G1 X138.069 Y109.282 E8.24857
G1 X137.953 Y109.926 E8.27773
G1 X123.504 Y95.478 E9.18775
G1 X122.579 Y95.312 E9.22963
G1 X137.838 Y110.571 E10.19068
G1 X137.722 Y111.216 E10.21984
G1 X121.653 Y95.146 E11.23192
G1 X120.727 Y94.98 E11.2738
G1 X137.607 Y111.86 E12.33692
G1 X137.492 Y112.505 E12.36608
G1 X119.802 Y94.815 E13.48023
G1 X118.876 Y94.649 E13.52211
G1 X137.376 Y113.149 E14.68729
G1 X137.261 Y113.794 E14.71645
G1 X117.95 Y94.483 E15.93267
G1 X117.025 Y94.318 E15.97455
G1 X137.145 Y114.438 E17.2418
G1 X137.03 Y115.083 E17.27096
G1 X116.099 Y94.152 E18.58924
G1 X115.173 Y93.986 E18.63112
G1 X136.915 Y115.727 E20.00043
G1 X136.799 Y116.372 E20.0296
G1 X114.248 Y93.82 E21.44994
G1 X113.322 Y93.655 E21.49182
G1 X136.684 Y117.017 E22.9632
G1 X136.568 Y117.661 E22.99237
G1 X112.396 Y93.489 E24.51478
G1 X111.471 Y93.323 E24.55666
G1 X136.453 Y118.306 E26.13011
G1 X136.338 Y118.95 E26.15927
G1 X110.545 Y93.158 E27.78375
G1 X109.619 Y92.992 E27.82563
G1 X136.222 Y119.595 E29.50114
G1 X136.107 Y120.239 E29.53031
G1 X108.694 Y92.826 E31.25685
G1 X107.768 Y92.66 E31.29873
G1 X135.992 Y120.884 E33.07631
G1 X135.876 Y121.529 E33.10547
G1 X106.842 Y92.495 E34.93409
G1 X105.917 Y92.329 E34.97597
G1 X135.761 Y122.173 E36.85561
G1 X135.645 Y122.818 E36.88477
G1 X104.991 Y92.163 E38.81545
G1 X104.065 Y91.998 E38.85733
G1 X135.53 Y123.462 E40.83904
G1 X135.415 Y124.107 E40.86821
G1 X103.14 Y91.832 E42.90095
G1 X102.214 Y91.666 E42.94283
G1 X135.299 Y124.751 E45.02661
G1 X135.184 Y125.396 E45.05577
G1 X101.288 Y91.5 E47.19058
G1 X100.363 Y91.335 E47.23246
G1 X135.068 Y126.041 E49.41831
G1 X134.953 Y126.685 E49.44747
G1 X99.437 Y91.169 E51.68435
G1 X98.511 Y91.003 E51.72623
G1 X134.838 Y127.33 E54.01414
G1 X134.722 Y127.974 E54.0433
G1 X98.327 Y91.579 E56.33555
G1 X98.212 Y92.224 E56.36471
G1 X134.607 Y128.619 E58.65696
G1 X134.491 Y129.263 E58.68613
G1 X98.096 Y92.868 E60.97838
G1 X97.981 Y93.513 E61.00754
G1 X134.376 Y129.908 E63.29979
G1 X134.261 Y130.553 E63.32896
G1 X97.865 Y94.157 E65.62121
G1 X97.75 Y94.802 E65.65037
G1 X134.145 Y131.197 E67.94262
G1 X134.03 Y131.842 E67.97178
G1 X97.635 Y95.446 E70.26404
G1 X97.519 Y96.091 E70.2932
G1 X133.915 Y132.486 E72.58545
G1 X133.799 Y133.131 E72.61461
G1 X97.404 Y96.736 E74.90686
G1 X97.288 Y97.38 E74.93603
G1 X133.684 Y133.775 E77.22828
G1 X133.568 Y134.42 E77.25744
G1 X97.173 Y98.025 E79.54969
G1 X97.058 Y98.669 E79.57886
G1 X133.453 Y135.065 E81.87111
G1 X133.338 Y135.709 E81.90027
G1 X96.942 Y99.314 E84.19252
G1 X96.827 Y99.958 E84.22168
G1 X133.222 Y136.354 E86.51394
G1 X133.107 Y136.998 E86.5431
G1 X96.711 Y100.603 E88.83535
G1 X96.596 Y101.247 E88.86451
G1 X132.991 Y137.643 E91.15677
G1 X132.876 Y138.287 E91.18593
G1 X96.481 Y101.892 E93.47818
G1 X96.365 Y102.537 E93.50734
G1 X132.761 Y138.932 E95.79959
G1 X132.645 Y139.576 E95.82876
G1 X96.25 Y103.181 E98.12101
G1 X96.135 Y103.826 E98.15017
G1 X132.265 Y139.957 E100.42577
G1 X131.34 Y139.791 E100.46765
G1 X96.019 Y104.47 E102.69222
G1 X95.904 Y105.115 E102.72138
G1 X130.414 Y139.625 E104.89492
G1 X129.488 Y139.46 E104.9368
G1 X95.788 Y105.759 E107.0593
G1 X95.673 Y106.404 E107.08846
G1 X128.563 Y139.294 E109.15993
G1 X127.637 Y139.128 E109.20181
G1 X95.558 Y107.049 E111.22225
G1 X95.442 Y107.693 E111.25141
G1 X126.711 Y138.962 E113.22082
G1 X125.786 Y138.797 E113.2627
G1 X95.327 Y108.338 E115.18107
G1 X95.211 Y108.982 E115.21023
G1 X124.86 Y138.631 E117.07757
G1 X123.934 Y138.465 E117.11945
G1 X95.096 Y109.627 E118.93575
G1 X94.981 Y110.271 E118.96491
G1 X123.009 Y138.3 E120.73018
G1 X122.083 Y138.134 E120.77206
G1 X94.865 Y110.916 E122.4863
G1 X94.75 Y111.561 E122.51546
G1 X121.157 Y137.968 E124.17867
G1 X120.232 Y137.802 E124.22055
G1 X94.634 Y112.205 E125.83272
G1 X94.519 Y112.85 E125.86188
G1 X119.306 Y137.637 E127.42302
G1 X118.38 Y137.471 E127.4649
G1 X94.404 Y113.494 E128.97501
G1 X94.288 Y114.139 E129.00417
G1 X117.455 Y137.305 E130.46324
G1 X116.529 Y137.14 E130.50512
G1 X94.173 Y114.783 E131.91316
G1 X94.058 Y115.428 E131.94232
G1 X115.603 Y136.974 E133.29933
G1 X114.678 Y136.808 E133.34121
G1 X93.942 Y116.073 E134.64718
G1 X93.827 Y116.717 E134.67635
G1 X113.752 Y136.642 E135.93129
G1 X112.826 Y136.477 E135.97317
G1 X93.711 Y117.362 E137.17707
G1 X93.596 Y118.006 E137.20623
G1 X111.901 Y136.311 E138.35911
G1 X110.975 Y136.145 E138.40099
G1 X93.481 Y118.651 E139.50283
G1 X93.365 Y119.295 E139.53199
G1 X110.049 Y135.98 E140.5828
G1 X109.124 Y135.814 E140.62468
G1 X93.25 Y119.94 E141.62445
G1 X93.134 Y120.585 E141.65362
G1 X108.198 Y135.648 E142.60236
G1 X107.272 Y135.482 E142.64424
G1 X93.019 Y121.229 E143.54195
G1 X92.904 Y121.874 E143.57111
G1 X106.347 Y135.317 E144.41778
G1 X105.421 Y135.151 E144.45966
G1 X92.788 Y122.518 E145.25531
G1 X92.673 Y123.163 E145.28447
G1 X104.495 Y134.985 E146.02908
G1 X103.57 Y134.82 E146.07096
G1 X92.557 Y123.807 E146.76453
G1 X92.442 Y124.452 E146.7937
G1 X102.644 Y134.654 E147.43624
G1 X101.718 Y134.488 E147.47812
G1 X92.327 Y125.096 E148.06963
G1 X92.211 Y125.741 E148.09879
G1 X100.793 Y134.322 E148.63927
G1 X99.867 Y134.157 E148.68115
G1 X92.096 Y126.386 E149.17059
G1 X91.981 Y127.03 E149.19975
G1 X98.941 Y133.991 E149.63816
G1 X98.016 Y133.825 E149.68004
G1 X91.865 Y127.675 E150.06742
G1 X91.75 Y128.319 E150.09658
G1 X97.09 Y133.66 E150.43293
G1 X96.164 Y133.494 E150.47481
G1 X91.634 Y128.964 E150.76012
G1 X91.519 Y129.608 E150.78928
G1 X95.239 Y133.328 E151.02356
G1 X94.313 Y133.163 E151.06544
G1 X91.404 Y130.253 E151.24869
G1 X91.288 Y130.898 E151.27785
G1 X93.387 Y132.997 E151.41006
G1 X92.462 Y132.831 E151.45194
G1 X91.173 Y131.542 E151.53312
G1 X91.057 Y132.187 E151.56228
G1 X91.822 Y132.951 E151.61043
M106 S84.15
;LAYER_CHANGE
;Z:0.52
;HEIGHT:0.32
;BEFORE_LAYER_CHANGE
;0.52


G92 E0
G1 E-1.4 F3000
;WIPE_START
G1 F7200
G1 X91.057 Y132.187 E-1.828
G1 X91.121 Y131.834 E-1.97
;WIPE_END
G1 E-2 F3000
; stop printing object variable_size_ooze_test.stl id:0 copy 0
M486 S-1
G1 Z0.47 F9000
;AFTER_LAYER_CHANGE
;0.52
; printing object variable_size_ooze_test.stl id:0 copy 0
M486 S0
G1 X90.161 Y133.144
G1 E0 F3000
;TYPE:Internal perimeter
;WIDTH:0.476
G1 F2400
G1 X97.856 Y90.161 E2.36631
G1 X140.839 Y97.856 E4.73263
G1 X133.144 Y140.839 E7.09894
G1 X90.22 Y133.155 E9.462
G1 X89.708 Y133.459 F9000
;TYPE:External perimeter
;WIDTH:0.428
G1 F1500
G1 X97.541 Y89.708 E11.58677
G1 X141.292 Y97.541 E13.71154
G1 X133.459 Y141.292 E15.83631
G1 X89.767 Y133.47 E17.95821
;WIPE_START
G1 X89.966 Y133.154 F9000
;WIPE_END
G92 E0
G1 E-1.4 F3000
;WIPE_START
G1 F7200
G1 X90.22 Y131.736 E-1.97
;WIPE_END
G1 E-2 F3000
; acceleration to travel
M204 S1500
G1 X96.902 Y95.989 F9000
; decel to extrusion
M204 S500
G1 X97.766 Y91.371
; end travel
G1 E0 F3000
;TYPE:Solid infill
;WIDTH:0.483922
G1 F2400
G1 X98.545 Y90.592 E0.06073
G1 X99.042 Y90.681 E0.08853
G1 X97.858 Y91.864 E0.18075
G1 X97.731 Y92.578 E0.22068
G1 X99.539 Y90.77 E0.36156
G1 X100.035 Y90.859 E0.38937
G1 X97.603 Y93.291 E0.57891
G1 X97.475 Y94.005 E0.61884
G1 X100.532 Y90.948 E0.85704
G1 X101.029 Y91.036 E0.88484
G1 X97.347 Y94.718 E1.1717
G1 X97.22 Y95.432 E1.21163
G1 X101.526 Y91.125 E1.54715
G1 X102.023 Y91.214 E1.57496
G1 X97.092 Y96.145 E1.95914
G1 X96.964 Y96.859 E1.99907
G1 X102.52 Y91.303 E2.43191
G1 X103.016 Y91.392 E2.45972
G1 X96.836 Y97.572 E2.94122
G1 X96.709 Y98.286 E2.98115
G1 X103.513 Y91.481 E3.51131
G1 X104.01 Y91.57 E3.53912
G1 X96.581 Y98.999 E4.11794
G1 X96.453 Y99.713 E4.15787
G1 X104.507 Y91.659 E4.78535
G1 X105.004 Y91.748 E4.81316
G1 X96.326 Y100.426 E5.4893
G1 X96.198 Y101.14 E5.52923
G1 X105.5 Y91.837 E6.25404
G1 X105.997 Y91.926 E6.28184
G1 X96.07 Y101.853 E7.05531
G1 X95.942 Y102.567 E7.09524
G1 X106.494 Y92.015 E7.91736
G1 X106.991 Y92.104 E7.94517
G1 X95.815 Y103.28 E8.81595
G1 X95.687 Y103.994 E8.85588
G1 X107.488 Y92.193 E9.77533
G1 X107.985 Y92.282 E9.80313
G1 X95.559 Y104.707 E10.77124
G1 X95.431 Y105.421 E10.81117
G1 X108.481 Y92.371 E11.82793
G1 X108.978 Y92.459 E11.85574
G1 X95.304 Y106.134 E12.92117
G1 X95.176 Y106.847 E12.9611
G1 X109.475 Y92.548 E14.07518
G1 X109.972 Y92.637 E14.10299
G1 X95.048 Y107.561 E15.26574
G1 X94.921 Y108.274 E15.30567
G1 X110.469 Y92.726 E16.51707
G1 X110.965 Y92.815 E16.54488
G1 X94.793 Y108.988 E17.80495
G1 X94.665 Y109.701 E17.84488
G1 X111.462 Y92.904 E19.15361
G1 X111.959 Y92.993 E19.18141
G1 X94.537 Y110.415 E20.5388
G1 X94.41 Y111.128 E20.57873
G1 X112.456 Y93.082 E21.98478
G1 X112.953 Y93.171 E22.01259
G1 X94.282 Y111.842 E23.46729
G1 X94.154 Y112.555 E23.50723
G1 X113.45 Y93.26 E25.0106
G1 X113.946 Y93.349 E25.0384
G1 X94.026 Y113.269 E26.59043
G1 X93.899 Y113.982 E26.63036
G1 X114.443 Y93.438 E28.23105
G1 X114.94 Y93.527 E28.25886
G1 X93.771 Y114.696 E29.90821
G1 X93.643 Y115.409 E29.94814
G1 X115.437 Y93.616 E31.64615
G1 X115.934 Y93.705 E31.67396
G1 X93.516 Y116.123 E33.42063
G1 X93.388 Y116.836 E33.46056
G1 X116.43 Y93.794 E35.25589
G1 X116.927 Y93.883 E35.2837
G1 X93.26 Y117.55 E37.12769
G1 X93.132 Y118.263 E37.16762
G1 X117.424 Y93.971 E39.06027
G1 X117.921 Y94.06 E39.08808
G1 X93.005 Y118.977 E41.02939
G1 X92.877 Y119.69 E41.06932
G1 X118.418 Y94.149 E43.0593
G1 X118.915 Y94.238 E43.0871
G1 X92.749 Y120.404 E45.12573
G1 X92.621 Y121.117 E45.16567
G1 X119.411 Y94.327 E47.25296
G1 X119.908 Y94.416 E47.28077
G1 X92.494 Y121.831 E49.41672
G1 X92.366 Y122.544 E49.45665
G1 X120.405 Y94.505 E51.64127
G1 X120.902 Y94.594 E51.66907
G1 X92.238 Y123.258 E53.90235
G1 X92.111 Y123.971 E53.94228
G1 X121.399 Y94.683 E56.22421
G1 X121.896 Y94.772 E56.25202
G1 X91.983 Y124.685 E58.58262
G1 X91.855 Y125.398 E58.62255
G1 X122.392 Y94.861 E61.0018
G1 X122.889 Y94.95 E61.02961
G1 X91.727 Y126.112 E63.45753
G1 X91.6 Y126.825 E63.49746
G1 X123.386 Y95.039 E65.97404
G1 X123.883 Y95.128 E66.00184
G1 X91.472 Y127.539 E68.52708
G1 X91.344 Y128.252 E68.56701
G1 X124.38 Y95.217 E71.14091
G1 X124.876 Y95.306 E71.16871
G1 X91.216 Y128.966 E73.79127
G1 X91.089 Y129.679 E73.8312
G1 X125.373 Y95.394 E76.50242
G1 X125.87 Y95.483 E76.53023
G1 X90.961 Y130.393 E79.25011
G1 X90.833 Y131.106 E79.29004
G1 X126.367 Y95.572 E82.05858
G1 X126.864 Y95.661 E82.08638
G1 X90.706 Y131.819 E84.90358
G1 X90.578 Y132.533 E84.94352
G1 X127.361 Y95.75 E87.80937
G1 X127.857 Y95.839 E87.83718
G1 X90.754 Y132.943 E90.72805
G1 X91.25 Y133.032 E90.75586
G1 X128.354 Y95.928 E93.64673
G1 X128.851 Y96.017 E93.67454
G1 X91.747 Y133.121 E96.56541
G1 X92.244 Y133.21 E96.59321
G1 X129.348 Y96.106 E99.48408
G1 X129.845 Y96.195 E99.51189
G1 X92.741 Y133.299 E102.40276
G1 X93.238 Y133.388 E102.43057
G1 X130.341 Y96.284 E105.32144
G1 X130.838 Y96.373 E105.34925
G1 X93.735 Y133.477 E108.24012
G1 X94.231 Y133.566 E108.26792
G1 X131.335 Y96.462 E111.1588
G1 X131.832 Y96.551 E111.1866
G1 X94.728 Y133.654 E114.07747
G1 X95.225 Y133.743 E114.10528
G1 X132.329 Y96.64 E116.99615
G1 X132.826 Y96.729 E117.02396
G1 X95.722 Y133.832 E119.91483
G1 X96.219 Y133.921 E119.94263
G1 X133.322 Y96.818 E122.83351
G1 X133.819 Y96.906 E122.86131
G1 X96.715 Y134.01 E125.75218
G1 X97.212 Y134.099 E125.77999
G1 X134.316 Y96.995 E128.67086
G1 X134.813 Y97.084 E128.69867
G1 X97.709 Y134.188 E131.58954
G1 X98.206 Y134.277 E131.61735
G1 X135.31 Y97.173 E134.50822
G1 X135.806 Y97.262 E134.53602
G1 X98.703 Y134.366 E137.42689
G1 X99.2 Y134.455 E137.4547
G1 X136.303 Y97.351 E140.34557
G1 X136.8 Y97.44 E140.37338
G1 X99.696 Y134.544 E143.26425
G1 X100.193 Y134.633 E143.29206
G1 X137.297 Y97.529 E146.18293
G1 X137.794 Y97.618 E146.21073
G1 X100.69 Y134.722 E149.10161
G1 X101.187 Y134.811 E149.12941
G1 X138.291 Y97.707 E152.02028
G1 X138.787 Y97.796 E152.04809
G1 X101.684 Y134.9 E154.93896
G1 X102.18 Y134.989 E154.96677
G1 X139.284 Y97.885 E157.85764
G1 X139.781 Y97.974 E157.88544
G1 X102.677 Y135.077 E160.77632
G1 X103.174 Y135.166 E160.80412
G1 X140.278 Y98.063 E163.69499
G1 X140.488 Y98.1 E163.70675
G1 X140.414 Y98.512 E163.7298
G1 X103.671 Y135.255 E166.59258
G1 X104.168 Y135.344 E166.62039
G1 X140.286 Y99.226 E169.43451
G1 X140.159 Y99.939 E169.47445
