; generated by SuperSlicer 2.4 on 2022-12-13 at 11:15:12 UTC

; 

; external perimeters extrusion width = 0.43mm
; perimeters extrusion width = 0.48mm
; infill extrusion width = 0.46mm
; solid infill extrusion width = 0.48mm
; top infill extrusion width = 0.46mm
; first layer extrusion width = 0.58mm

; object:{"name":"cube_1_thick","id":"cube_1_thick.stl id:0 copy 0","object_center":[115.528353,115.532342,0.000000],"boundingbox_center":[115.528353,115.532342,16.230285],"boundingbox_size":[45.374208,45.388205,32.460571]}
; Total objects to print: 1
M486 T1
; plater:{"center":[115.528353,115.532342,0.000000],"boundingbox_center":[115.528353,115.532342,16.230285],"boundingbox_size":[45.374208,45.388205,32.460571]}

;TYPE:Custom
G90 ; use absolute coordinates
M83 ; extruder relative mode
M140 S60 ; set final bed temp
M104 S150 ; set temporary nozzle temp to prevent oozing during homing and auto bed leveling
G4 S10 ; allow partial nozzle warmup
G28 ; home all axis
;G29 ; auto bed levelling
G1 Z10 F240
G1 X2 Y10 F3000
G1 Z0 F240
M104 S210 ; set final nozzle temp
M190 S60 ; wait for bed temp to stabilize
M109 S210 ; wait for nozzle temp to stabilize
G1 Z0.28 F240
G92 E0
G1 Y140 E10 F1500 ; prime the nozzle
G1 X2.3 F5000
G92 E0
G1 Y10 E10 F1200 ; prime the nozzle
G92 E0
;start
M107
G21 ; set units to millimeters
G90 ; use absolute coordinates
M82 ; use absolute distances for extrusion
G92 E0
; Filament gcode
;_TOOLCHANGE 0
M107
;LAYER_CHANGE
;Z:0.2
;HEIGHT:0.2
;BEFORE_LAYER_CHANGE
;0.2


G1 E-8.5 F3000
G1 Z0.15 F9000
;AFTER_LAYER_CHANGE
;0.2
G92 E0
M204 S500
G1 X108.459 Y90.991
G1 E8.5 F3000
;TYPE:Skirt
;WIDTH:0.48
G1 F1200
G1 X90.05 Y112.935 E9.55141
G1 X89.132 Y114.187 E9.60839
G1 X88.463 Y115.545 E9.66394
G1 X88.295 Y116.088 E9.68481
G1 X88.152 Y116.972 E9.71768
G1 X88.137 Y117.718 E9.74508
G1 X88.311 Y118.831 E9.78644
G1 X88.577 Y119.606 E9.8165
G1 X89.283 Y120.843 E9.86879
G1 X90.216 Y121.904 E9.92065
G1 X112.69 Y140.792 E10.99825
G1 X113.846 Y141.593 E11.04989
G1 X114.519 Y141.942 E11.07771
G1 X115.543 Y142.339 E11.118
G1 X116.792 Y142.57 E11.16464
G1 X117.797 Y142.576 E11.20155
G1 X119.253 Y142.288 E11.25601
G1 X120.459 Y141.791 E11.30388
G1 X121.554 Y141.083 E11.35175
G1 X122.636 Y140.05 E11.40667
G1 X141.201 Y117.817 E12.46988
G1 X141.61 Y117.133 E12.49914
G1 X141.959 Y116.337 E12.53103
G1 X142.208 Y115.43 E12.56558
G1 X142.327 Y114.31 E12.60689
G1 X142.326 Y113.362 E12.64169
G1 X142.056 Y111.667 E12.70469
G1 X141.609 Y110.5 E12.7506
G1 X141.054 Y109.586 E12.78982
G1 X140.022 Y108.43 E12.8467
G1 X117.558 Y89.614 E13.92233
G1 X116.836 Y89.092 E13.95505
G1 X115.971 Y88.615 E13.9913
G1 X115.376 Y88.382 E14.01476
G1 X114.509 Y88.173 E14.04747
G1 X113.824 Y88.083 E14.07283
G1 X112.488 Y88.188 E14.12205
G1 X111.551 Y88.466 E14.15792
G1 X110.562 Y88.956 E14.19845
G1 X109.598 Y89.717 E14.24352
G1 X109.035 Y90.305 E14.27338
G1 X108.498 Y90.945 E14.30407
G92 E0
G1 E-5.95 F3000
;WIPE_START
G1 F7200
G1 X104.564 Y95.633 E-8.3725
;WIPE_END
G1 E-8.5 F3000
; acceleration to travel
M204 S1500
G1 X110.748 Y93.649 F9000
; decel to extrusion
M204 S500
G1 X111.503 Y93.406
; end travel
G1 E0 F3000
;WIDTH:0.576
G1 F1200
G1 X111.967 Y92.84 E0.03276
G1 X112.331 Y92.471 E0.05596
G1 X112.719 Y92.192 E0.07738
G1 X112.924 Y92.1 E0.08741
G1 X113.263 Y92 E0.10323
G1 X113.661 Y91.969 E0.1211
G1 X114.009 Y92.024 E0.13688
G1 X114.348 Y92.137 E0.15288
G1 X114.679 Y92.313 E0.16966
G1 X115.107 Y92.617 E0.19318
G1 X115.674 Y93.115 E0.22698
G1 X119.581 Y96.387 E0.45511
G1 X121.013 Y97.61 E0.53942
G1 X122.172 Y98.556 E0.6064
G1 X131.304 Y106.202 E1.13963
G1 X131.828 Y106.659 E1.17076
G1 X137.45 Y111.331 E1.49797
G1 X137.885 Y111.819 E1.52727
G1 X138.088 Y112.132 E1.54395
G1 X138.245 Y112.47 E1.56065
G1 X138.413 Y113.156 E1.59227
G1 X138.459 Y113.617 E1.61302
G1 X138.449 Y114.237 E1.64077
G1 X138.39 Y114.724 E1.66273
G1 X138.346 Y114.912 E1.67136
G1 X138.084 Y115.497 E1.70006
G1 X137.719 Y115.979 E1.72716
G1 X136.384 Y117.53 E1.81876
G1 X134.804 Y119.422 E1.9291
G1 X134.231 Y120.056 E1.96738
G1 X133.58 Y120.824 E2.01242
G1 X132.879 Y121.718 E2.06329
G1 X129.29 Y126 E2.31345
G1 X128.241 Y127.168 E2.38372
G1 X127.541 Y128.087 E2.43543
G1 X121.151 Y135.717 E2.88097
G1 X119.694 Y137.525 E2.98495
G1 X119.243 Y137.97 E3.0133
G1 X118.716 Y138.327 E3.04182
G1 X118.199 Y138.556 E3.06712
G1 X117.509 Y138.708 E3.09878
G1 X117.164 Y138.711 E3.11418
G1 X116.84 Y138.671 E3.12884
G1 X116.304 Y138.495 E3.1541
G1 X115.708 Y138.193 E3.18398
G1 X115.14 Y137.789 E3.21517
G1 X109.746 Y133.223 E3.53156
G1 X108.907 Y132.538 E3.58009
G1 X98.655 Y123.917 E4.17977
G1 X93.052 Y119.239 E4.50653
G1 X92.782 Y118.991 E4.52292
G1 X92.482 Y118.648 E4.54332
G1 X92.287 Y118.371 E4.55853
G1 X92.171 Y118.142 E4.56998
G1 X92.069 Y117.845 E4.58406
G1 X92.02 Y117.573 E4.59644
G1 X92.022 Y117.284 E4.60936
G1 X92.056 Y117.052 E4.61985
G1 X92.171 Y116.702 E4.63638
G1 X92.331 Y116.386 E4.65222
G1 X92.53 Y116.083 E4.66844
G1 X92.779 Y115.784 E4.68585
G1 X93.158 Y115.253 E4.71508
G1 X109.932 Y95.325 E5.8812
G1 X111.465 Y93.453 E5.98955
G1 X111.881 Y93.793 F9000
G1 F1200
G1 X112.375 Y93.19 E6.02447
G1 X112.667 Y92.89 E6.04317
G1 X112.969 Y92.668 E6.05995
G1 X113.095 Y92.61 E6.06618
G1 X113.388 Y92.523 E6.07987
G1 X113.613 Y92.505 E6.08996
G1 X113.866 Y92.542 E6.1014
G1 X114.119 Y92.623 E6.11329
G1 X114.383 Y92.762 E6.12665
G1 X114.763 Y93.03 E6.14748
G1 X115.324 Y93.523 E6.18092
G1 X119.235 Y96.798 E6.40927
G1 X120.668 Y98.023 E6.49368
G1 X121.828 Y98.969 E6.5607
G1 X130.957 Y106.613 E7.09374
G1 X131.48 Y107.068 E7.12479
G1 X137.091 Y111.731 E7.45138
G1 X137.447 Y112.132 E7.47541
G1 X137.609 Y112.377 E7.48854
G1 X137.747 Y112.672 E7.50312
G1 X137.886 Y113.261 E7.53023
G1 X137.922 Y113.653 E7.54783
G1 X137.914 Y114.187 E7.57174
G1 X137.859 Y114.643 E7.59233
G1 X137.83 Y114.758 E7.59763
G1 X137.608 Y115.245 E7.62161
G1 X137.307 Y115.634 E7.64362
G1 X135.974 Y117.183 E7.73509
G1 X134.395 Y119.073 E7.84537
G1 X133.826 Y119.702 E7.88333
G1 X133.164 Y120.484 E7.92922
G1 X132.465 Y121.376 E7.97995
G1 X128.881 Y125.652 E8.22971
G1 X127.827 Y126.825 E8.30034
G1 X127.125 Y127.747 E8.35218
G1 X120.736 Y135.376 E8.79768
G1 X119.285 Y137.177 E8.90122
G1 X118.919 Y137.541 E8.92434
G1 X118.472 Y137.848 E8.9486
G1 X118.053 Y138.038 E8.96922
G1 X117.471 Y138.171 E8.99593
G1 X117.212 Y138.176 E9.00754
G1 X116.933 Y138.141 E9.02013
G1 X116.495 Y137.993 E9.04084
G1 X115.971 Y137.724 E9.06719
G1 X115.479 Y137.372 E9.09426
G1 X110.09 Y132.81 E9.41037
G1 X109.251 Y132.125 E9.45886
G1 X99 Y123.505 E10.05849
G1 X93.409 Y118.838 E10.38452
G1 X93.177 Y118.626 E10.39862
G1 X92.896 Y118.306 E10.41767
G1 X92.739 Y118.079 E10.43002
G1 X92.674 Y117.95 E10.43647
G1 X92.584 Y117.689 E10.44886
G1 X92.558 Y117.549 E10.45522
G1 X92.559 Y117.307 E10.46605
G1 X92.583 Y117.159 E10.47276
G1 X92.66 Y116.927 E10.48373
G1 X92.804 Y116.643 E10.49797
G1 X92.97 Y116.393 E10.51142
G1 X93.204 Y116.113 E10.52776
G1 X93.576 Y115.59 E10.55648
G1 X110.346 Y95.668 E11.72227
G1 X111.843 Y93.84 E11.8281
G1 X112.259 Y94.18 F9000
G1 F1200
G1 X112.795 Y93.526 E11.86598
G1 X113.027 Y93.289 E11.8808
G1 X113.044 Y93.275 E11.88178
G1 X113.228 Y93.139 E11.89204
G1 X113.27 Y93.119 E11.89412
G1 X113.514 Y93.046 E11.90552
G1 X113.57 Y93.042 E11.90805
G1 X113.73 Y93.063 E11.91525
G1 X113.748 Y93.067 E11.9161
G1 X113.861 Y93.098 E11.92135
G1 X113.886 Y93.108 E11.92254
G1 X114.081 Y93.208 E11.93235
G1 X114.098 Y93.217 E11.93319
G1 X114.413 Y93.439 E11.95047
G1 X114.974 Y93.931 E11.98388
G1 X118.889 Y97.209 E12.21246
G1 X120.324 Y98.435 E12.29696
G1 X121.486 Y99.384 E12.3641
G1 X130.61 Y107.023 E12.89687
G1 X131.132 Y107.478 E12.92784
G1 X136.739 Y112.138 E13.25426
G1 X136.754 Y112.152 E13.25518
G1 X136.994 Y112.423 E13.27138
G1 X137.005 Y112.437 E13.27221
G1 X137.144 Y112.646 E13.28343
G1 X137.155 Y112.666 E13.28443
G1 X137.251 Y112.879 E13.29488
G1 X137.259 Y112.905 E13.29613
G1 X137.358 Y113.367 E13.31725
G1 X137.387 Y113.706 E13.33249
G1 X137.379 Y114.129 E13.35143
G1 X137.328 Y114.559 E13.37082
G1 X137.317 Y114.597 E13.37259
G1 X137.172 Y114.927 E13.38872
G1 X137.155 Y114.955 E13.39022
G1 X136.893 Y115.291 E13.40927
G1 X135.564 Y116.835 E13.50049
G1 X133.988 Y118.723 E13.61058
G1 X133.422 Y119.348 E13.64834
G1 X132.747 Y120.145 E13.69508
G1 X132.051 Y121.032 E13.74558
G1 X128.471 Y125.305 E13.99514
G1 X127.412 Y126.483 E14.06603
G1 X126.711 Y127.404 E14.11787
G1 X120.321 Y135.034 E14.56346
G1 X118.88 Y136.824 E14.66629
G1 X118.6 Y137.106 E14.68408
G1 X118.582 Y137.122 E14.68516
G1 X118.233 Y137.365 E14.7042
G1 X118.213 Y137.377 E14.70524
G1 X117.911 Y137.519 E14.7202
G1 X117.886 Y137.527 E14.72137
G1 X117.468 Y137.631 E14.74066
G1 X117.44 Y137.635 E14.74193
G1 X117.267 Y137.64 E14.74968
G1 X117.246 Y137.639 E14.7506
G1 X117.042 Y137.615 E14.7598
G1 X117.013 Y137.608 E14.76114
G1 X116.701 Y137.496 E14.77597
G1 X116.684 Y137.489 E14.77678
G1 X116.244 Y137.261 E14.79898
G1 X116.227 Y137.251 E14.79986
G1 X115.822 Y136.959 E14.82221
G1 X110.433 Y132.397 E15.1383
G1 X109.594 Y131.711 E15.18682
G1 X99.345 Y123.093 E15.78633
G1 X93.764 Y118.434 E16.11178
G1 X93.575 Y118.265 E16.12316
G1 X93.306 Y117.957 E16.14147
G1 X93.192 Y117.791 E16.15046
G1 X93.176 Y117.759 E16.15208
G1 X93.1 Y117.536 E16.1626
G1 X93.092 Y117.49 E16.16472
G1 X93.096 Y117.337 E16.17155
G1 X93.102 Y117.3 E16.17323
G1 X93.145 Y117.161 E16.17974
G1 X93.153 Y117.14 E16.18077
G1 X93.278 Y116.895 E16.19309
G1 X93.41 Y116.702 E16.20355
G1 X93.629 Y116.442 E16.21877
G1 X93.991 Y115.932 E16.24676
G1 X110.759 Y96.012 E17.41246
G1 X112.221 Y94.226 E17.51576
; printing object cube_1_thick.stl id:0 copy 0
M486 S0
G1 X113.499 Y93.631 F9000
;TYPE:External perimeter
G1 F1200
G1 X113.627 Y93.611 E17.52159
G1 X113.802 Y93.69 E17.53017
G1 X114.074 Y93.882 E17.54509
G1 X114.612 Y94.354 E17.57712
G1 X118.53 Y97.635 E17.8059
G1 X119.967 Y98.863 E17.89053
G1 X121.13 Y99.812 E17.95776
G1 X130.25 Y107.447 E18.49022
G1 X130.771 Y107.902 E18.52118
G1 X136.359 Y112.545 E18.84645
G1 X136.558 Y112.77 E18.85991
G1 X136.662 Y112.925 E18.86825
G1 X136.725 Y113.066 E18.87516
G1 X136.806 Y113.441 E18.89234
G1 X136.83 Y113.718 E18.90477
G1 X136.823 Y114.097 E18.92176
G1 X136.783 Y114.43 E18.93676
G1 X136.684 Y114.654 E18.94774
G1 X136.465 Y114.935 E18.9637
G1 X135.14 Y116.475 E19.05464
G1 X133.566 Y118.359 E19.16454
G1 X133.003 Y118.981 E19.20209
G1 X132.315 Y119.793 E19.24972
G1 X131.62 Y120.68 E19.30019
G1 X128.048 Y124.942 E19.54911
G1 X126.983 Y126.128 E19.62049
G1 X126.278 Y127.054 E19.67262
G1 X119.89 Y134.681 E20.118
G1 X118.46 Y136.457 E20.22009
G1 X118.232 Y136.687 E20.23458
G1 X117.944 Y136.888 E20.2503
G1 X117.712 Y136.997 E20.26178
G1 X117.389 Y137.077 E20.27668
G1 X117.146 Y137.064 E20.28755
G1 X116.915 Y136.982 E20.29854
G1 X116.528 Y136.781 E20.31809
G1 X116.169 Y136.523 E20.33785
G1 X110.789 Y131.969 E20.65341
G1 X109.95 Y131.283 E20.70193
G1 X99.703 Y122.666 E21.30134
G1 X94.126 Y118.011 E21.62656
G1 X93.976 Y117.878 E21.63555
G1 X93.751 Y117.622 E21.6508
G1 X93.684 Y117.524 E21.6561
G1 X93.651 Y117.426 E21.66072
G1 X93.758 Y117.181 E21.67272
G1 X94.073 Y116.779 E21.69558
G1 X94.428 Y116.277 E21.72311
G1 X111.187 Y96.367 E22.88819
G1 X113.206 Y93.902 E23.03085
G1 X113.401 Y93.703 E23.0433
G1 X113.45 Y93.667 E23.04605
;WIPE_START
G1 X113.797 Y93.898 F9000
;WIPE_END
G92 E0
G1 E-5.95 F3000
;WIPE_START
G1 F7200
G1 X113.951 Y94.039 E-6.03251
G1 X114.481 Y94.506 E-6.31232
G1 X118.401 Y97.787 E-8.33575
G1 X118.471 Y97.848 E-8.3725
;WIPE_END
G1 E-8.5 F3000
; acceleration to travel
M204 S1500
G1 X110.709 Y110.114 F9000
; decel to extrusion
M204 S500
G1 X109.76 Y111.612
; end travel
G1 E0 F3000
G1 F1200
G1 X109.695 Y111.649 E0.00337
G1 X109.611 Y111.659 E0.00713
G1 X109.279 Y111.956 E0.02708
G1 X108.937 Y112.397 E0.05206
G1 X106.374 Y115.456 E0.23073
G1 X106.09 Y115.771 E0.24973
G1 X105.909 Y116.042 E0.26431
G1 X105.857 Y116.354 E0.27847
G1 X105.935 Y116.616 E0.29071
G1 X106.053 Y116.787 E0.3
G1 X106.195 Y116.915 E0.30856
G1 X106.532 Y117.147 E0.32687
G1 X106.769 Y117.337 E0.34047
G1 X109.134 Y119.321 E0.47865
G1 X109.883 Y120.038 E0.52509
G1 X110.154 Y120.233 E0.54006
G1 X110.561 Y120.311 E0.55861
G1 X110.865 Y120.207 E0.57297
G1 X111.095 Y120.016 E0.58635
G1 X111.62 Y119.328 E0.62511
G1 X113.958 Y116.547 E0.78774
G1 X114.298 Y116.183 E0.81006
G1 X114.399 Y116.046 E0.81767
G1 X114.528 Y115.769 E0.83132
G1 X114.51 Y115.429 E0.84657
G1 X114.334 Y115.149 E0.86139
G1 X114.203 Y115.025 E0.86946
G1 X113.721 Y114.675 E0.89613
G1 X111.018 Y112.405 E1.05418
G1 X110.388 Y111.793 E1.09348
G1 X110.217 Y111.682 E1.10259
G1 X110.048 Y111.641 E1.11038
G1 X109.82 Y111.618 E1.12065
;WIPE_START
G1 X109.465 Y111.342 F9000
;WIPE_END
G92 E0
G1 E-5.95 F3000
;WIPE_START
G1 F7200
G1 X109.132 Y111.819 E-6.18019
G1 X108.782 Y112.272 E-6.40677
G1 X106.223 Y115.325 E-7.98356
G1 X105.932 Y115.648 E-8.15591
G1 X105.719 Y115.967 E-8.30749
G1 X105.692 Y116.129 E-8.3725
;WIPE_END
G1 E-8.5 F3000
G1 X104.759 Y117.458 F9000
G1 E0 F3000
G1 F1200
G1 X104.509 Y117.662 E0.01444
G1 X101.693 Y121.046 E0.21153
G1 X101.209 Y121.521 E0.24188
G1 X101.097 Y121.68 E0.25059
G1 X101.017 Y121.891 E0.26069
G1 X101.005 Y122.16 E0.27275
G1 X101.083 Y122.405 E0.28424
G1 X101.298 Y122.671 E0.29956
G1 X101.892 Y123.108 E0.33258
G1 X104.448 Y125.249 E0.48187
G1 X105.145 Y125.904 E0.52468
G1 X105.446 Y126.052 E0.53967
G1 X105.705 Y126.069 E0.55128
G1 X105.921 Y126.019 E0.56121
G1 X106.214 Y125.787 E0.57798
G1 X106.554 Y125.353 E0.60264
G1 X108.974 Y122.476 E0.77098
G1 X109.445 Y121.986 E0.80136
G1 X109.553 Y121.838 E0.80958
G1 X109.672 Y121.539 E0.82399
G1 X109.627 Y121.222 E0.83831
G1 X109.526 Y121.047 E0.84739
G1 X109.325 Y120.838 E0.86034
G1 X108.922 Y120.527 E0.88316
G1 X106.035 Y118.1 E1.05201
G1 X105.535 Y117.618 E1.0831
G1 X105.358 Y117.494 E1.09278
G1 X105.162 Y117.44 E1.10186
G1 X104.819 Y117.455 E1.11727
;WIPE_START
G1 X104.423 Y117.24 F9000
;WIPE_END
G1 X103.883 Y116.709
G1 F1200
G1 X103.871 Y116.364 E1.13271
G1 X103.682 Y116.062 E1.14866
G1 X103.54 Y115.937 E1.15716
G1 X102.779 Y115.366 E1.19976
G1 X100.225 Y113.22 E1.34908
G1 X99.747 Y112.745 E1.37926
G1 X99.57 Y112.621 E1.38894
G1 X99.398 Y112.565 E1.39701
G1 X99.1 Y112.539 E1.4104
G1 X98.962 Y112.609 E1.41734
G1 X98.741 Y112.731 E1.42865
G1 X98.613 Y112.86 E1.43678
G1 X98.205 Y113.425 E1.46799
G1 X95.793 Y116.306 E1.63622
G1 X95.418 Y116.695 E1.66038
G1 X95.241 Y117.009 E1.67655
G1 X95.225 Y117.275 E1.68847
G1 X95.291 Y117.522 E1.69991
G1 X95.508 Y117.799 E1.71568
G1 X95.96 Y118.134 E1.74087
G1 X98.29 Y120.089 E1.87702
G1 X99.213 Y120.997 E1.935
G1 X99.502 Y121.189 E1.9505
G1 X99.913 Y121.266 E1.96923
G1 X100.3 Y121.107 E1.98797
G1 X100.452 Y120.953 E1.99766
G1 X100.828 Y120.42 E2.02684
G1 X103.318 Y117.458 E2.20007
G1 X103.737 Y117.005 E2.22772
G1 X103.857 Y116.763 E2.23981
;WIPE_START
G1 X104.253 Y116.555 F9000
;WIPE_END
G1 X104.785 Y115.469
G1 F1200
G1 X105.172 Y115.278 E2.25917
G1 X105.328 Y115.11 E2.26939
G1 X105.556 Y114.795 E2.28681
G1 X108.236 Y111.613 E2.47308
G1 X108.504 Y111.33 E2.49052
G1 X108.608 Y111.198 E2.49803
G1 X108.747 Y110.905 E2.51255
G1 X108.73 Y110.561 E2.52798
G1 X108.536 Y110.253 E2.54428
G1 X107.967 Y109.84 E2.57579
G1 X104.998 Y107.343 E2.74944
G1 X104.61 Y106.961 E2.77382
G1 X104.454 Y106.841 E2.78265
G1 X104.285 Y106.776 E2.79073
G1 X103.973 Y106.734 E2.80482
G1 X103.684 Y106.884 E2.8194
G1 X103.473 Y107.076 E2.8322
G1 X103.154 Y107.513 E2.8564
G1 X100.729 Y110.412 E3.02562
G1 X100.268 Y110.887 E3.05524
G1 X100.092 Y111.18 E3.07055
G1 X100.047 Y111.527 E3.0862
G1 X100.14 Y111.765 E3.09767
G1 X100.254 Y111.929 E3.10661
G1 X100.39 Y112.05 E3.11475
G1 X100.823 Y112.354 E3.13842
G1 X103.683 Y114.751 E3.30551
G1 X103.897 Y114.938 E3.31821
G1 X104.199 Y115.249 E3.33762
G1 X104.451 Y115.396 E3.35069
G1 X104.726 Y115.456 E3.36329
;WIPE_START
G1 X105.059 Y115.76 F9000
;WIPE_END
G92 E0
G1 E-5.95 F3000
;WIPE_START
G1 F7200
G1 X105.294 Y115.441 E-6.10669
G1 X105.482 Y115.237 E-6.21642
G1 X105.714 Y114.919 E-6.37236
G1 X108.385 Y111.746 E-8.01413
G1 X108.655 Y111.461 E-8.16962
