; generated by SuperSlicer 2.4 on 2022-12-13 at 11:13:40 UTC

; 

; external perimeters extrusion width = 0.43mm
; perimeters extrusion width = 0.48mm
; infill extrusion width = 0.46mm
; solid infill extrusion width = 0.48mm
; top infill extrusion width = 0.46mm
; first layer extrusion width = 0.58mm

; object:{"name":"cube_1_thick","id":"cube_1_thick.stl id:0 copy 0","object_center":[115.500000,115.500000,0.000000],"boundingbox_center":[115.500000,115.500000,17.616283],"boundingbox_size":[35.236973,35.274981,35.232567]}
; Total objects to print: 1
M486 T1
; plater:{"center":[115.500000,115.500000,0.000000],"boundingbox_center":[115.500000,115.500000,17.616283],"boundingbox_size":[35.236973,35.274981,35.232567]}

;TYPE:Custom
G90 ; use absolute coordinates
M83 ; extruder relative mode
M140 S60 ; set final bed temp
M104 S150 ; set temporary nozzle temp to prevent oozing during homing and auto bed leveling
G4 S10 ; allow partial nozzle warmup
G28 ; home all axis
;G29 ; auto bed levelling
G1 Z10 F240
G1 X2 Y10 F3000
G1 Z0 F240
M104 S210 ; set final nozzle temp
M190 S60 ; wait for bed temp to stabilize
M109 S210 ; wait for nozzle temp to stabilize
G1 Z0.28 F240
G92 E0
G1 Y140 E10 F1500 ; prime the nozzle
G1 X2.3 F5000
G92 E0
G1 Y10 E10 F1200 ; prime the nozzle
G92 E0
;start
M107
G21 ; set units to millimeters
G90 ; use absolute coordinates
M82 ; use absolute distances for extrusion
G92 E0
; Filament gcode
;_TOOLCHANGE 0
M107
;LAYER_CHANGE
;Z:0.2
;HEIGHT:0.2
;BEFORE_LAYER_CHANGE
;0.2


G1 E-8.5 F3000
G1 Z0.15 F9000
;AFTER_LAYER_CHANGE
;0.2
G92 E0
M204 S500
G1 X94.671 Y94.837
G1 E8.5 F3000
;TYPE:Skirt
;WIDTH:0.48
G1 F1200
G1 X94.147 Y95.466 E8.53003
G1 X93.556 Y96.502 E8.57383
G1 X93.316 Y97.129 E8.59846
G1 X93.121 Y97.929 E8.6287
G1 X92.976 Y99.119 E8.67268
G1 X92.961 Y130.962 E9.84156
G1 X93.062 Y132.071 E9.88243
G1 X93.235 Y132.887 E9.91305
G1 X93.594 Y133.998 E9.95589
G1 X93.991 Y134.78 E9.98808
G1 X94.461 Y135.456 E10.01831
G1 X94.993 Y136.049 E10.04755
G1 X95.606 Y136.581 E10.07735
G1 X96.899 Y137.374 E10.13301
G1 X97.83 Y137.754 E10.16994
G1 X98.704 Y137.981 E10.20309
G1 X100.054 Y138.117 E10.25288
G1 X131.148 Y138.053 E11.39426
G1 X132.793 Y137.758 E11.45561
G1 X133.34 Y137.566 E11.47686
G1 X134.16 Y137.137 E11.51084
G1 X135.179 Y136.357 E11.55793
G1 X136.36 Y135.18 E11.61915
G1 X137.171 Y134.071 E11.66957
G1 X137.668 Y132.965 E11.71407
G1 X137.904 Y132.043 E11.74903
G1 X138.031 Y130.927 E11.79027
G1 X137.971 Y98.502 E12.98048
G1 X137.777 Y97.343 E13.02359
G1 X137.474 Y96.471 E13.05749
G1 X136.755 Y95.255 E13.10935
G1 X135.8 Y94.285 E13.15931
G1 X135.186 Y93.853 E13.18687
G1 X134.286 Y93.411 E13.22369
G1 X133.319 Y93.141 E13.26051
G1 X131.915 Y92.998 E13.31232
G1 X100.063 Y92.997 E14.48151
G1 X98.809 Y93.053 E14.52758
G1 X97.711 Y93.195 E14.56822
G1 X96.905 Y93.419 E14.59893
G1 X96.122 Y93.752 E14.63018
G1 X95.19 Y94.355 E14.67091
G1 X94.715 Y94.797 E14.69471
G92 E0
G1 E-5.95 F3000
;WIPE_START
G1 F7200
G1 X94.147 Y95.466 E-6.29741
G1 X93.556 Y96.502 E-6.76969
G1 X93.316 Y97.129 E-7.03532
G1 X93.121 Y97.929 E-7.3614
G1 X92.976 Y99.119 E-7.83566
G1 X92.976 Y100.475 E-8.3725
;WIPE_END
G1 E-8.5 F3000
; acceleration to travel
M204 S1500
G1 X96.939 Y97.889 F9000
; decel to extrusion
M204 S500
G1 X97.423 Y97.573
; end travel
G1 E0 F3000
;WIDTH:0.576
G1 F1200
G1 X97.618 Y97.389 E0.01201
G1 X97.856 Y97.229 E0.02485
G1 X98.354 Y97.028 E0.04888
G1 X98.966 Y96.931 E0.07664
G1 X99.417 Y96.927 E0.0968
G1 X100.111 Y96.873 E0.12797
G1 X100.944 Y96.875 E0.16527
G1 X128.391 Y96.917 E1.39403
G1 X131.889 Y96.874 E1.55068
G1 X132.291 Y96.898 E1.56867
G1 X132.596 Y96.95 E1.58252
G1 X132.894 Y97.036 E1.59643
G1 X133.162 Y97.168 E1.60981
G1 X133.425 Y97.352 E1.62419
G1 X133.623 Y97.547 E1.63664
G1 X133.898 Y97.989 E1.6599
G1 X133.985 Y98.195 E1.66992
G1 X134.097 Y98.732 E1.69447
G1 X134.129 Y99.219 E1.71632
G1 X134.106 Y100.05 E1.75354
G1 X134.117 Y105.559 E2.00019
G1 X134.098 Y107.635 E2.09313
G1 X134.12 Y109.221 E2.16416
G1 X134.115 Y116.596 E2.49432
G1 X134.134 Y122.152 E2.74306
G1 X134.121 Y122.901 E2.77659
G1 X134.156 Y130.824 E3.1313
G1 X134.057 Y131.507 E3.1622
G1 X133.941 Y131.865 E3.17903
G1 X133.767 Y132.21 E3.19632
G1 X133.375 Y132.704 E3.2246
G1 X132.537 Y133.519 E3.2769
G1 X132.032 Y133.89 E3.30496
G1 X131.64 Y134.057 E3.32403
G1 X131.073 Y134.17 E3.34993
G1 X130.6 Y134.187 E3.37112
G1 X128.38 Y134.158 E3.47052
G1 X125.699 Y134.164 E3.59054
G1 X124.773 Y134.129 E3.63202
G1 X123.687 Y134.124 E3.68064
G1 X122.419 Y134.168 E3.73743
G1 X116.399 Y134.175 E4.00697
G1 X114.733 Y134.112 E4.08159
G1 X113.426 Y134.178 E4.14016
G1 X108.761 Y134.185 E4.34904
G1 X107.314 Y134.165 E4.41382
G1 X106.53 Y134.185 E4.44894
G1 X102.572 Y134.189 E4.62611
G1 X101.479 Y134.208 E4.67505
G1 X101.003 Y134.237 E4.69639
G1 X100.11 Y134.242 E4.7364
G1 X99.476 Y134.183 E4.76488
G1 X99.12 Y134.097 E4.78127
G1 X98.758 Y133.966 E4.79853
G1 X98.098 Y133.603 E4.83224
G1 X97.561 Y133.122 E4.86452
G1 X97.302 Y132.753 E4.88468
G1 X97.216 Y132.597 E4.8927
G1 X97.029 Y132.076 E4.91746
G1 X96.872 Y131.357 E4.9504
G1 X96.831 Y130.744 E4.9779
G1 X96.869 Y123.092 E5.3205
G1 X96.848 Y121.918 E5.37307
G1 X96.866 Y107.35 E6.02525
G1 X96.859 Y99.129 E6.39327
G1 X96.951 Y98.541 E6.41993
G1 X97.063 Y98.164 E6.43756
G1 X97.215 Y97.862 E6.45268
G1 X97.388 Y97.622 E6.46593
G1 X97.812 Y97.945 F9000
G1 F1200
G1 X97.97 Y97.796 E6.47566
G1 X98.126 Y97.695 E6.48399
G1 X98.522 Y97.539 E6.50304
G1 X99.025 Y97.466 E6.5258
G1 X99.439 Y97.464 E6.54434
G1 X100.121 Y97.41 E6.57494
G1 X100.943 Y97.412 E6.61176
G1 X128.394 Y97.455 E7.8407
G1 X131.887 Y97.411 E7.9971
G1 X132.215 Y97.43 E8.01182
G1 X132.489 Y97.477 E8.02428
G1 X132.72 Y97.545 E8.03503
G1 X132.87 Y97.619 E8.04255
G1 X133.096 Y97.778 E8.05491
G1 X133.218 Y97.902 E8.06269
G1 X133.427 Y98.248 E8.08078
G1 X133.478 Y98.374 E8.08685
G1 X133.567 Y98.819 E8.10718
G1 X133.591 Y99.216 E8.12499
G1 X133.569 Y100.043 E8.16202
G1 X133.579 Y105.559 E8.40896
G1 X133.56 Y107.636 E8.50198
G1 X133.583 Y109.223 E8.57302
G1 X133.578 Y116.597 E8.90314
G1 X133.597 Y122.151 E9.1518
G1 X133.584 Y122.897 E9.18521
G1 X133.618 Y130.807 E9.53931
G1 X133.538 Y131.367 E9.56465
G1 X133.452 Y131.642 E9.57757
G1 X133.3 Y131.942 E9.59261
G1 X132.988 Y132.331 E9.61492
G1 X132.176 Y133.12 E9.66562
G1 X131.743 Y133.435 E9.68962
G1 X131.463 Y133.549 E9.70313
G1 X130.993 Y133.638 E9.72454
G1 X130.59 Y133.65 E9.74261
G1 X128.382 Y133.621 E9.84144
G1 X125.703 Y133.627 E9.96139
G1 X124.784 Y133.592 E10.00255
G1 X123.679 Y133.586 E10.05205
G1 X122.414 Y133.631 E10.1087
G1 X116.403 Y133.637 E10.3778
G1 X114.729 Y133.574 E10.4528
G1 X113.419 Y133.641 E10.51154
G1 X108.762 Y133.647 E10.72002
G1 X107.311 Y133.627 E10.78501
G1 X106.526 Y133.648 E10.82016
G1 X102.567 Y133.652 E10.99738
G1 X101.458 Y133.671 E11.04705
G1 X100.993 Y133.7 E11.0679
G1 X100.12 Y133.705 E11.10699
G1 X99.583 Y133.656 E11.13112
G1 X99.261 Y133.578 E11.14594
G1 X98.961 Y133.468 E11.16025
G1 X98.43 Y133.179 E11.18732
G1 X97.982 Y132.787 E11.21397
G1 X97.751 Y132.458 E11.23198
G1 X97.699 Y132.361 E11.23692
G1 X97.542 Y131.914 E11.25812
G1 X97.402 Y131.263 E11.2879
G1 X97.368 Y130.738 E11.31149
G1 X97.406 Y123.088 E11.65395
G1 X97.386 Y121.916 E11.70645
G1 X97.403 Y107.35 E12.35854
G1 X97.393 Y99.19 E12.72385
G1 X97.471 Y98.677 E12.7471
G1 X97.571 Y98.342 E12.76274
G1 X97.683 Y98.127 E12.7736
G1 X97.777 Y97.994 E12.78088
G1 X98.192 Y98.329 F9000
G1 F1200
G1 X98.214 Y98.303 E12.78241
G1 X98.318 Y98.206 E12.7888
G1 X98.357 Y98.18 E12.79089
G1 X98.615 Y98.071 E12.80343
G1 X98.649 Y98.061 E12.805
G1 X99.072 Y98.001 E12.82411
G1 X99.091 Y98 E12.82498
G1 X99.46 Y98.001 E12.84149
G1 X100.136 Y97.947 E12.87185
G1 X100.942 Y97.949 E12.90795
G1 X128.396 Y97.992 E14.13706
G1 X131.881 Y97.949 E14.29309
G1 X132.134 Y97.961 E14.30439
G1 X132.374 Y98.002 E14.31529
G1 X132.391 Y98.006 E14.31609
G1 X132.541 Y98.052 E14.3231
G1 X132.578 Y98.071 E14.32498
G1 X132.763 Y98.201 E14.3351
G1 X132.803 Y98.244 E14.3377
G1 X132.951 Y98.498 E14.35089
G1 X132.966 Y98.541 E14.35292
G1 X133.034 Y98.894 E14.36903
G1 X133.037 Y98.912 E14.36983
G1 X133.054 Y99.218 E14.38357
G1 X133.031 Y100.036 E14.42018
G1 X133.042 Y105.558 E14.66741
G1 X133.023 Y107.638 E14.76051
G1 X133.046 Y109.227 E14.83166
G1 X133.041 Y116.598 E15.16165
G1 X133.06 Y122.152 E15.4103
G1 X133.046 Y122.894 E15.44352
G1 X133.081 Y130.799 E15.79745
G1 X133.08 Y130.819 E15.79833
G1 X133.024 Y131.206 E15.81586
G1 X133.02 Y131.225 E15.81672
G1 X132.965 Y131.412 E15.82542
G1 X132.956 Y131.434 E15.8265
G1 X132.842 Y131.661 E15.83789
G1 X132.826 Y131.687 E15.83924
G1 X132.598 Y131.961 E15.8552
G1 X131.823 Y132.715 E15.90361
G1 X131.808 Y132.728 E15.90449
G1 X131.476 Y132.968 E15.92284
G1 X131.442 Y132.986 E15.92457
G1 X131.295 Y133.038 E15.93154
G1 X131.274 Y133.044 E15.93252
G1 X130.931 Y133.104 E15.94812
G1 X130.91 Y133.106 E15.94906
G1 X130.582 Y133.112 E15.96374
G1 X128.385 Y133.084 E16.06209
G1 X125.71 Y133.09 E16.18186
G1 X124.796 Y133.054 E16.22281
G1 X123.671 Y133.049 E16.27319
G1 X122.411 Y133.093 E16.32961
G1 X116.405 Y133.1 E16.5985
G1 X114.726 Y133.036 E16.67374
G1 X113.415 Y133.104 E16.73251
G1 X108.763 Y133.11 E16.94075
G1 X107.307 Y133.09 E17.00594
G1 X106.523 Y133.11 E17.04105
G1 X102.562 Y133.114 E17.21839
G1 X101.436 Y133.134 E17.26881
G1 X100.979 Y133.163 E17.28933
G1 X100.123 Y133.167 E17.32762
G1 X99.715 Y133.133 E17.34598
G1 X99.695 Y133.13 E17.34685
G1 X99.422 Y133.065 E17.35941
G1 X99.174 Y132.975 E17.37126
G1 X99.155 Y132.966 E17.37217
G1 X98.725 Y132.73 E17.39413
G1 X98.702 Y132.714 E17.39541
G1 X98.416 Y132.465 E17.41238
G1 X98.393 Y132.44 E17.41387
G1 X98.203 Y132.166 E17.42883
G1 X98.186 Y132.133 E17.43047
G1 X98.057 Y131.761 E17.4481
G1 X97.933 Y131.182 E17.47463
G1 X97.93 Y131.162 E17.47554
G1 X97.906 Y130.728 E17.495
G1 X97.944 Y123.085 E17.83717
G1 X97.923 Y121.911 E17.88972
G1 X97.941 Y107.35 E18.54161
G1 X97.926 Y99.261 E18.90373
G1 X97.928 Y99.241 E18.90466
G1 X98.002 Y98.765 E18.92619
G1 X98.046 Y98.599 E18.93388
G1 X98.056 Y98.573 E18.93514
G1 X98.133 Y98.422 E18.94275
G1 X98.159 Y98.38 E18.94497
; printing object cube_1_thick.stl id:0 copy 0
M486 S0
G1 X98.658 Y98.658 F9000
;TYPE:External perimeter
G1 F1200
G1 X98.782 Y98.605 E18.95102
G1 X99.12 Y98.557 E18.96629
G1 X99.481 Y98.558 E18.98248
G1 X100.152 Y98.504 E19.01261
G1 X100.941 Y98.506 E19.04792
G1 X128.4 Y98.549 E20.27722
G1 X131.876 Y98.506 E20.43287
G1 X132.253 Y98.546 E20.44986
G1 X132.368 Y98.603 E20.45557
G1 X132.433 Y98.716 E20.46143
G1 X132.482 Y98.972 E20.4731
G1 X132.497 Y99.221 E20.48426
G1 X132.475 Y100.029 E20.52043
G1 X132.485 Y105.557 E20.76793
G1 X132.466 Y107.639 E20.86115
G1 X132.489 Y109.23 E20.93236
G1 X132.484 Y116.599 E21.26226
G1 X132.503 Y122.149 E21.51075
G1 X132.489 Y122.89 E21.54392
G1 X132.524 Y130.77 E21.89673
G1 X132.477 Y131.097 E21.91152
G1 X132.442 Y131.218 E21.91717
G1 X132.366 Y131.369 E21.92472
G1 X132.193 Y131.578 E21.93686
G1 X131.457 Y132.295 E21.98287
G1 X131.199 Y132.482 E21.9971
G1 X131.143 Y132.501 E21.99978
G1 X130.866 Y132.55 E22.01235
G1 X130.578 Y132.556 E22.02525
G1 X128.388 Y132.527 E22.1233
G1 X125.717 Y132.533 E22.24288
G1 X124.808 Y132.498 E22.28361
G1 X123.662 Y132.492 E22.33492
G1 X122.403 Y132.537 E22.39131
G1 X116.413 Y132.543 E22.6595
G1 X114.722 Y132.479 E22.73526
G1 X113.403 Y132.547 E22.79436
G1 X108.766 Y132.553 E23.00199
G1 X107.304 Y132.533 E23.06744
G1 X106.518 Y132.553 E23.10266
G1 X102.557 Y132.558 E23.27997
G1 X101.414 Y132.578 E23.33116
G1 X100.964 Y132.606 E23.35135
G1 X100.14 Y132.61 E23.38824
G1 X99.792 Y132.581 E23.40386
G1 X99.589 Y132.534 E23.41317
G1 X99.395 Y132.463 E23.42244
G1 X99.033 Y132.264 E23.44093
G1 X98.821 Y132.08 E23.45352
G1 X98.693 Y131.896 E23.46352
G1 X98.592 Y131.604 E23.47737
G1 X98.484 Y131.098 E23.50054
G1 X98.462 Y130.717 E23.51759
G1 X98.5 Y123.081 E23.85945
G1 X98.48 Y121.908 E23.91199
G1 X98.497 Y107.35 E24.56374
G1 X98.483 Y99.293 E24.92444
G1 X98.572 Y98.786 E24.94747
G1 X98.624 Y98.708 E24.95169
;WIPE_START
G1 X99.018 Y98.832 F9000
;WIPE_END
G92 E0
G1 E-5.95 F3000
;WIPE_START
G1 F7200
G1 X99.489 Y98.758 E-6.13884
G1 X100.16 Y98.704 E-6.40526
G1 X100.94 Y98.706 E-6.71425
G1 X105.13 Y98.713 E-8.3725
;WIPE_END
G1 E-8.5 F3000
; acceleration to travel
M204 S1500
G1 X122.209 Y99.841 F9000
; decel to extrusion
M204 S500
G1 X124.295 Y99.979
; end travel
G1 E0 F3000
G1 F1200
G1 X124.219 Y100.202 E0.01056
G1 X124.197 Y100.403 E0.01962
G1 X124.277 Y101.107 E0.05135
G1 X124.281 Y104.769 E0.21527
G1 X124.256 Y105.283 E0.23833
G1 X124.186 Y106.04 E0.27237
G1 X124.25 Y106.325 E0.28544
G1 X124.348 Y106.509 E0.29477
G1 X124.571 Y106.701 E0.30793
G1 X124.763 Y106.781 E0.31725
G1 X125.089 Y106.805 E0.33188
G1 X125.689 Y106.751 E0.35886
G1 X130.095 Y106.758 E0.5561
G1 X130.652 Y106.793 E0.58112
G1 X131.007 Y106.736 E0.59718
G1 X131.196 Y106.6 E0.60759
G1 X131.371 Y106.372 E0.62046
G1 X131.441 Y106.018 E0.63664
G1 X131.378 Y105.02 E0.68139
G1 X131.381 Y100.972 E0.86263
G1 X131.419 Y100.393 E0.88863
G1 X131.348 Y100.107 E0.90179
G1 X131.177 Y99.836 E0.91612
G1 X130.98 Y99.723 E0.92629
G1 X130.637 Y99.629 E0.94222
G1 X129.853 Y99.657 E0.97733
G1 X126.237 Y99.656 E1.13922
G1 X125.191 Y99.581 E1.1862
G1 X124.978 Y99.587 E1.19572
G1 X124.668 Y99.651 E1.2099
G1 X124.451 Y99.798 E1.22163
G1 X124.335 Y99.933 E1.22962
;WIPE_START
G1 X123.896 Y100.005 F9000
;WIPE_END
G1 X123.171 Y100.054
G1 F1200
G1 X123 Y99.811 E1.24294
G1 X122.734 Y99.64 E1.25708
G1 X122.424 Y99.588 E1.27115
G1 X121.954 Y99.604 E1.2922
G1 X120.815 Y99.672 E1.34331
G1 X117.707 Y99.67 E1.48241
G1 X116.936 Y99.606 E1.51709
G1 X116.607 Y99.647 E1.5319
G1 X116.387 Y99.753 E1.54282
G1 X116.191 Y99.93 E1.55466
G1 X116.064 Y100.158 E1.56636
G1 X116.021 Y100.507 E1.58212
G1 X116.085 Y101.284 E1.61698
G1 X116.089 Y105.303 E1.79692
G1 X116.035 Y105.935 E1.82531
G1 X116.078 Y106.277 E1.84074
G1 X116.272 Y106.575 E1.85666
G1 X116.573 Y106.728 E1.87179
G1 X116.893 Y106.764 E1.88619
G1 X117.357 Y106.738 E1.907
G1 X121.869 Y106.745 E2.109
G1 X122.318 Y106.771 E2.12913
G1 X122.637 Y106.737 E2.14347
G1 X122.859 Y106.645 E2.15425
G1 X123.07 Y106.444 E2.1673
G1 X123.177 Y106.216 E2.17859
G1 X123.207 Y106.007 E2.18801
G1 X123.158 Y105.304 E2.21958
G1 X123.159 Y101.162 E2.40501
G1 X123.227 Y100.594 E2.43062
G1 X123.223 Y100.247 E2.44616
G1 X123.186 Y100.112 E2.4524
;WIPE_START
G1 X123.38 Y99.714 F9000
;WIPE_END
G92 E0
G1 E-5.95 F3000
;WIPE_START
G1 F7200
G1 X122.808 Y99.45 E-6.19962
G1 X122.437 Y99.388 E-6.34821
G1 X121.945 Y99.404 E-6.54324
G1 X120.809 Y99.472 E-6.99382
G1 X117.716 Y99.47 E-8.21809
G1 X117.327 Y99.437 E-8.3725
;WIPE_END
G1 E-8.5 F3000
; acceleration to travel
M204 S1500
G1 X115.022 Y99.768 F9000
; decel to extrusion
M204 S500
G1 X114.74 Y99.809
; end travel
G1 E0 F3000
G1 F1200
G1 X114.436 Y99.669 E0.01497
G1 X114.124 Y99.637 E0.02903
G1 X113.811 Y99.659 E0.04309
G1 X113.544 Y99.677 E0.05507
G1 X109.427 Y99.685 E0.23937
G1 X108.639 Y99.639 E0.27471
G1 X108.384 Y99.677 E0.28625
G1 X108.149 Y99.785 E0.29782
G1 X107.934 Y100.034 E0.31255
G1 X107.838 Y100.352 E0.32741
G1 X107.893 Y101.097 E0.36086
G1 X107.897 Y105.135 E0.54165
G1 X107.888 Y105.454 E0.55593
G1 X107.839 Y105.942 E0.5779
G1 X107.886 Y106.248 E0.59173
G1 X108.059 Y106.563 E0.60781
G1 X108.471 Y106.745 E0.628
G1 X108.708 Y106.754 E0.6386
G1 X109.148 Y106.725 E0.65835
G1 X113.668 Y106.732 E0.86071
G1 X114.097 Y106.757 E0.87995
G1 X114.399 Y106.731 E0.8935
G1 X114.62 Y106.649 E0.90406
G1 X114.847 Y106.44 E0.91789
G1 X114.952 Y106.223 E0.9287
G1 X114.99 Y106.013 E0.93823
G1 X114.936 Y105.288 E0.97081
G1 X114.941 Y101.062 E1.15998
G1 X114.99 Y100.456 E1.18721
G1 X114.945 Y100.105 E1.20305
G1 X114.774 Y99.858 E1.21648
;WIPE_START
G1 X114.774 Y99.41 F9000
;WIPE_END
G92 E0
G1 E-5.95 F3000
;WIPE_START
G1 F7200
G1 X114.49 Y99.474 E-6.06537
G1 X114.127 Y99.436 E-6.20966
G1 X113.797 Y99.459 E-6.34083
G1 X113.537 Y99.477 E-6.44405
G1 X109.433 Y99.485 E-8.06857
G1 X108.666 Y99.441 E-8.3725
;WIPE_END
G1 E-8.5 F3000
G1 X106.508 Y99.799 F9000
G1 E0 F3000
G1 F1200
