; generated by SuperSlicer 2.4 on 2022-12-13 at 11:14:48 UTC

; 

; external perimeters extrusion width = 0.43mm
; perimeters extrusion width = 0.48mm
; infill extrusion width = 0.46mm
; solid infill extrusion width = 0.48mm
; top infill extrusion width = 0.46mm
; first layer extrusion width = 0.58mm

; object:{"name":"diamond_1_thick","id":"diamond_1_thick.stl id:0 copy 0","object_center":[115.535900,115.470919,0.000000],"boundingbox_center":[115.535900,115.470919,14.286625],"boundingbox_size":[37.176429,36.047451,28.573249]}
; Total objects to print: 1
M486 T1
; plater:{"center":[115.535900,115.470919,0.000000],"boundingbox_center":[115.535900,115.470919,14.286625],"boundingbox_size":[37.176429,36.047451,28.573249]}

;TYPE:Custom
G90 ; use absolute coordinates
M83 ; extruder relative mode
M140 S60 ; set final bed temp
M104 S150 ; set temporary nozzle temp to prevent oozing during homing and auto bed leveling
G4 S10 ; allow partial nozzle warmup
G28 ; home all axis
;G29 ; auto bed levelling
G1 Z10 F240
G1 X2 Y10 F3000
G1 Z0 F240
M104 S210 ; set final nozzle temp
M190 S60 ; wait for bed temp to stabilize
M109 S210 ; wait for nozzle temp to stabilize
G1 Z0.28 F240
G92 E0
G1 Y140 E10 F1500 ; prime the nozzle
G1 X2.3 F5000
G92 E0
G1 Y10 E10 F1200 ; prime the nozzle
G92 E0
;start
M107
G21 ; set units to millimeters
G90 ; use absolute coordinates
M82 ; use absolute distances for extrusion
G92 E0
; Filament gcode
;_TOOLCHANGE 0
M107
;LAYER_CHANGE
;Z:0.2
;HEIGHT:0.2
;BEFORE_LAYER_CHANGE
;0.2


G1 E-8.5 F3000
G1 Z0.15 F9000
;AFTER_LAYER_CHANGE
;0.2
G92 E0
M204 S500
G1 X106.178 Y98.242
G1 E8.5 F3000
;TYPE:Skirt
;WIDTH:0.48
G1 F1200
G1 X105.293 Y99.529 E8.55733
G1 X104.909 Y100.342 E8.59034
G1 X94.556 Y127.075 E9.64264
G1 X93.672 Y129.815 E9.74833
G1 X93.531 Y130.518 E9.77466
G1 X93.497 Y131.921 E9.82615
G1 X93.628 Y132.803 E9.8589
G1 X94.221 Y134.24 E9.91596
G1 X94.909 Y135.173 E9.95852
G1 X96.128 Y136.175 E10.01643
G1 X97.013 Y136.591 E10.05231
G1 X98.036 Y136.879 E10.09133
G1 X98.778 Y136.96 E10.11873
G1 X99.619 Y136.941 E10.1496
G1 X100.809 Y136.723 E10.19402
G1 X131.521 Y127.155 E11.37479
G1 X132.963 Y126.225 E11.43779
G1 X133.697 Y124.812 E11.49623
G1 X134.275 Y122.324 E11.59001
G1 X134.413 Y120.41 E11.66041
G1 X133.873 Y118.484 E11.73383
G1 X132.819 Y116.908 E11.80342
G1 X130.448 Y114.319 E11.9323
G1 X115.228 Y98.644 E12.73427
G1 X114.251 Y97.787 E12.78199
G1 X113.427 Y97.269 E12.81769
G1 X112.319 Y96.819 E12.86161
G1 X111.457 Y96.574 E12.89448
G1 X110.195 Y96.475 E12.94096
G1 X109.335 Y96.578 E12.97277
G1 X108.527 Y96.784 E13.00338
G1 X107.577 Y97.162 E13.0409
G1 X106.225 Y98.205 E13.10357
G92 E0
G1 E-5.95 F3000
;WIPE_START
G1 F7200
G1 X105.293 Y99.529 E-6.59084
G1 X104.909 Y100.342 E-6.94689
G1 X103.608 Y103.7 E-8.3725
;WIPE_END
G1 E-8.5 F3000
; acceleration to travel
M204 S1500
G1 X108.431 Y101.219 F9000
; decel to extrusion
M204 S500
G1 X109.021 Y100.916
; end travel
G1 E0 F3000
;WIDTH:0.576
G1 F1200
G1 X109.288 Y100.679 E0.01601
G1 X109.754 Y100.466 E0.03891
G1 X109.925 Y100.416 E0.04692
G1 X110.33 Y100.361 E0.06521
G1 X110.586 Y100.369 E0.07669
G1 X110.888 Y100.44 E0.09057
G1 X111.162 Y100.571 E0.10418
G1 X111.57 Y100.915 E0.12804
G1 X111.662 Y100.938 E0.13227
G1 X111.765 Y101.003 E0.13773
G1 X112.099 Y101.106 E0.15338
G1 X112.299 Y101.222 E0.16373
G1 X112.489 Y101.387 E0.17498
G1 X114.183 Y103.091 E0.28257
G1 X114.984 Y103.952 E0.33521
G1 X116.084 Y105.077 E0.40567
G1 X116.495 Y105.467 E0.43102
G1 X117.475 Y106.527 E0.49563
G1 X118.388 Y107.456 E0.55397
G1 X118.759 Y107.801 E0.57666
G1 X119.798 Y108.932 E0.6454
G1 X120.972 Y110.091 E0.71926
G1 X122.267 Y111.48 E0.80428
G1 X123.156 Y112.348 E0.8599
G1 X123.633 Y112.872 E0.89159
G1 X124.795 Y114.085 E0.96684
G1 X125.474 Y114.75 E1.00938
G1 X127.136 Y116.504 E1.11753
G1 X127.678 Y117.03 E1.15136
G1 X128.562 Y117.974 E1.20925
G1 X129.184 Y118.715 E1.25257
G1 X129.376 Y119.125 E1.27282
G1 X129.606 Y119.248 E1.28453
G1 X129.901 Y119.516 E1.30234
G1 X130.347 Y120.183 E1.33827
G1 X130.442 Y120.396 E1.34871
G1 X130.518 Y120.778 E1.36614
G1 X130.5 Y121.201 E1.3851
G1 X130.419 Y121.54 E1.40071
G1 X130.248 Y121.88 E1.41774
G1 X130.118 Y122.067 E1.42793
G1 X129.854 Y122.343 E1.44502
G1 X129.522 Y122.619 E1.46434
G1 X128.964 Y122.94 E1.4932
G1 X128.343 Y123.188 E1.52312
G1 X127.599 Y123.428 E1.55812
G1 X125.765 Y124.082 E1.64529
G1 X124.964 Y124.342 E1.68301
G1 X124.38 Y124.563 E1.71096
G1 X122.255 Y125.271 E1.81122
G1 X121.33 Y125.608 E1.85532
G1 X119.262 Y126.219 E1.95184
G1 X117.749 Y126.848 E2.0252
G1 X115.993 Y127.451 E2.10832
G1 X115.376 Y127.684 E2.13786
G1 X112.406 Y128.692 E2.27827
G1 X111.108 Y129.063 E2.33868
G1 X110.113 Y129.32 E2.38469
G1 X109.789 Y129.443 E2.40021
G1 X107.944 Y130.254 E2.49043
G1 X101.956 Y132.323 E2.77406
G1 X99.679 Y133.01 E2.88053
G1 X99.041 Y133.088 E2.90933
G1 X98.725 Y133.056 E2.92354
G1 X98.463 Y132.987 E2.93567
G1 X98.151 Y132.844 E2.95101
G1 X97.894 Y132.657 E2.96527
G1 X97.582 Y132.269 E2.98755
G1 X97.418 Y131.898 E3.0057
G1 X97.349 Y131.412 E3.02766
G1 X97.413 Y130.839 E3.0535
G1 X98.191 Y128.419 E3.16728
G1 X100.42 Y122.643 E3.44449
G1 X100.96 Y121.398 E3.50521
G1 X101.135 Y120.865 E3.53032
G1 X101.447 Y120.139 E3.56571
G1 X102.103 Y118.34 E3.65143
G1 X103.363 Y115.04 E3.80956
G1 X103.585 Y114.51 E3.8353
G1 X103.816 Y113.874 E3.8656
G1 X104.473 Y112.201 E3.94608
G1 X104.918 Y111.164 E3.99657
G1 X105.542 Y109.415 E4.07971
G1 X105.796 Y108.802 E4.10943
G1 X108.503 Y101.79 E4.44593
G1 X108.793 Y101.224 E4.47438
G1 X108.985 Y100.964 E4.48886
G1 X109.417 Y101.283 F9000
G1 F1200
G1 X109.434 Y101.26 E4.49015
G1 X109.606 Y101.115 E4.5002
G1 X109.949 Y100.967 E4.51695
G1 X110.05 Y100.939 E4.52164
G1 X110.375 Y100.897 E4.5363
G1 X110.534 Y100.905 E4.54344
G1 X110.727 Y100.954 E4.55234
G1 X110.891 Y101.036 E4.56056
G1 X111.182 Y101.289 E4.57782
G1 X111.262 Y101.417 E4.58457
G1 X111.272 Y101.45 E4.58614
G1 X111.449 Y101.439 E4.59406
G1 X111.583 Y101.523 E4.60117
G1 X111.644 Y101.527 E4.60388
G1 X111.867 Y101.592 E4.61431
G1 X111.969 Y101.648 E4.6195
G1 X112.115 Y101.773 E4.62811
G1 X113.799 Y103.466 E4.73504
G1 X114.595 Y104.323 E4.78737
G1 X115.707 Y105.46 E4.85858
G1 X116.106 Y105.839 E4.88321
G1 X117.086 Y106.898 E4.94779
G1 X118.014 Y107.842 E5.00707
G1 X118.371 Y108.173 E5.02886
G1 X119.411 Y109.305 E5.0977
G1 X120.59 Y110.47 E5.1719
G1 X121.882 Y111.856 E5.25674
G1 X122.775 Y112.727 E5.31257
G1 X123.24 Y113.238 E5.3435
G1 X124.413 Y114.463 E5.41944
G1 X125.087 Y115.124 E5.46169
G1 X126.754 Y116.881 E5.57013
G1 X127.29 Y117.402 E5.6036
G1 X128.165 Y118.336 E5.66087
G1 X128.749 Y119.033 E5.7016
G1 X128.857 Y119.264 E5.71301
G1 X128.875 Y119.347 E5.71682
G1 X128.887 Y119.523 E5.72472
G1 X129.201 Y119.633 E5.73959
G1 X129.277 Y119.674 E5.74348
G1 X129.474 Y119.844 E5.75515
G1 X129.888 Y120.464 E5.78851
G1 X129.924 Y120.541 E5.79232
G1 X129.98 Y120.79 E5.80374
G1 X129.964 Y121.153 E5.82001
G1 X129.924 Y121.327 E5.828
G1 X129.777 Y121.62 E5.84266
G1 X129.692 Y121.738 E5.84918
G1 X129.499 Y121.939 E5.86166
G1 X129.197 Y122.19 E5.87924
G1 X128.715 Y122.464 E5.90406
G1 X128.17 Y122.679 E5.9303
G1 X127.426 Y122.919 E5.96528
G1 X125.588 Y123.575 E6.05265
G1 X124.785 Y123.835 E6.09043
G1 X124.205 Y124.055 E6.11823
G1 X122.078 Y124.763 E6.21859
G1 X121.153 Y125.101 E6.26265
G1 X119.082 Y125.712 E6.35932
G1 X117.566 Y126.343 E6.43283
G1 X115.811 Y126.945 E6.51593
G1 X115.199 Y127.176 E6.54522
G1 X112.239 Y128.181 E6.68514
G1 X110.964 Y128.546 E6.74451
G1 X109.95 Y128.807 E6.79139
G1 X109.585 Y128.946 E6.80887
G1 X107.758 Y129.75 E6.89822
G1 X101.786 Y131.814 E7.18113
G1 X99.586 Y132.48 E7.284
G1 X99.063 Y132.55 E7.30765
G1 X98.802 Y132.524 E7.31941
G1 X98.63 Y132.476 E7.32739
G1 X98.405 Y132.37 E7.3385
G1 X98.246 Y132.249 E7.34744
G1 X98.029 Y131.969 E7.36334
G1 X97.929 Y131.727 E7.37505
G1 X97.886 Y131.379 E7.39073
G1 X97.933 Y130.978 E7.4088
G1 X98.695 Y128.606 E7.52037
G1 X100.92 Y122.841 E7.79699
G1 X101.463 Y121.589 E7.85808
G1 X101.641 Y121.044 E7.88375
G1 X101.946 Y120.338 E7.91821
G1 X102.606 Y118.53 E8.00435
G1 X103.864 Y115.236 E8.1622
G1 X104.086 Y114.706 E8.18794
G1 X104.318 Y114.067 E8.21837
G1 X104.971 Y112.401 E8.29849
G1 X105.418 Y111.361 E8.34917
G1 X106.046 Y109.602 E8.43277
G1 X106.295 Y109.002 E8.46186
G1 X109 Y101.996 E8.79806
G1 X109.239 Y101.525 E8.8217
G1 X109.382 Y101.331 E8.8325
G1 X109.814 Y101.65 F9000
G1 F1200
G1 X109.845 Y101.609 E8.8348
G1 X109.904 Y101.563 E8.83817
G1 X110.132 Y101.472 E8.84914
G1 X110.166 Y101.464 E8.8507
G1 X110.412 Y101.434 E8.86182
G1 X110.466 Y101.438 E8.86421
G1 X110.551 Y101.462 E8.86817
G1 X110.605 Y101.492 E8.87092
G1 X110.767 Y101.638 E8.8807
G1 X110.81 Y101.786 E8.88759
G1 X110.747 Y102.006 E8.89784
G1 X110.733 Y102.04 E8.89948
G1 X110.428 Y102.539 E8.92568
G1 X110.072 Y103.593 E8.97549
G1 X109.689 Y104.53 E9.02079
G1 X109.56 Y104.926 E9.03944
G1 X109.31 Y105.551 E9.06955
G1 X109.249 Y105.664 E9.07533
G1 X108.805 Y106.871 E9.13292
G1 X108.795 Y106.893 E9.13397
G1 X108.746 Y106.977 E9.13835
G1 X108.435 Y107.794 E9.17748
G1 X108.369 Y108.013 E9.18773
G1 X108.2 Y108.418 E9.20738
G1 X107.88 Y109.33 E9.25064
G1 X107.566 Y110.051 E9.28582
G1 X107.379 Y110.576 E9.31077
G1 X107.183 Y111.027 E9.3328
G1 X107.094 Y111.309 E9.34604
G1 X107.096 Y111.44 E9.35189
G1 X107.175 Y111.643 E9.36167
G1 X107.273 Y111.792 E9.36965
G1 X107.628 Y112.079 E9.39005
G1 X107.859 Y112.297 E9.40429
G1 X118.51 Y123.305 E10.09003
G1 X118.934 Y123.806 E10.11943
G1 X119.078 Y123.922 E10.12768
G1 X119.193 Y123.987 E10.1336
G1 X119.309 Y124.011 E10.13889
G1 X119.449 Y124.005 E10.14519
G1 X119.631 Y123.957 E10.15361
G1 X121.395 Y123.297 E10.23791
G1 X122.119 Y123.074 E10.27183
G1 X127.196 Y121.312 E10.51245
G1 X128.337 Y120.962 E10.56585
G1 X128.529 Y120.84 E10.57607
G1 X128.576 Y120.749 E10.58064
G1 X128.472 Y120.235 E10.60411
G1 X128.708 Y120.03 E10.61809
G1 X128.982 Y120.126 E10.63111
G1 X129.052 Y120.179 E10.63503
G1 X129.418 Y120.727 E10.66454
G1 X129.441 Y120.81 E10.66837
G1 X129.429 Y121.1 E10.6814
G1 X129.413 Y121.158 E10.68407
G1 X129.31 Y121.353 E10.69393
G1 X129.289 Y121.382 E10.69556
G1 X129.138 Y121.541 E10.7054
G1 X128.864 Y121.768 E10.7213
G1 X128.843 Y121.783 E10.72246
G1 X128.465 Y121.987 E10.74169
G1 X127.978 Y122.177 E10.76507
G1 X127.254 Y122.41 E10.79915
G1 X125.413 Y123.067 E10.88663
G1 X124.607 Y123.328 E10.92457
G1 X124.032 Y123.546 E10.9521
G1 X121.901 Y124.256 E11.05267
G1 X120.981 Y124.592 E11.0965
G1 X118.902 Y125.205 E11.19353
G1 X117.388 Y125.836 E11.26698
G1 X115.628 Y126.44 E11.35027
G1 X115.024 Y126.668 E11.37921
G1 X112.07 Y127.671 E11.51887
G1 X110.821 Y128.027 E11.57698
G1 X109.787 Y128.294 E11.62481
G1 X109.381 Y128.449 E11.64426
G1 X107.577 Y129.243 E11.73249
G1 X101.617 Y131.303 E12.01481
G1 X99.495 Y131.95 E12.11415
G1 X99.476 Y131.954 E12.115
G1 X99.104 Y132.012 E12.13187
G1 X99.068 Y132.012 E12.13345
G1 X98.882 Y131.992 E12.14185
G1 X98.839 Y131.98 E12.14385
G1 X98.665 Y131.898 E12.15247
G1 X98.613 Y131.855 E12.15547
G1 X98.481 Y131.676 E12.16544
G1 X98.456 Y131.615 E12.16839
G1 X98.425 Y131.41 E12.17767
G1 X98.424 Y131.379 E12.17909
G1 X98.443 Y131.158 E12.18902
G1 X98.449 Y131.128 E12.19037
G1 X99.198 Y128.794 E12.30012
G1 X99.651 Y127.609 E12.35692
G1 X101.42 Y123.038 E12.57634
G1 X101.966 Y121.78 E12.63773
G1 X102.142 Y121.24 E12.66314
G1 X102.446 Y120.537 E12.69745
G1 X103.11 Y118.718 E12.78412
G1 X104.365 Y115.43 E12.94169
G1 X104.587 Y114.902 E12.96734
G1 X104.82 Y114.258 E12.99798
G1 X105.471 Y112.599 E13.07777
G1 X105.919 Y111.558 E13.12853
G1 X106.548 Y109.793 E13.21242
G1 X106.794 Y109.202 E13.24105
G1 X109.495 Y102.206 E13.57678
G1 X109.666 Y101.855 E13.59425
G1 X109.678 Y101.835 E13.59534
G1 X109.779 Y101.699 E13.60291
G1 X111.013 Y102.233 F9000
G1 F1200
G1 X111.311 Y101.986 E13.62022
G1 X111.451 Y102.074 E13.62759
G1 X111.549 Y102.059 E13.63204
G1 X111.662 Y102.092 E13.63728
G1 X111.767 Y102.183 E13.64353
G1 X113.416 Y103.844 E13.74831
G1 X114.206 Y104.694 E13.80025
G1 X115.33 Y105.843 E13.87222
G1 X115.721 Y106.213 E13.89632
G1 X116.697 Y107.269 E13.96067
G1 X117.64 Y108.228 E14.02091
G1 X117.987 Y108.548 E14.04205
G1 X119.024 Y109.678 E14.11071
G1 X120.203 Y110.842 E14.18487
G1 X121.498 Y112.232 E14.26992
G1 X122.391 Y113.103 E14.32578
G1 X122.847 Y113.605 E14.35611
G1 X124.031 Y114.841 E14.43277
G1 X124.703 Y115.499 E14.47484
G1 X126.372 Y117.259 E14.58345
G1 X126.9 Y117.772 E14.61641
G1 X127.77 Y118.7 E14.67337
G1 X128.31 Y119.345 E14.71103
G1 X128.342 Y119.425 E14.71486
G1 X128.37 Y119.86 E14.73439
G1 X128.067 Y120.024 E14.74984
G1 X127.635 Y119.697 E14.77409
G1 X127.288 Y119.39 E14.7948
G1 X126.364 Y118.477 E14.85296
G1 X126.346 Y118.455 E14.85424
G1 X126.306 Y118.394 E14.85748
G1 X126.26 Y118.361 E14.86005
G1 X125.877 Y117.99 E14.8839
G1 X125.23 Y117.246 E14.92807
G1 X124.562 Y116.565 E14.97077
G1 X124.293 Y116.318 E14.98713
G1 X124.279 Y116.303 E14.98802
G1 X124.135 Y116.124 E14.99831
G1 X124.054 Y116.066 E15.00276
G1 X124.038 Y116.052 E15.00372
G1 X123.409 Y115.425 E15.04346
G1 X123.126 Y115.118 E15.06217
G1 X122.872 Y114.8 E15.0804
G1 X122.189 Y114.095 E15.12435
G1 X122.075 Y114.01 E15.13072
G1 X122.05 Y113.986 E15.13224
G1 X121.938 Y113.845 E15.1403
G1 X121.87 Y113.803 E15.1439
G1 X121.829 Y113.763 E15.14645
G1 X121.756 Y113.655 E15.15229
G1 X121.627 Y113.546 E15.15988
G1 X121.607 Y113.525 E15.16115
G1 X121.499 Y113.387 E15.169
G1 X121.245 Y113.125 E15.18535
G1 X120.796 Y112.706 E15.21281
G1 X120.784 Y112.693 E15.21361
G1 X120.501 Y112.349 E15.23358
G1 X120.205 Y112.031 E15.25304
G1 X119.965 Y111.786 E15.26835
G1 X119.845 Y111.694 E15.27513
G1 X119.82 Y111.668 E15.27673
G1 X119.734 Y111.555 E15.28309
G1 X119.661 Y111.509 E15.28697
G1 X119.617 Y111.463 E15.28982
G1 X119.571 Y111.386 E15.29383
G1 X119.467 Y111.301 E15.29987
G1 X119.446 Y111.279 E15.30121
G1 X119.306 Y111.102 E15.31133
G1 X118.843 Y110.625 E15.34107
G1 X118.451 Y110.267 E15.36486
G1 X118.036 Y109.782 E15.39342
G1 X117.768 Y109.504 E15.41072
G1 X117.642 Y109.409 E15.41778
G1 X117.616 Y109.383 E15.41943
G1 X117.531 Y109.271 E15.4257
G1 X117.457 Y109.224 E15.42966
G1 X117.411 Y109.177 E15.43262
G1 X117.368 Y109.103 E15.43643
G1 X117.279 Y109.032 E15.44153
G1 X117.256 Y109.008 E15.44301
G1 X117.09 Y108.792 E15.45522
G1 X116.323 Y107.986 E15.50503
G1 X116.217 Y107.923 E15.51052
G1 X116.189 Y107.9 E15.51218
G1 X115.398 Y107.064 E15.5637
G1 X115.287 Y106.976 E15.57005
G1 X115.259 Y106.946 E15.57189
G1 X115.176 Y106.824 E15.57846
G1 X115.074 Y106.746 E15.58422
G1 X115.049 Y106.721 E15.58582
G1 X114.873 Y106.492 E15.59877
G1 X113.976 Y105.541 E15.65726
G1 X113.731 Y105.343 E15.67137
G1 X113.556 Y105.18 E15.6821
G1 X113.403 Y105.003 E15.69256
G1 X113.237 Y104.861 E15.70237
G1 X113.222 Y104.847 E15.70326
G1 X113.021 Y104.615 E15.71699
G1 X113.006 Y104.595 E15.71811
G1 X112.978 Y104.548 E15.72058
G1 X112.86 Y104.458 E15.7272
G1 X112.832 Y104.428 E15.72903
G1 X112.689 Y104.226 E15.7401
G1 X111.319 Y102.789 E15.82902
G1 X111.152 Y102.579 E15.84103
G1 X111.132 Y102.543 E15.84286
G1 X111.034 Y102.289 E15.85507
G1 X110.828 Y103.033 F9000
G1 F1200
G1 X110.934 Y103.165 E15.86265
G1 X112.273 Y104.569 E15.94952
G1 X112.431 Y104.787 E15.96156
G1 X112.575 Y104.916 E15.97021
G1 X112.838 Y105.222 E15.98828
G1 X113.023 Y105.384 E15.99928
G1 X113.173 Y105.556 E16.00952
G1 X113.368 Y105.739 E16.02148
G1 X113.611 Y105.937 E16.03551
G1 X114.463 Y106.84 E16.09112
G1 X114.633 Y107.062 E16.10364
G1 X114.781 Y107.198 E16.11263
G1 X114.907 Y107.357 E16.12169
G1 X115.034 Y107.461 E16.12906
G1 X115.811 Y108.283 E16.17966
G1 X115.984 Y108.41 E16.18928
G1 X116.681 Y109.142 E16.23454
G1 X116.84 Y109.349 E16.24622
G1 X117 Y109.525 E16.25689
G1 X117.163 Y109.674 E16.26675
G1 X117.275 Y109.802 E16.27438
G1 X117.41 Y109.907 E16.28204
G1 X117.638 Y110.144 E16.29675
G1 X118.06 Y110.635 E16.32573
G1 X118.47 Y111.011 E16.35065
G1 X118.901 Y111.456 E16.37836
G1 X119.209 Y111.814 E16.39953
G1 X119.816 Y112.402 E16.43736
G1 X120.097 Y112.703 E16.45577
G1 X120.411 Y113.081 E16.47776
G1 X120.869 Y113.509 E16.50584
