; generated by SuperSlicer 2.4 on 2022-12-13 at 11:15:35 UTC

; 

; external perimeters extrusion width = 0.43mm
; perimeters extrusion width = 0.48mm
; infill extrusion width = 0.46mm
; solid infill extrusion width = 0.48mm
; top infill extrusion width = 0.46mm
; first layer extrusion width = 0.58mm

; object:{"name":"dod_1_thick","id":"dod_1_thick.stl id:0 copy 0","object_center":[115.500000,115.500000,0.000000],"boundingbox_center":[115.500000,115.500000,16.996982],"boundingbox_size":[39.318627,41.259266,33.993964]}
; Total objects to print: 1
M486 T1
; plater:{"center":[115.500000,115.500000,0.000000],"boundingbox_center":[115.500000,115.500000,16.996982],"boundingbox_size":[39.318627,41.259266,33.993964]}

;TYPE:Custom
G90 ; use absolute coordinates
M83 ; extruder relative mode
M140 S60 ; set final bed temp
M104 S150 ; set temporary nozzle temp to prevent oozing during homing and auto bed leveling
G4 S10 ; allow partial nozzle warmup
G28 ; home all axis
;G29 ; auto bed levelling
G1 Z10 F240
G1 X2 Y10 F3000
G1 Z0 F240
M104 S210 ; set final nozzle temp
M190 S60 ; wait for bed temp to stabilize
M109 S210 ; wait for nozzle temp to stabilize
G1 Z0.28 F240
G92 E0
G1 Y140 E10 F1500 ; prime the nozzle
G1 X2.3 F5000
G92 E0
G1 Y10 E10 F1200 ; prime the nozzle
G92 E0
;start
M107
G21 ; set units to millimeters
G90 ; use absolute coordinates
M82 ; use absolute distances for extrusion
G92 E0
; Filament gcode
;_TOOLCHANGE 0
M107
;LAYER_CHANGE
;Z:0.2
;HEIGHT:0.2
;BEFORE_LAYER_CHANGE
;0.2


G1 E-8.5 F3000
G1 Z0.15 F9000
;AFTER_LAYER_CHANGE
;0.2
G92 E0
M204 S500
G1 X100.486 Y107.239
G1 E8.5 F3000
;TYPE:Skirt
;WIDTH:0.48
G1 F1200
G1 X99.517 Y108.225 E8.55074
G1 X98.723 Y109.61 E8.60935
G1 X98.433 Y110.543 E8.64522
G1 X98.296 Y112.068 E8.70142
G1 X98.484 Y113.286 E8.74664
G1 X98.762 Y114.298 E8.78518
G1 X102.601 Y126.148 E9.24242
G1 X103.041 Y127.307 E9.28793
G1 X103.755 Y128.611 E9.34248
G1 X105.027 Y129.885 E9.40858
G1 X105.874 Y130.389 E9.44473
G1 X107.15 Y130.855 E9.49461
G1 X108.242 Y131.007 E9.53507
G1 X109.56 Y131.056 E9.58349
G1 X122.753 Y131.005 E10.06777
G1 X123.749 Y130.874 E10.10463
G1 X124.891 Y130.494 E10.14881
G1 X125.762 Y130.033 E10.18499
G1 X127.15 Y128.746 E10.25448
G1 X127.978 Y127.28 E10.31628
G1 X132.182 Y114.498 E10.8102
G1 X132.629 Y112.695 E10.87836
G1 X132.696 Y112.06 E10.90179
G1 X132.612 Y110.806 E10.94795
G1 X132.381 Y109.859 E10.98372
G1 X131.486 Y108.215 E11.05243
G1 X130.475 Y107.206 E11.10487
G1 X129.501 Y106.451 E11.1501
G1 X119.507 Y99.198 E11.60337
G1 X118.253 Y98.419 E11.65755
G1 X117.253 Y97.979 E11.69765
G1 X115.692 Y97.714 E11.75577
G1 X114.744 Y97.762 E11.79061
G1 X113.307 Y98.137 E11.84513
G1 X111.732 Y99.041 E11.91178
G1 X100.534 Y107.203 E12.42043
G1 X100.791 Y107.556 F9000
G1 F1200
G1 X100.756 Y107.582 E12.42205
G1 X99.84 Y108.52 E12.47018
G1 X99.14 Y109.739 E12.52177
G1 X98.851 Y110.673 E12.55764
G1 X98.73 Y112.015 E12.60713
G1 X98.906 Y113.17 E12.65
G1 X99.183 Y114.182 E12.68854
G1 X103.017 Y126.013 E13.14504
G1 X103.449 Y127.151 E13.1897
G1 X104.13 Y128.388 E13.24154
G1 X105.251 Y129.509 E13.29973
G1 X106.097 Y130.013 E13.33589
G1 X107.221 Y130.423 E13.3798
G1 X108.26 Y130.57 E13.41832
G1 X109.56 Y130.619 E13.46607
G1 X122.736 Y130.568 E13.94972
G1 X123.681 Y130.442 E13.98472
G1 X124.687 Y130.108 E14.02362
G1 X125.558 Y129.647 E14.0598
G1 X126.78 Y128.513 E14.12097
G1 X127.567 Y127.129 E14.17945
G1 X131.767 Y114.362 E14.67276
G1 X132.194 Y112.649 E14.73758
G1 X132.262 Y112.014 E14.76101
G1 X132.188 Y110.909 E14.80165
G1 X131.956 Y109.963 E14.83742
G1 X131.168 Y108.516 E14.89791
G1 X130.206 Y107.551 E14.94794
G1 X129.234 Y106.797 E14.99308
G1 X119.251 Y99.553 E15.44585
G1 X118.037 Y98.799 E15.49828
G1 X117.089 Y98.384 E15.53629
G1 X115.714 Y98.151 E15.58747
G1 X114.766 Y98.199 E15.6223
G1 X113.501 Y98.528 E15.67031
G1 X111.977 Y99.403 E15.73481
G1 X100.84 Y107.521 E16.24068
G92 E0
G1 E-5.95 F3000
;WIPE_START
G1 F7200
G1 X100.756 Y107.582 E-5.99122
G1 X99.84 Y108.52 E-6.51017
G1 X99.14 Y109.739 E-7.06658
G1 X98.851 Y110.673 E-7.45341
G1 X98.73 Y112.015 E-7.98701
G1 X98.876 Y112.978 E-8.3725
;WIPE_END
G1 E-8.5 F3000
; acceleration to travel
M204 S1500
G1 X102.785 Y110.816 F9000
; decel to extrusion
M204 S500
G1 X103.262 Y110.552
; end travel
G1 E0 F3000
;WIDTH:0.576
G1 F1200
G1 X104.014 Y109.951 E0.0431
G1 X104.793 Y109.402 E0.08574
G1 X107.73 Y107.271 E0.24821
G1 X113.675 Y102.933 E0.57768
G1 X114.618 Y102.307 E0.62835
G1 X114.915 Y102.152 E0.64338
G1 X115.303 Y102.051 E0.6613
G1 X115.689 Y102.048 E0.67859
G1 X115.972 Y102.113 E0.6916
G1 X116.192 Y102.209 E0.70233
G1 X117.03 Y102.729 E0.74647
G1 X125.537 Y108.923 E1.2176
G1 X126.876 Y109.873 E1.29108
G1 X127.772 Y110.574 E1.34203
G1 X128.054 Y110.862 E1.36006
G1 X128.233 Y111.146 E1.37513
G1 X128.362 Y111.588 E1.39574
G1 X128.38 Y111.835 E1.40682
G1 X128.338 Y112.2 E1.42327
G1 X128.073 Y113.184 E1.46887
G1 X127.499 Y114.88 E1.54905
G1 X124.699 Y123.504 E1.95496
G1 X124.295 Y124.795 E2.01552
G1 X123.915 Y125.785 E2.06302
G1 X123.683 Y126.142 E2.08207
G1 X123.362 Y126.425 E2.10121
G1 X123.063 Y126.578 E2.11626
G1 X122.814 Y126.655 E2.12795
G1 X122.59 Y126.689 E2.13805
G1 X121.408 Y126.741 E2.19103
G1 X119.915 Y126.729 E2.25787
G1 X111.061 Y126.729 E2.65425
G1 X109.569 Y126.743 E2.72105
G1 X108.482 Y126.698 E2.76979
G1 X108.04 Y126.619 E2.78989
G1 X107.816 Y126.526 E2.80074
G1 X107.583 Y126.388 E2.81284
G1 X107.249 Y126.051 E2.83412
G1 X107.027 Y125.653 E2.85452
G1 X106.698 Y124.796 E2.89559
G1 X106.321 Y123.562 E2.95337
G1 X105.481 Y121.015 E3.07342
G1 X103.391 Y114.556 E3.37735
G1 X102.914 Y113.13 E3.4447
G1 X102.654 Y112.156 E3.4898
G1 X102.619 Y111.892 E3.50175
G1 X102.639 Y111.561 E3.51657
G1 X102.732 Y111.238 E3.53164
G1 X102.906 Y110.918 E3.54792
G1 X103.158 Y110.635 E3.5649
G1 X103.215 Y110.589 E3.56817
G1 X103.547 Y111.008 F9000
G1 F1200
G1 X104.342 Y110.376 E3.6136
G1 X105.105 Y109.839 E3.65538
G1 X108.046 Y107.705 E3.81805
G1 X113.987 Y103.371 E4.14729
G1 X114.903 Y102.763 E4.19649
G1 X115.135 Y102.643 E4.2082
G1 X115.348 Y102.587 E4.21804
G1 X115.61 Y102.581 E4.2298
G1 X115.783 Y102.616 E4.23768
G1 X115.959 Y102.693 E4.24629
G1 X116.721 Y103.169 E4.28651
G1 X125.223 Y109.359 E4.75736
G1 X126.56 Y110.307 E4.83071
G1 X127.426 Y110.986 E4.87997
G1 X127.647 Y111.213 E4.89415
G1 X127.754 Y111.392 E4.90351
G1 X127.83 Y111.663 E4.91609
G1 X127.843 Y111.802 E4.92233
G1 X127.806 Y112.119 E4.93661
G1 X127.562 Y113.019 E4.97839
G1 X126.989 Y114.711 E5.05835
G1 X124.187 Y123.341 E5.46454
G1 X123.786 Y124.624 E5.52473
G1 X123.62 Y125.032 E5.54447
G1 X123.443 Y125.526 E5.56797
G1 X123.291 Y125.772 E5.58092
G1 X123.085 Y125.964 E5.5935
G1 X122.84 Y126.089 E5.60582
G1 X122.712 Y126.127 E5.61179
G1 X122.552 Y126.153 E5.61906
G1 X121.405 Y126.204 E5.67042
G1 X119.917 Y126.192 E5.73704
G1 X111.059 Y126.192 E6.13362
G1 X109.571 Y126.206 E6.20024
G1 X108.521 Y126.161 E6.2473
G1 X108.212 Y126.11 E6.26129
G1 X108.073 Y126.054 E6.26804
G1 X107.887 Y125.943 E6.27771
G1 X107.698 Y125.754 E6.28966
G1 X107.521 Y125.441 E6.30577
G1 X107.203 Y124.613 E6.34551
G1 X106.833 Y123.399 E6.40229
G1 X105.992 Y120.849 E6.52251
G1 X103.901 Y114.388 E6.82653
G1 X103.431 Y112.983 E6.89288
G1 X103.178 Y112.036 E6.93677
G1 X103.155 Y111.85 E6.94514
G1 X103.164 Y111.68 E6.95276
G1 X103.24 Y111.417 E6.96503
G1 X103.357 Y111.212 E6.97561
G1 X103.506 Y111.051 E6.98541
G1 X103.902 Y111.413 F9000
G1 F1200
G1 X103.929 Y111.386 E6.98714
G1 X104.672 Y110.801 E7.02946
G1 X105.418 Y110.276 E7.07028
G1 X108.362 Y108.14 E7.23314
G1 X114.301 Y103.807 E7.56229
G1 X115.207 Y103.207 E7.61093
G1 X115.349 Y103.137 E7.618
G1 X115.402 Y103.123 E7.62047
G1 X115.549 Y103.115 E7.62707
G1 X115.607 Y103.125 E7.62971
G1 X115.684 Y103.156 E7.6334
G1 X115.704 Y103.167 E7.63443
G1 X116.41 Y103.607 E7.67168
G1 X116.802 Y103.89 E7.69331
G1 X124.91 Y109.796 E8.14238
G1 X126.241 Y110.74 E8.21545
G1 X127.072 Y111.39 E8.26266
G1 X127.087 Y111.403 E8.26356
G1 X127.232 Y111.557 E8.27305
G1 X127.266 Y111.619 E8.27618
G1 X127.302 Y111.768 E8.28306
G1 X127.305 Y111.815 E8.28515
G1 X127.289 Y111.967 E8.29203
G1 X127.285 Y111.988 E8.29298
G1 X127.049 Y112.859 E8.33336
G1 X126.479 Y114.542 E8.41292
G1 X123.675 Y123.177 E8.81939
G1 X123.278 Y124.447 E8.87893
G1 X123.116 Y124.844 E8.89813
G1 X122.978 Y125.253 E8.91747
G1 X122.964 Y125.282 E8.91889
G1 X122.854 Y125.457 E8.92814
G1 X122.802 Y125.505 E8.93131
G1 X122.649 Y125.586 E8.93907
G1 X122.607 Y125.6 E8.94106
G1 X122.476 Y125.62 E8.947
G1 X121.4 Y125.666 E8.99522
G1 X119.92 Y125.654 E9.06148
G1 X111.056 Y125.654 E9.45828
G1 X109.577 Y125.668 E9.52454
G1 X108.536 Y125.623 E9.57118
G1 X108.373 Y125.596 E9.57855
G1 X108.326 Y125.579 E9.58081
G1 X108.191 Y125.499 E9.58785
G1 X108.143 Y125.451 E9.59086
G1 X108.028 Y125.258 E9.60092
G1 X108.019 Y125.238 E9.60193
G1 X107.713 Y124.442 E9.64008
G1 X107.346 Y123.237 E9.69648
G1 X106.503 Y120.682 E9.81692
G1 X104.412 Y114.22 E10.12099
G1 X103.948 Y112.837 E10.18628
G1 X103.714 Y111.98 E10.22607
G1 X103.71 Y111.961 E10.22695
G1 X103.692 Y111.813 E10.23361
G1 X103.697 Y111.756 E10.23616
G1 X103.744 Y111.604 E10.2433
G1 X103.774 Y111.553 E10.24596
G1 X103.861 Y111.457 E10.25175
; printing object dod_1_thick.stl id:0 copy 0
M486 S0
G1 X104.257 Y111.849 F9000
;TYPE:External perimeter
G1 F1200
G1 X105.003 Y111.249 E10.29461
G1 X108.689 Y108.59 E10.49808
G1 X114.622 Y104.262 E10.82686
G1 X115.478 Y103.694 E10.87286
G1 X116.096 Y104.067 E10.90519
G1 X124.585 Y110.248 E11.37529
G1 X125.911 Y111.188 E11.44807
G1 X126.742 Y111.849 E11.49559
G1 X126.517 Y112.693 E11.53467
G1 X125.951 Y114.367 E11.6138
G1 X123.145 Y123.008 E12.02056
G1 X122.752 Y124.263 E12.07943
G1 X122.594 Y124.649 E12.09809
G1 X122.466 Y125.028 E12.11599
G1 X122.445 Y125.062 E12.11779
G1 X122.413 Y125.067 E12.11921
G1 X121.393 Y125.11 E12.16495
G1 X111.054 Y125.098 E12.6278
G1 X109.582 Y125.111 E12.69369
G1 X108.56 Y125.063 E12.7395
G1 X108.241 Y124.266 E12.77796
G1 X107.877 Y123.069 E12.83395
G1 X104.48 Y112.673 E13.32359
G1 X104.273 Y111.907 E13.35911
;WIPE_START
G1 X104.657 Y111.842 F9000
;WIPE_END
G1 X104.959 Y112.104
G1 F1200
G1 X104.957 Y112.374 E13.37118
G1 X105.009 Y112.567 E13.38011
G1 X105.252 Y113.251 E13.41263
G1 X107.52 Y120.27 E13.74286
G1 X108.519 Y123.302 E13.88578
G1 X108.726 Y124.024 E13.9194
G1 X108.798 Y124.207 E13.92822
G1 X108.973 Y124.454 E13.94172
G1 X109.242 Y124.56 E13.95471
G1 X109.464 Y124.577 E13.96468
G1 X109.921 Y124.555 E13.98515
G1 X121.052 Y124.555 E14.48348
G1 X121.569 Y124.577 E14.50665
G1 X121.935 Y124.505 E14.52334
G1 X122.174 Y124.244 E14.53917
G1 X122.25 Y124.072 E14.54761
G1 X122.496 Y123.257 E14.58571
G1 X125.778 Y113.15 E15.06147
G1 X125.985 Y112.596 E15.08792
G1 X126.042 Y112.39 E15.09749
G1 X126.041 Y112.097 E15.11064
G1 X125.841 Y111.8 E15.12663
G1 X125.259 Y111.4 E15.15826
G1 X121.646 Y108.76 E15.35857
G1 X116.462 Y105.011 E15.64499
G1 X115.954 Y104.619 E15.6737
G1 X115.644 Y104.452 E15.68949
G1 X115.358 Y104.444 E15.70229
G1 X115.217 Y104.516 E15.70937
G1 X115.101 Y104.572 E15.71514
G1 X114.538 Y105.006 E15.74699
G1 X105.671 Y111.451 E16.23773
G1 X105.333 Y111.672 E16.25579
G1 X105.117 Y111.846 E16.26822
G1 X104.991 Y112.053 E16.27907
;WIPE_START
G1 X104.582 Y112.236 F9000
;WIPE_END
M106 S84.15
;LAYER_CHANGE
;Z:0.52
;HEIGHT:0.32
;BEFORE_LAYER_CHANGE
;0.52


G92 E0
G1 E-5.95 F3000
;WIPE_START
G1 F7200
G1 X104.818 Y112.626 E-6.13038
G1 X105.063 Y113.315 E-6.41993
G1 X106.579 Y118.009 E-8.3725
;WIPE_END
G1 E-8.5 F3000
; stop printing object dod_1_thick.stl id:0 copy 0
M486 S-1
G1 Z0.47 F9000
;AFTER_LAYER_CHANGE
;0.52
; printing object dod_1_thick.stl id:0 copy 0
M486 S0
G1 X106.997 Y117.873
G1 E0 F3000
;TYPE:Internal perimeter
;WIDTH:0.476
G1 F2400
G1 X108.613 Y122.844 E0.28608
G1 X108.811 Y123.532 E0.32527
G1 X108.866 Y123.671 E0.33347
;TYPE:Overhang perimeter
G1 F1500
M204 S250
G1 X108.925 Y123.818 E0.34209
G1 X108.942 Y123.844 E0.34382
G1 X109.092 Y124.064 E0.35842
G1 X109.329 Y124.23 E0.37424
G1 X109.575 Y124.32 E0.38859
G1 X109.702 Y124.333 E0.39557
G1 X109.855 Y124.348 E0.40394
G1 X110.374 Y124.322 E0.4324
G1 X120.622 Y124.323 E0.99334
;TYPE:Internal perimeter
G1 F2400
M204 S500
G1 X121.105 Y124.345 E1.01976
G1 X121.306 Y124.333 E1.03082
G1 X121.341 Y124.331 E1.0327
G1 X121.409 Y124.312 E1.03657
G1 X121.678 Y124.236 E1.05186
G1 X122.037 Y123.904 E1.07864
G1 X122.112 Y123.726 E1.08921
G1 X122.168 Y123.593 E1.09713
G1 X122.365 Y122.909 E1.1361
G1 X124.221 Y117.198 E1.46473
G1 X125.427 Y113.489 E1.6782
G1 X125.69 Y112.757 E1.72081
G1 X125.696 Y112.704 E1.72368
G1 X125.709 Y112.597 E1.72958
G1 X125.727 Y112.445 E1.738
G1 X125.681 Y112.205 E1.75138
G1 X125.599 Y112.008 E1.76303
G1 X125.454 Y111.84 E1.77517
G1 X125.377 Y111.752 E1.78156
G1 X125.188 Y111.606 E1.79467
G1 X124.996 Y111.477 E1.80731
G1 X124.681 Y111.265 E1.82808
G1 X118.032 Y106.435 E2.27788
G1 X116.586 Y105.384 E2.37576
G1 X116.01 Y104.941 E2.4155
G1 X115.966 Y104.922 E2.41811
G1 X115.872 Y104.882 E2.42372
G1 X115.69 Y104.804 E2.43458
G1 X115.301 Y104.803 E2.45588
G1 X115.119 Y104.884 E2.46676
G1 X115.018 Y104.929 E2.47284
G1 X106.373 Y111.226 E3.05821
G1 X105.713 Y111.677 E3.10192
G1 X105.647 Y111.745 E3.10712
G1 X105.564 Y111.829 E3.11361
G1 X105.378 Y112.019 E3.12814
G1 X105.269 Y112.42 E3.15089
G1 X105.288 Y112.58 E3.1597
G1 X105.301 Y112.694 E3.16594
G1 X105.307 Y112.746 E3.16885
G1 X105.557 Y113.448 E3.20963
G1 X106.978 Y117.816 E3.46105
M204 S250
G1 X107.349 Y117.696 F9000
;TYPE:Overhang perimeter
;WIDTH:0.389872
;HEIGHT:0.389872
G1 F1500
G1 X108.986 Y122.73 E3.72641
G1 X109.181 Y123.406 E3.76168
G1 X109.271 Y123.634 E3.77396
G1 X109.375 Y123.786 E3.78319
G1 X109.511 Y123.881 E3.79154
G1 X109.663 Y123.937 E3.79965
G1 X109.864 Y123.957 E3.80978
G1 X110.364 Y123.932 E3.83486
G1 X120.619 Y123.932 E4.34893
G1 X121.103 Y123.954 E4.3732
G1 X121.276 Y123.944 E4.3819
G1 X121.482 Y123.886 E4.39262
G1 X121.71 Y123.675 E4.40821
G1 X121.799 Y123.463 E4.41975
G1 X121.992 Y122.794 E4.45463
G1 X123.85 Y117.078 E4.75595
G1 X125.057 Y113.363 E4.95176
G1 X125.308 Y112.666 E4.98885
G1 X125.332 Y112.459 E4.99933
G1 X125.305 Y112.318 E5.00655
G1 X125.263 Y112.216 E5.01208
G1 X125.108 Y112.037 E5.02391
G1 X124.96 Y111.923 E5.03331
G1 X124.457 Y111.585 E5.06365
G1 X116.352 Y105.697 E5.56588
G1 X115.811 Y105.28 E5.60008
G1 X115.61 Y105.194 E5.61108
G1 X115.383 Y105.194 E5.62242
G1 X115.214 Y105.269 E5.63171
G1 X106.598 Y111.545 E6.16608
G1 X105.965 Y111.977 E6.20447
G1 X105.728 Y112.22 E6.22146
G1 X105.666 Y112.45 E6.23345
G1 X105.689 Y112.657 E6.24389
G1 X105.927 Y113.322 E6.27928
G1 X107.331 Y117.639 E6.50682
M204 S500
G1 X105.999 Y118.071 F9000
;TYPE:Internal perimeter
;WIDTH:0.476
;HEIGHT:0.32
G1 F2400
G1 X104.401 Y113.148 E6.79011
G1 X104.234 Y112.654 E6.81863
G1 X104.095 Y112.243 E6.8424
;TYPE:Overhang perimeter
G1 F1500
M204 S250
G1 X103.923 Y111.733 E6.87188
G1 X104.349 Y111.435 E6.9003
;TYPE:Internal perimeter
G1 F2400
M204 S500
G1 X104.714 Y111.18 E6.92471
G1 X104.883 Y111.063 E6.93595
G1 X112.303 Y105.659 E7.43835
;TYPE:Overhang perimeter
G1 F1500
M204 S250
G1 X114.9 Y103.768 E7.61418
G1 X115.484 Y103.342 E7.65375
G1 X115.605 Y103.408 E7.66131
G1 X115.995 Y103.7 E7.68794
;TYPE:Internal perimeter
G1 F2400
M204 S500
G1 X116.276 Y103.91 E7.70713
G1 X116.775 Y104.283 E7.74125
G1 X122.106 Y108.155 E8.10188
G1 X125.068 Y110.305 E8.30219
G1 X125.896 Y110.907 E8.35822
G1 X126.209 Y111.127 E8.37918
G1 X126.608 Y111.406 E8.40585
;TYPE:Overhang perimeter
G1 F1500
M204 S250
G1 X127.066 Y111.728 E8.43646
G1 X127.035 Y111.855 E8.44365
G1 X126.934 Y112.142 E8.46027
;TYPE:Internal perimeter
G1 F2400
M204 S500
G1 X126.816 Y112.476 E8.47967
G1 X126.312 Y114.023 E8.56875
G1 X125.29 Y117.166 E8.74962
G1 X124.925 Y118.289 E8.81424
G1 X122.888 Y124.566 E9.17548
G1 X122.778 Y124.932 E9.19636
G1 X122.653 Y125.351 E9.22031
G1 X122.171 Y125.335 E9.24674
G1 X122.129 Y125.334 E9.24902
G1 X121.594 Y125.334 E9.2783
G1 X109.403 Y125.334 E9.94554
G1 X108.949 Y125.334 E9.9704
;TYPE:Overhang perimeter
G1 F1500
M204 S250
G1 X108.866 Y125.334 E9.97495
