; generated by SuperSlicer 2.4 on 2022-12-13 at 11:16:54 UTC

; 

; external perimeters extrusion width = 0.43mm
; perimeters extrusion width = 0.48mm
; infill extrusion width = 0.46mm
; solid infill extrusion width = 0.48mm
; top infill extrusion width = 0.46mm
; first layer extrusion width = 0.58mm

; object:{"name":"pedestal_1_thick","id":"pedestal_1_thick.stl id:0 copy 0","object_center":[115.500000,115.500000,0.000000],"boundingbox_center":[115.500000,115.500000,15.798948],"boundingbox_size":[45.502378,45.501322,31.597896]}
; Total objects to print: 1
M486 T1
; plater:{"center":[115.500000,115.500000,0.000000],"boundingbox_center":[115.500000,115.500000,15.798948],"boundingbox_size":[45.502378,45.501322,31.597896]}

;TYPE:Custom
G90 ; use absolute coordinates
M83 ; extruder relative mode
M140 S60 ; set final bed temp
M104 S150 ; set temporary nozzle temp to prevent oozing during homing and auto bed leveling
G4 S10 ; allow partial nozzle warmup
G28 ; home all axis
;G29 ; auto bed levelling
G1 Z10 F240
G1 X2 Y10 F3000
G1 Z0 F240
M104 S210 ; set final nozzle temp
M190 S60 ; wait for bed temp to stabilize
M109 S210 ; wait for nozzle temp to stabilize
G1 Z0.28 F240
G92 E0
G1 Y140 E10 F1500 ; prime the nozzle
G1 X2.3 F5000
G92 E0
G1 Y10 E10 F1200 ; prime the nozzle
G92 E0
;start
M107
G21 ; set units to millimeters
G90 ; use absolute coordinates
M82 ; use absolute distances for extrusion
G92 E0
; Filament gcode
;_TOOLCHANGE 0
M107
;LAYER_CHANGE
;Z:0.2
;HEIGHT:0.2
;BEFORE_LAYER_CHANGE
;0.2


G1 E-8.5 F3000
G1 Z0.15 F9000
;AFTER_LAYER_CHANGE
;0.2
G92 E0
M204 S500
G1 X100.168 Y100.211
G1 E8.5 F3000
;TYPE:Skirt
;WIDTH:0.48
G1 F1200
G1 X90.955 Y109.42 E8.97815
G1 X90.021 Y110.728 E9.03712
G1 X89.285 Y112.289 E9.10047
G1 X88.849 Y113.728 E9.15567
G1 X88.669 Y115.501 E9.2211
G1 X88.786 Y117.343 E9.28885
G1 X88.912 Y118.101 E9.31704
G1 X89.173 Y118.941 E9.34935
G1 X89.95 Y120.402 E9.41007
G1 X90.65 Y121.291 E9.45159
G1 X109.083 Y139.766 E10.40956
G1 X110.352 Y140.801 E10.46968
G1 X111.79 Y141.515 E10.5286
G1 X113.437 Y141.998 E10.59163
G1 X114.729 Y142.208 E10.63965
G1 X115.722 Y142.269 E10.67619
G1 X117.303 Y142.18 E10.7343
G1 X118.748 Y141.873 E10.78853
G1 X119.972 Y141.322 E10.83783
G1 X121.159 Y140.477 E10.8913
G1 X139.822 Y121.861 E11.85892
G1 X140.849 Y120.52 E11.92089
G1 X141.402 Y119.551 E11.96185
G1 X141.799 Y118.638 E11.99841
G1 X142.141 Y117.301 E12.04905
G1 X142.342 Y115.4 E12.11922
G1 X142.319 Y114.393 E12.15621
G1 X142.177 Y113.452 E12.19113
G1 X141.95 Y112.602 E12.22342
G1 X141.577 Y111.637 E12.2614
G1 X140.872 Y110.408 E12.31338
G1 X139.585 Y108.9 E12.38618
G1 X121.684 Y91.021 E13.31488
G1 X120.579 Y90.23 E13.36477
G1 X119.077 Y89.492 E13.42617
G1 X118.189 Y89.21 E13.46037
G1 X116.004 Y88.82 E13.54186
G1 X114.613 Y88.832 E13.59293
G1 X112.922 Y89.031 E13.65541
G1 X111.988 Y89.287 E13.69097
G1 X110.867 Y89.833 E13.73675
G1 X109.568 Y90.815 E13.79651
G1 X100.21 Y100.169 E14.28218
G92 E0
G1 E-5.95 F3000
;WIPE_START
G1 F7200
G1 X95.882 Y104.495 E-8.3725
;WIPE_END
G1 E-8.5 F3000
; acceleration to travel
M204 S1500
G1 X102.166 Y103.067 F9000
; decel to extrusion
M204 S500
G1 X102.934 Y102.892
; end travel
G1 E0 F3000
;WIDTH:0.576
G1 F1200
G1 X110.255 Y95.569 E0.46358
G1 X112.238 Y93.624 E0.58793
G1 X112.573 Y93.353 E0.60724
G1 X112.896 Y93.137 E0.6246
G1 X113.427 Y92.896 E0.65072
G1 X113.619 Y92.851 E0.65956
G1 X115.003 Y92.688 E0.72196
G1 X115.539 Y92.672 E0.74595
G1 X116.281 Y92.769 E0.77948
G1 X117.298 Y92.983 E0.826
G1 X117.695 Y93.114 E0.84472
G1 X118.611 Y93.578 E0.89066
G1 X118.912 Y93.797 E0.90734
G1 X119.192 Y94.041 E0.92395
G1 X120.317 Y95.177 E0.99555
G1 X120.436 Y95.278 E1.00253
G1 X120.975 Y95.808 E1.03636
G1 X121.963 Y96.825 E1.09985
G1 X122.383 Y97.226 E1.12585
G1 X122.583 Y97.446 E1.13917
G1 X123.257 Y98.089 E1.18085
G1 X123.374 Y98.222 E1.18879
G1 X123.561 Y98.393 E1.20014
G1 X123.666 Y98.519 E1.20748
G1 X124.37 Y99.213 E1.25173
G1 X124.458 Y99.318 E1.25787
G1 X124.705 Y99.548 E1.27298
G1 X124.876 Y99.738 E1.28442
G1 X125.321 Y100.16 E1.31187
G1 X125.632 Y100.484 E1.33199
G1 X125.848 Y100.679 E1.34503
G1 X125.962 Y100.812 E1.35286
G1 X126.647 Y101.49 E1.396
G1 X126.736 Y101.595 E1.40218
G1 X126.969 Y101.81 E1.41637
G1 X127.148 Y102.006 E1.42825
G1 X127.247 Y102.09 E1.43405
G1 X127.913 Y102.767 E1.47658
G1 X128.15 Y102.98 E1.49084
G1 X128.347 Y103.202 E1.5041
G1 X128.452 Y103.291 E1.51027
G1 X129.169 Y104.026 E1.55625
G1 X129.388 Y104.229 E1.56962
G1 X129.593 Y104.453 E1.58323
G1 X130.505 Y105.333 E1.63997
G1 X130.789 Y105.645 E1.65885
G1 X131.664 Y106.504 E1.71375
G1 X131.774 Y106.631 E1.72126
G1 X132.792 Y107.618 E1.78476
G1 X133.576 Y108.435 E1.83544
G1 X133.796 Y108.636 E1.84879
G1 X134.192 Y109.051 E1.87444
G1 X135.214 Y110.043 E1.93822
G1 X136.169 Y111.027 E1.99963
G1 X137.056 Y111.892 E2.0551
G1 X137.206 Y112.076 E2.0657
G1 X137.299 Y112.158 E2.07125
G1 X137.541 Y112.436 E2.08776
G1 X137.725 Y112.673 E2.10118
G1 X138.016 Y113.169 E2.12696
G1 X138.227 Y113.691 E2.15213
G1 X138.317 Y113.987 E2.166
G1 X138.413 Y114.393 E2.18468
G1 X138.468 Y114.885 E2.20683
G1 X138.465 Y115.385 E2.22924
G1 X138.404 Y116.069 E2.25997
G1 X138.314 Y116.694 E2.28825
G1 X138.172 Y117.268 E2.31471
G1 X137.981 Y117.728 E2.33698
G1 X137.625 Y118.367 E2.36975
G1 X137.325 Y118.817 E2.39396
G1 X137.033 Y119.17 E2.41447
G1 X120.729 Y135.481 E3.44696
G1 X118.699 Y137.479 E3.57447
G1 X118.362 Y137.755 E3.59399
G1 X117.988 Y137.991 E3.61377
G1 X117.63 Y138.157 E3.63144
G1 X117.304 Y138.261 E3.64675
G1 X116.899 Y138.325 E3.66509
G1 X116.44 Y138.321 E3.68567
G1 X115.759 Y138.392 E3.7163
G1 X115.282 Y138.363 E3.73769
G1 X114.739 Y138.229 E3.76272
G1 X114.112 Y138.173 E3.79092
G1 X113.607 Y138.049 E3.81419
G1 X113.112 Y137.871 E3.83772
G1 X112.68 Y137.675 E3.85898
G1 X112.335 Y137.46 E3.87716
G1 X111.775 Y136.978 E3.91027
G1 X110.46 Y135.65 E3.99394
G1 X110.223 Y135.437 E4.00822
G1 X108.054 Y133.249 E4.14613
G1 X107.594 Y132.813 E4.17452
G1 X105.591 Y130.783 E4.30215
G1 X105.288 Y130.507 E4.32051
G1 X105.088 Y130.285 E4.3339
G1 X103.238 Y128.448 E4.45062
G1 X103.161 Y128.355 E4.45599
G1 X102.953 Y128.171 E4.46846
G1 X102.773 Y127.97 E4.48053
G1 X102.67 Y127.883 E4.48656
G1 X100.77 Y125.973 E4.60717
G1 X100.651 Y125.869 E4.61424
G1 X100.484 Y125.683 E4.62543
G1 X100.366 Y125.581 E4.63242
G1 X98.072 Y123.29 E4.7776
G1 X95.932 Y121.146 E4.91317
G1 X95.849 Y121.047 E4.91899
G1 X95.62 Y120.838 E4.93285
G1 X93.693 Y118.886 E5.05566
G1 X93.082 Y118.113 E5.09977
G1 X92.746 Y117.421 E5.13422
G1 X92.698 Y117.246 E5.14231
G1 X92.616 Y116.739 E5.1653
G1 X92.543 Y115.699 E5.21199
G1 X92.588 Y114.92 E5.24692
G1 X92.659 Y114.449 E5.26824
G1 X92.949 Y113.554 E5.31039
G1 X93.123 Y113.138 E5.33057
G1 X93.321 Y112.76 E5.34965
G1 X93.638 Y112.267 E5.3759
G1 X93.986 Y111.842 E5.40047
G1 X102.891 Y102.934 E5.96439
G1 X103.271 Y103.314 F9000
G1 F1200
G1 X110.634 Y95.95 E6.4306
G1 X112.605 Y94.017 E6.55418
G1 X112.901 Y93.779 E6.57118
G1 X113.175 Y93.596 E6.58594
G1 X113.58 Y93.412 E6.60587
G1 X113.698 Y93.382 E6.61132
G1 X115.055 Y93.223 E6.67247
G1 X115.492 Y93.208 E6.69203
G1 X116.181 Y93.297 E6.72317
G1 X117.173 Y93.505 E6.76852
G1 X117.506 Y93.617 E6.78425
G1 X118.313 Y94.026 E6.82476
G1 X118.569 Y94.211 E6.83888
G1 X118.821 Y94.43 E6.85382
G1 X119.152 Y94.756 E6.87463
G1 X119.21 Y94.831 E6.87889
G1 X119.439 Y95.042 E6.89281
G1 X119.62 Y95.244 E6.90495
G1 X119.715 Y95.322 E6.91044
G1 X119.949 Y95.57 E6.92573
G1 X120.067 Y95.668 E6.93262
G1 X120.588 Y96.182 E6.96536
G1 X120.676 Y96.287 E6.97149
G1 X121.125 Y96.724 E6.99954
G1 X121.582 Y97.205 E7.02927
G1 X122.005 Y97.608 E7.05542
G1 X122.198 Y97.822 E7.06832
G1 X122.877 Y98.468 E7.11027
G1 X122.987 Y98.597 E7.11786
G1 X123.183 Y98.776 E7.12976
G1 X123.266 Y98.88 E7.1357
G1 X123.983 Y99.586 E7.18073
G1 X124.066 Y99.687 E7.18662
G1 X124.314 Y99.916 E7.20171
G1 X124.491 Y100.113 E7.21356
G1 X124.947 Y100.545 E7.24168
G1 X125.257 Y100.871 E7.26183
G1 X125.475 Y101.066 E7.27492
G1 X125.566 Y101.175 E7.28128
G1 X126.26 Y101.862 E7.325
G1 X126.345 Y101.965 E7.33099
G1 X126.596 Y102.197 E7.34625
G1 X126.776 Y102.396 E7.35831
G1 X126.874 Y102.476 E7.36396
G1 X127.542 Y103.157 E7.40667
G1 X127.759 Y103.349 E7.41961
G1 X127.971 Y103.588 E7.43396
G1 X128.08 Y103.679 E7.44028
G1 X128.694 Y104.295 E7.4792
G1 X128.778 Y104.397 E7.48515
G1 X128.999 Y104.6 E7.49857
G1 X129.209 Y104.829 E7.51247
G1 X129.767 Y105.363 E7.54708
G1 X129.862 Y105.474 E7.55361
G1 X130.116 Y105.704 E7.56895
G1 X130.402 Y106.019 E7.58798
G1 X130.98 Y106.581 E7.62409
G1 X131.062 Y106.682 E7.62991
G1 X131.288 Y106.889 E7.64361
G1 X131.385 Y107.004 E7.65036
G1 X131.597 Y107.197 E7.66321
G1 X132.133 Y107.741 E7.69737
G1 X132.41 Y107.996 E7.71424
G1 X133.201 Y108.821 E7.76539
G1 X133.414 Y109.014 E7.77828
G1 X133.817 Y109.436 E7.80441
G1 X134.021 Y109.621 E7.81674
G1 X134.566 Y110.176 E7.85157
G1 X134.836 Y110.425 E7.868
G1 X135.201 Y110.794 E7.89122
G1 X135.289 Y110.902 E7.89745
G1 X135.701 Y111.303 E7.92322
G1 X135.779 Y111.399 E7.92876
G1 X135.981 Y111.581 E7.94092
G1 X136.197 Y111.815 E7.95518
G1 X136.289 Y111.889 E7.96047
G1 X136.536 Y112.148 E7.9765
G1 X136.655 Y112.251 E7.98352
G1 X136.818 Y112.45 E7.99502
G1 X136.923 Y112.543 E8.00133
G1 X137.032 Y112.686 E8.00939
G1 X137.128 Y112.781 E8.01543
G1 X137.29 Y112.989 E8.02724
G1 X137.526 Y113.389 E8.04804
G1 X137.724 Y113.88 E8.07175
G1 X137.796 Y114.121 E8.08299
G1 X137.881 Y114.471 E8.09914
G1 X137.931 Y114.898 E8.11837
G1 X137.928 Y115.349 E8.13856
G1 X137.871 Y116 E8.16779
G1 X137.784 Y116.605 E8.19516
G1 X137.667 Y117.083 E8.21719
G1 X137.504 Y117.48 E8.23641
G1 X137.161 Y118.096 E8.26799
G1 X136.886 Y118.507 E8.29012
G1 X136.644 Y118.799 E8.30708
G1 X120.35 Y135.1 E9.33897
G1 X118.331 Y137.087 E9.46576
G1 X118.036 Y137.328 E9.48282
G1 X117.718 Y137.526 E9.49959
G1 X117.422 Y137.661 E9.51414
G1 X117.164 Y137.741 E9.52626
G1 X116.841 Y137.79 E9.54086
G1 X116.414 Y137.784 E9.55998
G1 X115.766 Y137.854 E9.5892
G1 X115.386 Y137.835 E9.60622
G1 X114.846 Y137.702 E9.6311
G1 X114.671 Y137.674 E9.63905
G1 X114.174 Y137.638 E9.66136
G1 X113.776 Y137.539 E9.67971
G1 X113.304 Y137.369 E9.70218
G1 X112.946 Y137.208 E9.71974
G1 X112.669 Y137.039 E9.73427
G1 X112.148 Y136.59 E9.76507
G1 X110.926 Y135.372 E9.8423
G1 X110.849 Y135.277 E9.84777
G1 X110.599 Y135.053 E9.86282
G1 X108.43 Y132.865 E10.00076
G1 X107.972 Y132.431 E10.02898
G1 X106.058 Y130.505 E10.15054
G1 X105.982 Y130.412 E10.15593
G1 X105.678 Y130.136 E10.1743
G1 X105.459 Y129.895 E10.18886
G1 X105.368 Y129.82 E10.19415
G1 X103.628 Y128.077 E10.3044
G1 X103.551 Y127.982 E10.3099
G1 X103.322 Y127.779 E10.32359
G1 X103.149 Y127.584 E10.33527
G1 X103.043 Y127.495 E10.34145
G1 X101.135 Y125.577 E10.46259
G1 X101.038 Y125.496 E10.46821
G1 X100.86 Y125.298 E10.48017
G1 X100.738 Y125.194 E10.48734
G1 X98.631 Y123.089 E10.6207
G1 X98.551 Y122.994 E10.62621
G1 X98.444 Y122.903 E10.63251
G1 X96.322 Y120.775 E10.76705
G1 X96.238 Y120.675 E10.77291
G1 X95.997 Y120.456 E10.7875
G1 X94.086 Y118.519 E10.90931
G1 X93.522 Y117.803 E10.95009
G1 X93.256 Y117.251 E10.97753
G1 X93.226 Y117.145 E10.98249
G1 X93.148 Y116.665 E11.00423
G1 X93.08 Y115.713 E11.04697
G1 X93.124 Y114.964 E11.08057
G1 X93.187 Y114.552 E11.09923
G1 X93.449 Y113.751 E11.13694
G1 X93.614 Y113.356 E11.15613
G1 X93.78 Y113.04 E11.17209
G1 X94.065 Y112.594 E11.19577
G1 X94.375 Y112.212 E11.21781
G1 X103.229 Y103.357 E11.77842
G1 X103.609 Y103.737 F9000
G1 F1200
G1 X111.013 Y96.331 E12.24726
G1 X112.966 Y94.415 E12.36975
G1 X113.232 Y94.203 E12.38495
G1 X113.462 Y94.051 E12.39728
G1 X113.481 Y94.041 E12.39827
G1 X113.742 Y93.924 E12.41106
G1 X113.781 Y93.914 E12.41288
G1 X115.123 Y93.757 E12.47338
G1 X115.476 Y93.745 E12.48917
G1 X115.498 Y93.746 E12.49017
G1 X115.783 Y93.784 E12.50303
G1 X116.066 Y93.822 E12.51582
G1 X117.071 Y94.034 E12.56178
G1 X117.319 Y94.121 E12.57358
G1 X117.336 Y94.129 E12.57441
G1 X118.048 Y94.494 E12.61024
G1 X118.083 Y94.52 E12.61218
G1 X118.142 Y94.581 E12.61598
G1 X118.239 Y94.636 E12.62097
G1 X118.277 Y94.668 E12.62319
G1 X118.329 Y94.732 E12.62687
G1 X118.403 Y94.776 E12.63073
G1 X118.441 Y94.811 E12.63306
G1 X118.495 Y94.883 E12.6371
G1 X118.561 Y94.926 E12.6406
G1 X118.597 Y94.962 E12.64286
G1 X118.647 Y95.033 E12.64675
G1 X118.723 Y95.087 E12.65093
G1 X118.755 Y95.119 E12.65294
G1 X118.805 Y95.19 E12.65682
G1 X119.042 Y95.406 E12.6712
G1 X119.251 Y95.637 E12.68516
G1 X119.339 Y95.707 E12.6902
G1 X119.366 Y95.735 E12.69193
G1 X119.409 Y95.795 E12.69526
G1 X119.469 Y95.839 E12.69857
G1 X119.496 Y95.864 E12.70023
G1 X119.566 Y95.952 E12.70524
G1 X119.695 Y96.056 E12.71266
G1 X120.204 Y96.558 E12.74469
G1 X120.216 Y96.571 E12.74548
G1 X120.291 Y96.668 E12.75095
G1 X120.377 Y96.736 E12.75586
G1 X120.408 Y96.77 E12.75792
G1 X120.453 Y96.843 E12.76175
G1 X120.518 Y96.884 E12.76521
G1 X120.553 Y96.916 E12.76732
G1 X120.62 Y97.005 E12.77229
G1 X120.695 Y97.054 E12.7763
G1 X120.731 Y97.09 E12.77856
G1 X120.781 Y97.162 E12.78251
G1 X120.855 Y97.215 E12.78657
G1 X120.887 Y97.248 E12.78865
G1 X120.93 Y97.311 E12.79203
G1 X120.987 Y97.352 E12.79519
G1 X121.008 Y97.371 E12.79647
G1 X121.223 Y97.609 E12.81079
G1 X121.289 Y97.656 E12.81443
G1 X121.316 Y97.682 E12.81614
G1 X121.388 Y97.773 E12.82134
G1 X121.62 Y97.984 E12.83535
G1 X121.838 Y98.225 E12.8499
G1 X121.907 Y98.274 E12.85371
G1 X121.934 Y98.3 E12.85539
G1 X122.003 Y98.386 E12.86031
G1 X122.129 Y98.488 E12.86756
G1 X122.496 Y98.847 E12.89055
G1 X122.598 Y98.97 E12.8977
G1 X122.791 Y99.144 E12.90931
G1 X122.811 Y99.167 E12.91069
G1 X122.884 Y99.272 E12.91643
G1 X122.964 Y99.324 E12.92069
G1 X123 Y99.359 E12.92295
G1 X123.057 Y99.44 E12.92737
G1 X123.131 Y99.493 E12.93146
G1 X123.163 Y99.525 E12.9335
G1 X123.208 Y99.589 E12.937
G1 X123.267 Y99.631 E12.94024
G1 X123.297 Y99.66 E12.94209
G1 X123.357 Y99.738 E12.94653
G1 X123.418 Y99.782 E12.94985
G1 X123.446 Y99.809 E12.9516
G1 X123.51 Y99.892 E12.95631
G1 X123.57 Y99.935 E12.95961
G1 X123.598 Y99.961 E12.9613
G1 X123.671 Y100.054 E12.96661
G1 X123.918 Y100.28 E12.9816
G1 X124.123 Y100.508 E12.99535
G1 X124.21 Y100.575 E13.00024
G1 X124.237 Y100.604 E13.00201
G1 X124.281 Y100.665 E13.00537
G1 X124.341 Y100.708 E13.00869
G1 X124.369 Y100.734 E13.01039
G1 X124.436 Y100.819 E13.01524
G1 X124.551 Y100.911 E13.02182
G1 X124.564 Y100.923 E13.02264
G1 X124.884 Y101.258 E13.04335
G1 X125.089 Y101.44 E13.05566
G1 X125.107 Y101.46 E13.05683
G1 X125.177 Y101.552 E13.06201
G1 X125.27 Y101.628 E13.0674
G1 X125.298 Y101.658 E13.06922
G1 X125.339 Y101.719 E13.07255
G1 X125.401 Y101.764 E13.07595
G1 X125.432 Y101.794 E13.07789
G1 X125.487 Y101.87 E13.08207
G1 X125.549 Y101.914 E13.08548
G1 X125.578 Y101.942 E13.08732
G1 X125.636 Y102.019 E13.09161
G1 X125.697 Y102.062 E13.09496
G1 X125.726 Y102.089 E13.09673
G1 X125.789 Y102.17 E13.10134
G1 X125.849 Y102.213 E13.10464
G1 X125.877 Y102.239 E13.10634
G1 X125.951 Y102.333 E13.11168
G1 X126.201 Y102.562 E13.12686
G1 X126.408 Y102.791 E13.1407
G1 X126.498 Y102.861 E13.14578
G1 X126.525 Y102.889 E13.14754
G1 X126.567 Y102.949 E13.15082
G1 X126.644 Y103.008 E13.15516
G1 X126.672 Y103.037 E13.15697
G1 X126.714 Y103.096 E13.16022
G1 X126.773 Y103.138 E13.16347
G1 X126.802 Y103.166 E13.16526
G1 X126.864 Y103.245 E13.16974
G1 X126.919 Y103.283 E13.17277
G1 X126.941 Y103.302 E13.17403
G1 X127.17 Y103.545 E13.18899
G1 X127.361 Y103.712 E13.20036
G1 X127.374 Y103.724 E13.20115
G1 X127.599 Y103.979 E13.21637
G1 X127.701 Y104.06 E13.2222
G1 X127.727 Y104.088 E13.2239
G1 X127.773 Y104.154 E13.22749
G1 X127.835 Y104.199 E13.23093
G1 X127.864 Y104.227 E13.23276
G1 X127.922 Y104.304 E13.23708
G1 X127.983 Y104.348 E13.24044
G1 X128.013 Y104.376 E13.24226
G1 X128.072 Y104.453 E13.2466
G1 X128.131 Y104.495 E13.24987
G1 X128.16 Y104.522 E13.25163
G1 X128.224 Y104.604 E13.25627
G1 X128.283 Y104.646 E13.25952
G1 X128.31 Y104.672 E13.26121
G1 X128.385 Y104.766 E13.26657
G1 X128.615 Y104.976 E13.28052
G1 X128.842 Y105.224 E13.29561
G1 X128.932 Y105.294 E13.30069
G1 X128.959 Y105.323 E13.30245
G1 X129.002 Y105.384 E13.3058
