; generated by SuperSlicer 2.4 on 2022-12-13 at 11:17:22 UTC

; 

; external perimeters extrusion width = 0.43mm
; perimeters extrusion width = 0.48mm
; infill extrusion width = 0.46mm
; solid infill extrusion width = 0.48mm
; top infill extrusion width = 0.46mm
; first layer extrusion width = 0.58mm

; object:{"name":"pent_1_thick","id":"pent_1_thick.stl id:0 copy 0","object_center":[115.500000,115.500000,0.000000],"boundingbox_center":[115.500000,115.500000,15.195431],"boundingbox_size":[40.794481,42.813914,30.390863]}
; Total objects to print: 1
M486 T1
; plater:{"center":[115.500000,115.500000,0.000000],"boundingbox_center":[115.500000,115.500000,15.195431],"boundingbox_size":[40.794481,42.813914,30.390863]}

;TYPE:Custom
G90 ; use absolute coordinates
M83 ; extruder relative mode
M140 S60 ; set final bed temp
M104 S150 ; set temporary nozzle temp to prevent oozing during homing and auto bed leveling
G4 S10 ; allow partial nozzle warmup
G28 ; home all axis
;G29 ; auto bed levelling
G1 Z10 F240
G1 X2 Y10 F3000
G1 Z0 F240
M104 S210 ; set final nozzle temp
M190 S60 ; wait for bed temp to stabilize
M109 S210 ; wait for nozzle temp to stabilize
G1 Z0.28 F240
G92 E0
G1 Y140 E10 F1500 ; prime the nozzle
G1 X2.3 F5000
G92 E0
G1 Y10 E10 F1200 ; prime the nozzle
G92 E0
;start
M107
G21 ; set units to millimeters
G90 ; use absolute coordinates
M82 ; use absolute distances for extrusion
G92 E0
; Filament gcode
;_TOOLCHANGE 0
M107
;LAYER_CHANGE
;Z:0.2
;HEIGHT:0.2
;BEFORE_LAYER_CHANGE
;0.2


G1 E-8.5 F3000
G1 Z0.15 F9000
;AFTER_LAYER_CHANGE
;0.2
G92 E0
M204 S500
G1 X91.563 Y99.085
G1 E8.5 F3000
;TYPE:Skirt
;WIDTH:0.48
G1 F1200
G1 X90.983 Y99.915 E8.53717
G1 X90.473 Y101.089 E8.58417
G1 X90.239 Y102.531 E8.63779
G1 X90.24 Y128.411 E9.58774
G1 X90.399 Y129.626 E9.63273
G1 X90.776 Y130.687 E9.67405
G1 X91.296 Y131.601 E9.71268
G1 X92.587 Y132.853 E9.77866
G1 X94.079 Y133.589 E9.83976
G1 X118.403 Y141.484 E10.77845
G1 X119.307 Y141.695 E10.81254
G1 X120.242 Y141.757 E10.84692
G1 X121.036 Y141.693 E10.87615
G1 X122.219 Y141.362 E10.92124
G1 X122.692 Y141.125 E10.94066
G1 X123.427 Y140.666 E10.97249
G1 X124.01 Y140.169 E11.00062
G1 X124.608 Y139.489 E11.03386
G1 X139.704 Y118.696 E11.97704
G1 X140.299 Y117.62 E12.02215
G1 X140.574 Y116.874 E12.05135
G1 X140.746 Y115.354 E12.10748
G1 X140.613 Y114.314 E12.14597
G1 X140.146 Y113.009 E12.19686
G1 X139.647 Y112.216 E12.23124
G1 X124.663 Y91.576 E13.16747
G1 X123.999 Y90.813 E13.2046
G1 X123.189 Y90.164 E13.24271
G1 X122.396 Y89.717 E13.27612
G1 X121.116 Y89.317 E13.32536
G1 X120.355 Y89.246 E13.35338
G1 X119.479 Y89.284 E13.38558
G1 X118.445 Y89.501 E13.42436
G1 X93.981 Y97.453 E14.36861
G1 X93.46 Y97.675 E14.38939
G1 X92.686 Y98.088 E14.42162
G1 X91.608 Y99.045 E14.47453
G92 E0
G1 E-5.95 F3000
;WIPE_START
G1 F7200
G1 X90.983 Y99.915 E-6.37397
G1 X90.473 Y101.089 E-6.88077
G1 X90.239 Y102.531 E-7.45898
G1 X90.239 Y104.839 E-8.3725
;WIPE_END
G1 E-8.5 F3000
; acceleration to travel
M204 S1500
G1 X94.054 Y101.969 F9000
; decel to extrusion
M204 S500
G1 X94.52 Y101.618
; end travel
G1 E0 F3000
;WIDTH:0.576
G1 F1200
G1 X94.858 Y101.32 E0.02021
G1 X95.281 Y101.113 E0.04127
G1 X95.778 Y100.977 E0.06436
G1 X97.5 Y100.424 E0.14531
G1 X115.042 Y94.726 E0.97103
G1 X119.098 Y93.403 E1.16205
G1 X119.571 Y93.218 E1.18477
G1 X119.948 Y93.137 E1.20206
G1 X120.225 Y93.125 E1.21445
G1 X120.543 Y93.17 E1.22882
G1 X120.799 Y93.265 E1.24107
G1 X121.141 Y93.468 E1.25885
G1 X121.301 Y93.607 E1.26833
G1 X121.482 Y93.81 E1.28053
G1 X122.025 Y94.627 E1.32447
G1 X122.37 Y95.075 E1.34975
G1 X122.603 Y95.425 E1.36857
G1 X122.709 Y95.546 E1.3758
G1 X122.805 Y95.703 E1.38402
G1 X123.273 Y96.326 E1.41889
G1 X123.514 Y96.678 E1.43798
G1 X123.727 Y96.94 E1.4531
G1 X124.585 Y98.118 E1.51835
G1 X124.877 Y98.553 E1.5418
G1 X125.287 Y99.096 E1.57229
G1 X125.411 Y99.289 E1.58253
G1 X125.623 Y99.555 E1.59778
G1 X126.124 Y100.274 E1.63703
G1 X126.351 Y100.551 E1.65306
G1 X126.958 Y101.42 E1.7005
G1 X127.08 Y101.559 E1.70877
G1 X127.209 Y101.757 E1.71936
G1 X127.378 Y101.968 E1.73147
G1 X127.471 Y102.122 E1.73953
G1 X128.099 Y102.96 E1.7864
G1 X128.205 Y103.132 E1.79543
G1 X128.535 Y103.561 E1.81967
G1 X128.87 Y104.048 E1.84611
G1 X128.984 Y104.177 E1.85385
G1 X129.073 Y104.318 E1.86128
G1 X129.28 Y104.582 E1.87633
G1 X129.639 Y105.113 E1.905
G1 X129.85 Y105.37 E1.91991
G1 X130.497 Y106.282 E1.96997
G1 X130.6 Y106.404 E1.97711
G1 X130.725 Y106.602 E1.98758
G1 X131.057 Y107.026 E2.01169
G1 X131.448 Y107.603 E2.04291
G1 X131.905 Y108.193 E2.07631
G1 X132.266 Y108.735 E2.10545
G1 X132.775 Y109.391 E2.14265
G1 X133.216 Y110.005 E2.17648
G1 X133.307 Y110.157 E2.18442
G1 X133.801 Y110.799 E2.22066
G1 X134.322 Y111.565 E2.26214
G1 X134.787 Y112.156 E2.29583
G1 X135.077 Y112.605 E2.31975
G1 X135.668 Y113.362 E2.36274
G1 X135.83 Y113.622 E2.37646
G1 X136.302 Y114.254 E2.41176
G1 X136.474 Y114.45 E2.42344
G1 X136.674 Y114.768 E2.44026
G1 X136.783 Y115.029 E2.45291
G1 X136.854 Y115.527 E2.47547
G1 X136.8 Y115.908 E2.49269
G1 X136.697 Y116.177 E2.50556
G1 X136.488 Y116.531 E2.52399
G1 X136.267 Y116.793 E2.53933
G1 X136.001 Y117.149 E2.55919
G1 X134.806 Y118.822 E2.65126
G1 X134.271 Y119.52 E2.69061
G1 X133.818 Y120.177 E2.72636
G1 X132.371 Y122.135 E2.83534
G1 X132.033 Y122.633 E2.86231
G1 X131.441 Y123.421 E2.90642
G1 X131.166 Y123.826 E2.92834
G1 X129.272 Y126.428 E3.07241
G1 X128.851 Y126.98 E3.10351
G1 X128.26 Y127.818 E3.1494
G1 X126.953 Y129.595 E3.24814
G1 X126.634 Y130.059 E3.27335
G1 X126.096 Y130.769 E3.31326
G1 X125.895 Y131.073 E3.32956
G1 X125.345 Y131.803 E3.37051
G1 X123.85 Y133.893 E3.4855
G1 X122.585 Y135.601 E3.58068
G1 X121.985 Y136.442 E3.62693
G1 X121.51 Y137.153 E3.66521
G1 X121.222 Y137.465 E3.68424
G1 X120.862 Y137.71 E3.70372
G1 X120.509 Y137.835 E3.7205
G1 X120.119 Y137.877 E3.73804
G1 X119.89 Y137.857 E3.74833
G1 X119.546 Y137.773 E3.76419
G1 X119.03 Y137.562 E3.78913
G1 X118.342 Y137.357 E3.82129
G1 X116.846 Y136.855 E3.89192
G1 X115.643 Y136.479 E3.94836
G1 X114.985 Y136.25 E3.97955
G1 X114.751 Y136.189 E3.99038
G1 X114.094 Y135.959 E4.02155
G1 X113.39 Y135.75 E4.05444
G1 X112.763 Y135.524 E4.08423
G1 X111.585 Y135.163 E4.13942
G1 X110.998 Y134.949 E4.16737
G1 X110.257 Y134.731 E4.20194
G1 X109.567 Y134.49 E4.23468
G1 X108.893 Y134.29 E4.26613
G1 X108.24 Y134.057 E4.29718
G1 X107.529 Y133.846 E4.33039
G1 X106.93 Y133.634 E4.35882
G1 X106.636 Y133.552 E4.37249
G1 X106.442 Y133.471 E4.38193
G1 X105.735 Y133.261 E4.41494
G1 X105.153 Y133.057 E4.44256
G1 X104.419 Y132.833 E4.47691
G1 X103.734 Y132.595 E4.50936
G1 X103.466 Y132.521 E4.5218
G1 X103.264 Y132.442 E4.53151
G1 X102.6 Y132.243 E4.56257
G1 X102.366 Y132.15 E4.57383
G1 X101.682 Y131.945 E4.6058
G1 X101.473 Y131.859 E4.6159
G1 X100.817 Y131.663 E4.64656
G1 X100.602 Y131.578 E4.65693
G1 X99.886 Y131.36 E4.69043
G1 X98.865 Y131.013 E4.73873
G1 X97.649 Y130.634 E4.79574
G1 X96.986 Y130.4 E4.82722
G1 X96.292 Y130.194 E4.85963
G1 X95.714 Y129.995 E4.887
G1 X95.375 Y129.919 E4.90255
G1 X94.77 Y129.617 E4.93281
G1 X94.553 Y129.426 E4.94575
G1 X94.445 Y129.293 E4.95341
G1 X94.286 Y129.02 E4.96755
G1 X94.2 Y128.807 E4.97783
G1 X94.122 Y128.313 E5.00023
G1 X94.153 Y127.604 E5.03201
G1 X94.153 Y103.364 E6.1172
G1 X94.123 Y102.706 E6.14671
G1 X94.144 Y102.459 E6.15779
G1 X94.235 Y102.094 E6.17463
G1 X94.349 Y101.863 E6.18615
G1 X94.485 Y101.668 E6.19683
G1 X94.926 Y101.975 F9000
G1 F1200
G1 X94.942 Y101.952 E6.1981
G1 X95.131 Y101.784 E6.20941
G1 X95.449 Y101.624 E6.22534
G1 X95.932 Y101.492 E6.24775
G1 X97.665 Y100.935 E6.32926
G1 X115.208 Y95.237 E7.15503
G1 X119.28 Y93.909 E7.34676
G1 X119.745 Y93.727 E7.36914
G1 X120.035 Y93.667 E7.38239
G1 X120.182 Y93.661 E7.38896
G1 X120.392 Y93.687 E7.39844
G1 X120.552 Y93.743 E7.40602
G1 X120.812 Y93.894 E7.41949
G1 X120.912 Y93.978 E7.42534
G1 X121.064 Y94.149 E7.43558
G1 X121.204 Y94.381 E7.44772
G1 X121.59 Y94.944 E7.47828
G1 X121.938 Y95.395 E7.5038
G1 X122.175 Y95.751 E7.52294
G1 X122.287 Y95.88 E7.53059
G1 X122.357 Y96 E7.53678
G1 X122.839 Y96.644 E7.5728
G1 X123.083 Y97 E7.59212
G1 X123.297 Y97.262 E7.60727
G1 X124.148 Y98.43 E7.67197
G1 X124.439 Y98.864 E7.69538
G1 X124.852 Y99.411 E7.72607
G1 X124.973 Y99.602 E7.73617
G1 X125.187 Y99.869 E7.75152
G1 X125.696 Y100.599 E7.79134
G1 X125.917 Y100.868 E7.80691
G1 X126.537 Y101.755 E7.8554
G1 X126.641 Y101.87 E7.86234
G1 X126.773 Y102.072 E7.87314
G1 X126.946 Y102.289 E7.88555
G1 X127.023 Y102.42 E7.89235
G1 X127.661 Y103.272 E7.94002
G1 X127.762 Y103.436 E7.94863
G1 X128.096 Y103.871 E7.97321
G1 X128.445 Y104.379 E8.00078
G1 X128.564 Y104.514 E8.00883
G1 X128.628 Y104.621 E8.01442
G1 X128.84 Y104.892 E8.02981
G1 X129.208 Y105.435 E8.05917
G1 X129.42 Y105.692 E8.07409
G1 X129.975 Y106.458 E8.11645
G1 X130.063 Y106.601 E8.12398
G1 X130.156 Y106.709 E8.13035
G1 X130.285 Y106.912 E8.14113
G1 X130.617 Y107.336 E8.16522
G1 X131.013 Y107.919 E8.19677
G1 X131.474 Y108.514 E8.23048
G1 X131.829 Y109.049 E8.25921
G1 X132.342 Y109.708 E8.2966
G1 X132.772 Y110.309 E8.32971
G1 X132.862 Y110.459 E8.33753
G1 X133.37 Y111.12 E8.37484
G1 X133.888 Y111.883 E8.41611
G1 X134.357 Y112.479 E8.45006
G1 X134.638 Y112.917 E8.47336
G1 X135.235 Y113.681 E8.51679
G1 X135.385 Y113.925 E8.52958
G1 X135.887 Y114.596 E8.56712
G1 X136.032 Y114.756 E8.57678
G1 X136.206 Y115.033 E8.59145
G1 X136.271 Y115.196 E8.59929
G1 X136.316 Y115.557 E8.61556
G1 X136.286 Y115.748 E8.62423
G1 X136.221 Y115.924 E8.63265
G1 X136.037 Y116.237 E8.64891
G1 X135.848 Y116.456 E8.66187
G1 X135.567 Y116.831 E8.68284
G1 X134.371 Y118.506 E8.77498
G1 X133.837 Y119.204 E8.81433
G1 X133.383 Y119.862 E8.85009
G1 X131.933 Y121.824 E8.95935
G1 X131.599 Y122.316 E8.98593
G1 X131.004 Y123.109 E9.03033
G1 X130.729 Y123.513 E9.05223
G1 X128.839 Y126.109 E9.19598
G1 X128.417 Y126.663 E9.22714
G1 X127.826 Y127.502 E9.2731
G1 X126.515 Y129.283 E9.37211
G1 X126.202 Y129.739 E9.39687
G1 X125.657 Y130.459 E9.43729
G1 X125.461 Y130.756 E9.45324
G1 X124.911 Y131.485 E9.49411
G1 X123.417 Y133.575 E9.6091
G1 X122.15 Y135.285 E9.7044
G1 X121.543 Y136.137 E9.75123
G1 X121.075 Y136.838 E9.78898
G1 X120.887 Y137.044 E9.80145
G1 X120.641 Y137.219 E9.815
G1 X120.413 Y137.305 E9.82589
G1 X120.13 Y137.339 E9.83862
G1 X119.992 Y137.329 E9.84484
G1 X119.73 Y137.268 E9.85689
G1 X119.209 Y137.055 E9.88207
G1 X118.509 Y136.846 E9.9148
G1 X117.012 Y136.344 E9.98548
G1 X115.807 Y135.968 E10.04198
G1 X115.141 Y135.736 E10.07356
G1 X114.918 Y135.678 E10.08389
G1 X114.259 Y135.448 E10.11513
G1 X113.55 Y135.237 E10.14822
G1 X112.933 Y135.014 E10.17759
G1 X111.749 Y134.651 E10.23305
G1 X111.166 Y134.439 E10.26082
G1 X110.416 Y134.218 E10.29584
G1 X109.732 Y133.978 E10.32826
G1 X109.053 Y133.777 E10.35997
G1 X108.408 Y133.546 E10.39067
G1 X107.689 Y133.333 E10.42423
G1 X107.091 Y133.121 E10.45262
G1 X106.826 Y133.049 E10.46491
G1 X106.621 Y132.964 E10.47484
G1 X105.894 Y132.748 E10.5088
G1 X105.32 Y132.546 E10.53603
G1 X104.58 Y132.321 E10.57066
G1 X103.892 Y132.081 E10.60328
G1 X103.649 Y132.016 E10.61456
G1 X103.44 Y131.933 E10.62461
G1 X102.766 Y131.732 E10.65613
G1 X102.544 Y131.642 E10.66683
G1 X101.85 Y131.435 E10.69926
G1 X101.655 Y131.353 E10.70872
G1 X100.983 Y131.152 E10.74015
G1 X100.78 Y131.071 E10.74993
G1 X100.055 Y130.85 E10.78386
G1 X99.031 Y130.502 E10.83226
G1 X97.813 Y130.122 E10.88936
G1 X97.152 Y129.888 E10.92078
G1 X96.45 Y129.68 E10.95354
G1 X95.86 Y129.477 E10.98147
G1 X95.524 Y129.401 E10.99693
G1 X95.099 Y129.191 E11.01814
G1 X94.928 Y129.04 E11.02836
G1 X94.881 Y128.979 E11.03177
G1 X94.763 Y128.772 E11.04248
G1 X94.712 Y128.639 E11.04883
G1 X94.66 Y128.31 E11.06376
G1 X94.691 Y127.616 E11.09486
G1 X94.69 Y103.352 E12.18113
G1 X94.66 Y102.698 E12.21043
G1 X94.672 Y102.562 E12.21656
G1 X94.733 Y102.298 E12.22867
G1 X94.802 Y102.152 E12.2359
G1 X94.891 Y102.025 E12.24288
G1 X95.332 Y102.332 F9000
G1 F1200
G1 X95.365 Y102.286 E12.24542
G1 X95.412 Y102.244 E12.24827
G1 X95.605 Y102.141 E12.25804
G1 X95.633 Y102.13 E12.2594
G1 X96.084 Y102.007 E12.28032
G1 X97.83 Y101.447 E12.36243
G1 X115.374 Y95.748 E13.18825
G1 X119.462 Y94.415 E13.38073
G1 X119.905 Y94.24 E13.40207
G1 X119.93 Y94.233 E13.40325
G1 X120.113 Y94.199 E13.41157
G1 X120.15 Y94.198 E13.41321
G1 X120.258 Y94.208 E13.41809
G1 X120.312 Y94.225 E13.42062
G1 X120.493 Y94.327 E13.4299
G1 X120.527 Y94.354 E13.43186
G1 X120.636 Y94.475 E13.43916
G1 X120.653 Y94.499 E13.44047
G1 X120.748 Y94.666 E13.44907
G1 X121.156 Y95.26 E13.48132
G1 X121.504 Y95.712 E13.50685
G1 X121.76 Y96.099 E13.52763
G1 X121.824 Y96.159 E13.53157
G1 X121.849 Y96.192 E13.53341
G1 X121.904 Y96.292 E13.53853
G1 X122.405 Y96.96 E13.57592
G1 X122.501 Y97.119 E13.58423
G1 X122.554 Y97.169 E13.58749
G1 X122.579 Y97.201 E13.58928
G1 X122.639 Y97.305 E13.5947
G1 X122.865 Y97.582 E13.61067
G1 X123.712 Y98.744 E13.67508
G1 X124.001 Y99.176 E13.69832
G1 X124.42 Y99.731 E13.72944
G1 X124.534 Y99.913 E13.7391
G1 X124.755 Y100.188 E13.75486
G1 X125.268 Y100.925 E13.79507
G1 X125.486 Y101.189 E13.81041
G1 X126.124 Y102.102 E13.86026
G1 X126.196 Y102.174 E13.86483
G1 X126.214 Y102.196 E13.86612
G1 X126.339 Y102.39 E13.87645
G1 X126.486 Y102.568 E13.88676
G1 X126.499 Y102.586 E13.88778
G1 X126.574 Y102.716 E13.89449
G1 X127.227 Y103.588 E13.94326
G1 X127.315 Y103.738 E13.95104
G1 X127.66 Y104.185 E13.97631
G1 X128.034 Y104.728 E14.00584
G1 X128.103 Y104.795 E14.01013
G1 X128.127 Y104.826 E14.01191
G1 X128.18 Y104.921 E14.01675
G1 X128.404 Y105.205 E14.03295
G1 X128.777 Y105.757 E14.06279
G1 X128.989 Y106.014 E14.07769
G1 X129.1 Y106.187 E14.08691
G1 X129.129 Y106.212 E14.08864
G1 X129.151 Y106.236 E14.09007
G1 X129.536 Y106.769 E14.11951
G1 X129.634 Y106.93 E14.12794
G1 X129.707 Y107.006 E14.13269
G1 X129.724 Y107.028 E14.1339
G1 X129.845 Y107.222 E14.14415
G1 X130.181 Y107.649 E14.16847
G1 X130.578 Y108.234 E14.20014
G1 X131.04 Y108.831 E14.23394
G1 X131.416 Y109.398 E14.26438
G1 X131.469 Y109.447 E14.26762
G1 X131.494 Y109.48 E14.26946
G1 X131.545 Y109.569 E14.27403
G1 X131.618 Y109.643 E14.27872
G1 X131.634 Y109.664 E14.27988
G1 X131.753 Y109.843 E14.28952
G1 X131.908 Y110.026 E14.30026
G1 X132.332 Y110.617 E14.33282
G1 X132.414 Y110.759 E14.34015
G1 X132.936 Y111.438 E14.37852
G1 X133.454 Y112.2 E14.41975
G1 X133.923 Y112.795 E14.45365
G1 X134.199 Y113.227 E14.47661
G1 X134.806 Y114.005 E14.52081
G1 X134.937 Y114.223 E14.5322
G1 X135.485 Y114.956 E14.57318
G1 X135.564 Y115.03 E14.57799
G1 X135.586 Y115.056 E14.57955
G1 X135.736 Y115.295 E14.59214
G1 X135.756 Y115.35 E14.59476
G1 X135.778 Y115.528 E14.60281
G1 X135.771 Y115.592 E14.60571
G1 X135.722 Y115.726 E14.61206
G1 X135.71 Y115.751 E14.61333
G1 X135.601 Y115.923 E14.62242
G1 X135.588 Y115.94 E14.62342
G1 X135.431 Y116.116 E14.63394
G1 X135.133 Y116.514 E14.65622
G1 X133.938 Y118.188 E14.74831
G1 X133.402 Y118.888 E14.78777
G1 X132.95 Y119.544 E14.82343
G1 X131.494 Y121.514 E14.93308
G1 X131.164 Y122.001 E14.95943
G1 X130.566 Y122.796 E15.00397
G1 X130.293 Y123.199 E15.02575
G1 X128.405 Y125.792 E15.16933
G1 X127.984 Y126.345 E15.20048
G1 X127.391 Y127.187 E15.24658
G1 X126.077 Y128.972 E15.34582
G1 X125.768 Y129.423 E15.37027
G1 X125.218 Y130.149 E15.41106
G1 X125.024 Y130.443 E15.42684
G1 X124.478 Y131.167 E15.46742
G1 X122.983 Y133.258 E15.58252
G1 X121.715 Y134.969 E15.67784
G1 X121.101 Y135.832 E15.72527
G1 X120.646 Y136.514 E15.76197
G1 X120.633 Y136.531 E15.76292
G1 X120.526 Y136.646 E15.76993
G1 X120.502 Y136.666 E15.77136
G1 X120.369 Y136.755 E15.77853
G1 X120.311 Y136.776 E15.78127
G1 X120.129 Y136.801 E15.78953
G1 X120.082 Y136.799 E15.79161
G1 X119.923 Y136.765 E15.79888
G1 X119.9 Y136.758 E15.79995
G1 X119.388 Y136.547 E15.82473
G1 X118.673 Y136.334 E15.85816
G1 X117.177 Y135.832 E15.92878
G1 X115.972 Y135.456 E15.98531
G1 X115.74 Y135.365 E15.99649
G1 X115.525 Y135.309 E16.00644
G1 X115.305 Y135.223 E16.017
G1 X115.089 Y135.168 E16.02699
G1 X114.424 Y134.936 E16.0585
G1 X113.715 Y134.725 E16.09162
G1 X113.104 Y134.504 E16.12072
G1 X111.917 Y134.14 E16.17631
G1 X111.334 Y133.928 E16.20406
G1 X110.577 Y133.705 E16.23938
