; generated by SuperSlicer 2.4 on 2022-12-13 at 11:18:00 UTC

; 

; external perimeters extrusion width = 0.43mm
; perimeters extrusion width = 0.48mm
; infill extrusion width = 0.46mm
; solid infill extrusion width = 0.48mm
; top infill extrusion width = 0.46mm
; first layer extrusion width = 0.58mm

; object:{"name":"prism_2_thick","id":"prism_2_thick.stl id:0 copy 0","object_center":[113.287568,111.664026,0.000000],"boundingbox_center":[113.287568,111.664026,16.085256],"boundingbox_size":[27.849652,26.702729,32.170512]}
; Total objects to print: 1
M486 T1
; plater:{"center":[113.287568,111.664026,0.000000],"boundingbox_center":[113.287568,111.664026,16.085256],"boundingbox_size":[27.849652,26.702729,32.170512]}

;TYPE:Custom
G90 ; use absolute coordinates
M83 ; extruder relative mode
M140 S60 ; set final bed temp
M104 S150 ; set temporary nozzle temp to prevent oozing during homing and auto bed leveling
G4 S10 ; allow partial nozzle warmup
G28 ; home all axis
;G29 ; auto bed levelling
G1 Z10 F240
G1 X2 Y10 F3000
G1 Z0 F240
M104 S210 ; set final nozzle temp
M190 S60 ; wait for bed temp to stabilize
M109 S210 ; wait for nozzle temp to stabilize
G1 Z0.28 F240
G92 E0
G1 Y140 E10 F1500 ; prime the nozzle
G1 X2.3 F5000
G92 E0
G1 Y10 E10 F1200 ; prime the nozzle
G92 E0
;start
M107
G21 ; set units to millimeters
G90 ; use absolute coordinates
M82 ; use absolute distances for extrusion
G92 E0
; Filament gcode
;_TOOLCHANGE 0
M107
;LAYER_CHANGE
;Z:0.2
;HEIGHT:0.2
;BEFORE_LAYER_CHANGE
;0.2


G1 E-8.5 F3000
G1 Z0.15 F9000
;AFTER_LAYER_CHANGE
;0.2
G92 E0
M204 S500
G1 X105.494 Y96.408
G1 E8.5 F3000
;TYPE:Skirt
;WIDTH:0.48
G1 F1200
G1 X104.759 Y97.371 E8.54445
G1 X104.312 Y98.31 E8.58262
G1 X95.796 Y121.306 E9.48277
G1 X95.496 Y122.596 E9.53139
G1 X95.509 Y123.932 E9.58041
G1 X95.717 Y124.87 E9.61568
G1 X96.213 Y126.003 E9.6611
G1 X96.744 Y126.77 E9.69534
G1 X97.324 Y127.406 E9.72694
G1 X98.531 Y128.276 E9.78153
G1 X99.15 Y128.566 E9.80661
G1 X100.07 Y128.838 E9.84184
G1 X100.753 Y128.934 E9.86716
G1 X102.178 Y128.868 E9.91953
G1 X126.758 Y124.648 E10.83498
G1 X128.01 Y124.147 E10.88446
G1 X128.619 Y123.767 E10.91084
G1 X129.415 Y123.063 E10.94983
G1 X129.852 Y122.524 E10.97531
G1 X130.291 Y121.808 E11.00612
G1 X130.796 Y120.497 E11.05769
G1 X130.923 Y119.896 E11.08024
G1 X130.985 Y119.017 E11.11258
G1 X130.93 Y118.208 E11.14235
G1 X130.588 Y116.967 E11.18961
G1 X129.817 Y115.623 E11.24649
G1 X113.887 Y96.439 E12.1618
G1 X113.02 Y95.674 E12.20424
G1 X112.475 Y95.326 E12.22797
G1 X111.604 Y94.936 E12.263
G1 X110.944 Y94.752 E12.28816
G1 X110.109 Y94.634 E12.3191
G1 X108.6 Y94.732 E12.3746
G1 X107.8 Y94.943 E12.40498
G1 X107.087 Y95.234 E12.43327
G1 X106.155 Y95.816 E12.47359
G1 X105.538 Y96.368 E12.50396
G92 E0
G1 E-5.95 F3000
;WIPE_START
G1 F7200
G1 X104.759 Y97.371 E-6.45271
G1 X104.312 Y98.31 E-6.86431
G1 X102.989 Y101.883 E-8.3725
;WIPE_END
G1 E-8.5 F3000
; acceleration to travel
M204 S1500
G1 X107.658 Y99.472 F9000
; decel to extrusion
M204 S500
G1 X108.228 Y99.177
; end travel
G1 E0 F3000
;WIDTH:0.576
G1 F1200
G1 X108.525 Y98.895 E0.01833
G1 X108.712 Y98.766 E0.0285
G1 X109.071 Y98.61 E0.04601
G1 X109.264 Y98.555 E0.05499
G1 X109.862 Y98.506 E0.08187
G1 X110.11 Y98.542 E0.0931
G1 X110.54 Y98.691 E0.11346
G1 X110.858 Y98.899 E0.13047
G1 X111.133 Y99.169 E0.1477
G1 X126.727 Y117.968 E1.24119
G1 X126.98 Y118.418 E1.26432
G1 X127.078 Y118.746 E1.27965
G1 X127.099 Y119.204 E1.30016
G1 X126.993 Y119.686 E1.32224
G1 X126.782 Y120.137 E1.34454
G1 X126.506 Y120.485 E1.36445
G1 X126.333 Y120.625 E1.37439
G1 X126.084 Y120.778 E1.38747
G1 X125.587 Y120.947 E1.41098
G1 X101.701 Y125.021 E2.49577
G1 X101.133 Y125.072 E2.5213
G1 X100.851 Y125.035 E2.53402
G1 X100.66 Y124.986 E2.54288
G1 X100.322 Y124.833 E2.55947
G1 X99.988 Y124.583 E2.57814
G1 X99.804 Y124.383 E2.59031
G1 X99.52 Y123.951 E2.61344
G1 X99.429 Y123.711 E2.62496
G1 X99.352 Y123.294 E2.64393
G1 X99.363 Y123.019 E2.65626
G1 X99.47 Y122.543 E2.6781
G1 X107.935 Y99.692 E3.76905
G1 X108.088 Y99.38 E3.78463
G1 X108.194 Y99.226 E3.79296
G1 X108.631 Y99.538 F9000
G1 F1200
G1 X108.649 Y99.512 E3.79441
G1 X108.874 Y99.304 E3.8081
G1 X108.989 Y99.228 E3.81429
G1 X109.263 Y99.112 E3.8276
G1 X109.38 Y99.081 E3.83301
G1 X109.824 Y99.043 E3.85298
G1 X109.968 Y99.061 E3.85946
G1 X110.281 Y99.163 E3.87419
G1 X110.503 Y99.304 E3.88599
G1 X110.728 Y99.523 E3.90005
G1 X126.297 Y118.291 E4.99175
G1 X126.494 Y118.649 E5.01005
G1 X126.551 Y118.858 E5.01972
G1 X126.561 Y119.185 E5.0344
G1 X126.492 Y119.49 E5.04838
G1 X126.337 Y119.834 E5.06525
G1 X126.138 Y120.092 E5.07983
G1 X126.036 Y120.177 E5.08581
G1 X125.83 Y120.303 E5.09662
G1 X125.476 Y120.421 E5.1133
G1 X101.62 Y124.49 E6.19675
G1 X101.172 Y124.535 E6.21692
G1 X100.938 Y124.504 E6.22746
G1 X100.822 Y124.473 E6.23286
G1 X100.576 Y124.359 E6.245
G1 X100.336 Y124.173 E6.2586
G1 X100.239 Y124.066 E6.26505
G1 X100.009 Y123.725 E6.28346
G1 X99.951 Y123.58 E6.29044
G1 X99.89 Y123.277 E6.30429
G1 X99.894 Y123.109 E6.31183
G1 X99.981 Y122.712 E6.33002
G1 X108.423 Y99.916 E7.4183
G1 X108.561 Y99.636 E7.43228
G1 X108.596 Y99.587 E7.43497
G1 X109.03 Y99.898 F9000
G1 F1200
G1 X109.061 Y99.858 E7.43726
G1 X109.215 Y99.72 E7.4465
G1 X109.254 Y99.696 E7.44857
G1 X109.447 Y99.617 E7.45788
G1 X109.486 Y99.608 E7.45969
G1 X109.799 Y99.58 E7.47373
G1 X109.847 Y99.585 E7.47589
G1 X110.006 Y99.629 E7.48331
G1 X110.043 Y99.646 E7.4851
G1 X110.177 Y99.731 E7.49222
G1 X110.2 Y99.75 E7.49356
G1 X110.319 Y99.871 E7.50112
G1 X125.874 Y118.623 E8.59189
G1 X125.891 Y118.648 E8.59323
G1 X126.003 Y118.869 E8.60432
G1 X126.017 Y118.921 E8.60675
G1 X126.029 Y119.093 E8.61445
G1 X126.026 Y119.129 E8.6161
G1 X125.994 Y119.284 E8.62315
G1 X125.985 Y119.311 E8.62443
G1 X125.87 Y119.568 E8.63704
G1 X125.852 Y119.598 E8.63861
G1 X125.766 Y119.704 E8.64472
G1 X125.732 Y119.733 E8.64672
G1 X125.59 Y119.822 E8.65424
G1 X125.559 Y119.837 E8.65577
G1 X125.395 Y119.888 E8.66347
G1 X125.377 Y119.893 E8.66428
G1 X101.533 Y123.96 E9.74719
G1 X101.229 Y123.998 E9.7609
G1 X101.194 Y123.998 E9.76248
G1 X101.033 Y123.975 E9.76976
G1 X100.994 Y123.964 E9.77156
G1 X100.85 Y123.896 E9.77868
G1 X100.821 Y123.877 E9.78024
G1 X100.695 Y123.772 E9.78759
G1 X100.67 Y123.745 E9.7892
G1 X100.491 Y123.486 E9.80332
G1 X100.47 Y123.438 E9.80566
G1 X100.427 Y123.244 E9.81458
G1 X100.426 Y123.188 E9.8171
G1 X100.482 Y122.909 E9.82983
G1 X100.488 Y122.889 E9.83076
G1 X108.919 Y100.123 E10.91761
G1 X109.004 Y99.952 E10.92615
; printing object prism_2_thick.stl id:0 copy 0
M486 S0
G1 X109.598 Y100.157 F9000
;TYPE:External perimeter
G1 F1200
G1 X109.796 Y100.149 E10.93501
G1 X109.902 Y100.24 E10.94128
G1 X125.416 Y118.942 E12.02911
G1 X125.467 Y119.044 E12.03424
G1 X125.458 Y119.125 E12.03788
G1 X125.378 Y119.299 E12.04645
G1 X125.255 Y119.349 E12.05237
G1 X101.449 Y123.41 E13.13356
G1 X101.172 Y123.432 E13.14597
G1 X101.096 Y123.382 E13.15009
G1 X100.995 Y123.237 E13.15797
G1 X101.022 Y123.051 E13.16637
G1 X109.433 Y100.338 E14.25073
G1 X109.493 Y100.219 E14.25667
G1 X109.543 Y100.179 E14.25952
;WIPE_START
G1 X109.85 Y100.468 F9000
;WIPE_END
G1 X109.686 Y100.579
G1 F1200
G1 X109.553 Y100.607 E14.2656
G1 X109.369 Y100.756 E14.27622
G1 X109.217 Y101.033 E14.29035
G1 X108.903 Y101.974 E14.33477
G1 X101.703 Y121.413 E15.26279
G1 X101.351 Y122.285 E15.3049
G1 X101.263 Y122.583 E15.31882
G1 X101.265 Y122.834 E15.33003
G1 X101.388 Y123.095 E15.34296
G1 X101.594 Y123.248 E15.35446
G1 X101.984 Y123.265 E15.37194
G1 X102.81 Y123.095 E15.4097
G1 X103.901 Y122.904 E15.45928
G1 X111.904 Y121.536 E15.82274
G1 X123.695 Y119.526 E16.35823
G1 X124.382 Y119.445 E16.38919
G1 X124.747 Y119.345 E16.40614
G1 X124.999 Y119.156 E16.42024
G1 X125.079 Y118.795 E16.43682
G1 X125.012 Y118.596 E16.44621
G1 X124.838 Y118.319 E16.46083
G1 X124.346 Y117.786 E16.49333
G1 X123.947 Y117.28 E16.52218
G1 X122.272 Y115.286 E16.63875
G1 X120.495 Y113.118 E16.76424
G1 X119.239 Y111.628 E16.85149
G1 X118.295 Y110.464 E16.91857
G1 X117.708 Y109.782 E16.95888
G1 X114.215 Y105.546 E17.20466
G1 X111.452 Y102.239 E17.39758
G1 X110.774 Y101.409 E17.44559
G1 X110.378 Y100.889 E17.47486
G1 X110.239 Y100.738 E17.48404
G1 X110.063 Y100.616 E17.49362
G1 X109.812 Y100.553 E17.50521
G1 X109.745 Y100.567 E17.50828
;WIPE_START
G1 X109.42 Y100.281 F9000
;WIPE_END
M106 S84.15
;LAYER_CHANGE
;Z:0.52
;HEIGHT:0.32
;BEFORE_LAYER_CHANGE
;0.52


G92 E0
G1 E-5.95 F3000
;WIPE_START
G1 F7200
G1 X109.213 Y100.626 E-6.10928
G1 X109.033 Y100.953 E-6.2569
G1 X108.714 Y101.908 E-6.65552
G1 X107.207 Y105.975 E-8.3725
;WIPE_END
G1 E-8.5 F3000
; stop printing object prism_2_thick.stl id:0 copy 0
M486 S-1
G1 Z0.47 F9000
;AFTER_LAYER_CHANGE
;0.52
G92 E0
; printing object prism_2_thick.stl id:0 copy 0
M486 S0
; acceleration to travel
M204 S1500
G1 X108.879 Y101.681
; decel to extrusion
M204 S500
G1 X109.085 Y101.151
; end travel
G1 E8.5 F3000
;TYPE:Internal perimeter
;WIDTH:0.476
G1 F1117
G1 X108.924 Y101.043 E8.51059
G1 X108.903 Y101.029 E8.51203
;TYPE:Overhang perimeter
G1 F1500
M204 S250
G1 X108.844 Y100.989 E8.51589
G1 X109.24 Y99.921 E8.57825
G1 X109.246 Y99.904 E8.57924
G1 X109.927 Y99.775 E8.61719
G1 X110.726 Y100.737 E8.68564
G1 X110.686 Y100.781 E8.68888
G1 X110.669 Y100.8 E8.6903
;TYPE:Internal perimeter
G1 F1117
M204 S500
G1 X110.513 Y100.974 E8.70306
G1 X110.101 Y100.699 E8.73015
G1 X109.801 Y100.716 E8.74657
G1 X109.558 Y100.714 E8.75988
G1 X109.129 Y101.11 E8.79182
G92 E0
G1 E-5.95 F3000
;WIPE_START
G1 F7200
G1 X108.924 Y101.043 E-6.03532
G1 X108.903 Y101.029 E-6.04574
;WIPE_END
G1 E-8.5 F3000
; acceleration to travel
M204 S1500
G1 X123.05 Y116.317 F9000
; decel to extrusion
M204 S500
G1 X124.796 Y118.204
; end travel
G1 E0 F3000
G1 F1117
G1 X124.998 Y118.075 E0.01313
G1 X125.02 Y118.061 E0.01454
;TYPE:Overhang perimeter
G1 F1500
M204 S250
G1 X125.07 Y118.029 E0.01779
G1 X125.777 Y118.881 E0.0784
G1 X125.846 Y118.979 E0.08497
G1 X125.607 Y119.601 E0.12148
G1 X124.457 Y119.798 E0.18534
G1 X124.438 Y119.75 E0.18819
;TYPE:Internal perimeter
G1 F1117
M204 S500
G1 X124.428 Y119.725 E0.18962
G1 X124.348 Y119.517 E0.20185
G1 X124.836 Y119.207 E0.23346
G1 X124.977 Y118.586 E0.26834
G1 X124.822 Y118.258 E0.28821
G92 E0
G1 E-5.95 F3000
;WIPE_START
G1 F7200
G1 X124.998 Y118.075 E-6.0507
G1 X125.02 Y118.061 E-6.06091
;WIPE_END
G1 E-8.5 F3000
; acceleration to travel
M204 S1500
G1 X104.709 Y122.714 F9000
; decel to extrusion
M204 S500
G1 X102.202 Y123.288
; end travel
G1 E0 F3000
G1 F1117
G1 X102.204 Y123.516 E0.0125
;TYPE:Overhang perimeter
G1 F1500
M204 S250
G1 X102.205 Y123.542 E0.01392
G1 X102.205 Y123.603 E0.01725
G1 X101.035 Y123.799 E0.08222
G1 X100.597 Y123.253 E0.12052
G1 X101.023 Y122.105 E0.18752
G1 X101.091 Y122.12 E0.19137
G1 X101.117 Y122.125 E0.19279
;TYPE:Internal perimeter
G1 F1117
M204 S500
G1 X101.333 Y122.17 E0.20487
G1 X101.305 Y122.671 E0.23235
G1 X101.519 Y123.071 E0.25717
G1 X101.851 Y123.237 E0.27748
G1 X102.142 Y123.279 E0.29362
M204 S250
G1 X101.969 Y122.86 F9000
;TYPE:Overhang perimeter
;WIDTH:0.428
G1 F1500
G1 X101.998 Y122.864 E0.29505
G1 X102.153 Y122.887 E0.30259
G1 X102.344 Y122.872 E0.31185
G1 X103.026 Y122.73 E0.34547
G1 X106.48 Y122.14 E0.51469
G1 X122.612 Y119.39 E1.30482
G1 X123.956 Y119.184 E1.37047
G1 X124.242 Y119.122 E1.38457
G1 X124.363 Y119.045 E1.39154
G1 X124.491 Y118.964 E1.39883
G1 X124.552 Y118.695 E1.41215
G1 X124.567 Y118.631 E1.41531
G1 X124.55 Y118.595 E1.41725
G1 X124.444 Y118.373 E1.42912
G1 X124.316 Y118.209 E1.43916
G1 X123.823 Y117.656 E1.47493
G1 X121.263 Y114.577 E1.66824
G1 X110.919 Y102.105 E2.4506
G1 X110.376 Y101.406 E2.49336
G1 X110.241 Y101.262 E2.50288
G1 X110.099 Y101.167 E2.51112
G1 X109.992 Y101.096 E2.51732
G1 X109.952 Y101.098 E2.51925
G1 X109.811 Y101.106 E2.5261
G1 X109.71 Y101.105 E2.53099
G1 X109.652 Y101.158 E2.53474
G1 X109.558 Y101.245 E2.54097
G1 X109.526 Y101.274 E2.54303
G1 X109.392 Y101.539 E2.55737
G1 X109.097 Y102.416 E2.60204
G1 X102.116 Y121.265 E3.57254
G1 X101.799 Y122.055 E3.61364
G1 X101.715 Y122.334 E3.6277
G1 X101.708 Y122.459 E3.63373
G1 X101.701 Y122.584 E3.63978
G1 X101.715 Y122.611 E3.6413
G1 X101.804 Y122.778 E3.65041
G1 X101.886 Y122.819 E3.65481
G1 X101.915 Y122.833 E3.6564
G1 X102.113 Y124.014 F9000
;WIDTH:0.389872
;HEIGHT:0.389872
G1 F1500
G1 X101.069 Y124.189 E3.70945
G1 X100.872 Y124.194 E3.71935
G1 X100.808 Y124.14 E3.72353
G1 X100.193 Y123.372 E3.77284
G1 X100.175 Y123.319 E3.77569
G1 X100.216 Y123.16 E3.7839
G1 X108.909 Y99.691 E5.03852
G1 X108.979 Y99.573 E5.04536
G1 X109.025 Y99.549 E5.04799
G1 X109.839 Y99.394 E5.0895
G1 X110.063 Y99.378 E5.10079
G1 X110.207 Y99.501 E5.11031
G1 X126.086 Y118.643 E6.35705
G1 X126.26 Y118.887 E6.37208
G1 X126.247 Y119.024 E6.37895
G1 X125.909 Y119.903 E6.42618
G1 X125.788 Y119.966 E6.433
G1 X105.934 Y123.363 E7.44271
G1 X105.28 Y123.461 E7.4759
G1 X102.621 Y123.929 E7.61121
G1 X102.172 Y124.004 E7.63403
M204 S500
G1 X102.38 Y123.436 F9000
;TYPE:Gap fill
;WIDTH:0.788755
;HEIGHT:0.32
G1 F1117
G1 X102.412 Y123.42 E7.63749
G1 X102.465 Y123.404 E7.64282
G1 X102.518 Y123.388 E7.64816
G1 X102.642 Y123.366 E7.66041
;WIDTH:0.844601
G1 X102.767 Y123.345 E7.67361
G1 X103.129 Y123.275 E7.71199
G1 X104.158 Y123.098 E7.82087
G1 X105.187 Y122.92 E7.92975
G1 X105.521 Y122.867 E7.96507
G1 X105.846 Y122.815 E7.99939
G1 X114.845 Y121.283 E8.95108
G1 X123.843 Y119.751 E9.90276
G1 X123.943 Y119.733 E9.91337
;WIDTH:0.7955
G1 X124.043 Y119.715 E9.9233
G1 X124.078 Y119.71 E9.92673
G1 X124.169 Y119.707 E9.9356
G1 X124.231 Y119.705 E9.94171
G1 X125.032 Y119.512 F9000
;WIDTH:0.57179
G1 F1117
G1 X125.065 Y119.483 E9.94465
G1 X125.138 Y119.418 E9.95125
;WIDTH:0.471272
G1 X125.191 Y119.372 E9.95506
G1 X125.241 Y119.297 E9.95993
;WIDTH:0.541026
G1 X125.286 Y119.21 E9.96614
;WIDTH:0.601567
G1 X125.31 Y119.132 E9.97197
G1 X125.334 Y119.054 E9.9778
G1 X125.368 Y118.887 E9.99003
;WIDTH:0.535995
G1 X125.402 Y118.72 E10.00076
G1 X124.826 Y117.975 F9000
;WIDTH:0.783715
G1 F1117
G1 X124.791 Y117.932 E10.00605
G1 X124.751 Y117.884 E10.01209
G1 X124.663 Y117.781 E10.02513
;WIDTH:0.841923
G1 X124.575 Y117.678 E10.03922
G1 X124.41 Y117.486 E10.06553
G1 X124.245 Y117.293 E10.09184
G1 X117.799 Y109.525 E11.14067
G1 X111.354 Y101.756 E12.18949
G1 X111.168 Y101.525 E12.22032
G1 X110.982 Y101.293 E12.25115
G1 X110.896 Y101.187 E12.26534
;WIDTH:0.783963
G1 X110.81 Y101.081 E12.27847
G1 X110.772 Y101.027 E12.28486
G1 X110.747 Y100.977 E12.29021
G1 X110.259 Y100.531 F9000
;WIDTH:0.167942
G1 F1117
G1 X110.186 Y100.465 E12.29154
;WIDTH:0.194007
G1 X110.152 Y100.444 E12.2922
;WIDTH:0.227374
G1 X110.072 Y100.407 E12.29408
;WIDTH:0.312968
G1 X109.992 Y100.371 E12.29697
;WIDTH:0.398561
G1 X109.912 Y100.335 E12.30087
;WIDTH:0.484155
G1 X109.832 Y100.299 E12.30578
;WIDTH:0.569748
G1 X109.752 Y100.262 E12.31171
G1 X109.659 Y100.272 E12.318
G1 X109.566 Y100.282 E12.32429
;WIDTH:0.513866
G1 X109.503 Y100.302 E12.32822
;WIDTH:0.473943
G1 X109.439 Y100.333 E12.33209
;WIDTH:0.50296
G1 X109.359 Y100.392 E12.33791
;WIDTH:0.589032
G1 X109.279 Y100.452 E12.34488
G1 X109.226 Y100.491 E12.34949
G1 X108.899 Y101.239 F9000
;WIDTH:0.831267
G1 F1117
G1 X108.873 Y101.344 E12.36066
G1 X108.852 Y101.421 E12.36879
;WIDTH:0.802037
G1 X108.83 Y101.497 E12.37662
G1 X108.805 Y101.563 E12.38357
;WIDTH:0.850691
G1 X108.78 Y101.629 E12.39099
G1 X108.674 Y101.929 E12.42442
G1 X108.568 Y102.229 E12.45784
G1 X105.08 Y111.646 E13.51307
G1 X101.592 Y121.063 E14.5683
G1 X101.488 Y121.331 E14.5985
G1 X101.385 Y121.599 E14.62869
G1 X101.343 Y121.712 E14.64135
;WIDTH:0.82479
G1 X101.301 Y121.825 E14.6536
G1 X101.274 Y121.886 E14.66036
G1 X101.223 Y121.967 E14.67008
G1 X101.081 Y122.602 F9000
;WIDTH:0.160825
G1 F1117
G1 X101.071 Y122.65 E14.67069
G1 X101.056 Y122.745 E14.67188
;WIDTH:0.22844
G1 X101.063 Y122.841 E14.67393
;WIDTH:0.316741
G1 X101.069 Y122.936 E14.67712
;WIDTH:0.405043
G1 X101.076 Y123.031 E14.68144
;WIDTH:0.493344
G1 X101.083 Y123.127 E14.68689
;WIDTH:0.559571
G1 X101.086 Y123.174 E14.69004
G1 X101.133 Y123.246 E14.69574
;WIDTH:0.527929
G1 X101.181 Y123.319 E14.70107
G1 X101.247 Y123.385 E14.70684
