; generated by SuperSlicer 2.4 on 2022-12-13 at 11:18:23 UTC

; 

; external perimeters extrusion width = 0.43mm
; perimeters extrusion width = 0.48mm
; infill extrusion width = 0.46mm
; solid infill extrusion width = 0.48mm
; top infill extrusion width = 0.46mm
; first layer extrusion width = 0.58mm

; object:{"name":"pyramid_1_thick","id":"pyramid_1_thick.stl id:0 copy 0","object_center":[115.500000,115.500000,0.000000],"boundingbox_center":[115.500000,115.500000,15.991138],"boundingbox_size":[47.356824,47.344589,31.982276]}
; Total objects to print: 1
M486 T1
; plater:{"center":[115.500000,115.500000,0.000000],"boundingbox_center":[115.500000,115.500000,15.991138],"boundingbox_size":[47.356824,47.344589,31.982276]}

;TYPE:Custom
G90 ; use absolute coordinates
M83 ; extruder relative mode
M140 S60 ; set final bed temp
M104 S150 ; set temporary nozzle temp to prevent oozing during homing and auto bed leveling
G4 S10 ; allow partial nozzle warmup
G28 ; home all axis
;G29 ; auto bed levelling
G1 Z10 F240
G1 X2 Y10 F3000
G1 Z0 F240
M104 S210 ; set final nozzle temp
M190 S60 ; wait for bed temp to stabilize
M109 S210 ; wait for nozzle temp to stabilize
G1 Z0.28 F240
G92 E0
G1 Y140 E10 F1500 ; prime the nozzle
G1 X2.3 F5000
G92 E0
G1 Y10 E10 F1200 ; prime the nozzle
G92 E0
;start
M107
G21 ; set units to millimeters
G90 ; use absolute coordinates
M82 ; use absolute distances for extrusion
G92 E0
; Filament gcode
;_TOOLCHANGE 0
M107
;LAYER_CHANGE
;Z:0.2
;HEIGHT:0.2
;BEFORE_LAYER_CHANGE
;0.2


G1 E-8.5 F3000
G1 Z0.15 F9000
;AFTER_LAYER_CHANGE
;0.2
G92 E0
M204 S500
G1 X99.904 Y99.876
G1 E8.5 F3000
;TYPE:Skirt
;WIDTH:0.48
G1 F1200
G1 X88.603 Y111.18 E9.08672
G1 X87.845 Y112.175 E9.13264
G1 X87.504 Y112.797 E9.15868
G1 X87.165 Y113.744 E9.19561
G1 X86.966 Y115.496 E9.26031
G1 X87.047 Y116.658 E9.30307
G1 X87.456 Y118.126 E9.35901
G1 X88.069 Y119.189 E9.40407
G1 X90.218 Y121.448 E9.51852
G1 X111.031 Y142.295 E10.59981
G1 X112.545 Y143.373 E10.66806
G1 X113.893 Y143.878 E10.72088
G1 X115.381 Y144.034 E10.7758
G1 X116.074 Y144.014 E10.80126
G1 X117.211 Y143.845 E10.84343
G1 X118.187 Y143.497 E10.88149
G1 X118.863 Y143.124 E10.90982
G1 X119.526 Y142.639 E10.93999
G1 X121.839 Y140.395 E11.05828
G1 X142.379 Y119.84 E12.12491
G1 X143.055 Y119.01 E12.16421
G1 X143.561 Y118.077 E12.20316
G1 X143.954 Y116.658 E12.25721
G1 X144.034 Y115.496 E12.29997
G1 X143.835 Y113.744 E12.36467
G1 X143.496 Y112.797 E12.4016
G1 X142.784 Y111.636 E12.45158
G1 X142.223 Y110.992 E12.48293
G1 X119.88 Y88.67 E13.64226
G1 X119.001 Y87.962 E13.68369
G1 X118.239 Y87.526 E13.7159
G1 X117.095 Y87.135 E13.76031
G1 X115.972 Y86.982 E13.8019
G1 X115.062 Y86.982 E13.83528
G1 X113.95 Y87.127 E13.87645
G1 X112.585 Y87.613 E13.92966
G1 X111.68 Y88.187 E13.969
G1 X109.578 Y90.2 E14.07584
G1 X99.947 Y99.834 E14.57586
G92 E0
G1 E-5.95 F3000
;WIPE_START
G1 F7200
G1 X95.62 Y104.162 E-8.3725
;WIPE_END
G1 E-8.5 F3000
; acceleration to travel
M204 S1500
G1 X101.997 Y102.674 F9000
; decel to extrusion
M204 S500
G1 X102.776 Y102.492
; end travel
G1 E0 F3000
;WIDTH:0.576
G1 F1200
G1 X102.869 Y102.393 E0.00609
G1 X103.376 Y101.916 E0.03727
G1 X104.07 Y101.193 E0.08211
G1 X104.475 Y100.817 E0.10686
G1 X105.17 Y100.092 E0.15183
G1 X105.517 Y99.775 E0.17287
G1 X106.847 Y98.441 E0.25722
G1 X107.213 Y98.051 E0.28114
G1 X107.707 Y97.586 E0.31152
G1 X108.197 Y97.065 E0.34353
G1 X108.801 Y96.493 E0.38081
G1 X109.299 Y95.963 E0.41335
G1 X109.837 Y95.457 E0.44639
G1 X110.393 Y94.871 E0.48257
G1 X111.008 Y94.286 E0.52057
G1 X112.291 Y92.967 E0.60294
G1 X112.542 Y92.744 E0.61795
G1 X112.819 Y92.566 E0.63272
G1 X113.348 Y92.351 E0.65827
G1 X113.573 Y91.835 E0.68349
G1 X113.915 Y91.389 E0.70865
G1 X114.069 Y91.25 E0.7179
G1 X114.247 Y91.127 E0.72759
G1 X114.625 Y90.96 E0.74611
G1 X115.062 Y90.868 E0.76613
G1 X115.516 Y90.857 E0.78644
G1 X115.969 Y90.869 E0.80672
G1 X116.394 Y90.961 E0.8262
G1 X116.772 Y91.139 E0.8449
G1 X117.088 Y91.388 E0.86292
G1 X117.22 Y91.536 E0.87179
G1 X117.441 Y91.854 E0.88911
G1 X117.653 Y92.35 E0.91329
G1 X118.127 Y92.538 E0.9361
G1 X118.281 Y92.629 E0.94411
G1 X118.667 Y92.927 E0.96596
G1 X120.056 Y94.349 E1.05495
G1 X120.627 Y94.891 E1.09017
G1 X121.16 Y95.454 E1.12488
G1 X121.722 Y95.984 E1.15947
G1 X122.263 Y96.556 E1.19472
G1 X122.822 Y97.084 E1.22915
G1 X123.359 Y97.652 E1.26412
G1 X123.783 Y98.047 E1.29007
G1 X124.286 Y98.578 E1.32282
G1 X124.826 Y99.088 E1.35608
G1 X125.379 Y99.672 E1.39207
G1 X125.838 Y100.1 E1.42017
G1 X126.351 Y100.645 E1.4537
G1 X126.917 Y101.179 E1.48852
G1 X127.448 Y101.742 E1.52317
G1 X128.021 Y102.283 E1.55842
G1 X128.555 Y102.847 E1.59322
G1 X129.128 Y103.391 E1.62859
G1 X129.664 Y103.952 E1.66334
G1 X130.059 Y104.321 E1.68754
G1 X130.517 Y104.809 E1.71751
G1 X131.14 Y105.402 E1.756
G1 X131.652 Y105.944 E1.78937
G1 X132.238 Y106.499 E1.8255
G1 X132.751 Y107.043 E1.85898
G1 X133.35 Y107.612 E1.89596
G1 X133.999 Y108.288 E1.93793
G1 X134.453 Y108.714 E1.96577
G1 X134.93 Y109.216 E1.9968
G1 X135.495 Y109.757 E2.0318
G1 X135.878 Y110.168 E2.05698
G1 X136.569 Y110.829 E2.09977
G1 X137.119 Y111.408 E2.13555
G1 X137.683 Y111.928 E2.16988
G1 X138.272 Y112.559 E2.20853
G1 X138.482 Y112.908 E2.22676
G1 X138.647 Y113.33 E2.24703
G1 X138.931 Y113.422 E2.26037
G1 X139.163 Y113.534 E2.27194
G1 X139.485 Y113.761 E2.28958
G1 X139.776 Y114.088 E2.30914
G1 X139.972 Y114.429 E2.32676
G1 X140.076 Y114.719 E2.34055
G1 X140.139 Y115.088 E2.35729
G1 X140.159 Y115.571 E2.37897
G1 X140.114 Y116.1 E2.40271
G1 X140.067 Y116.319 E2.41274
G1 X139.983 Y116.563 E2.42428
G1 X139.889 Y116.755 E2.43387
G1 X139.671 Y117.046 E2.45015
G1 X139.173 Y117.443 E2.47863
G1 X138.834 Y117.614 E2.49563
G1 X138.645 Y117.69 E2.50478
G1 X138.486 Y118.09 E2.52405
G1 X138.397 Y118.251 E2.5323
G1 X138.079 Y118.668 E2.55573
G1 X136.543 Y120.171 E2.65197
G1 X135.488 Y121.225 E2.71873
G1 X135.006 Y121.736 E2.75017
G1 X134.508 Y122.204 E2.78078
G1 X134.032 Y122.711 E2.8119
G1 X133.416 Y123.295 E2.84992
G1 X132.953 Y123.788 E2.88017
G1 X132.596 Y124.12 E2.90201
G1 X131.275 Y125.435 E2.98547
G1 X130.843 Y125.896 E3.01377
G1 X130.355 Y126.356 E3.04377
G1 X129.714 Y127.026 E3.0853
G1 X129.197 Y127.512 E3.11703
G1 X128.711 Y128.03 E3.14884
G1 X128.161 Y128.548 E3.18268
G1 X127.629 Y129.111 E3.21735
G1 X127.284 Y129.432 E3.23843
G1 X126.689 Y130.049 E3.27682
G1 X125.945 Y130.767 E3.3231
G1 X125.586 Y131.154 E3.34674
G1 X125.021 Y131.687 E3.3815
G1 X124.485 Y132.254 E3.41642
G1 X123.876 Y132.832 E3.45402
G1 X123.412 Y133.327 E3.48441
G1 X122.776 Y133.934 E3.52376
G1 X122.298 Y134.44 E3.55492
G1 X120.822 Y135.888 E3.64749
G1 X120.172 Y136.567 E3.68958
G1 X119.639 Y137.069 E3.72234
G1 X119.077 Y137.676 E3.75939
G1 X118.578 Y138.161 E3.79051
G1 X118.272 Y138.382 E3.80744
G1 X117.66 Y138.644 E3.83726
G1 X117.59 Y138.836 E3.8464
G1 X117.339 Y139.327 E3.87107
G1 X117.186 Y139.518 E3.88203
G1 X116.854 Y139.804 E3.90166
G1 X116.547 Y139.976 E3.91742
G1 X116.253 Y140.081 E3.93138
G1 X115.873 Y140.143 E3.94862
G1 X115.39 Y140.157 E3.97023
G1 X114.637 Y140.051 E4.00429
G1 X114.363 Y139.931 E4.01768
G1 X113.877 Y139.589 E4.04428
G1 X113.685 Y139.361 E4.05764
G1 X113.521 Y139.078 E4.07228
G1 X113.345 Y138.644 E4.09322
G1 X113.227 Y138.607 E4.09875
G1 X112.725 Y138.38 E4.12344
G1 X112.421 Y138.16 E4.14021
G1 X111.923 Y137.676 E4.17134
G1 X111.398 Y137.108 E4.20595
G1 X110.731 Y136.471 E4.24724
G1 X110.341 Y136.051 E4.27292
G1 X108.702 Y134.441 E4.37575
G1 X108.15 Y133.86 E4.41163
G1 X107.602 Y133.341 E4.44543
G1 X107.053 Y132.762 E4.48112
G1 X106.496 Y132.235 E4.51549
G1 X105.955 Y131.664 E4.55072
G1 X105.415 Y131.155 E4.58391
G1 X105.024 Y130.733 E4.60967
G1 X104.312 Y130.05 E4.65384
G1 X103.748 Y129.464 E4.69026
G1 X103.371 Y129.11 E4.71339
G1 X102.831 Y128.541 E4.74855
G1 X102.289 Y128.029 E4.78192
G1 X101.853 Y127.563 E4.81045
G1 X101.19 Y126.931 E4.85148
G1 X100.801 Y126.511 E4.87713
G1 X100.087 Y125.826 E4.92139
G1 X99.698 Y125.409 E4.94693
G1 X99.067 Y124.807 E4.98598
G1 X98.601 Y124.313 E5.01638
G1 X98.047 Y123.788 E5.05053
G1 X97.512 Y123.225 E5.08532
G1 X97.058 Y122.801 E5.11315
G1 X96.6 Y122.313 E5.1431
G1 X95.977 Y121.72 E5.1816
G1 X95.484 Y121.196 E5.21381
G1 X94.847 Y120.588 E5.25324
G1 X94.376 Y120.09 E5.28394
G1 X92.968 Y118.717 E5.37197
G1 X92.737 Y118.458 E5.38748
G1 X92.559 Y118.18 E5.40227
G1 X92.351 Y117.677 E5.42664
G1 X92.163 Y117.613 E5.43554
G1 X91.764 Y117.403 E5.45573
G1 X91.428 Y117.145 E5.47469
G1 X91.171 Y116.845 E5.4924
G1 X91.019 Y116.571 E5.50641
G1 X90.919 Y116.272 E5.52052
G1 X90.841 Y115.574 E5.55197
G1 X90.861 Y115.088 E5.57376
G1 X90.924 Y114.719 E5.5905
G1 X91.025 Y114.435 E5.60401
G1 X91.186 Y114.144 E5.61887
G1 X91.441 Y113.829 E5.63701
G1 X91.827 Y113.54 E5.65861
G1 X92.069 Y113.422 E5.67068
G1 X92.356 Y113.328 E5.68417
G1 X92.587 Y112.775 E5.71102
G1 X92.813 Y112.449 E5.72879
G1 X93.077 Y112.173 E5.74586
G1 X93.934 Y111.356 E5.79886
G1 X94.523 Y110.736 E5.83716
G1 X94.997 Y110.293 E5.86622
G1 X96.553 Y108.708 E5.96567
G1 X97.069 Y108.221 E5.99743
G1 X97.545 Y107.717 E6.02846
G1 X98.174 Y107.118 E6.06732
G1 X98.632 Y106.63 E6.09732
G1 X99.154 Y106.136 E6.12949
G1 X99.859 Y105.402 E6.17504
G1 X100.263 Y105.028 E6.19969
G1 X101.525 Y103.762 E6.27974
G1 X101.891 Y103.372 E6.30367
G1 X102.393 Y102.901 E6.33448
G1 X102.735 Y102.536 E6.35686
G1 X103.127 Y102.904 F9000
G1 F1200
G1 X103.255 Y102.767 E6.36527
G1 X103.755 Y102.298 E6.39596
G1 X104.452 Y101.571 E6.44105
G1 X104.852 Y101.201 E6.46545
G1 X105.552 Y100.471 E6.51074
G1 X105.889 Y100.164 E6.53114
G1 X107.234 Y98.814 E6.61645
G1 X107.587 Y98.437 E6.63958
G1 X108.088 Y97.966 E6.67033
G1 X108.572 Y97.45 E6.70203
G1 X109.182 Y96.872 E6.73966
G1 X109.674 Y96.349 E6.77179
G1 X110.217 Y95.838 E6.80516
G1 X110.768 Y95.255 E6.84108
G1 X111.386 Y94.668 E6.87924
G1 X112.67 Y93.348 E6.9617
G1 X112.85 Y93.185 E6.97257
G1 X113.088 Y93.033 E6.98519
G1 X113.712 Y92.785 E7.01526
G1 X113.746 Y92.754 E7.01732
G1 X113.827 Y92.598 E7.02518
G1 X114.023 Y92.131 E7.04786
G1 X114.294 Y91.771 E7.06805
G1 X114.414 Y91.662 E7.0753
G1 X114.526 Y91.587 E7.08134
G1 X114.811 Y91.465 E7.0952
G1 X115.142 Y91.4 E7.11033
G1 X115.512 Y91.395 E7.12688
G1 X115.887 Y91.4 E7.14366
G1 X116.202 Y91.464 E7.15805
G1 X116.469 Y91.584 E7.17116
G1 X116.707 Y91.767 E7.18461
G1 X116.789 Y91.857 E7.19006
G1 X116.983 Y92.137 E7.2053
G1 X117.17 Y92.589 E7.22721
G1 X117.278 Y92.781 E7.23708
G1 X117.876 Y93.014 E7.2658
G1 X117.969 Y93.067 E7.27059
G1 X118.297 Y93.317 E7.28903
G1 X119.679 Y94.732 E7.37761
G1 X120.242 Y95.265 E7.41229
G1 X120.78 Y95.834 E7.44737
G1 X121.337 Y96.359 E7.48163
G1 X121.883 Y96.936 E7.51721
G1 X122.437 Y97.459 E7.5513
G1 X122.98 Y98.033 E7.58669
G1 X123.411 Y98.434 E7.61301
G1 X123.906 Y98.958 E7.6453
G1 X124.451 Y99.473 E7.67888
G1 X125 Y100.053 E7.71463
G1 X125.453 Y100.475 E7.74233
G1 X125.971 Y101.025 E7.77616
G1 X126.542 Y101.565 E7.81133
G1 X127.068 Y102.122 E7.84564
G1 X127.635 Y102.658 E7.88058
G1 X128.175 Y103.227 E7.9157
G1 X128.744 Y103.767 E7.95081
G1 X129.286 Y104.335 E7.98597
G1 X129.674 Y104.695 E8.00965
G1 X130.136 Y105.188 E8.0399
G1 X130.765 Y105.786 E8.07875
G1 X131.271 Y106.324 E8.11182
G1 X131.862 Y106.884 E8.14828
G1 X132.371 Y107.422 E8.18143
G1 X132.967 Y107.988 E8.21822
G1 X133.621 Y108.671 E8.26055
G1 X134.068 Y109.089 E8.28797
G1 X134.549 Y109.596 E8.31924
G1 X135.107 Y110.129 E8.35378
G1 X135.496 Y110.546 E8.3793
G1 X136.193 Y111.213 E8.4225
G1 X136.742 Y111.791 E8.45821
G1 X137.299 Y112.304 E8.49211
G1 X137.829 Y112.865 E8.52665
G1 X137.991 Y113.126 E8.54041
G1 X138.228 Y113.732 E8.56953
G1 X138.38 Y113.808 E8.57713
G1 X138.747 Y113.927 E8.59442
G1 X138.878 Y113.99 E8.60094
G1 X139.11 Y114.148 E8.6135
G1 X139.325 Y114.381 E8.62769
G1 X139.494 Y114.676 E8.64291
G1 X139.551 Y114.835 E8.65046
G1 X139.603 Y115.128 E8.66377
G1 X139.621 Y115.576 E8.68386
G1 X139.58 Y116.036 E8.70452
G1 X139.554 Y116.159 E8.71019
G1 X139.481 Y116.371 E8.72018
G1 X139.421 Y116.49 E8.72616
G1 X139.265 Y116.692 E8.73759
G1 X138.907 Y116.975 E8.75803
G1 X138.603 Y117.129 E8.77328
G1 X138.231 Y117.277 E8.7912
G1 X137.994 Y117.874 E8.81998
G1 X137.939 Y117.969 E8.82488
G1 X137.69 Y118.297 E8.84333
G1 X136.165 Y119.789 E8.93882
G1 X135.102 Y120.85 E9.00608
G1 X134.632 Y121.35 E9.03678
G1 X134.127 Y121.824 E9.06778
G1 X133.656 Y122.326 E9.09862
G1 X133.035 Y122.916 E9.13697
G1 X132.568 Y123.413 E9.16751
G1 X132.224 Y123.733 E9.18853
G1 X130.889 Y125.061 E9.27282
G1 X130.456 Y125.523 E9.30115
G1 X129.976 Y125.974 E9.33067
G1 X129.33 Y126.65 E9.37251
G1 X128.817 Y127.132 E9.40403
G1 X128.336 Y127.644 E9.43551
G1 X127.781 Y128.168 E9.46965
G1 X127.244 Y128.735 E9.50462
G1 X126.907 Y129.048 E9.52521
G1 X126.313 Y129.666 E9.5636
G1 X125.561 Y130.39 E9.61034
G1 X125.21 Y130.769 E9.63347
G1 X124.641 Y131.307 E9.66849
G1 X124.11 Y131.869 E9.70313
G1 X123.495 Y132.453 E9.74108
G1 X123.025 Y132.954 E9.77184
G1 X122.395 Y133.555 E9.81083
G1 X121.918 Y134.06 E9.84192
G1 X120.44 Y135.51 E9.93463
G1 X119.789 Y136.191 E9.9768
G1 X119.258 Y136.69 E10.00944
G1 X118.698 Y137.296 E10.04636
G1 X118.219 Y137.761 E10.07624
G1 X117.985 Y137.927 E10.08907
G1 X117.286 Y138.218 E10.12296
G1 X117.253 Y138.247 E10.12496
G1 X117.183 Y138.382 E10.13176
G1 X117.101 Y138.611 E10.14265
G1 X116.899 Y139.018 E10.163
G1 X116.81 Y139.132 E10.16947
G1 X116.565 Y139.35 E10.18412
G1 X116.304 Y139.497 E10.19756
G1 X116.14 Y139.555 E10.20534
G1 X115.838 Y139.606 E10.21904
G1 X115.396 Y139.619 E10.23885
G1 X114.811 Y139.541 E10.26526
G1 X114.643 Y139.471 E10.2734
G1 X114.26 Y139.21 E10.2942
G1 X114.137 Y139.069 E10.30256
G1 X113.996 Y138.825 E10.31516
G1 X113.824 Y138.395 E10.33591
G1 X113.747 Y138.247 E10.34336
G1 X113.701 Y138.207 E10.34609
G1 X113.585 Y138.155 E10.35179
G1 X113.428 Y138.108 E10.35912
G1 X113.014 Y137.926 E10.37938
G1 X112.781 Y137.761 E10.39217
G1 X112.302 Y137.296 E10.42205
G1 X111.782 Y136.731 E10.45643
G1 X111.108 Y136.088 E10.49812
G1 X110.726 Y135.676 E10.52328
G1 X109.082 Y134.061 E10.62645
G1 X108.53 Y133.48 E10.66234
G1 X107.977 Y132.956 E10.69644
G1 X107.433 Y132.382 E10.73183
G1 X106.881 Y131.86 E10.76587
G1 X106.334 Y131.283 E10.80143
G1 X105.791 Y130.77 E10.8349
G1 X105.407 Y130.356 E10.86016
G1 X104.688 Y129.666 E10.90478
G1 X104.125 Y129.081 E10.94112
G1 X103.755 Y128.735 E10.9638
G1 X103.21 Y128.16 E10.99927
G1 X102.664 Y127.644 E11.03292
G1 X102.236 Y127.185 E11.06101
G1 X101.567 Y126.548 E11.10237
G1 X101.184 Y126.134 E11.12761
G1 X100.465 Y125.444 E11.17224
G1 X100.081 Y125.031 E11.19748
G1 X99.443 Y124.423 E11.23694
G1 X98.981 Y123.934 E11.26705
G1 X98.432 Y123.413 E11.30092
G1 X97.891 Y122.843 E11.33613
G1 X97.444 Y122.426 E11.36348
G1 X96.982 Y121.934 E11.39371
G1 X96.353 Y121.336 E11.43256
G1 X95.866 Y120.817 E11.46441
G1 X95.223 Y120.204 E11.50418
G1 X94.759 Y119.712 E11.53444
G1 X93.349 Y118.338 E11.62262
G1 X93.178 Y118.15 E11.63399
G1 X93.025 Y117.912 E11.64665
G1 X92.769 Y117.277 E11.67731
G1 X92.663 Y117.212 E11.68284
G1 X92.389 Y117.125 E11.69573
G1 X92.068 Y116.96 E11.71191
G1 X91.813 Y116.769 E11.72614
G1 X91.623 Y116.553 E11.73902
G1 X91.52 Y116.375 E11.74824
G1 X91.438 Y116.129 E11.75985
G1 X91.379 Y115.576 E11.78474
G1 X91.397 Y115.128 E11.80483
G1 X91.449 Y114.835 E11.81815
G1 X91.506 Y114.676 E11.82569
G1 X91.644 Y114.426 E11.83848
G1 X91.833 Y114.198 E11.85175
G1 X92.122 Y113.99 E11.86766
G1 X92.253 Y113.927 E11.87418
G1 X92.62 Y113.808 E11.89147
G1 X92.754 Y113.741 E11.89816
G1 X92.78 Y113.711 E11.89994
G1 X93.048 Y113.053 E11.93173
G1 X93.217 Y112.804 E11.94523
G1 X93.461 Y112.549 E11.96101
G1 X94.314 Y111.736 E12.01377
G1 X94.907 Y111.112 E12.05231
G1 X95.373 Y110.678 E12.08081
G1 X96.933 Y109.088 E12.18055
G1 X97.45 Y108.601 E12.21232
G1 X97.921 Y108.101 E12.24308
G1 X98.555 Y107.497 E12.28229
G1 X99.019 Y107.003 E12.31262
G1 X99.533 Y106.518 E12.34428
G1 X100.23 Y105.791 E12.38937
G1 X100.636 Y105.415 E12.41415
G1 X101.912 Y104.135 E12.49505
G1 X102.265 Y103.757 E12.5182
G1 X102.773 Y103.281 E12.54937
G1 X103.086 Y102.948 E12.56982
G1 X103.477 Y103.315 F9000
G1 F1200
G1 X103.633 Y103.15 E12.57997
