; generated by SuperSlicer 2.4 on 2022-12-13 at 11:18:56 UTC

; 

; external perimeters extrusion width = 0.43mm
; perimeters extrusion width = 0.48mm
; infill extrusion width = 0.46mm
; solid infill extrusion width = 0.48mm
; top infill extrusion width = 0.46mm
; first layer extrusion width = 0.58mm

; object:{"name":"tri_1_thick","id":"tri_1_thick.stl id:0 copy 0","object_center":[115.500000,115.500000,0.000000],"boundingbox_center":[115.500000,115.500000,21.149231],"boundingbox_size":[47.401980,53.848331,42.298462]}
; Total objects to print: 1
M486 T1
; plater:{"center":[115.500000,115.500000,0.000000],"boundingbox_center":[115.500000,115.500000,21.149231],"boundingbox_size":[47.401980,53.848331,42.298462]}

;TYPE:Custom
G90 ; use absolute coordinates
M83 ; extruder relative mode
M140 S60 ; set final bed temp
M104 S150 ; set temporary nozzle temp to prevent oozing during homing and auto bed leveling
G4 S10 ; allow partial nozzle warmup
G28 ; home all axis
;G29 ; auto bed levelling
G1 Z10 F240
G1 X2 Y10 F3000
G1 Z0 F240
M104 S210 ; set final nozzle temp
M190 S60 ; wait for bed temp to stabilize
M109 S210 ; wait for nozzle temp to stabilize
G1 Z0.28 F240
G92 E0
G1 Y140 E10 F1500 ; prime the nozzle
G1 X2.3 F5000
G92 E0
G1 Y10 E10 F1200 ; prime the nozzle
G92 E0
;start
M107
G21 ; set units to millimeters
G90 ; use absolute coordinates
M82 ; use absolute distances for extrusion
G92 E0
; Filament gcode
;_TOOLCHANGE 0
M107
;LAYER_CHANGE
;Z:0.2
;HEIGHT:0.2
;BEFORE_LAYER_CHANGE
;0.2


G1 E-8.5 F3000
G1 Z0.15 F9000
;AFTER_LAYER_CHANGE
;0.2
G92 E0
M204 S500
G1 X90.173 Y87.082
G1 E8.5 F3000
;TYPE:Skirt
;WIDTH:0.48
G1 F1200
G1 X89.514 Y87.902 E8.53862
G1 X89.044 Y88.735 E8.57373
G1 X88.652 Y89.938 E8.62017
G1 X88.487 Y91.743 E8.68668
G1 X88.488 Y138.836 E10.41532
G1 X88.582 Y140.307 E10.46944
G1 X88.713 Y141.206 E10.50277
G1 X88.941 Y142.003 E10.53321
G1 X89.314 Y142.842 E10.56689
G1 X89.91 Y143.724 E10.60598
G1 X90.37 Y144.208 E10.63051
G1 X90.927 Y144.675 E10.65718
G1 X91.878 Y145.247 E10.69791
G1 X93.187 Y145.685 E10.7486
G1 X93.96 Y145.788 E10.77722
G1 X94.999 Y145.758 E10.81537
G1 X95.691 Y145.624 E10.84125
G1 X96.283 Y145.449 E10.86391
G1 X97.819 Y144.778 E10.92541
G1 X138.853 Y121.08 E12.66479
G1 X140.477 Y119.906 E12.73836
G1 X141.37 Y118.966 E12.78593
G1 X141.993 Y117.912 E12.8309
G1 X142.302 Y117.046 E12.86463
G1 X142.489 Y115.94 E12.90581
G1 X142.482 Y115.096 E12.93678
G1 X142.307 Y114.075 E12.97482
G1 X141.988 Y113.146 E13.01089
G1 X141.171 Y111.869 E13.0665
G1 X140.146 Y110.899 E13.1183
G1 X138.96 Y110.057 E13.17169
G1 X97.703 Y86.153 E14.92194
G1 X97.021 Y85.858 E14.94923
G1 X95.748 Y85.474 E14.99803
G1 X94.857 Y85.337 E15.03113
G1 X93.814 Y85.359 E15.0694
G1 X93.048 Y85.462 E15.09777
G1 X91.828 Y85.887 E15.14521
G1 X91.14 Y86.297 E15.17459
G1 X90.22 Y87.045 E15.21812
G92 E0
G1 E-5.95 F3000
;WIPE_START
G1 F7200
G1 X89.514 Y87.902 E-6.38973
G1 X89.044 Y88.735 E-6.76829
G1 X88.652 Y89.938 E-7.26909
G1 X88.487 Y91.743 E-7.98638
G1 X88.487 Y92.718 E-8.3725
;WIPE_END
G1 E-8.5 F3000
; acceleration to travel
M204 S1500
G1 X92.441 Y90.14 F9000
; decel to extrusion
M204 S500
G1 X92.925 Y89.825
; end travel
G1 E0 F3000
;WIDTH:0.576
G1 F1200
G1 X93.19 Y89.593 E0.01578
G1 X93.579 Y89.361 E0.03606
G1 X93.89 Y89.259 E0.0507
G1 X94.277 Y89.21 E0.06819
G1 X94.618 Y89.212 E0.08344
G1 X94.846 Y89.251 E0.09381
G1 X95.134 Y89.339 E0.10727
G1 X95.711 Y89.553 E0.13485
G1 X96.057 Y89.748 E0.15261
G1 X96.19 Y89.85 E0.16009
G1 X96.383 Y89.952 E0.16988
G1 X96.526 Y90.058 E0.17787
G1 X96.675 Y90.13 E0.18525
G1 X96.821 Y90.226 E0.19309
G1 X96.991 Y90.298 E0.20133
G1 X97.216 Y90.431 E0.21306
G1 X97.507 Y90.567 E0.22745
G1 X97.642 Y90.66 E0.23475
G1 X97.824 Y90.755 E0.24394
G1 X97.925 Y90.832 E0.24965
G1 X98.141 Y90.94 E0.26047
G1 X98.289 Y91.049 E0.26868
G1 X98.474 Y91.142 E0.27793
G1 X98.621 Y91.244 E0.28595
G1 X98.773 Y91.313 E0.29344
G1 X98.941 Y91.423 E0.30244
G1 X99.139 Y91.522 E0.31233
G1 X99.308 Y91.643 E0.32165
G1 X99.475 Y91.728 E0.33004
G1 X99.615 Y91.826 E0.33769
G1 X99.8 Y91.909 E0.34677
G1 X100.214 Y92.139 E0.36794
G1 X100.314 Y92.209 E0.37345
G1 X100.5 Y92.299 E0.38269
G1 X100.666 Y92.412 E0.39166
G1 X100.955 Y92.559 E0.40617
G1 X101.301 Y92.786 E0.42472
G1 X101.537 Y92.907 E0.43659
G1 X101.688 Y93.012 E0.44481
G1 X101.893 Y93.114 E0.45507
G1 X102.047 Y93.226 E0.46361
G1 X102.247 Y93.324 E0.47359
G1 X102.687 Y93.594 E0.49666
G1 X102.88 Y93.684 E0.50622
G1 X103.047 Y93.797 E0.51523
G1 X103.275 Y93.902 E0.52646
G1 X103.441 Y94.016 E0.53548
G1 X103.707 Y94.146 E0.54874
G1 X104.055 Y94.373 E0.56734
G1 X104.272 Y94.479 E0.57816
G1 X104.429 Y94.589 E0.58673
G1 X104.636 Y94.69 E0.59705
G1 X104.8 Y94.808 E0.60609
G1 X104.965 Y94.886 E0.61426
G1 X105.168 Y95.015 E0.62502
G1 X105.334 Y95.097 E0.63332
G1 X105.461 Y95.186 E0.64024
G1 X105.636 Y95.271 E0.64896
G1 X105.825 Y95.407 E0.65937
G1 X106.003 Y95.499 E0.66838
G1 X106.146 Y95.599 E0.67617
G1 X106.306 Y95.672 E0.68406
G1 X106.455 Y95.767 E0.69196
G1 X106.676 Y95.876 E0.70303
G1 X106.823 Y95.976 E0.71096
G1 X107.04 Y96.081 E0.72175
G1 X107.198 Y96.196 E0.7305
G1 X107.387 Y96.293 E0.74
G1 X107.527 Y96.391 E0.74766
G1 X107.68 Y96.461 E0.75519
G1 X107.836 Y96.562 E0.76352
G1 X108.022 Y96.653 E0.77277
G1 X108.529 Y96.976 E0.79969
G1 X108.72 Y97.066 E0.80916
G1 X108.905 Y97.182 E0.81893
G1 X109.202 Y97.318 E0.83355
G1 X109.517 Y97.503 E0.84991
G1 X109.618 Y97.581 E0.85563
G1 X109.803 Y97.674 E0.8649
G1 X109.954 Y97.784 E0.87325
G1 X110.463 Y98.06 E0.89916
G1 X110.595 Y98.151 E0.90637
G1 X110.779 Y98.24 E0.91552
G1 X110.972 Y98.377 E0.92611
G1 X111.151 Y98.468 E0.93509
G1 X111.305 Y98.575 E0.94348
G1 X111.463 Y98.648 E0.95128
G1 X111.605 Y98.739 E0.95883
G1 X111.823 Y98.848 E0.96974
G1 X111.964 Y98.943 E0.97736
G1 X112.203 Y99.058 E0.98924
G1 X112.351 Y99.162 E0.99731
G1 X112.516 Y99.24 E1.00552
G1 X112.955 Y99.517 E1.02877
G1 X113.198 Y99.643 E1.04099
G1 X113.358 Y99.757 E1.04978
G1 X113.553 Y99.859 E1.05966
G1 X113.682 Y99.951 E1.06673
G1 X113.899 Y100.055 E1.07749
G1 X114.195 Y100.223 E1.09274
G1 X114.337 Y100.326 E1.10061
G1 X114.553 Y100.435 E1.11143
G1 X114.687 Y100.531 E1.11884
G1 X114.871 Y100.616 E1.12789
G1 X115.09 Y100.756 E1.13954
G1 X115.529 Y100.98 E1.16159
G1 X115.698 Y101.1 E1.17085
G1 X115.953 Y101.225 E1.18359
G1 X116.104 Y101.332 E1.19188
G1 X116.315 Y101.433 E1.20236
G1 X116.483 Y101.553 E1.21159
G1 X116.698 Y101.662 E1.22235
G1 X117.452 Y102.125 E1.26198
G1 X117.632 Y102.207 E1.27082
G1 X118.126 Y102.5 E1.29655
G1 X118.338 Y102.604 E1.30713
G1 X118.504 Y102.719 E1.31616
G1 X118.751 Y102.846 E1.32859
G1 X118.864 Y102.933 E1.33497
G1 X119.377 Y103.211 E1.3611
G1 X119.501 Y103.297 E1.36785
G1 X119.714 Y103.4 E1.37846
G1 X119.877 Y103.518 E1.38746
G1 X120.045 Y103.603 E1.39589
G1 X120.205 Y103.715 E1.40461
G1 X120.384 Y103.802 E1.41352
G1 X120.506 Y103.889 E1.42024
G1 X120.72 Y103.993 E1.43088
G1 X120.866 Y104.093 E1.4388
G1 X121.111 Y104.21 E1.45099
G1 X121.254 Y104.31 E1.45875
G1 X121.51 Y104.433 E1.47151
G1 X121.866 Y104.664 E1.4905
G1 X122.092 Y104.775 E1.50176
G1 X122.252 Y104.884 E1.51044
G1 X122.535 Y105.023 E1.52457
G1 X122.949 Y105.296 E1.54676
G1 X123.107 Y105.369 E1.55452
G1 X123.27 Y105.477 E1.56329
G1 X123.457 Y105.569 E1.5726
G1 X123.624 Y105.685 E1.58174
G1 X123.81 Y105.774 E1.59097
G1 X123.98 Y105.886 E1.60006
G1 X124.283 Y106.03 E1.6151
G1 X124.643 Y106.266 E1.63437
G1 X124.872 Y106.384 E1.6459
G1 X125.016 Y106.491 E1.65393
G1 X125.185 Y106.577 E1.66243
G1 X125.341 Y106.684 E1.67092
G1 X125.512 Y106.762 E1.67929
G1 X125.841 Y106.95 E1.69629
G1 X126.007 Y107.068 E1.70539
G1 X126.2 Y107.164 E1.71504
G1 X126.343 Y107.265 E1.72288
G1 X126.539 Y107.354 E1.73253
G1 X126.718 Y107.468 E1.74201
G1 X126.953 Y107.575 E1.75358
G1 X127.126 Y107.688 E1.76284
G1 X127.265 Y107.756 E1.76974
G1 X127.415 Y107.864 E1.77802
G1 X127.625 Y107.973 E1.78861
G1 X128.014 Y108.234 E1.80957
G1 X128.633 Y108.554 E1.84078
G1 X128.796 Y108.672 E1.84979
G1 X128.942 Y108.746 E1.85711
G1 X129.109 Y108.861 E1.86618
G1 X129.263 Y108.93 E1.87375
G1 X129.415 Y109.027 E1.8818
G1 X129.64 Y109.138 E1.89306
G1 X129.788 Y109.238 E1.90103
G1 X129.987 Y109.334 E1.91095
G1 X130.164 Y109.457 E1.92058
G1 X130.386 Y109.571 E1.93174
G1 X130.507 Y109.661 E1.9385
G1 X130.657 Y109.73 E1.9459
G1 X130.805 Y109.828 E1.95385
G1 X131.029 Y109.943 E1.96511
G1 X131.168 Y110.039 E1.97268
G1 X131.367 Y110.136 E1.98259
G1 X131.522 Y110.248 E1.99118
G1 X132.027 Y110.526 E2.01695
G1 X132.171 Y110.629 E2.0249
G1 X132.383 Y110.737 E2.03557
G1 X132.505 Y110.824 E2.04227
G1 X132.704 Y110.918 E2.0521
G1 X132.872 Y111.028 E2.06112
G1 X133.113 Y111.14 E2.073
G1 X133.543 Y111.408 E2.09568
G1 X133.75 Y111.506 E2.10594
G1 X133.92 Y111.621 E2.11512
G1 X134.157 Y111.734 E2.12688
G1 X134.544 Y111.982 E2.14745
G1 X135.176 Y112.334 E2.17983
G1 X135.323 Y112.444 E2.18808
G1 X135.486 Y112.529 E2.19628
G1 X135.63 Y112.628 E2.20413
G1 X135.775 Y112.694 E2.21126
G1 X136.014 Y112.84 E2.22379
G1 X136.179 Y112.921 E2.23202
G1 X136.33 Y113.03 E2.24036
G1 X136.499 Y113.114 E2.2488
G1 X136.662 Y113.233 E2.25783
G1 X136.836 Y113.325 E2.26666
G1 X136.976 Y113.431 E2.2745
G1 X137.194 Y113.563 E2.28593
G1 X137.339 Y113.677 E2.29416
G1 X137.519 Y113.786 E2.3036
G1 X137.691 Y113.943 E2.31405
G1 X137.906 Y114.108 E2.32617
G1 X138.209 Y114.397 E2.34493
G1 X138.422 Y114.716 E2.36207
G1 X138.558 Y115.088 E2.37983
G1 X138.605 Y115.345 E2.39149
G1 X138.612 Y115.687 E2.40684
G1 X138.557 Y116.012 E2.42157
G1 X138.431 Y116.353 E2.43784
G1 X138.3 Y116.579 E2.44956
G1 X138.019 Y116.893 E2.46841
G1 X137.776 Y117.075 E2.48202
G1 X137.544 Y117.285 E2.49602
G1 X136.858 Y117.757 E2.53332
G1 X134.798 Y118.979 E2.64052
G1 X130.82 Y121.258 E2.8458
G1 X128.631 Y122.543 E2.95944
G1 X128.054 Y122.859 E2.98888
G1 X127.235 Y123.353 E3.0317
G1 X126.067 Y124.003 E3.09154
G1 X124.446 Y124.962 E3.17584
G1 X123.305 Y125.602 E3.23443
G1 X122.457 Y126.109 E3.27864
G1 X120.542 Y127.197 E3.37727
G1 X119.758 Y127.67 E3.41826
G1 X119.141 Y128.006 E3.4497
G1 X118.366 Y128.473 E3.49022
G1 X117.167 Y129.147 E3.55178
G1 X115.978 Y129.857 E3.61377
G1 X114.01 Y130.968 E3.71495
G1 X112.531 Y131.844 E3.79193
G1 X110.254 Y133.142 E3.90926
G1 X109.367 Y133.687 E3.95587
G1 X108.445 Y134.182 E4.00269
G1 X107.135 Y134.956 E4.07082
G1 X106.47 Y135.324 E4.10486
G1 X104.121 Y136.688 E4.22644
G1 X103.311 Y137.176 E4.2688
G1 X102.322 Y137.717 E4.31927
G1 X100.53 Y138.78 E4.41252
G1 X99.553 Y139.319 E4.46248
G1 X97.734 Y140.394 E4.5571
G1 X97.244 Y140.668 E4.58221
G1 X96.746 Y140.917 E4.60716
G1 X95.901 Y141.404 E4.6508
G1 X94.96 Y141.804 E4.69657
G1 X94.532 Y141.902 E4.71626
G1 X94.314 Y141.917 E4.72602
G1 X93.901 Y141.871 E4.74464
G1 X93.57 Y141.759 E4.76029
G1 X93.139 Y141.483 E4.7832
G1 X92.88 Y141.221 E4.7997
G1 X92.747 Y141.025 E4.81027
G1 X92.584 Y140.665 E4.82797
G1 X92.517 Y140.439 E4.83854
G1 X92.373 Y139.227 E4.89316
G1 X92.352 Y92.777 E6.97271
G1 X92.363 Y91.803 E7.01631
G1 X92.397 Y91.274 E7.04004
G1 X92.463 Y90.712 E7.06538
G1 X92.556 Y90.407 E7.07966
G1 X92.76 Y90.036 E7.09861
G1 X92.888 Y89.872 E7.10791
G1 X93.306 Y90.208 F9000
G1 F1200
G1 X93.327 Y90.181 E7.10946
G1 X93.521 Y90.016 E7.12087
G1 X93.782 Y89.859 E7.13449
G1 X93.987 Y89.788 E7.14421
G1 X94.296 Y89.747 E7.15813
G1 X94.556 Y89.747 E7.1698
G1 X94.707 Y89.77 E7.17666
G1 X94.969 Y89.85 E7.1889
G1 X95.503 Y90.049 E7.2144
G1 X95.771 Y90.204 E7.22829
G1 X95.895 Y90.302 E7.23536
G1 X96.111 Y90.416 E7.24629
G1 X96.242 Y90.517 E7.25369
G1 X96.423 Y90.605 E7.26269
G1 X96.566 Y90.703 E7.27045
G1 X96.735 Y90.771 E7.27862
G1 X96.968 Y90.908 E7.29072
G1 X97.223 Y91.024 E7.30325
G1 X97.369 Y91.124 E7.31121
G1 X97.52 Y91.199 E7.31871
G1 X97.64 Y91.29 E7.32548
G1 X97.876 Y91.409 E7.33732
G1 X98.004 Y91.508 E7.34455
G1 X98.184 Y91.595 E7.35351
G1 X98.355 Y91.714 E7.36283
G1 X98.531 Y91.793 E7.37144
G1 X98.667 Y91.887 E7.37885
G1 X98.877 Y91.992 E7.3894
G1 X99.027 Y92.103 E7.39773
G1 X99.185 Y92.181 E7.40564
G1 X99.351 Y92.296 E7.41467
G1 X99.55 Y92.385 E7.42442
G1 X99.939 Y92.6 E7.44432
G1 X100.037 Y92.672 E7.44979
G1 X100.247 Y92.773 E7.46019
G1 X100.387 Y92.874 E7.46793
G1 X100.673 Y93.017 E7.48226
G1 X101.031 Y93.251 E7.50137
G1 X101.273 Y93.375 E7.51357
G1 X101.408 Y93.474 E7.52106
G1 X101.631 Y93.584 E7.5322
G1 X101.765 Y93.687 E7.53974
G1 X101.966 Y93.782 E7.54973
G1 X102.137 Y93.896 E7.5589
G1 X102.305 Y93.979 E7.56729
G1 X102.408 Y94.057 E7.57305
G1 X102.631 Y94.161 E7.58409
G1 X102.778 Y94.264 E7.59214
G1 X103.026 Y94.379 E7.60437
G1 X103.164 Y94.479 E7.61201
G1 X103.428 Y94.606 E7.62512
G1 X103.79 Y94.841 E7.64442
G1 X104.014 Y94.951 E7.65559
G1 X104.148 Y95.05 E7.66308
G1 X104.377 Y95.162 E7.67447
G1 X104.52 Y95.27 E7.68251
G1 X104.718 Y95.364 E7.69232
G1 X104.902 Y95.483 E7.70211
G1 X105.074 Y95.568 E7.71071
G1 X105.18 Y95.647 E7.71662
G1 X105.377 Y95.743 E7.72645
G1 X105.541 Y95.866 E7.73562
G1 X105.71 Y95.95 E7.74408
G1 X105.878 Y96.068 E7.75328
G1 X106.065 Y96.153 E7.76247
G1 X106.185 Y96.233 E7.76891
G1 X106.419 Y96.349 E7.78062
G1 X106.549 Y96.44 E7.78773
G1 X106.781 Y96.553 E7.79924
G1 X106.913 Y96.654 E7.8067
G1 X107.095 Y96.744 E7.81578
G1 X107.259 Y96.86 E7.8248
G1 X107.438 Y96.941 E7.83358
G1 X107.566 Y97.028 E7.84049
G1 X107.764 Y97.125 E7.85039
G1 X107.922 Y97.241 E7.85916
G1 X108.079 Y97.316 E7.86694
G1 X108.26 Y97.444 E7.87691
G1 X108.45 Y97.53 E7.88622
G1 X108.649 Y97.655 E7.89675
G1 X108.954 Y97.795 E7.91178
G1 X109.054 Y97.868 E7.91731
G1 X109.211 Y97.945 E7.92512
G1 X109.331 Y98.038 E7.93192
G1 X109.538 Y98.142 E7.94228
G1 X109.672 Y98.246 E7.94988
G1 X109.848 Y98.329 E7.95859
G1 X109.96 Y98.405 E7.96465
G1 X110.199 Y98.529 E7.97672
G1 X110.32 Y98.615 E7.98337
G1 X110.523 Y98.713 E7.99346
G1 X110.689 Y98.835 E8.00268
G1 X110.889 Y98.937 E8.01271
G1 X111.032 Y99.041 E8.02066
G1 X111.219 Y99.127 E8.02987
G1 X111.333 Y99.204 E8.03603
G1 X111.565 Y99.32 E8.04763
G1 X111.692 Y99.408 E8.05456
G1 X111.947 Y99.531 E8.06723
G1 X112.071 Y99.624 E8.07418
G1 X112.264 Y99.715 E8.08371
G1 X112.404 Y99.816 E8.09144
G1 X112.518 Y99.871 E8.09711
G1 X112.682 Y99.981 E8.10593
G1 X112.932 Y100.11 E8.11854
G1 X113.074 Y100.216 E8.12648
G1 X113.257 Y100.308 E8.13568
G1 X113.41 Y100.417 E8.14406
G1 X113.623 Y100.516 E8.15459
G1 X113.789 Y100.623 E8.1634
G1 X113.9 Y100.673 E8.16889
G1 X114.055 Y100.786 E8.17748
G1 X114.289 Y100.904 E8.18921
G1 X114.41 Y100.995 E8.19595
G1 X114.627 Y101.096 E8.20671
G1 X114.821 Y101.222 E8.21703
G1 X115.265 Y101.449 E8.23938
G1 X115.419 Y101.561 E8.24791
G1 X115.694 Y101.696 E8.26162
G1 X115.824 Y101.794 E8.26891
G1 X116.059 Y101.906 E8.28058
G1 X116.201 Y102.012 E8.28847
G1 X116.408 Y102.115 E8.29886
G1 X116.565 Y102.223 E8.30738
G1 X116.719 Y102.3 E8.31509
G1 X116.841 Y102.393 E8.32194
G1 X117.051 Y102.498 E8.33245
G1 X117.18 Y102.592 E8.33962
G1 X117.392 Y102.688 E8.35003
G1 X117.572 Y102.803 E8.3596
G1 X117.75 Y102.891 E8.36844
G1 X117.847 Y102.962 E8.37382
G1 X118.081 Y103.077 E8.38551
G1 X118.227 Y103.182 E8.39355
G1 X118.445 Y103.289 E8.40445
G1 X118.581 Y103.393 E8.41209
G1 X118.775 Y103.487 E8.42173
G1 X118.95 Y103.601 E8.4311
G1 X119.12 Y103.684 E8.43959
G1 X119.224 Y103.76 E8.44534
G1 X119.456 Y103.872 E8.45688
G1 X119.589 Y103.974 E8.46441
G1 X119.783 Y104.073 E8.47414
G1 X119.933 Y104.181 E8.48243
G1 X120.092 Y104.254 E8.49024
G1 X120.23 Y104.353 E8.49784
G1 X120.465 Y104.467 E8.50952
G1 X120.592 Y104.557 E8.5165
G1 X120.856 Y104.684 E8.52963
G1 X120.976 Y104.773 E8.53634
G1 X121.233 Y104.894 E8.54903
G1 X121.601 Y105.133 E8.56867
G1 X121.837 Y105.248 E8.58044
G1 X121.979 Y105.348 E8.58819
G1 X122.254 Y105.482 E8.60192
G1 X122.688 Y105.767 E8.62513
G1 X122.86 Y105.847 E8.63365
G1 X122.997 Y105.942 E8.64111
G1 X123.199 Y106.041 E8.65118
G1 X123.351 Y106.151 E8.65961
G1 X123.531 Y106.234 E8.66847
G1 X123.717 Y106.357 E8.67844
G1 X124.005 Y106.49 E8.69265
G1 X124.372 Y106.731 E8.71229
G1 X124.603 Y106.849 E8.7239
G1 X124.727 Y106.948 E8.731
G1 X124.897 Y107.032 E8.7395
G1 X125.076 Y107.154 E8.74922
G1 X125.269 Y107.242 E8.75867
G1 X125.388 Y107.323 E8.76514
