; generated by SuperSlicer 2.4 on 2022-12-06 at 15:23:09 UTC

; 

; external perimeters extrusion width = 0.43mm
; perimeters extrusion width = 0.48mm
; infill extrusion width = 0.46mm
; solid infill extrusion width = 0.48mm
; top infill extrusion width = 0.46mm
; first layer extrusion width = 0.58mm

; object:{"name":"Christmas_Tree_Inset_3","id":"Christmas_Tree_Inset_3.stl id:0 copy 0","object_center":[115.500000,115.500000,0.000000],"boundingbox_center":[115.500000,115.500000,14.712245],"boundingbox_size":[20.108695,20.108695,29.424489]}
; Total objects to print: 1
M486 T1
; plater:{"center":[115.500000,115.500000,0.000000],"boundingbox_center":[115.500000,115.500000,14.712245],"boundingbox_size":[20.108695,20.108695,29.424489]}

;TYPE:Custom
G90 ; use absolute coordinates
M83 ; extruder relative mode
M140 S60 ; set final bed temp
M104 S150 ; set temporary nozzle temp to prevent oozing during homing and auto bed leveling
G4 S10 ; allow partial nozzle warmup
G28 ; home all axis
;G29 ; auto bed levelling
G1 Z10 F240
G1 X2 Y10 F3000
G1 Z0 F240
M104 S210 ; set final nozzle temp
M190 S60 ; wait for bed temp to stabilize
M109 S210 ; wait for nozzle temp to stabilize
G1 Z0.28 F240
G92 E0
G1 Y140 E10 F1500 ; prime the nozzle
G1 X2.3 F5000
G92 E0
G1 Y10 E10 F1200 ; prime the nozzle
G92 E0
;start
M107
G21 ; set units to millimeters
G90 ; use absolute coordinates
M82 ; use absolute distances for extrusion
G92 E0
; Filament gcode
;_TOOLCHANGE 0
M107
;LAYER_CHANGE
;Z:0.2
;HEIGHT:0.2
;BEFORE_LAYER_CHANGE
;0.2


G1 E-8.5 F3000
G1 Z0.15 F9000
;AFTER_LAYER_CHANGE
;0.2
G92 E0
M204 S500
G1 X105.994 Y105.992
G1 E8.5 F3000
;TYPE:Skirt
;WIDTH:0.48
G1 F1200
G1 X104.226 Y107.759 E8.59356
G1 X103.524 Y108.727 E8.63832
G1 X103.159 Y109.607 E8.674
G1 X101.866 Y114.433 E8.86101
G1 X101.742 Y115.375 E8.89657
G1 X101.866 Y116.567 E8.94144
G1 X103.159 Y121.393 E9.12848
G1 X103.645 Y122.483 E9.17316
G1 X104.226 Y123.241 E9.20891
G1 X107.759 Y126.774 E9.39593
G1 X108.727 Y127.476 E9.44069
G1 X109.607 Y127.841 E9.47636
G1 X114.433 Y129.134 E9.66338
G1 X115.375 Y129.258 E9.69894
G1 X116.567 Y129.134 E9.74381
G1 X121.393 Y127.841 E9.93084
G1 X122.483 Y127.355 E9.97552
G1 X123.241 Y126.774 E10.01127
G1 X126.774 Y123.241 E10.19829
G1 X127.476 Y122.273 E10.24305
G1 X127.841 Y121.393 E10.27873
G1 X129.134 Y116.567 E10.46574
G1 X129.258 Y115.625 E10.5013
G1 X129.134 Y114.433 E10.54617
G1 X127.841 Y109.607 E10.73321
G1 X127.355 Y108.517 E10.77789
G1 X126.774 Y107.759 E10.81363
G1 X123.241 Y104.226 E11.00066
G1 X122.483 Y103.645 E11.03643
G1 X121.393 Y103.159 E11.08107
G1 X116.568 Y101.866 E11.26808
G1 X115.617 Y101.741 E11.30398
G1 X114.433 Y101.866 E11.34855
G1 X109.607 Y103.159 E11.53558
G1 X108.517 Y103.645 E11.58026
G1 X107.759 Y104.226 E11.61601
G1 X106.036 Y105.949 E11.70722
G1 X106.345 Y106.258 F9000
G1 F1200
G1 X104.535 Y108.068 E11.80303
G1 X103.902 Y108.945 E11.84351
G1 X103.582 Y109.72 E11.87492
G1 X102.288 Y114.546 E12.06194
G1 X102.179 Y115.375 E12.09325
G1 X102.288 Y116.454 E12.13383
G1 X103.581 Y121.28 E12.32086
G1 X104.024 Y122.265 E12.36128
G1 X104.535 Y122.932 E12.39275
G1 X108.068 Y126.465 E12.57977
G1 X108.945 Y127.098 E12.62026
G1 X109.72 Y127.418 E12.65166
G1 X114.546 Y128.712 E12.83868
G1 X115.375 Y128.821 E12.86999
G1 X116.454 Y128.712 E12.91057
G1 X121.28 Y127.418 E13.09761
G1 X122.265 Y126.976 E13.13802
G1 X122.932 Y126.465 E13.16949
G1 X126.465 Y122.932 E13.35652
G1 X127.098 Y122.055 E13.397
G1 X127.418 Y121.28 E13.42841
G1 X128.712 Y116.454 E13.61543
G1 X128.821 Y115.625 E13.64673
G1 X128.712 Y114.546 E13.68731
G1 X127.418 Y109.72 E13.87435
G1 X126.976 Y108.735 E13.91476
G1 X126.465 Y108.068 E13.94623
G1 X122.932 Y104.535 E14.13326
G1 X122.264 Y104.023 E14.16475
G1 X121.28 Y103.582 E14.20513
G1 X116.455 Y102.288 E14.39214
G1 X115.617 Y102.178 E14.42375
G1 X114.546 Y102.288 E14.46406
G1 X109.72 Y103.581 E14.6511
G1 X108.735 Y104.024 E14.69151
G1 X108.068 Y104.535 E14.72298
G1 X106.388 Y106.216 E14.81195
G92 E0
G1 E-5.95 F3000
;WIPE_START
G1 F7200
G1 X104.535 Y108.068 E-6.98688
G1 X103.902 Y108.945 E-7.41495
G1 X103.582 Y109.72 E-7.74708
G1 X103.173 Y111.247 E-8.3725
;WIPE_END
G1 E-8.5 F3000
; acceleration to travel
M204 S1500
G1 X109.844 Y109.049 F9000
; decel to extrusion
M204 S500
G1 X110.659 Y108.781
; end travel
G1 E0 F3000
;WIDTH:0.576
G1 F1200
G1 X110.86 Y108.497 E0.01588
G1 X110.946 Y108.418 E0.02121
G1 X111.644 Y108.015 E0.05801
G1 X111.756 Y107.98 E0.06333
G1 X112.102 Y107.948 E0.0792
G1 X112.215 Y107.962 E0.08443
G1 X113.61 Y108.446 E0.15182
G1 X114.576 Y107.33 E0.21923
G1 X114.668 Y107.261 E0.22447
G1 X114.983 Y107.115 E0.24035
G1 X115.097 Y107.09 E0.24566
G1 X115.902 Y107.089 E0.2824
G1 X116.016 Y107.114 E0.28772
G1 X116.332 Y107.26 E0.30364
G1 X116.424 Y107.329 E0.30889
G1 X117.39 Y108.446 E0.37631
G1 X118.785 Y107.962 E0.44371
G1 X118.899 Y107.948 E0.44895
G1 X119.244 Y107.98 E0.46479
G1 X119.354 Y108.014 E0.47003
G1 X119.723 Y108.224 E0.48942
G1 X120.057 Y108.42 E0.50709
G1 X120.141 Y108.498 E0.51232
G1 X120.341 Y108.781 E0.52814
G1 X120.386 Y108.887 E0.53338
G1 X120.664 Y110.336 E0.60077
G1 X122.114 Y110.614 E0.66817
G1 X122.219 Y110.659 E0.67341
G1 X122.503 Y110.86 E0.68929
G1 X122.582 Y110.946 E0.69462
G1 X122.985 Y111.644 E0.73142
G1 X123.02 Y111.756 E0.73674
G1 X123.052 Y112.102 E0.75261
G1 X123.038 Y112.215 E0.75784
G1 X122.554 Y113.61 E0.82523
G1 X123.67 Y114.576 E0.89264
G1 X123.739 Y114.668 E0.89788
G1 X123.885 Y114.984 E0.91376
G1 X123.91 Y115.097 E0.91909
G1 X123.91 Y115.903 E0.95588
G1 X123.885 Y116.017 E0.96121
G1 X123.739 Y116.333 E0.97707
G1 X123.67 Y116.424 E0.98231
G1 X122.554 Y117.39 E1.0497
G1 X123.038 Y118.785 E1.1171
G1 X123.052 Y118.899 E1.12234
G1 X123.02 Y119.244 E1.13819
G1 X122.986 Y119.354 E1.14343
G1 X122.778 Y119.72 E1.16264
G1 X122.58 Y120.057 E1.18048
G1 X122.502 Y120.141 E1.18572
G1 X122.219 Y120.341 E1.20154
G1 X122.113 Y120.386 E1.20677
G1 X120.664 Y120.664 E1.27416
G1 X120.386 Y122.114 E1.34157
G1 X120.341 Y122.219 E1.34681
G1 X120.14 Y122.503 E1.36269
G1 X120.054 Y122.582 E1.36801
G1 X119.356 Y122.985 E1.40481
G1 X119.244 Y123.02 E1.41014
G1 X118.898 Y123.052 E1.42601
G1 X118.785 Y123.038 E1.43124
G1 X117.39 Y122.554 E1.49863
G1 X116.424 Y123.67 E1.56603
G1 X116.332 Y123.739 E1.57128
G1 X116.016 Y123.885 E1.58716
G1 X115.903 Y123.91 E1.59248
G1 X115.097 Y123.91 E1.62928
G1 X114.983 Y123.885 E1.6346
G1 X114.667 Y123.739 E1.65047
G1 X114.576 Y123.67 E1.65571
G1 X113.61 Y122.554 E1.7231
G1 X112.215 Y123.038 E1.7905
G1 X112.101 Y123.052 E1.79574
G1 X111.756 Y123.02 E1.81158
G1 X111.646 Y122.986 E1.81682
G1 X111.28 Y122.778 E1.83604
G1 X110.943 Y122.58 E1.85388
G1 X110.859 Y122.502 E1.85912
G1 X110.659 Y122.219 E1.87494
G1 X110.614 Y122.113 E1.88017
G1 X110.336 Y120.664 E1.94756
G1 X108.886 Y120.386 E2.01496
G1 X108.781 Y120.341 E2.02021
G1 X108.497 Y120.14 E2.03609
G1 X108.418 Y120.054 E2.04141
G1 X108.015 Y119.356 E2.07821
G1 X107.98 Y119.244 E2.08354
G1 X107.948 Y118.898 E2.0994
G1 X107.962 Y118.785 E2.10464
G1 X108.446 Y117.39 E2.17203
G1 X107.33 Y116.424 E2.23943
G1 X107.261 Y116.332 E2.24467
G1 X107.115 Y116.016 E2.26056
G1 X107.09 Y115.903 E2.26588
G1 X107.09 Y115.097 E2.30268
G1 X107.115 Y114.983 E2.308
G1 X107.261 Y114.667 E2.32387
G1 X107.33 Y114.576 E2.3291
G1 X108.446 Y113.61 E2.3965
G1 X107.962 Y112.215 E2.4639
G1 X107.948 Y112.101 E2.46914
G1 X107.98 Y111.756 E2.48498
G1 X108.014 Y111.646 E2.49022
G1 X108.222 Y111.28 E2.50944
G1 X108.42 Y110.943 E2.52728
G1 X108.498 Y110.859 E2.53251
G1 X108.781 Y110.659 E2.54833
G1 X108.887 Y110.614 E2.55357
G1 X110.336 Y110.336 E2.62096
G1 X110.614 Y108.886 E2.68836
G1 X110.636 Y108.836 E2.69086
G1 X111.131 Y109.044 F9000
G1 F1200
G1 X111.265 Y108.854 E2.70147
G1 X111.862 Y108.51 E2.73294
G1 X112.093 Y108.489 E2.74353
G1 X113.778 Y109.073 E2.82494
G1 X114.945 Y107.725 E2.90636
G1 X115.156 Y107.627 E2.91696
G1 X115.844 Y107.627 E2.94839
G1 X116.056 Y107.724 E2.95902
G1 X117.222 Y109.073 E3.04045
G1 X118.907 Y108.489 E3.12186
G1 X119.138 Y108.51 E3.13247
G1 X119.452 Y108.689 E3.14897
G1 X119.735 Y108.855 E3.16394
G1 X119.869 Y109.044 E3.17453
G1 X120.205 Y110.795 E3.25594
G1 X121.956 Y111.131 E3.33736
G1 X122.146 Y111.265 E3.34796
G1 X122.49 Y111.862 E3.37943
G1 X122.511 Y112.093 E3.39002
G1 X121.927 Y113.778 E3.47143
G1 X123.275 Y114.945 E3.55285
G1 X123.373 Y115.156 E3.56345
G1 X123.373 Y115.845 E3.59493
G1 X123.275 Y116.055 E3.60551
G1 X121.927 Y117.222 E3.68692
G1 X122.511 Y118.907 E3.76834
G1 X122.49 Y119.138 E3.77894
G1 X122.311 Y119.452 E3.79545
G1 X122.145 Y119.735 E3.81042
G1 X121.956 Y119.869 E3.82101
G1 X120.205 Y120.205 E3.90242
G1 X119.869 Y121.956 E3.98384
G1 X119.735 Y122.146 E3.99444
G1 X119.138 Y122.49 E4.02591
G1 X118.907 Y122.511 E4.0365
G1 X117.222 Y121.927 E4.11791
G1 X116.055 Y123.275 E4.19933
G1 X115.844 Y123.373 E4.20993
G1 X115.155 Y123.373 E4.2414
G1 X114.945 Y123.275 E4.25199
G1 X113.778 Y121.927 E4.3334
G1 X112.093 Y122.511 E4.41482
G1 X111.862 Y122.49 E4.42542
G1 X111.548 Y122.311 E4.44193
G1 X111.265 Y122.145 E4.4569
G1 X111.131 Y121.956 E4.46749
G1 X110.795 Y120.205 E4.5489
G1 X109.044 Y119.869 E4.63031
G1 X108.854 Y119.735 E4.64092
G1 X108.51 Y119.138 E4.67239
G1 X108.489 Y118.907 E4.68298
G1 X109.073 Y117.222 E4.76439
G1 X107.725 Y116.055 E4.84581
G1 X107.627 Y115.844 E4.85641
G1 X107.627 Y115.155 E4.88788
G1 X107.725 Y114.945 E4.89847
G1 X109.073 Y113.778 E4.97988
G1 X108.489 Y112.093 E5.0613
G1 X108.51 Y111.862 E5.0719
G1 X108.689 Y111.548 E5.08841
G1 X108.855 Y111.265 E5.10338
G1 X109.044 Y111.131 E5.11397
G1 X110.795 Y110.795 E5.19538
G1 X111.12 Y109.103 E5.27405
G1 X111.637 Y109.259 F9000
G1 F1200
G1 X111.815 Y109.155 E5.28347
G1 X111.847 Y109.136 E5.28518
G1 X112.027 Y109.034 E5.29459
G1 X113.946 Y109.7 E5.38734
G1 X115.275 Y108.164 E5.48009
G1 X115.482 Y108.162 E5.48952
G1 X115.725 Y108.164 E5.50064
G1 X116.047 Y108.535 E5.52308
G1 X117.054 Y109.7 E5.5934
G1 X118.973 Y109.034 E5.68615
G1 X119.153 Y109.136 E5.69556
G1 X119.185 Y109.155 E5.69727
G1 X119.363 Y109.259 E5.70669
G1 X119.746 Y111.254 E5.79944
G1 X121.741 Y111.637 E5.89219
G1 X121.845 Y111.815 E5.9016
G1 X121.864 Y111.847 E5.90331
G1 X121.966 Y112.027 E5.91273
G1 X121.3 Y113.946 E6.00548
G1 X122.836 Y115.275 E6.09823
G1 X122.838 Y115.481 E6.10764
G1 X122.838 Y115.519 E6.10935
G1 X122.836 Y115.725 E6.11877
G1 X121.3 Y117.054 E6.21152
G1 X121.966 Y118.973 E6.30427
G1 X121.864 Y119.153 E6.31368
G1 X121.845 Y119.185 E6.31539
G1 X121.741 Y119.363 E6.32481
G1 X119.746 Y119.746 E6.41756
G1 X119.363 Y121.741 E6.51031
G1 X119.185 Y121.845 E6.51972
G1 X119.153 Y121.864 E6.52143
G1 X118.973 Y121.966 E6.53085
G1 X117.054 Y121.3 E6.6236
G1 X115.725 Y122.836 E6.71635
G1 X115.519 Y122.838 E6.72576
G1 X115.481 Y122.838 E6.72747
G1 X115.275 Y122.836 E6.73689
G1 X113.946 Y121.3 E6.82964
G1 X112.027 Y121.966 E6.92239
G1 X111.847 Y121.864 E6.9318
G1 X111.815 Y121.845 E6.93351
G1 X111.637 Y121.741 E6.94293
G1 X111.254 Y119.746 E7.03568
G1 X109.259 Y119.363 E7.12843
G1 X109.155 Y119.185 E7.13784
G1 X109.136 Y119.153 E7.13955
G1 X109.034 Y118.973 E7.14897
G1 X109.7 Y117.054 E7.24172
G1 X108.164 Y115.725 E7.33447
G1 X108.162 Y115.519 E7.34389
G1 X108.162 Y115.481 E7.34559
G1 X108.164 Y115.275 E7.35501
G1 X109.7 Y113.946 E7.44776
G1 X109.034 Y112.027 E7.54051
G1 X109.136 Y111.847 E7.54993
G1 X109.155 Y111.815 E7.55163
G1 X109.259 Y111.637 E7.56105
G1 X111.254 Y111.254 E7.6538
G1 X111.626 Y109.318 E7.74381
G92 E0
G1 E-5.95 F3000
;WIPE_START
G1 F7200
G1 X111.815 Y109.155 E-6.04883
G1 X111.815 Y109.155 E-6.04896
G1 X111.832 Y109.145 E-6.05652
G1 X111.847 Y109.136 E-6.06375
G1 X111.848 Y109.136 E-6.06388
G1 X112.027 Y109.034 E-6.14543
G1 X113.946 Y109.7 E-6.94958
G1 X115.275 Y108.164 E-7.75373
G1 X115.481 Y108.163 E-7.83528
G1 X115.482 Y108.162 E-7.83557
G1 X115.725 Y108.164 E-7.93201
G1 X116.047 Y108.535 E-8.12649
G1 X116.453 Y109.005 E-8.3725
;WIPE_END
G1 E-8.5 F3000
; printing object Christmas_Tree_Inset_3.stl id:0 copy 0
M486 S0
; acceleration to travel
M204 S1500
G1 X112.244 Y111.433 F9000
; decel to extrusion
M204 S500
G1 X111.73 Y111.73
; end travel
G1 E0 F3000
;TYPE:External perimeter
G1 F1200
G1 X112.099 Y109.807 E0.08942
G1 X112.24 Y109.853 E0.0962
G1 X112.27 Y109.708 E0.10298
G1 X114.12 Y110.35 E0.1924
G1 X115.401 Y108.869 E0.28181
G1 X115.5 Y108.98 E0.28859
G1 X115.599 Y108.869 E0.29539
G1 X115.625 Y108.899 E0.29725
G1 X116.88 Y110.35 E0.38481
G1 X118.73 Y109.708 E0.47423
G1 X118.76 Y109.853 E0.48101
G1 X118.901 Y109.807 E0.48779
G1 X119.27 Y111.73 E0.57721
G1 X121.193 Y112.099 E0.66663
G1 X121.147 Y112.24 E0.67341
G1 X121.292 Y112.27 E0.68019
G1 X120.65 Y114.12 E0.76961
G1 X122.131 Y115.401 E0.85903
G1 X122.02 Y115.5 E0.86581
G1 X122.131 Y115.599 E0.87259
G1 X120.65 Y116.88 E0.96201
G1 X121.292 Y118.73 E1.05143
G1 X121.147 Y118.76 E1.05821
G1 X121.193 Y118.901 E1.06499
G1 X119.27 Y119.27 E1.15441
G1 X118.901 Y121.193 E1.24382
G1 X118.76 Y121.147 E1.25061
G1 X118.73 Y121.292 E1.25739
G1 X116.88 Y120.65 E1.34681
G1 X115.599 Y122.131 E1.43622
G1 X115.5 Y122.02 E1.443
G1 X115.401 Y122.131 E1.44979
G1 X114.12 Y120.65 E1.53921
G1 X112.27 Y121.292 E1.62862
G1 X112.24 Y121.147 E1.63541
G1 X112.099 Y121.193 E1.64218
G1 X111.73 Y119.27 E1.7316
G1 X109.807 Y118.901 E1.82102
G1 X109.853 Y118.76 E1.8278
G1 X109.708 Y118.73 E1.83458
G1 X110.35 Y116.88 E1.924
G1 X108.869 Y115.599 E2.01342
G1 X108.98 Y115.5 E2.0202
G1 X108.869 Y115.401 E2.02698
G1 X110.35 Y114.12 E2.1164
G1 X109.708 Y112.27 E2.20582
G1 X109.853 Y112.24 E2.2126
G1 X109.807 Y112.099 E2.21938
G1 X111.671 Y111.741 E2.30606
;WIPE_START
G1 X112.129 Y111.755 F9000
;WIPE_END
G1 X112.189 Y112.189
;TYPE:Internal perimeter
G1 F1200
G1 X112.511 Y110.51 E2.38411
G1 X112.645 Y110.554 E2.39053
G1 X112.673 Y110.417 E2.39696
G1 X114.288 Y110.977 E2.47501
G1 X115.406 Y109.684 E2.55306
G1 X115.5 Y109.789 E2.55948
G1 X115.594 Y109.684 E2.56592
G1 X116.712 Y110.977 E2.64398
G1 X118.327 Y110.417 E2.72204
G1 X118.355 Y110.554 E2.72846
G1 X118.489 Y110.51 E2.73488
G1 X118.811 Y112.189 E2.81294
G1 X120.49 Y112.511 E2.89099
G1 X120.446 Y112.645 E2.89742
G1 X120.583 Y112.673 E2.90384
G1 X120.023 Y114.288 E2.98189
G1 X121.316 Y115.407 E3.05994
G1 X121.211 Y115.5 E3.06636
G1 X121.316 Y115.593 E3.07279
G1 X120.023 Y116.712 E3.15085
G1 X120.583 Y118.327 E3.22891
G1 X120.446 Y118.355 E3.23533
G1 X120.49 Y118.489 E3.24175
G1 X118.811 Y118.811 E3.31981
G1 X118.489 Y120.49 E3.39786
G1 X118.355 Y120.446 E3.40428
G1 X118.327 Y120.583 E3.41071
G1 X116.712 Y120.023 E3.48876
G1 X115.593 Y121.316 E3.56681
G1 X115.5 Y121.211 E3.57323
G1 X115.407 Y121.316 E3.57966
G1 X114.288 Y120.023 E3.65772
G1 X112.673 Y120.583 E3.73578
G1 X112.645 Y120.446 E3.7422
G1 X112.511 Y120.49 E3.74862
G1 X112.189 Y118.811 E3.82667
G1 X110.51 Y118.489 E3.90473
G1 X110.554 Y118.355 E3.91115
G1 X110.417 Y118.327 E3.91757
G1 X110.977 Y116.712 E3.99563
G1 X109.684 Y115.593 E4.07368
G1 X109.789 Y115.5 E4.0801
G1 X109.684 Y115.407 E4.08653
G1 X110.977 Y114.288 E4.16458
G1 X110.417 Y112.673 E4.24264
G1 X110.554 Y112.645 E4.24907
G1 X110.51 Y112.511 E4.25548
G1 X112.13 Y112.2 E4.3308
G92 E0
G1 E-5.95 F3000
;WIPE_START
G1 F7200
G1 X112.511 Y110.51 E-6.63587
G1 X112.645 Y110.554 E-6.69155
G1 X112.673 Y110.417 E-6.74725
G1 X114.288 Y110.977 E-7.42399
G1 X115.406 Y109.684 E-8.10066
G1 X115.5 Y109.789 E-8.15634
G1 X115.594 Y109.684 E-8.21217
G1 X115.858 Y109.99 E-8.3725
;WIPE_END
G1 E-8.5 F3000
; acceleration to travel
M204 S1500
G1 X119.646 Y113.161 F9000
; decel to extrusion
M204 S500
G1 X120.109 Y113.549
; end travel
G1 E0 F3000
;TYPE:Solid infill
;WIDTH:0.567401
G1 F1200
G1 X119.228 Y112.669 E0.05599
G1 X118.476 Y112.524 E0.09046
G1 X118.331 Y111.772 E0.12492
G1 X117.633 Y111.073 E0.16936
G1 X117.069 Y111.269 E0.19622
G1 X119.731 Y113.931 E0.36558
G1 X119.565 Y114.411 E0.3884
G1 X120.72 Y115.41 E0.45711
G1 X120.62 Y115.5 E0.46318
G1 X120.721 Y115.59 E0.46926
G1 X120.672 Y115.632 E0.47216
G1 X115.368 Y110.328 E0.80949
G1 X115.016 Y110.736 E0.83372
G1 X120.264 Y115.984 E1.16755
G1 X119.857 Y116.337 E1.19178
G1 X114.663 Y111.143 E1.52211
