; generated by SuperSlicer 2.4 on 2022-12-06 at 15:29:17 UTC

; 

; external perimeters extrusion width = 0.43mm
; perimeters extrusion width = 0.48mm
; infill extrusion width = 0.46mm
; solid infill extrusion width = 0.48mm
; top infill extrusion width = 0.46mm
; first layer extrusion width = 0.58mm

; object:{"name":"PART_17A","id":"PART_17A.stl id:0 copy 0","object_center":[115.500000,115.500000,0.000000],"boundingbox_center":[115.500000,115.500000,7.620000],"boundingbox_size":[20.354734,12.755649,15.240000]}
; Total objects to print: 1
M486 T1
; plater:{"center":[115.500000,115.500000,0.000000],"boundingbox_center":[115.500000,115.500000,7.620000],"boundingbox_size":[20.354734,12.755649,15.240000]}

;TYPE:Custom
G90 ; use absolute coordinates
M83 ; extruder relative mode
M140 S60 ; set final bed temp
M104 S150 ; set temporary nozzle temp to prevent oozing during homing and auto bed leveling
G4 S10 ; allow partial nozzle warmup
G28 ; home all axis
;G29 ; auto bed levelling
G1 Z10 F240
G1 X2 Y10 F3000
G1 Z0 F240
M104 S210 ; set final nozzle temp
M190 S60 ; wait for bed temp to stabilize
M109 S210 ; wait for nozzle temp to stabilize
G1 Z0.28 F240
G92 E0
G1 Y140 E10 F1500 ; prime the nozzle
G1 X2.3 F5000
G92 E0
G1 Y10 E10 F1200 ; prime the nozzle
G92 E0
;start
M107
G21 ; set units to millimeters
G90 ; use absolute coordinates
M82 ; use absolute distances for extrusion
G92 E0
; Filament gcode
;_TOOLCHANGE 0
M107
;LAYER_CHANGE
;Z:0.2
;HEIGHT:0.2
;BEFORE_LAYER_CHANGE
;0.2


G1 E-8.5 F3000
G1 Z0.15 F9000
;AFTER_LAYER_CHANGE
;0.2
G92 E0
M204 S500
G1 X101.247 Y104.342
G1 E8.5 F3000
;TYPE:Skirt
;WIDTH:0.48
G1 F1200
G1 X100.152 Y105.64 E8.56358
G1 X99.762 Y107.293 E8.62715
G1 X99.807 Y123.793 E9.24481
G1 X100.521 Y125.954 E9.33
G1 X101.82 Y127.049 E9.39357
G1 X103.473 Y127.439 E9.45715
G1 X127.593 Y127.373 E10.36005
G1 X129.753 Y126.658 E10.44524
G1 X130.848 Y125.36 E10.50881
G1 X131.238 Y123.707 E10.57239
G1 X131.193 Y107.207 E11.19004
G1 X130.479 Y105.046 E11.27523
G1 X129.18 Y103.951 E11.33881
G1 X127.527 Y103.561 E11.40238
G1 X103.407 Y103.627 E12.30528
G1 X101.304 Y104.323 E12.38823
G1 X101.629 Y104.624 F9000
G1 F1200
G1 X100.588 Y105.748 E12.44556
G1 X100.199 Y107.292 E12.50516
G1 X100.244 Y123.792 E13.12282
G1 X100.76 Y125.53 E13.19069
G1 X101.928 Y126.612 E13.25029
G1 X103.471 Y127.002 E13.30989
G1 X127.591 Y126.935 E14.21279
G1 X129.33 Y126.42 E14.28066
G1 X130.412 Y125.252 E14.34026
G1 X130.801 Y123.708 E14.39986
G1 X130.756 Y107.208 E15.01751
G1 X130.24 Y105.47 E15.08538
G1 X129.072 Y104.388 E15.14498
G1 X127.529 Y103.998 E15.20458
G1 X103.409 Y104.065 E16.10748
G1 X101.67 Y104.58 E16.17537
G92 E0
G1 E-5.95 F3000
;WIPE_START
G1 F7200
G1 X100.588 Y105.748 E-6.58004
G1 X100.199 Y107.292 E-7.21025
G1 X100.207 Y110.228 E-8.3725
;WIPE_END
G1 E-8.5 F3000
; acceleration to travel
M204 S1500
G1 X104.177 Y108.366 F9000
; decel to extrusion
M204 S500
G1 X104.662 Y108.138
; end travel
G1 E0 F3000
;WIDTH:0.576
G1 F1200
G1 X104.749 Y108.079 E0.00483
G1 X105.044 Y107.956 E0.01943
G1 X105.148 Y107.935 E0.02426
G1 X125.81 Y107.878 E0.9676
G1 X125.914 Y107.899 E0.97244
G1 X126.21 Y108.02 E0.98703
G1 X126.298 Y108.079 E0.99186
G1 X126.682 Y108.461 E1.01662
G1 X126.741 Y108.549 E1.02145
G1 X126.865 Y108.844 E1.03604
G1 X126.886 Y108.948 E1.04088
G1 X126.921 Y121.99 E1.63633
G1 X126.901 Y122.094 E1.64116
G1 X126.779 Y122.389 E1.65575
G1 X126.721 Y122.478 E1.66059
G1 X126.338 Y122.862 E1.68534
G1 X126.251 Y122.921 E1.69017
G1 X125.956 Y123.044 E1.70477
G1 X125.852 Y123.065 E1.7096
G1 X105.19 Y123.122 E2.65294
G1 X105.086 Y123.101 E2.65778
G1 X104.79 Y122.98 E2.67237
G1 X104.702 Y122.921 E2.6772
G1 X104.318 Y122.539 E2.70196
G1 X104.259 Y122.451 E2.70679
G1 X104.135 Y122.156 E2.72138
G1 X104.114 Y122.052 E2.72622
G1 X104.079 Y109.01 E3.32167
G1 X104.099 Y108.906 E3.3265
G1 X104.221 Y108.611 E3.34109
G1 X104.279 Y108.522 E3.34593
G1 X104.619 Y108.181 E3.36794
G1 X105 Y108.559 F9000
G1 F1200
G1 X105.203 Y108.472 E3.378
G1 X125.759 Y108.416 E4.31651
G1 X125.957 Y108.497 E4.32627
G1 X126.266 Y108.805 E4.3462
G1 X126.348 Y109.002 E4.35596
G1 X126.384 Y121.938 E4.94657
G1 X126.302 Y122.136 E4.95633
G1 X125.995 Y122.446 E4.97626
G1 X125.797 Y122.528 E4.98602
G1 X105.241 Y122.584 E5.92453
G1 X105.043 Y122.503 E5.93429
G1 X104.734 Y122.195 E5.95421
G1 X104.652 Y121.998 E5.96397
G1 X104.616 Y109.062 E6.55459
G1 X104.698 Y108.864 E6.56435
G1 X104.958 Y108.602 E6.58121
G1 X105.311 Y109.009 F9000
G1 F1200
G1 X125.653 Y108.953 E7.50996
G1 X125.811 Y109.11 E7.52012
G1 X125.813 Y109.61 E7.54294
G1 X125.846 Y121.833 E8.10098
G1 X125.689 Y121.991 E8.11114
G1 X105.347 Y122.047 E9.0399
G1 X105.189 Y121.89 E9.05006
G1 X105.154 Y109.167 E9.63092
G1 X105.269 Y109.052 E9.63834
; printing object PART_17A.stl id:0 copy 0
M486 S0
G1 X105.712 Y109.565 F9000
;TYPE:External perimeter
G1 F1200
G1 X125.256 Y109.511 E10.53063
G1 X125.256 Y109.612 E10.53522
G1 X125.288 Y121.435 E11.07503
G1 X105.744 Y121.489 E11.96732
G1 X105.712 Y109.625 E12.50898
;WIPE_START
G1 X106.059 Y109.764 F9000
;WIPE_END
G1 X106.251 Y110.101
;TYPE:Internal perimeter
G1 F1200
G1 X124.72 Y110.05 E13.3522
G1 X124.749 Y120.899 E13.84753
G1 X106.28 Y120.95 E14.69075
G1 X106.251 Y110.161 E15.18334
G92 E0
G1 E-5.95 F3000
;WIPE_START
G1 F7200
G1 X112.371 Y110.124 E-8.3725
;WIPE_END
G1 E-8.5 F3000
; acceleration to travel
M204 S1500
G1 X122.267 Y110.205 F9000
; decel to extrusion
M204 S500
G1 X123.476 Y110.215
; end travel
G1 E0 F3000
;TYPE:Solid infill
;WIDTH:0.575775
G1 F1200
G1 X124.33 Y111.069 E0.05516
G1 X124.332 Y111.831 E0.08993
G1 X122.948 Y110.447 E0.17927
G1 X122.19 Y110.449 E0.21385
G1 X124.334 Y112.593 E0.35224
G1 X124.337 Y113.355 E0.38701
G1 X121.432 Y110.451 E0.57445
G1 X120.675 Y110.453 E0.60903
G1 X124.339 Y114.117 E0.84552
G1 X124.341 Y114.879 E0.88029
G1 X119.917 Y110.456 E1.16582
G1 X119.159 Y110.458 E1.20041
G1 X124.343 Y115.642 E1.53499
G1 X124.345 Y116.404 E1.56977
G1 X118.401 Y110.46 E1.9534
G1 X117.643 Y110.462 E1.98799
G1 X124.347 Y117.166 E2.42067
G1 X124.349 Y117.928 E2.45544
G1 X116.885 Y110.464 E2.93717
G1 X116.127 Y110.466 E2.97176
G1 X124.351 Y118.69 E3.50254
G1 X124.353 Y119.452 E3.53732
G1 X115.369 Y110.468 E4.11714
G1 X114.612 Y110.47 E4.15173
G1 X124.355 Y120.214 E4.78061
G1 X124.356 Y120.508 E4.79404
G1 X123.891 Y120.509 E4.81527
G1 X113.854 Y110.472 E5.46309
G1 X113.096 Y110.474 E5.49768
G1 X123.133 Y120.511 E6.1455
G1 X122.375 Y120.514 E6.18009
G1 X112.338 Y110.476 E6.82791
G1 X111.58 Y110.478 E6.86249
G1 X121.617 Y120.516 E7.51031
G1 X120.859 Y120.518 E7.5449
G1 X110.822 Y110.48 E8.19272
G1 X110.064 Y110.483 E8.22731
G1 X120.102 Y120.52 E8.87513
G1 X119.344 Y120.522 E8.90972
G1 X109.306 Y110.485 E9.55754
G1 X108.549 Y110.487 E9.59212
G1 X118.586 Y120.524 E10.23994
G1 X117.828 Y120.526 E10.27453
G1 X107.791 Y110.489 E10.92235
G1 X107.033 Y110.491 E10.95694
G1 X117.07 Y120.528 E11.60476
G1 X116.312 Y120.53 E11.63935
G1 X106.645 Y110.863 E12.26329
G1 X106.647 Y111.625 E12.29806
G1 X115.554 Y120.532 E12.87295
G1 X114.796 Y120.534 E12.90754
G1 X106.649 Y112.387 E13.43338
G1 X106.651 Y113.149 E13.46816
G1 X114.038 Y120.536 E13.94495
G1 X113.281 Y120.538 E13.97954
G1 X106.653 Y113.911 E14.40728
G1 X106.655 Y114.673 E14.44205
G1 X112.523 Y120.541 E14.82074
G1 X111.765 Y120.543 E14.85533
G1 X106.657 Y115.435 E15.18497
G1 X106.66 Y116.197 E15.21975
G1 X111.007 Y120.545 E15.50034
G1 X110.249 Y120.547 E15.53493
G1 X106.662 Y116.959 E15.76647
G1 X106.664 Y117.721 E15.80125
G1 X109.491 Y120.549 E15.98375
G1 X108.733 Y120.551 E16.01833
G1 X106.666 Y118.483 E16.15178
G1 X106.668 Y119.245 E16.18655
G1 X107.975 Y120.553 E16.27095
G1 X107.218 Y120.555 E16.30554
G1 X106.438 Y119.776 E16.35584
M106 S84.15
;LAYER_CHANGE
;Z:0.52
;HEIGHT:0.32
;BEFORE_LAYER_CHANGE
;0.52


G92 E0
G1 E-5.95 F3000
;WIPE_START
G1 F7200
G1 X107.218 Y120.555 E-6.38626
G1 X107.975 Y120.553 E-6.68626
G1 X106.668 Y119.245 E-7.41824
G1 X106.666 Y118.483 E-7.71988
G1 X107.832 Y119.649 E-8.3725
;WIPE_END
G1 E-8.5 F3000
; stop printing object PART_17A.stl id:0 copy 0
M486 S-1
G1 Z0.47 F9000
;AFTER_LAYER_CHANGE
;0.52
G92 E0
; acceleration to travel
M204 S1500
G1 X107.851 Y126.58
; decel to extrusion
M204 S500
G1 X107.853 Y127.427
; end travel
G1 E8.5 F3000
;TYPE:Skirt
;WIDTH:0.48
G1 F1200
G1 X127.593 Y127.373 E9.61263
G1 X129.753 Y126.658 E9.7409
G1 X130.848 Y125.36 E9.83663
G1 X131.238 Y123.707 E9.93236
G1 X131.193 Y107.207 E10.86238
G1 X130.479 Y105.046 E10.99065
G1 X129.18 Y103.951 E11.08638
G1 X127.527 Y103.561 E11.18211
G1 X103.407 Y103.627 E12.54163
G1 X101.247 Y104.342 E12.6699
G1 X100.152 Y105.64 E12.76563
G1 X99.762 Y107.293 E12.86136
G1 X99.807 Y123.793 E13.79138
G1 X100.521 Y125.954 E13.91965
G1 X101.82 Y127.049 E14.01538
G1 X103.473 Y127.439 E14.11111
G1 X107.793 Y127.427 E14.35462
G1 X107.792 Y126.99 F9000
G1 F1200
G1 X127.591 Y126.935 E15.47063
G1 X129.33 Y126.42 E15.57283
G1 X130.412 Y125.252 E15.66257
G1 X130.801 Y123.708 E15.75231
G1 X130.756 Y107.208 E16.68233
G1 X130.24 Y105.47 E16.78453
G1 X129.072 Y104.388 E16.87427
G1 X127.529 Y103.998 E16.96401
G1 X103.409 Y104.065 E18.32353
G1 X101.67 Y104.58 E18.42573
G1 X100.588 Y105.748 E18.51547
G1 X100.199 Y107.292 E18.60521
G1 X100.244 Y123.792 E19.53523
G1 X100.76 Y125.53 E19.63743
G1 X101.928 Y126.612 E19.72717
G1 X103.471 Y127.002 E19.81691
G1 X107.732 Y126.99 E20.05703
G92 E0
G1 E-5.95 F3000
;WIPE_START
G1 F7200
G1 X113.852 Y126.973 E-8.3725
;WIPE_END
G1 E-8.5 F3000
; printing object PART_17A.stl id:0 copy 0
M486 S0
; acceleration to travel
M204 S1500
G1 X106.863 Y121.924 F9000
; decel to extrusion
M204 S500
G1 X105.96 Y121.272
; end travel
G1 E0 F3000
;TYPE:Internal perimeter
;WIDTH:0.476
G1 F2400
G1 X105.928 Y109.78 E0.64142
G1 X125.04 Y109.728 E1.70817
G1 X125.072 Y121.22 E2.3496
G1 X106.02 Y121.272 E3.413
G1 X105.571 Y121.663 F9000
;TYPE:External perimeter
;WIDTH:0.428
G1 F1500
G1 X105.537 Y109.391 E4.01726
G1 X125.429 Y109.337 E4.99673
G1 X125.463 Y121.609 E5.60099
G1 X105.631 Y121.663 E6.57751
;WIPE_START
G1 X105.77 Y121.316 F9000
;WIPE_END
G92 E0
G1 E-5.95 F3000
;WIPE_START
G1 F7200
G1 X105.753 Y115.196 E-8.3725
;WIPE_END
G1 E-8.5 F3000
; acceleration to travel
M204 S1500
G1 X106.02 Y110.992 F9000
; decel to extrusion
M204 S500
G1 X106.055 Y110.449
; end travel
G1 E0 F3000
;TYPE:Solid infill
;WIDTH:0.483843
G1 F2400
G1 X106.422 Y110.081 E0.02946
G1 X107.009 Y110.08 E0.06279
G1 X106.234 Y110.855 E0.125
G1 X106.235 Y111.439 E0.15814
G1 X107.596 Y110.078 E0.26735
G1 X108.184 Y110.077 E0.30068
G1 X106.237 Y112.023 E0.45689
G1 X106.239 Y112.608 E0.49003
G1 X108.771 Y110.075 E0.69324
G1 X109.359 Y110.073 E0.72657
G1 X106.24 Y113.192 E0.97678
G1 X106.242 Y113.776 E1.00992
G1 X109.946 Y110.072 E1.30714
G1 X110.533 Y110.07 E1.34046
G1 X106.243 Y114.36 E1.68467
G1 X106.245 Y114.944 E1.71782
G1 X111.121 Y110.069 E2.10903
G1 X111.708 Y110.067 E2.14236
G1 X106.247 Y115.528 E2.58057
G1 X106.248 Y116.113 E2.61371
G1 X112.295 Y110.065 E3.09893
G1 X112.883 Y110.064 E3.13225
G1 X106.25 Y116.697 E3.66447
G1 X106.251 Y117.281 E3.69761
G1 X113.47 Y110.062 E4.27683
G1 X114.058 Y110.06 E4.31015
G1 X106.253 Y117.865 E4.93637
G1 X106.255 Y118.449 E4.96951
G1 X114.645 Y110.059 E5.64273
G1 X115.232 Y110.057 E5.67606
G1 X106.256 Y119.033 E6.39627
G1 X106.258 Y119.617 E6.42942
G1 X115.82 Y110.056 E7.19664
G1 X116.407 Y110.054 E7.22996
G1 X106.259 Y120.202 E8.04418
G1 X106.261 Y120.786 E8.07732
G1 X116.994 Y110.052 E8.93854
G1 X117.582 Y110.051 E8.97187
G1 X106.665 Y120.968 E9.84781
G1 X107.252 Y120.966 E9.88114
G1 X118.169 Y110.049 E10.75708
G1 X118.756 Y110.048 E10.7904
G1 X107.84 Y120.964 E11.66635
G1 X108.427 Y120.963 E11.69967
G1 X119.344 Y110.046 E12.57562
G1 X119.931 Y110.044 E12.60894
G1 X109.014 Y120.961 E13.48488
G1 X109.602 Y120.96 E13.51821
G1 X120.519 Y110.043 E14.39415
G1 X121.106 Y110.041 E14.42748
G1 X110.189 Y120.958 E15.30342
G1 X110.776 Y120.956 E15.33675
G1 X121.693 Y110.04 E16.21269
G1 X122.281 Y110.038 E16.24601
G1 X111.364 Y120.955 E17.12196
G1 X111.951 Y120.953 E17.15528
G1 X122.868 Y110.036 E18.03123
G1 X123.455 Y110.035 E18.06455
G1 X112.539 Y120.952 E18.94049
G1 X113.126 Y120.95 E18.97382
G1 X124.043 Y110.033 E19.84976
G1 X124.63 Y110.032 E19.88309
G1 X113.713 Y120.948 E20.75903
G1 X114.301 Y120.947 E20.79236
G1 X124.74 Y110.508 E21.62997
G1 X124.741 Y111.092 E21.66311
G1 X114.888 Y120.945 E22.45372
G1 X115.475 Y120.944 E22.48705
G1 X124.743 Y111.676 E23.23066
G1 X124.745 Y112.26 E23.2638
G1 X116.063 Y120.942 E23.96041
G1 X116.65 Y120.94 E23.99373
G1 X124.746 Y112.844 E24.64334
G1 X124.748 Y113.428 E24.67649
G1 X117.238 Y120.939 E25.27909
G1 X117.825 Y120.937 E25.31242
G1 X124.749 Y114.013 E25.86803
G1 X124.751 Y114.597 E25.90117
G1 X118.412 Y120.935 E26.40978
G1 X119 Y120.934 E26.4431
G1 X124.753 Y115.181 E26.90471
G1 X124.754 Y115.765 E26.93785
G1 X119.587 Y120.932 E27.35246
G1 X120.174 Y120.931 E27.38578
G1 X124.756 Y116.349 E27.75339
G1 X124.757 Y116.933 E27.78653
G1 X120.762 Y120.929 E28.10714
G1 X121.349 Y120.927 E28.14046
G1 X124.759 Y117.518 E28.41407
G1 X124.761 Y118.102 E28.44721
G1 X121.936 Y120.926 E28.67381
G1 X122.524 Y120.924 E28.70714
G1 X124.762 Y118.686 E28.88674
G1 X124.764 Y119.27 E28.91989
G1 X123.111 Y120.923 E29.05249
G1 X123.699 Y120.921 E29.08581
G1 X124.765 Y119.854 E29.17142
G1 X124.767 Y120.438 E29.20456
G1 X124.107 Y121.098 E29.25749
M106 S170.85
;LAYER_CHANGE
;Z:0.84
;HEIGHT:0.32
;BEFORE_LAYER_CHANGE
;0.84


G92 E0
G1 E-5.95 F3000
;WIPE_START
G1 F7200
G1 X124.767 Y120.438 E-6.31929
G1 X124.765 Y119.854 E-6.55052
G1 X123.699 Y120.921 E-7.14774
G1 X123.111 Y120.923 E-7.38024
G1 X124.764 Y119.27 E-8.30537
G1 X124.763 Y119.1 E-8.3725
;WIPE_END
G1 E-8.5 F3000
; stop printing object PART_17A.stl id:0 copy 0
M486 S-1
G1 Z0.79 F9000
;AFTER_LAYER_CHANGE
;0.84
G92 E0
; printing object PART_17A.stl id:0 copy 0
M486 S0
; acceleration to travel
M204 S1500
G1 X125.036 Y120.977
; decel to extrusion
M204 S500
G1 X125.072 Y121.22
; end travel
G1 E8.5 F3000
;TYPE:Internal perimeter
;WIDTH:0.476
G1 F2400
G1 X105.96 Y121.272 E9.56675
G1 X105.928 Y109.78 E10.20817
G1 X125.04 Y109.728 E11.27492
G1 X125.071 Y121.16 E11.913
G1 X125.463 Y121.609 F9000
;TYPE:External perimeter
;WIDTH:0.428
G1 F1500
G1 X105.571 Y121.663 E12.89247
G1 X105.537 Y109.391 E13.49673
G1 X125.429 Y109.337 E14.4762
G1 X125.463 Y121.549 E15.07751
;WIPE_START
G1 X125.116 Y121.41 F9000
;WIPE_END
G92 E0
G1 E-5.95 F3000
;WIPE_START
G1 F7200
G1 X118.996 Y121.426 E-8.3725
;WIPE_END
G1 E-8.5 F3000
; acceleration to travel
M204 S1500
G1 X124.241 Y111.92 F9000
; decel to extrusion
M204 S500
G1 X124.918 Y110.692
; end travel
G1 E0 F3000
;TYPE:Solid infill
;WIDTH:0.483859
G1 F2400
G1 X124.259 Y110.033 E0.05293
G1 X123.675 Y110.034 E0.08608
G1 X124.741 Y111.101 E0.17168
G1 X124.743 Y111.688 E0.20501
G1 X123.09 Y110.036 E0.33762
G1 X122.506 Y110.037 E0.37076
G1 X124.745 Y112.276 E0.55037
G1 X124.746 Y112.863 E0.5837
G1 X121.922 Y110.039 E0.81031
G1 X121.338 Y110.041 E0.84345
G1 X124.748 Y113.45 E1.11706
G1 X124.749 Y114.038 E1.15039
G1 X120.754 Y110.042 E1.47101
G1 X120.17 Y110.044 E1.50415
G1 X124.751 Y114.625 E1.87177
G1 X124.753 Y115.213 E1.9051
G1 X119.585 Y110.045 E2.31971
G1 X119.001 Y110.047 E2.35286
G1 X124.754 Y115.8 E2.81448
G1 X124.756 Y116.387 E2.84781
G1 X118.417 Y110.049 E3.35643
G1 X117.833 Y110.05 E3.38958
G1 X124.758 Y116.975 E3.9452
G1 X124.759 Y117.562 E3.97853
G1 X117.249 Y110.052 E4.58116
G1 X116.665 Y110.053 E4.6143
G1 X124.761 Y118.149 E5.26393
G1 X124.762 Y118.737 E5.29726
G1 X116.081 Y110.055 E5.99389
G1 X115.496 Y110.057 E6.02703
G1 X124.764 Y119.324 E6.77067
G1 X124.766 Y119.912 E6.80399
G1 X114.912 Y110.058 E7.59463
G1 X114.328 Y110.06 E7.62778
G1 X124.767 Y120.499 E8.46541
G1 X124.768 Y120.918 E8.4892
G1 X124.601 Y120.919 E8.49869
G1 X113.744 Y110.061 E9.36987
G1 X113.16 Y110.063 E9.40302
G1 X124.017 Y120.92 E10.2742
G1 X123.433 Y120.922 E10.30734
G1 X112.576 Y110.065 E11.17853
G1 X111.991 Y110.066 E11.21167
G1 X122.849 Y120.923 E12.08285
G1 X122.264 Y120.925 E12.116
G1 X111.407 Y110.068 E12.98718
G1 X110.823 Y110.069 E13.02032
