; generated by SuperSlicer 2.4 on 2022-12-06 at 15:30:05 UTC

; 

; external perimeters extrusion width = 0.43mm
; perimeters extrusion width = 0.48mm
; infill extrusion width = 0.46mm
; solid infill extrusion width = 0.48mm
; top infill extrusion width = 0.46mm
; first layer extrusion width = 0.58mm

; object:{"name":"PART_19A","id":"PART_19A.stl id:0 copy 0","object_center":[115.500000,115.500000,0.000000],"boundingbox_center":[115.500000,115.500000,11.430000],"boundingbox_size":[18.099538,10.730171,22.860001]}
; Total objects to print: 1
M486 T1
; plater:{"center":[115.500000,115.500000,0.000000],"boundingbox_center":[115.500000,115.500000,11.430000],"boundingbox_size":[18.099538,10.730171,22.860001]}

;TYPE:Custom
G90 ; use absolute coordinates
M83 ; extruder relative mode
M140 S60 ; set final bed temp
M104 S150 ; set temporary nozzle temp to prevent oozing during homing and auto bed leveling
G4 S10 ; allow partial nozzle warmup
G28 ; home all axis
;G29 ; auto bed levelling
G1 Z10 F240
G1 X2 Y10 F3000
G1 Z0 F240
M104 S210 ; set final nozzle temp
M190 S60 ; wait for bed temp to stabilize
M109 S210 ; wait for nozzle temp to stabilize
G1 Z0.28 F240
G92 E0
G1 Y140 E10 F1500 ; prime the nozzle
G1 X2.3 F5000
G92 E0
G1 Y10 E10 F1200 ; prime the nozzle
G92 E0
;start
M107
G21 ; set units to millimeters
G90 ; use absolute coordinates
M82 ; use absolute distances for extrusion
G92 E0
; Filament gcode
;_TOOLCHANGE 0
M107
;LAYER_CHANGE
;Z:0.2
;HEIGHT:0.2
;BEFORE_LAYER_CHANGE
;0.2


G1 E-8.5 F3000
G1 Z0.15 F9000
;AFTER_LAYER_CHANGE
;0.2
G92 E0
M204 S500
G1 X102.875 Y105.159
G1 E8.5 F3000
;TYPE:Skirt
;WIDTH:0.48
G1 F1200
G1 X101.736 Y106.418 E8.56358
G1 X101.288 Y108.056 E8.62715
G1 X100.836 Y122.009 E9.14973
G1 X101.474 Y124.193 E9.23491
G1 X102.733 Y125.333 E9.29849
G1 X104.371 Y125.781 E9.36207
G1 X125.94 Y126.479 E10.16989
G1 X128.125 Y125.841 E10.25507
G1 X129.264 Y124.582 E10.31865
G1 X129.712 Y122.944 E10.38223
G1 X130.164 Y108.991 E10.9048
G1 X129.526 Y106.807 E10.98999
G1 X128.267 Y105.667 E11.05356
G1 X126.629 Y105.219 E11.11714
G1 X107.453 Y104.598 E11.83535
G1 X105.06 Y104.521 E11.92496
G1 X102.933 Y105.142 E12.0079
G1 X103.248 Y105.455 F9000
G1 F1200
G1 X102.168 Y106.541 E12.06524
G1 X101.725 Y108.07 E12.12484
G1 X101.273 Y122.023 E12.64741
G1 X101.727 Y123.778 E12.71528
G1 X102.856 Y124.9 E12.77488
G1 X104.386 Y125.344 E12.83448
G1 X125.954 Y126.042 E13.6423
G1 X127.71 Y125.588 E13.71017
G1 X128.832 Y124.459 E13.76977
G1 X129.275 Y122.93 E13.82937
G1 X129.727 Y108.977 E14.35194
G1 X129.273 Y107.222 E14.41982
G1 X128.144 Y106.1 E14.47941
G1 X126.614 Y105.656 E14.53901
G1 X107.438 Y105.035 E15.25722
G1 X105.046 Y104.958 E15.34683
G1 X103.29 Y105.412 E15.41472
G92 E0
G1 E-5.95 F3000
;WIPE_START
G1 F7200
G1 X102.168 Y106.541 E-6.58004
G1 X101.725 Y108.07 E-7.21025
G1 X101.63 Y111.005 E-8.3725
;WIPE_END
G1 E-8.5 F3000
; acceleration to travel
M204 S1500
G1 X105.662 Y109.283 F9000
; decel to extrusion
M204 S500
G1 X106.155 Y109.072
; end travel
G1 E0 F3000
;WIDTH:0.576
G1 F1200
G1 X106.245 Y109.017 E0.00483
G1 X106.544 Y108.904 E0.01943
G1 X106.648 Y108.887 E0.02426
G1 X107.313 Y108.908 E0.05462
G1 X124.761 Y109.473 E0.85164
G1 X124.864 Y109.497 E0.85647
G1 X125.155 Y109.629 E0.87106
G1 X125.241 Y109.691 E0.8759
G1 X125.612 Y110.086 E0.90065
G1 X125.668 Y110.176 E0.90549
G1 X125.781 Y110.475 E0.92008
G1 X125.798 Y110.58 E0.92491
G1 X125.458 Y121.076 E1.4044
G1 X125.434 Y121.179 E1.40923
G1 X125.302 Y121.471 E1.42382
G1 X125.241 Y121.557 E1.42866
G1 X124.845 Y121.928 E1.45341
G1 X124.755 Y121.983 E1.45824
G1 X124.456 Y122.096 E1.47284
G1 X124.352 Y122.113 E1.47767
G1 X106.239 Y121.527 E2.30505
G1 X106.136 Y121.503 E2.30988
G1 X105.845 Y121.371 E2.32448
G1 X105.759 Y121.309 E2.32931
G1 X105.388 Y120.914 E2.35406
G1 X105.332 Y120.824 E2.3589
G1 X105.219 Y120.525 E2.37349
G1 X105.202 Y120.42 E2.37832
G1 X105.542 Y109.924 E2.85781
G1 X105.566 Y109.821 E2.86264
G1 X105.698 Y109.529 E2.87723
G1 X105.759 Y109.443 E2.88207
G1 X106.111 Y109.114 E2.90408
G1 X106.479 Y109.506 F9000
G1 F1200
G1 X106.684 Y109.425 E2.91414
G1 X107.296 Y109.445 E2.94209
G1 X124.691 Y110.009 E3.73669
G1 X124.886 Y110.097 E3.74645
G1 X125.184 Y110.415 E3.76637
G1 X125.259 Y110.615 E3.77613
G1 X124.923 Y121.006 E4.25078
G1 X124.835 Y121.201 E4.26054
G1 X124.516 Y121.499 E4.28047
G1 X124.316 Y121.575 E4.29023
G1 X106.309 Y120.991 E5.11277
G1 X106.114 Y120.903 E5.12253
G1 X105.816 Y120.585 E5.14246
G1 X105.741 Y120.385 E5.15222
G1 X106.077 Y109.994 E5.62687
G1 X106.165 Y109.799 E5.63663
G1 X106.435 Y109.547 E5.65349
G1 X106.773 Y109.966 F9000
G1 F1200
G1 X107.278 Y109.982 E5.67655
G1 X124.567 Y110.542 E6.46628
G1 X124.719 Y110.705 E6.47644
G1 X124.389 Y120.882 E6.94133
G1 X124.227 Y121.034 E6.95149
G1 X106.433 Y120.458 E7.76428
G1 X106.281 Y120.295 E7.77444
G1 X106.611 Y110.118 E8.23934
G1 X106.729 Y110.007 E8.24676
; printing object PART_19A.stl id:0 copy 0
M486 S0
G1 X107.154 Y110.535 F9000
;TYPE:External perimeter
G1 F1200
G1 X107.26 Y110.539 E8.25159
G1 X124.149 Y111.086 E9.02309
G1 X123.846 Y120.465 E9.45152
G1 X106.851 Y119.914 E10.22784
G1 X107.152 Y110.595 E10.65354
;WIPE_START
G1 X107.494 Y110.746 F9000
;WIPE_END
G1 X107.674 Y111.09
;TYPE:Internal perimeter
G1 F1200
G1 X123.595 Y111.605 E11.38079
G1 X123.326 Y119.91 E11.76016
G1 X107.405 Y119.395 E12.48742
G1 X107.672 Y111.15 E12.86404
G92 E0
G1 E-5.95 F3000
;WIPE_START
G1 F7200
G1 X113.79 Y111.325 E-8.3725
;WIPE_END
G1 E-8.5 F3000
; acceleration to travel
M204 S1500
G1 X121.379 Y111.681 F9000
; decel to extrusion
M204 S500
G1 X122.306 Y111.725
; end travel
G1 E0 F3000
;TYPE:Solid infill
;WIDTH:0.574858
G1 F1200
G1 X123.171 Y112.59 E0.05572
G1 X123.147 Y113.326 E0.08927
G1 X121.759 Y111.938 E0.17867
G1 X120.974 Y111.913 E0.21447
G1 X123.123 Y114.062 E0.35294
G1 X123.099 Y114.798 E0.3865
G1 X120.189 Y111.887 E0.57404
G1 X119.403 Y111.862 E0.60984
G1 X123.075 Y115.534 E0.84646
G1 X123.051 Y116.27 E0.88002
G1 X118.618 Y111.837 E1.1657
G1 X117.833 Y111.811 E1.20151
G1 X123.028 Y117.006 E1.53627
G1 X123.004 Y117.742 E1.56983
G1 X117.047 Y111.786 E1.95366
G1 X116.262 Y111.76 E1.98947
G1 X122.98 Y118.478 E2.42238
G1 X122.956 Y119.215 E2.45593
G1 X115.476 Y111.735 E2.93791
G1 X114.691 Y111.709 E2.97372
G1 X122.472 Y119.49 E3.47509
G1 X121.686 Y119.465 E3.5109
G1 X113.906 Y111.684 E4.01227
G1 X113.12 Y111.659 E4.04808
G1 X120.901 Y119.439 E4.54945
G1 X120.115 Y119.414 E4.58526
G1 X112.335 Y111.633 E5.08663
G1 X111.549 Y111.608 E5.12244
G1 X119.33 Y119.388 E5.62381
G1 X118.545 Y119.363 E5.65962
G1 X110.764 Y111.582 E6.16099
G1 X109.979 Y111.557 E6.1968
G1 X117.759 Y119.338 E6.69817
G1 X116.974 Y119.312 E6.73398
G1 X109.193 Y111.531 E7.23535
G1 X108.408 Y111.506 E7.27116
G1 X116.188 Y119.287 E7.77253
G1 X115.403 Y119.261 E7.80834
G1 X108.04 Y111.898 E8.28279
G1 X108.016 Y112.635 E8.31634
G1 X114.618 Y119.236 E8.74172
G1 X113.832 Y119.21 E8.77752
G1 X107.993 Y113.371 E9.15383
G1 X107.969 Y114.107 E9.18739
G1 X113.047 Y119.185 E9.51461
G1 X112.262 Y119.159 E9.55042
G1 X107.945 Y114.843 E9.82857
G1 X107.921 Y115.579 E9.86213
G1 X111.476 Y119.134 E10.09121
G1 X110.691 Y119.109 E10.12702
G1 X107.897 Y116.315 E10.30703
G1 X107.873 Y117.051 E10.34058
G1 X109.905 Y119.083 E10.47152
G1 X109.12 Y119.058 E10.50732
G1 X107.85 Y117.787 E10.58919
G1 X107.826 Y118.523 E10.62274
G1 X108.573 Y119.271 E10.67093
M106 S84.15
;LAYER_CHANGE
;Z:0.52
;HEIGHT:0.32
;BEFORE_LAYER_CHANGE
;0.52


G92 E0
G1 E-5.95 F3000
;WIPE_START
G1 F7200
G1 X107.826 Y118.523 E-6.36858
G1 X107.85 Y117.787 E-6.66012
G1 X109.12 Y119.058 E-7.37126
G1 X109.905 Y119.083 E-7.68231
G1 X108.672 Y117.85 E-8.3725
;WIPE_END
G1 E-8.5 F3000
; stop printing object PART_19A.stl id:0 copy 0
M486 S-1
G1 Z0.47 F9000
;AFTER_LAYER_CHANGE
;0.52
G92 E0
; acceleration to travel
M204 S1500
G1 X101.816 Y117.628
; decel to extrusion
M204 S500
G1 X100.979 Y117.601
; end travel
G1 E8.5 F3000
;TYPE:Skirt
;WIDTH:0.48
G1 F1200
G1 X100.836 Y122.009 E8.74857
G1 X101.474 Y124.193 E8.87684
G1 X102.733 Y125.333 E8.97257
G1 X104.371 Y125.781 E9.0683
G1 X125.94 Y126.479 E10.28465
G1 X128.125 Y125.841 E10.41292
G1 X129.264 Y124.582 E10.50865
G1 X129.712 Y122.944 E10.60438
G1 X130.164 Y108.991 E11.39124
G1 X129.526 Y106.807 E11.51951
G1 X128.267 Y105.667 E11.61524
G1 X126.629 Y105.219 E11.71096
G1 X107.453 Y104.598 E12.79239
G1 X105.06 Y104.521 E12.92732
G1 X102.875 Y105.159 E13.05559
G1 X101.736 Y106.418 E13.15132
G1 X101.288 Y108.056 E13.24705
G1 X100.981 Y117.541 E13.78195
G1 X101.418 Y117.555 F9000
G1 F1200
G1 X101.273 Y122.023 E14.0339
G1 X101.727 Y123.778 E14.1361
G1 X102.856 Y124.9 E14.22584
G1 X104.386 Y125.344 E14.31558
G1 X125.954 Y126.042 E15.53194
G1 X127.71 Y125.588 E15.63413
G1 X128.832 Y124.459 E15.72387
G1 X129.275 Y122.93 E15.81361
G1 X129.727 Y108.977 E16.60047
G1 X129.273 Y107.222 E16.70267
G1 X128.144 Y106.1 E16.79241
G1 X126.614 Y105.656 E16.88215
G1 X107.438 Y105.035 E17.96357
G1 X105.046 Y104.958 E18.0985
G1 X103.29 Y105.412 E18.2007
G1 X102.168 Y106.541 E18.29044
G1 X101.725 Y108.07 E18.38018
G1 X101.419 Y117.495 E18.9117
G92 E0
G1 E-5.95 F3000
;WIPE_START
G1 F7200
G1 X101.273 Y122.023 E-7.74314
G1 X101.671 Y123.562 E-8.3725
;WIPE_END
G1 E-8.5 F3000
; printing object PART_19A.stl id:0 copy 0
M486 S0
; acceleration to travel
M204 S1500
G1 X106.456 Y120.147 F9000
; decel to extrusion
M204 S500
G1 X107.074 Y119.705
; end travel
G1 E0 F3000
;TYPE:Internal perimeter
;WIDTH:0.476
G1 F2400
G1 X107.363 Y110.758 E0.49965
G1 X123.926 Y111.295 E1.42462
G1 X123.637 Y120.242 E1.92427
G1 X107.134 Y119.707 E2.8459
G1 X106.671 Y120.083 F9000
;TYPE:External perimeter
;WIDTH:0.428
G1 F1500
G1 X106.986 Y110.356 E3.3251
G1 X124.329 Y110.917 E4.1795
G1 X124.014 Y120.644 E4.65869
G1 X106.731 Y120.085 E5.51014
;WIPE_START
G1 X106.882 Y119.743 F9000
;WIPE_END
G92 E0
G1 E-5.95 F3000
;WIPE_START
G1 F7200
G1 X107.08 Y113.626 E-8.3725
;WIPE_END
G1 E-8.5 F3000
; acceleration to travel
M204 S1500
G1 X107.425 Y111.572 F9000
; decel to extrusion
M204 S500
G1 X107.47 Y111.306
; end travel
G1 E0 F3000
;TYPE:Solid infill
;WIDTH:0.483714
G1 F2400
G1 X107.705 Y111.072 E0.01882
G1 X108.272 Y111.09 E0.05102
G1 X107.635 Y111.728 E0.10215
G1 X107.615 Y112.333 E0.1365
G1 X108.839 Y111.109 E0.23472
G1 X109.407 Y111.127 E0.26692
G1 X107.595 Y112.938 E0.41222
G1 X107.576 Y113.544 E0.44658
G1 X109.974 Y111.145 E0.63896
G1 X110.541 Y111.164 E0.67116
G1 X107.556 Y114.149 E0.91064
G1 X107.537 Y114.755 E0.94499
G1 X111.109 Y111.182 E1.23155
G1 X111.676 Y111.201 E1.26375
G1 X107.517 Y115.36 E1.5974
G1 X107.497 Y115.965 E1.63175
G1 X112.244 Y111.219 E2.01249
G1 X112.811 Y111.237 E2.04469
G1 X107.478 Y116.571 E2.4725
G1 X107.458 Y117.176 E2.50686
G1 X113.378 Y111.256 E2.98176
G1 X113.946 Y111.274 E3.01396
G1 X107.438 Y117.781 E3.53595
G1 X107.419 Y118.387 E3.57031
G1 X114.513 Y111.292 E4.13938
G1 X115.081 Y111.311 E4.17158
G1 X107.399 Y118.992 E4.78774
G1 X107.386 Y119.413 E4.81163
G1 X107.559 Y119.418 E4.82144
G1 X115.648 Y111.329 E5.47033
G1 X116.215 Y111.348 E5.50253
G1 X108.126 Y119.437 E6.15143
G1 X108.693 Y119.455 E6.18363
G1 X116.783 Y111.366 E6.83252
G1 X117.35 Y111.384 E6.86472
G1 X109.261 Y119.474 E7.51361
G1 X109.828 Y119.492 E7.54581
G1 X117.917 Y111.403 E8.19471
G1 X118.485 Y111.421 E8.22691
G1 X110.396 Y119.51 E8.8758
G1 X110.963 Y119.529 E8.908
G1 X119.052 Y111.439 E9.55689
G1 X119.62 Y111.458 E9.58909
G1 X111.53 Y119.547 E10.23798
G1 X112.098 Y119.565 E10.27018
G1 X120.187 Y111.476 E10.91908
G1 X120.754 Y111.495 E10.95128
G1 X112.665 Y119.584 E11.60017
G1 X113.232 Y119.602 E11.63237
G1 X121.322 Y111.513 E12.28126
G1 X121.889 Y111.531 E12.31346
G1 X113.8 Y119.621 E12.96236
G1 X114.367 Y119.639 E12.99456
G1 X122.457 Y111.55 E13.64345
G1 X123.024 Y111.568 E13.67565
G1 X114.935 Y119.657 E14.32454
G1 X115.502 Y119.676 E14.35674
G1 X123.591 Y111.586 E15.00564
G1 X123.614 Y111.587 E15.00694
G1 X123.596 Y112.168 E15.0399
G1 X116.069 Y119.694 E15.64362
G1 X116.637 Y119.712 E15.67582
G1 X123.576 Y112.773 E16.23246
G1 X123.556 Y113.379 E16.26681
G1 X117.204 Y119.731 E16.77636
G1 X117.772 Y119.749 E16.80856
G1 X123.537 Y113.984 E17.27102
G1 X123.517 Y114.589 E17.30537
G1 X118.339 Y119.768 E17.72075
G1 X118.906 Y119.786 E17.75295
G1 X123.498 Y115.195 E18.12124
G1 X123.478 Y115.8 E18.15559
G1 X119.474 Y119.804 E18.4768
G1 X120.041 Y119.823 E18.509
G1 X123.458 Y116.405 E18.78312
G1 X123.439 Y117.011 E18.81747
G1 X120.608 Y119.841 E19.0445
G1 X121.176 Y119.859 E19.0767
G1 X123.419 Y117.616 E19.25665
G1 X123.4 Y118.222 E19.291
G1 X121.743 Y119.878 E19.42386
G1 X122.311 Y119.896 E19.45606
G1 X123.38 Y118.827 E19.54184
G1 X123.36 Y119.432 E19.57619
G1 X122.705 Y120.087 E19.62873
M106 S170.85
;LAYER_CHANGE
;Z:0.84
;HEIGHT:0.32
;BEFORE_LAYER_CHANGE
;0.84


G92 E0
G1 E-5.95 F3000
;WIPE_START
G1 F7200
G1 X123.36 Y119.432 E-6.31661
G1 X123.38 Y118.827 E-6.55636
G1 X122.311 Y119.896 E-7.15494
G1 X121.743 Y119.878 E-7.37965
G1 X123.4 Y118.222 E-8.30682
G1 X123.405 Y118.056 E-8.3725
;WIPE_END
G1 E-8.5 F3000
; stop printing object PART_19A.stl id:0 copy 0
M486 S-1
G1 Z0.79 F9000
;AFTER_LAYER_CHANGE
;0.84
G92 E0
; printing object PART_19A.stl id:0 copy 0
M486 S0
; acceleration to travel
M204 S1500
G1 X123.61 Y119.992
; decel to extrusion
M204 S500
G1 X123.637 Y120.242
; end travel
G1 E8.5 F3000
;TYPE:Internal perimeter
;WIDTH:0.476
G1 F1940
G1 X107.074 Y119.705 E9.42497
G1 X107.363 Y110.758 E9.92462
G1 X123.926 Y111.295 E10.8496
G1 X123.639 Y120.182 E11.3459
G1 X124.014 Y120.644 F9000
;TYPE:External perimeter
;WIDTH:0.428
G1 F1500
G1 X106.671 Y120.083 E12.2003
G1 X106.986 Y110.356 E12.6795
G1 X124.329 Y110.917 E13.5339
G1 X124.016 Y120.584 E14.01014
;WIPE_START
G1 X123.674 Y120.433 F9000
;WIPE_END
G92 E0
G1 E-5.95 F3000
;WIPE_START
G1 F7200
G1 X117.557 Y120.235 E-8.3725
;WIPE_END
G1 E-8.5 F3000
; acceleration to travel
M204 S1500
G1 X123.061 Y113.142 F9000
; decel to extrusion
M204 S500
G1 X123.772 Y112.226
; end travel
G1 E0 F3000
;TYPE:Solid infill
;WIDTH:0.483866
G1 F1940
G1 X123.117 Y111.571 E0.05255
G1 X122.512 Y111.551 E0.08692
G1 X123.581 Y112.621 E0.17272
G1 X123.563 Y113.188 E0.20493
G1 X121.906 Y111.532 E0.33783
G1 X121.301 Y111.512 E0.3722
G1 X123.544 Y113.755 E0.5522
G1 X123.526 Y114.323 E0.58441
G1 X120.696 Y111.493 E0.81151
G1 X120.09 Y111.473 E0.84588
G1 X123.507 Y114.89 E1.12008
G1 X123.489 Y115.458 E1.15229
G1 X119.485 Y111.453 E1.4736
G1 X118.879 Y111.434 E1.50796
G1 X123.471 Y116.025 E1.87637
G1 X123.452 Y116.592 E1.90858
G1 X118.274 Y111.414 E2.32408
G1 X117.669 Y111.395 E2.35845
G1 X123.434 Y117.16 E2.82106
G1 X123.416 Y117.727 E2.85327
G1 X117.063 Y111.375 E3.36297
G1 X116.458 Y111.355 E3.39734
G1 X123.397 Y118.295 E3.95415
G1 X123.379 Y118.862 E3.98636
G1 X115.853 Y111.336 E4.59027
G1 X115.247 Y111.316 E4.62463
G1 X123.36 Y119.429 E5.27564
G1 X123.344 Y119.93 E5.30405
G1 X123.273 Y119.927 E5.30811
G1 X114.642 Y111.297 E6.00065
G1 X114.037 Y111.277 E6.03502
G1 X122.667 Y119.908 E6.72756
G1 X122.062 Y119.888 E6.76193
G1 X113.431 Y111.257 E7.45447
G1 X112.826 Y111.238 E7.48884
G1 X121.457 Y119.869 E8.18139
G1 X120.851 Y119.849 E8.21575
G1 X112.22 Y111.218 E8.9083
G1 X111.615 Y111.199 E8.94266
G1 X120.246 Y119.829 E9.63521
G1 X119.64 Y119.81 E9.66957
G1 X111.01 Y111.179 E10.36212
G1 X110.404 Y111.159 E10.39648
G1 X119.035 Y119.79 E11.08903
G1 X118.43 Y119.771 E11.1234
G1 X109.799 Y111.14 E11.81594
G1 X109.194 Y111.12 E11.85031
G1 X117.824 Y119.751 E12.54285
G1 X117.219 Y119.731 E12.57722
G1 X108.588 Y111.101 E13.26976
G1 X107.983 Y111.081 E13.30413
G1 X116.614 Y119.712 E13.99667
G1 X116.008 Y119.692 E14.03104
G1 X107.647 Y111.331 E14.70193
G1 X107.629 Y111.899 E14.73414
G1 X115.403 Y119.672 E15.35793
G1 X114.798 Y119.653 E15.3923
G1 X107.611 Y112.466 E15.96899
G1 X107.592 Y113.033 E16.0012
G1 X114.192 Y119.633 E16.53079
G1 X113.587 Y119.614 E16.56516
G1 X107.574 Y113.601 E17.04765
G1 X107.555 Y114.168 E17.07985
G1 X112.981 Y119.594 E17.51524
G1 X112.376 Y119.574 E17.54961
G1 X107.537 Y114.735 E17.9379
G1 X107.519 Y115.303 E17.97011
G1 X111.771 Y119.555 E18.31129
