; generated by SuperSlicer 2.4 on 2022-12-06 at 15:30:20 UTC

; 

; external perimeters extrusion width = 0.43mm
; perimeters extrusion width = 0.48mm
; infill extrusion width = 0.46mm
; solid infill extrusion width = 0.48mm
; top infill extrusion width = 0.46mm
; first layer extrusion width = 0.58mm

; object:{"name":"PART_20A","id":"PART_20A.stl id:0 copy 0","object_center":[115.500000,115.500000,0.000000],"boundingbox_center":[115.500000,115.500000,7.620000],"boundingbox_size":[20.320000,12.700000,15.240000]}
; Total objects to print: 1
M486 T1
; plater:{"center":[115.500000,115.500000,0.000000],"boundingbox_center":[115.500000,115.500000,7.620000],"boundingbox_size":[20.320000,12.700000,15.240000]}

;TYPE:Custom
G90 ; use absolute coordinates
M83 ; extruder relative mode
M140 S60 ; set final bed temp
M104 S150 ; set temporary nozzle temp to prevent oozing during homing and auto bed leveling
G4 S10 ; allow partial nozzle warmup
G28 ; home all axis
;G29 ; auto bed levelling
G1 Z10 F240
G1 X2 Y10 F3000
G1 Z0 F240
M104 S210 ; set final nozzle temp
M190 S60 ; wait for bed temp to stabilize
M109 S210 ; wait for nozzle temp to stabilize
G1 Z0.28 F240
G92 E0
G1 Y140 E10 F1500 ; prime the nozzle
G1 X2.3 F5000
G92 E0
G1 Y10 E10 F1200 ; prime the nozzle
G92 E0
;start
M107
G21 ; set units to millimeters
G90 ; use absolute coordinates
M82 ; use absolute distances for extrusion
G92 E0
; Filament gcode
;_TOOLCHANGE 0
M107
;LAYER_CHANGE
;Z:0.2
;HEIGHT:0.2
;BEFORE_LAYER_CHANGE
;0.2


G1 E-8.5 F3000
G1 Z0.15 F9000
;AFTER_LAYER_CHANGE
;0.2
G92 E0
M204 S500
G1 X101.277 Y104.303
G1 E8.5 F3000
;TYPE:Skirt
;WIDTH:0.48
G1 F1200
G1 X100.179 Y105.598 E8.56358
G1 X99.784 Y107.25 E8.62715
G1 X99.784 Y123.75 E9.24481
G1 X100.493 Y125.913 E9.33
G1 X101.788 Y127.011 E9.39357
G1 X103.44 Y127.406 E9.45715
G1 X127.56 Y127.406 E10.36005
G1 X129.723 Y126.697 E10.44524
G1 X130.821 Y125.402 E10.50881
G1 X131.216 Y123.75 E10.57239
G1 X131.216 Y107.25 E11.19004
G1 X130.507 Y105.087 E11.27523
G1 X129.212 Y103.989 E11.33881
G1 X127.56 Y103.594 E11.40238
G1 X103.44 Y103.594 E12.30528
G1 X101.334 Y104.284 E12.38823
G1 X101.659 Y104.586 F9000
G1 F1200
G1 X100.615 Y105.707 E12.44556
G1 X100.221 Y107.25 E12.50516
G1 X100.221 Y123.75 E13.12282
G1 X100.732 Y125.49 E13.19069
G1 X101.897 Y126.575 E13.25029
G1 X103.44 Y126.969 E13.30989
G1 X127.56 Y126.969 E14.21278
G1 X129.3 Y126.458 E14.28066
G1 X130.385 Y125.293 E14.34026
G1 X130.779 Y123.75 E14.39986
G1 X130.779 Y107.25 E15.01751
G1 X130.268 Y105.51 E15.08538
G1 X129.103 Y104.425 E15.14498
G1 X127.56 Y104.031 E15.20458
G1 X103.44 Y104.031 E16.10748
G1 X101.7 Y104.543 E16.17537
G92 E0
G1 E-5.95 F3000
;WIPE_START
G1 F7200
G1 X100.615 Y105.707 E-6.58004
G1 X100.221 Y107.25 E-7.21025
G1 X100.221 Y110.186 E-8.3725
;WIPE_END
G1 E-8.5 F3000
; acceleration to travel
M204 S1500
G1 X104.196 Y108.335 F9000
; decel to extrusion
M204 S500
G1 X104.682 Y108.108
; end travel
G1 E0 F3000
;WIDTH:0.576
G1 F1200
G1 X104.77 Y108.05 E0.00483
G1 X105.065 Y107.927 E0.01943
G1 X105.169 Y107.907 E0.02426
G1 X125.831 Y107.907 E0.9676
G1 X125.935 Y107.927 E0.97244
G1 X126.23 Y108.05 E0.98703
G1 X126.318 Y108.108 E0.99186
G1 X126.702 Y108.492 E1.01662
G1 X126.76 Y108.58 E1.02145
G1 X126.883 Y108.875 E1.03604
G1 X126.903 Y108.979 E1.04088
G1 X126.903 Y122.021 E1.63633
G1 X126.883 Y122.125 E1.64116
G1 X126.76 Y122.42 E1.65575
G1 X126.702 Y122.508 E1.66059
G1 X126.318 Y122.892 E1.68534
G1 X126.23 Y122.95 E1.69017
G1 X125.935 Y123.073 E1.70477
G1 X125.831 Y123.093 E1.7096
G1 X105.169 Y123.093 E2.65294
G1 X105.065 Y123.073 E2.65778
G1 X104.77 Y122.95 E2.67237
G1 X104.682 Y122.892 E2.6772
G1 X104.298 Y122.508 E2.70196
G1 X104.24 Y122.42 E2.70679
G1 X104.117 Y122.125 E2.72138
G1 X104.097 Y122.021 E2.72622
G1 X104.097 Y108.979 E3.32167
G1 X104.117 Y108.875 E3.3265
G1 X104.24 Y108.58 E3.34109
G1 X104.298 Y108.492 E3.34593
G1 X104.639 Y108.151 E3.36794
G1 X105.019 Y108.531 F9000
G1 F1200
G1 X105.222 Y108.444 E3.378
G1 X125.778 Y108.444 E4.31651
G1 X125.976 Y108.526 E4.32627
G1 X126.284 Y108.834 E4.3462
G1 X126.366 Y109.032 E4.35596
G1 X126.366 Y121.968 E4.94657
G1 X126.284 Y122.166 E4.95633
G1 X125.976 Y122.474 E4.97626
G1 X125.778 Y122.556 E4.98602
G1 X105.222 Y122.556 E5.92453
G1 X105.024 Y122.474 E5.93429
G1 X104.716 Y122.166 E5.95421
G1 X104.634 Y121.968 E5.96397
G1 X104.634 Y109.032 E6.55459
G1 X104.716 Y108.834 E6.56435
G1 X104.977 Y108.573 E6.58121
G1 X105.329 Y108.981 F9000
G1 F1200
G1 X125.671 Y108.981 E7.50996
G1 X125.829 Y109.139 E7.52013
G1 X125.829 Y121.861 E8.10098
G1 X125.671 Y122.019 E8.11115
G1 X105.329 Y122.019 E9.0399
G1 X105.171 Y121.861 E9.05006
G1 X105.171 Y109.139 E9.63092
G1 X105.286 Y109.024 E9.63834
; printing object PART_20A.stl id:0 copy 0
M486 S0
G1 X105.728 Y109.538 F9000
;TYPE:External perimeter
G1 F1200
G1 X125.272 Y109.538 E10.53063
G1 X125.272 Y121.462 E11.07503
G1 X105.728 Y121.462 E11.96732
G1 X105.728 Y109.598 E12.50898
;WIPE_START
G1 X106.074 Y109.738 F9000
;WIPE_END
G1 X106.265 Y110.075
;TYPE:Internal perimeter
G1 F1200
G1 X124.735 Y110.075 E13.3522
G1 X124.735 Y120.925 E13.84753
G1 X106.265 Y120.925 E14.69075
G1 X106.265 Y110.135 E15.18334
G92 E0
G1 E-5.95 F3000
;WIPE_START
G1 F7200
G1 X112.385 Y110.115 E-8.3725
;WIPE_END
G1 E-8.5 F3000
; acceleration to travel
M204 S1500
G1 X122.279 Y110.223 F9000
; decel to extrusion
M204 S500
G1 X123.487 Y110.237
; end travel
G1 E0 F3000
;TYPE:Solid infill
;WIDTH:0.575736
G1 F1200
G1 X124.342 Y111.092 E0.05519
G1 X124.342 Y111.852 E0.08987
G1 X122.958 Y110.468 E0.1792
G1 X122.198 Y110.468 E0.21388
G1 X124.342 Y112.612 E0.35225
G1 X124.342 Y113.372 E0.38693
G1 X121.438 Y110.468 E0.57434
G1 X120.678 Y110.468 E0.60902
G1 X124.342 Y114.132 E0.84549
G1 X124.342 Y114.892 E0.88017
G1 X119.918 Y110.468 E1.16567
G1 X119.158 Y110.468 E1.20035
G1 X124.342 Y115.652 E1.5349
G1 X124.342 Y116.411 E1.56958
G1 X118.399 Y110.468 E1.95318
G1 X117.639 Y110.468 E1.98786
G1 X124.342 Y117.171 E2.4205
G1 X124.342 Y117.931 E2.45518
G1 X116.879 Y110.468 E2.93687
G1 X116.119 Y110.468 E2.97155
G1 X124.342 Y118.691 E3.50229
G1 X124.342 Y119.451 E3.53697
G1 X115.359 Y110.468 E4.11675
G1 X114.599 Y110.468 E4.15143
G1 X124.342 Y120.211 E4.78025
G1 X124.342 Y120.532 E4.7949
G1 X123.904 Y120.532 E4.81493
G1 X113.839 Y110.468 E5.46448
G1 X113.079 Y110.468 E5.49916
G1 X123.144 Y120.532 E6.14871
G1 X122.384 Y120.532 E6.18339
G1 X112.319 Y110.468 E6.83294
G1 X111.559 Y110.468 E6.86762
G1 X121.624 Y120.532 E7.51716
G1 X120.864 Y120.532 E7.55184
G1 X110.799 Y110.468 E8.20139
G1 X110.039 Y110.468 E8.23607
G1 X120.104 Y120.532 E8.88562
G1 X119.344 Y120.532 E8.9203
G1 X109.279 Y110.468 E9.56985
G1 X108.519 Y110.468 E9.60453
G1 X118.584 Y120.532 E10.25408
G1 X117.824 Y120.532 E10.28876
G1 X107.759 Y110.468 E10.93831
G1 X106.999 Y110.468 E10.97299
G1 X117.064 Y120.532 E11.62254
G1 X116.304 Y120.532 E11.65722
G1 X106.658 Y110.886 E12.27976
G1 X106.658 Y111.646 E12.31444
G1 X115.544 Y120.532 E12.88794
G1 X114.784 Y120.532 E12.92262
G1 X106.658 Y112.406 E13.44708
G1 X106.658 Y113.166 E13.48176
G1 X114.024 Y120.532 E13.95717
G1 X113.264 Y120.532 E13.99185
G1 X106.658 Y113.926 E14.41821
G1 X106.658 Y114.686 E14.45289
G1 X112.504 Y120.532 E14.83021
G1 X111.744 Y120.532 E14.86489
G1 X106.658 Y115.446 E15.19316
G1 X106.658 Y116.206 E15.22784
G1 X110.984 Y120.532 E15.50707
G1 X110.224 Y120.532 E15.54175
G1 X106.658 Y116.966 E15.77193
G1 X106.658 Y117.726 E15.80661
G1 X109.464 Y120.532 E15.98775
G1 X108.704 Y120.532 E16.02243
G1 X106.658 Y118.486 E16.15452
G1 X106.658 Y119.246 E16.1892
G1 X107.944 Y120.532 E16.27225
G1 X107.184 Y120.532 E16.30693
G1 X106.427 Y119.774 E16.35584
M106 S84.15
;LAYER_CHANGE
;Z:0.52
;HEIGHT:0.32
;BEFORE_LAYER_CHANGE
;0.52


G92 E0
G1 E-5.95 F3000
;WIPE_START
G1 F7200
G1 X107.184 Y120.532 E-6.37427
G1 X107.944 Y120.532 E-6.67509
G1 X106.658 Y119.246 E-7.39543
G1 X106.658 Y118.486 E-7.69624
G1 X107.866 Y119.694 E-8.3725
;WIPE_END
G1 E-8.5 F3000
; stop printing object PART_20A.stl id:0 copy 0
M486 S-1
G1 Z0.47 F9000
;AFTER_LAYER_CHANGE
;0.52
G92 E0
; acceleration to travel
M204 S1500
G1 X107.866 Y126.566
; decel to extrusion
M204 S500
G1 X107.866 Y127.406
; end travel
G1 E8.5 F3000
;TYPE:Skirt
;WIDTH:0.48
G1 F1200
G1 X127.56 Y127.406 E9.61007
G1 X129.723 Y126.697 E9.73834
G1 X130.821 Y125.402 E9.83407
G1 X131.216 Y123.75 E9.9298
G1 X131.216 Y107.25 E10.85982
G1 X130.507 Y105.087 E10.98809
G1 X129.212 Y103.989 E11.08382
G1 X127.56 Y103.594 E11.17955
G1 X103.44 Y103.594 E12.53907
G1 X101.277 Y104.303 E12.66734
G1 X100.179 Y105.598 E12.76307
G1 X99.784 Y107.25 E12.8588
G1 X99.784 Y123.75 E13.78882
G1 X100.493 Y125.913 E13.91709
G1 X101.788 Y127.011 E14.01282
G1 X103.44 Y127.406 E14.10855
G1 X107.806 Y127.406 E14.35462
G1 X107.806 Y126.969 F9000
G1 F1200
G1 X127.56 Y126.969 E15.46807
G1 X129.3 Y126.458 E15.57027
G1 X130.385 Y125.293 E15.66001
G1 X130.779 Y123.75 E15.74975
G1 X130.779 Y107.25 E16.67977
G1 X130.268 Y105.51 E16.78197
G1 X129.103 Y104.425 E16.87171
G1 X127.56 Y104.031 E16.96144
G1 X103.44 Y104.031 E18.32097
G1 X101.7 Y104.542 E18.42317
G1 X100.615 Y105.707 E18.51291
G1 X100.221 Y107.25 E18.60264
G1 X100.221 Y123.75 E19.53267
G1 X100.732 Y125.49 E19.63486
G1 X101.897 Y126.575 E19.7246
G1 X103.44 Y126.969 E19.81434
G1 X107.746 Y126.969 E20.05703
G92 E0
G1 E-5.95 F3000
;WIPE_START
G1 F7200
G1 X113.866 Y126.969 E-8.3725
;WIPE_END
G1 E-8.5 F3000
; printing object PART_20A.stl id:0 copy 0
M486 S0
; acceleration to travel
M204 S1500
G1 X106.85 Y121.901 F9000
; decel to extrusion
M204 S500
G1 X105.944 Y121.246
; end travel
G1 E0 F3000
;TYPE:Internal perimeter
;WIDTH:0.476
G1 F2400
G1 X105.944 Y109.754 E0.64142
G1 X125.056 Y109.754 E1.70817
G1 X125.056 Y121.246 E2.3496
G1 X106.004 Y121.246 E3.413
G1 X105.554 Y121.636 F9000
;TYPE:External perimeter
;WIDTH:0.428
G1 F1500
G1 X105.554 Y109.364 E4.01726
G1 X125.446 Y109.364 E4.99673
G1 X125.446 Y121.636 E5.60099
G1 X105.614 Y121.636 E6.57751
;WIPE_START
G1 X105.754 Y121.29 F9000
;WIPE_END
G92 E0
G1 E-5.95 F3000
;WIPE_START
G1 F7200
G1 X105.754 Y115.17 E-8.3725
;WIPE_END
G1 E-8.5 F3000
; acceleration to travel
M204 S1500
G1 X106.032 Y110.986 F9000
; decel to extrusion
M204 S500
G1 X106.068 Y110.445
; end travel
G1 E0 F3000
;TYPE:Solid infill
;WIDTH:0.483855
G1 F2400
G1 X106.457 Y110.057 E0.03119
G1 X107.043 Y110.057 E0.06442
G1 X106.247 Y110.853 E0.12832
G1 X106.247 Y111.439 E0.16155
G1 X107.629 Y110.057 E0.27245
G1 X108.214 Y110.057 E0.30568
G1 X106.247 Y112.024 E0.46358
G1 X106.247 Y112.61 E0.49681
G1 X108.8 Y110.057 E0.70171
G1 X109.386 Y110.057 E0.73495
G1 X106.247 Y113.196 E0.98685
G1 X106.247 Y113.782 E1.02008
G1 X109.972 Y110.057 E1.31898
G1 X110.557 Y110.057 E1.35222
G1 X106.247 Y114.367 E1.69812
G1 X106.247 Y114.953 E1.73135
G1 X111.143 Y110.057 E2.12425
G1 X111.729 Y110.057 E2.15749
G1 X106.247 Y115.539 E2.59739
G1 X106.247 Y116.125 E2.63063
G1 X112.315 Y110.057 E3.11753
G1 X112.9 Y110.057 E3.15077
G1 X106.247 Y116.71 E3.68467
G1 X106.247 Y117.296 E3.71791
G1 X113.486 Y110.057 E4.29881
G1 X114.072 Y110.057 E4.33205
G1 X106.247 Y117.882 E4.95995
G1 X106.247 Y118.468 E4.99319
G1 X114.658 Y110.057 E5.6681
G1 X115.243 Y110.057 E5.70133
G1 X106.247 Y119.053 E6.42324
G1 X106.247 Y119.639 E6.45647
G1 X115.829 Y110.057 E7.22538
G1 X116.415 Y110.057 E7.25862
G1 X106.247 Y120.225 E8.07453
G1 X106.247 Y120.811 E8.10776
G1 X117.001 Y110.057 E8.97068
G1 X117.587 Y110.057 E9.00391
G1 X106.7 Y120.943 E9.87747
G1 X107.285 Y120.943 E9.9107
G1 X118.172 Y110.057 E10.78426
G1 X118.758 Y110.057 E10.8175
G1 X107.871 Y120.943 E11.69106
G1 X108.457 Y120.943 E11.72429
G1 X119.344 Y110.057 E12.59785
G1 X119.93 Y110.057 E12.63109
G1 X109.043 Y120.943 E13.50465
G1 X109.628 Y120.943 E13.53788
G1 X120.515 Y110.057 E14.41144
G1 X121.101 Y110.057 E14.44467
G1 X110.214 Y120.943 E15.31823
G1 X110.8 Y120.943 E15.35147
G1 X121.687 Y110.057 E16.22503
G1 X122.273 Y110.057 E16.25826
G1 X111.386 Y120.943 E17.13182
G1 X111.971 Y120.943 E17.16506
G1 X122.858 Y110.057 E18.03862
G1 X123.444 Y110.057 E18.07185
G1 X112.557 Y120.943 E18.94541
G1 X113.143 Y120.943 E18.97865
G1 X124.03 Y110.057 E19.8522
G1 X124.616 Y110.057 E19.88544
G1 X113.729 Y120.943 E20.759
G1 X114.314 Y120.943 E20.79223
G1 X124.753 Y110.504 E21.62985
G1 X124.753 Y111.09 E21.66309
G1 X114.9 Y120.943 E22.4537
G1 X115.486 Y120.943 E22.48694
G1 X124.753 Y111.676 E23.23055
G1 X124.753 Y112.262 E23.26379
G1 X116.072 Y120.943 E23.9604
G1 X116.658 Y120.943 E23.99364
G1 X124.753 Y112.848 E24.64325
G1 X124.753 Y113.433 E24.67649
G1 X117.243 Y120.943 E25.2791
G1 X117.829 Y120.943 E25.31234
G1 X124.753 Y114.019 E25.86795
G1 X124.753 Y114.605 E25.90118
G1 X118.415 Y120.943 E26.40979
G1 X119.001 Y120.943 E26.44303
G1 X124.753 Y115.191 E26.90464
G1 X124.753 Y115.776 E26.93787
G1 X119.586 Y120.943 E27.35248
G1 X120.172 Y120.943 E27.38572
G1 X124.753 Y116.362 E27.75333
G1 X124.753 Y116.948 E27.78656
G1 X120.758 Y120.943 E28.10717
G1 X121.344 Y120.943 E28.1404
G1 X124.753 Y117.534 E28.41401
G1 X124.753 Y118.119 E28.44724
G1 X121.929 Y120.943 E28.67385
G1 X122.515 Y120.943 E28.70708
G1 X124.753 Y118.705 E28.88669
G1 X124.753 Y119.291 E28.91992
G1 X123.101 Y120.943 E29.05253
G1 X123.687 Y120.943 E29.08576
G1 X124.753 Y119.877 E29.17136
G1 X124.753 Y120.462 E29.2046
G1 X124.094 Y121.122 E29.25749
M106 S170.85
;LAYER_CHANGE
;Z:0.84
;HEIGHT:0.32
;BEFORE_LAYER_CHANGE
;0.84


G92 E0
G1 E-5.95 F3000
;WIPE_START
G1 F7200
G1 X124.753 Y120.462 E-6.31901
G1 X124.753 Y119.877 E-6.55087
G1 X123.687 Y120.943 E-7.14808
G1 X123.101 Y120.943 E-7.37994
G1 X124.753 Y119.291 E-8.30506
G1 X124.753 Y119.12 E-8.3725
;WIPE_END
G1 E-8.5 F3000
; stop printing object PART_20A.stl id:0 copy 0
M486 S-1
G1 Z0.79 F9000
;AFTER_LAYER_CHANGE
;0.84
G92 E0
; printing object PART_20A.stl id:0 copy 0
M486 S0
; acceleration to travel
M204 S1500
G1 X125.021 Y121.003
; decel to extrusion
M204 S500
G1 X125.056 Y121.246
; end travel
G1 E8.5 F3000
;TYPE:Internal perimeter
;WIDTH:0.476
G1 F2400
G1 X105.944 Y121.246 E9.56675
G1 X105.944 Y109.754 E10.20817
G1 X125.056 Y109.754 E11.27492
G1 X125.056 Y121.186 E11.913
G1 X125.446 Y121.636 F9000
;TYPE:External perimeter
;WIDTH:0.428
G1 F1500
G1 X105.554 Y121.636 E12.89247
G1 X105.554 Y109.364 E13.49673
G1 X125.446 Y109.364 E14.4762
G1 X125.446 Y121.576 E15.07751
;WIPE_START
G1 X125.1 Y121.436 F9000
;WIPE_END
G92 E0
G1 E-5.95 F3000
;WIPE_START
G1 F7200
G1 X118.98 Y121.436 E-8.3725
;WIPE_END
G1 E-8.5 F3000
; acceleration to travel
M204 S1500
G1 X124.251 Y111.942 F9000
; decel to extrusion
M204 S500
G1 X124.932 Y110.716
; end travel
G1 E0 F3000
;TYPE:Solid infill
;WIDTH:0.483855
G1 F2400
G1 X124.272 Y110.057 E0.05289
G1 X123.687 Y110.057 E0.08613
G1 X124.753 Y111.123 E0.17173
G1 X124.753 Y111.709 E0.20497
G1 X123.101 Y110.057 E0.33757
G1 X122.515 Y110.057 E0.3708
G1 X124.753 Y112.295 E0.55041
G1 X124.753 Y112.881 E0.58364
G1 X121.929 Y110.057 E0.81025
G1 X121.344 Y110.057 E0.84348
G1 X124.753 Y113.466 E1.11709
G1 X124.753 Y114.052 E1.15032
G1 X120.758 Y110.057 E1.47093
G1 X120.172 Y110.057 E1.50417
G1 X124.753 Y114.638 E1.87178
G1 X124.753 Y115.224 E1.90501
G1 X119.586 Y110.057 E2.31962
G1 X119.001 Y110.057 E2.35285
G1 X124.753 Y115.809 E2.81446
G1 X124.753 Y116.395 E2.8477
G1 X118.415 Y110.057 E3.35631
G1 X117.829 Y110.057 E3.38955
G1 X124.753 Y116.981 E3.94516
G1 X124.753 Y117.567 E3.97839
G1 X117.243 Y110.057 E4.58101
G1 X116.658 Y110.057 E4.61424
G1 X124.753 Y118.152 E5.26385
G1 X124.753 Y118.738 E5.29709
G1 X116.072 Y110.057 E5.9937
G1 X115.486 Y110.057 E6.02694
G1 X124.753 Y119.324 E6.77055
G1 X124.753 Y119.91 E6.80379
G1 X114.9 Y110.057 E7.59441
G1 X114.314 Y110.057 E7.62764
G1 X124.753 Y120.496 E8.46526
G1 X124.753 Y120.943 E8.49067
G1 X124.616 Y120.943 E8.49849
G1 X113.729 Y110.057 E9.37205
G1 X113.143 Y110.057 E9.40529
G1 X124.03 Y120.943 E10.27885
G1 X123.444 Y120.943 E10.31208
G1 X112.557 Y110.057 E11.18564
G1 X111.971 Y110.057 E11.21888
G1 X122.858 Y120.943 E12.09244
G1 X122.273 Y120.943 E12.12567
G1 X111.386 Y110.057 E12.99923
G1 X110.8 Y110.057 E13.03246
G1 X121.687 Y120.943 E13.90602
