; generated by SuperSlicer 2.4 on 2022-12-06 at 15:32:15 UTC

; 

; external perimeters extrusion width = 0.43mm
; perimeters extrusion width = 0.48mm
; infill extrusion width = 0.46mm
; solid infill extrusion width = 0.48mm
; top infill extrusion width = 0.46mm
; first layer extrusion width = 0.58mm

; object:{"name":"Pea9","id":"Pea9.STL id:0 copy 0","object_center":[115.500000,115.500000,0.000000],"boundingbox_center":[115.500000,115.500000,8.952025],"boundingbox_size":[34.403538,33.063662,17.904049]}
; Total objects to print: 1
M486 T1
; plater:{"center":[115.500000,115.500000,0.000000],"boundingbox_center":[115.500000,115.500000,8.952025],"boundingbox_size":[34.403538,33.063662,17.904049]}

;TYPE:Custom
G90 ; use absolute coordinates
M83 ; extruder relative mode
M140 S60 ; set final bed temp
M104 S150 ; set temporary nozzle temp to prevent oozing during homing and auto bed leveling
G4 S10 ; allow partial nozzle warmup
G28 ; home all axis
;G29 ; auto bed levelling
G1 Z10 F240
G1 X2 Y10 F3000
G1 Z0 F240
M104 S210 ; set final nozzle temp
M190 S60 ; wait for bed temp to stabilize
M109 S210 ; wait for nozzle temp to stabilize
G1 Z0.28 F240
G92 E0
G1 Y140 E10 F1500 ; prime the nozzle
G1 X2.3 F5000
G92 E0
G1 Y10 E10 F1200 ; prime the nozzle
G92 E0
;start
M107
G21 ; set units to millimeters
G90 ; use absolute coordinates
M82 ; use absolute distances for extrusion
G92 E0
; Filament gcode
;_TOOLCHANGE 0
M107
;LAYER_CHANGE
;Z:0.2
;HEIGHT:0.2
;BEFORE_LAYER_CHANGE
;0.2


G1 E-8.5 F3000
G1 Z0.15 F9000
;AFTER_LAYER_CHANGE
;0.2
G92 E0
M204 S500
G1 X102.986 Y95.117
G1 E8.5 F3000
;TYPE:Skirt
;WIDTH:0.48
G1 F1200
G1 X93.249 Y105.659 E9.0372
G1 X92.444 Y107.284 E9.10507
G1 X92.564 Y108.872 E9.16467
G1 X93.43 Y110.208 E9.22427
G1 X122.526 Y137.081 E10.70694
G1 X124.151 Y137.886 E10.77482
G1 X125.738 Y137.767 E10.83442
G1 X127.074 Y136.9 E10.89402
G1 X137.751 Y125.341 E11.48307
G1 X138.556 Y123.716 E11.55095
G1 X138.436 Y122.128 E11.61054
G1 X137.57 Y120.792 E11.67014
G1 X108.474 Y93.919 E13.15282
G1 X106.849 Y93.114 E13.22069
G1 X105.262 Y93.233 E13.28029
G1 X103.926 Y94.1 E13.33989
G1 X103.026 Y95.073 E13.3895
G92 E0
G1 E-5.95 F3000
;WIPE_START
G1 F7200
G1 X98.874 Y99.569 E-8.3725
;WIPE_END
G1 E-8.5 F3000
; acceleration to travel
M204 S1500
G1 X104.867 Y98.17 F9000
; decel to extrusion
M204 S500
G1 X105.599 Y97.999
; end travel
G1 E0 F3000
;WIDTH:0.576
G1 F1200
G1 X105.685 Y97.937 E0.00483
G1 X105.975 Y97.803 E0.01943
G1 X106.078 Y97.778 E0.02426
G1 X106.62 Y97.756 E0.04901
G1 X106.724 Y97.773 E0.05385
G1 X107.024 Y97.883 E0.06844
G1 X107.115 Y97.939 E0.07327
G1 X133.671 Y122.466 E1.72374
G1 X133.733 Y122.552 E1.72857
G1 X133.867 Y122.842 E1.74316
G1 X133.892 Y122.945 E1.74799
G1 X133.914 Y123.487 E1.77275
G1 X133.897 Y123.591 E1.77758
G1 X133.787 Y123.891 E1.79217
G1 X133.731 Y123.981 E1.79701
G1 X125.401 Y133.001 E2.35758
G1 X125.315 Y133.063 E2.36241
G1 X125.025 Y133.197 E2.377
G1 X124.922 Y133.222 E2.38184
G1 X124.38 Y133.244 E2.40659
G1 X124.276 Y133.227 E2.41142
G1 X123.976 Y133.117 E2.42602
G1 X123.885 Y133.061 E2.43085
G1 X97.329 Y108.534 E4.08131
G1 X97.267 Y108.448 E4.08615
G1 X97.133 Y108.158 E4.10074
G1 X97.108 Y108.055 E4.10557
G1 X97.086 Y107.513 E4.13033
G1 X97.103 Y107.409 E4.13516
G1 X97.213 Y107.109 E4.14975
G1 X97.269 Y107.019 E4.15459
G1 X105.559 Y98.043 E4.71242
G1 X105.953 Y98.407 F9000
G1 F1200
G1 X106.152 Y98.313 E4.72248
G1 X106.588 Y98.295 E4.7424
G1 X106.789 Y98.369 E4.75216
G1 X133.268 Y122.825 E6.39779
G1 X133.357 Y123.019 E6.40755
G1 X133.375 Y123.455 E6.42747
G1 X133.301 Y123.656 E6.43723
G1 X125.042 Y132.598 E6.99297
G1 X124.848 Y132.687 E7.00273
G1 X124.412 Y132.705 E7.02265
G1 X124.211 Y132.631 E7.03241
G1 X97.732 Y108.175 E8.67804
G1 X97.643 Y107.981 E8.6878
G1 X97.625 Y107.545 E8.70773
G1 X97.699 Y107.344 E8.71749
G1 X105.913 Y98.452 E9.27016
G1 X106.28 Y98.845 F9000
G1 F1200
G1 X106.503 Y98.837 E9.28032
G1 X107.242 Y99.519 E9.32625
G1 X132.825 Y123.147 E10.91619
G1 X132.833 Y123.37 E10.92636
G1 X124.72 Y132.155 E11.47233
G1 X124.497 Y132.163 E11.4825
G1 X98.175 Y107.853 E13.11837
G1 X98.167 Y107.63 E13.12853
G1 X106.24 Y98.889 E13.67177
; printing object Pea9.STL id:0 copy 0
M486 S0
G1 X106.418 Y99.516 F9000
;TYPE:External perimeter
G1 F1200
G1 X106.864 Y99.928 E13.69947
G1 X132.153 Y123.285 E15.27118
G1 X124.582 Y131.484 E15.78069
G1 X98.847 Y107.715 E17.3801
G1 X106.378 Y99.561 E17.88688
;WIPE_START
G1 X106.537 Y99.898 F9000
;WIPE_END
G1 X106.449 Y100.276
;TYPE:Internal perimeter
G1 F1200
G1 X131.394 Y123.315 E19.43722
G1 X124.551 Y130.724 E19.89767
G1 X99.606 Y107.685 E21.44801
G1 X106.408 Y100.32 E21.90572
G92 E0
G1 E-5.95 F3000
;WIPE_START
G1 F7200
G1 X110.911 Y104.464 E-8.3725
;WIPE_END
G1 E-8.5 F3000
; acceleration to travel
M204 S1500
G1 X124.989 Y117.602 F9000
; decel to extrusion
M204 S500
G1 X126.709 Y119.207
; end travel
G1 E0 F3000
;TYPE:Solid infill
;WIDTH:0.577149
G1 F1200
G1 X130.839 Y123.338 E0.26722
G1 X130.474 Y123.733 E0.29183
G1 X120.879 Y114.138 E0.9126
G1 X110.933 Y104.951 E1.532
G1 X130.11 Y124.128 E2.77266
G1 X129.745 Y124.523 E2.79726
G1 X106.269 Y101.048 E4.316
G1 X105.905 Y101.443 E4.34061
G1 X129.38 Y124.918 E5.85935
G1 X129.015 Y125.313 E5.88395
G1 X105.54 Y101.838 E7.40269
G1 X105.175 Y102.233 E7.42729
G1 X128.65 Y125.708 E8.94603
G1 X128.285 Y126.103 E8.97064
G1 X104.81 Y102.628 E10.48938
G1 X104.445 Y103.023 E10.51398
G1 X127.92 Y126.499 E12.03272
G1 X127.555 Y126.894 E12.05732
G1 X104.08 Y103.418 E13.57606
G1 X103.715 Y103.813 E13.60066
G1 X127.19 Y127.289 E15.1194
G1 X126.826 Y127.684 E15.14401
G1 X103.35 Y104.209 E16.66275
G1 X102.985 Y104.604 E16.68735
G1 X126.461 Y128.079 E18.20609
G1 X126.096 Y128.474 E18.23069
G1 X102.621 Y104.999 E19.74943
G1 X102.256 Y105.394 E19.77404
G1 X125.731 Y128.869 E21.29278
G1 X125.366 Y129.264 E21.31738
G1 X101.891 Y105.789 E22.83612
G1 X101.526 Y106.184 E22.86072
G1 X125.001 Y129.659 E24.37946
G1 X124.636 Y130.054 E24.40406
G1 X101.161 Y106.579 E25.9228
G1 X100.796 Y106.974 E25.94741
G1 X117.496 Y123.674 E27.02779
G1 X107.549 Y114.487 E27.6472
G1 X100.268 Y107.206 E28.11827
G1 X100.073 Y107.575 F9000
;TYPE:Gap fill
;WIDTH:0.304205
G1 F1200
G1 X100.166 Y107.662 E28.12113
G1 X100.89 Y108.358 E28.14361
;WIDTH:0.251644
G1 X101.614 Y109.054 E28.16156
;WIDTH:0.204882
G1 X102.339 Y109.75 E28.17549
;WIDTH:0.15812
G1 X103.063 Y110.446 E28.1854
G92 E0
G1 E-5.95 F3000
;WIPE_START
G1 F7200
G1 X102.339 Y109.75 E-6.34758
;WIPE_END
G1 E-8.5 F3000
; acceleration to travel
M204 S1500
G1 X109.78 Y105.356 F9000
; decel to extrusion
M204 S500
G1 X110.689 Y104.819
; end travel
G1 E0 F3000
;WIDTH:0.426218
G1 F1200
G1 X110.621 Y104.754 E0.00308
G1 X110.554 Y104.689 E0.00617
G1 X109.737 Y103.903 E0.04337
;WIDTH:0.362448
G1 X108.919 Y103.118 E0.07439
;WIDTH:0.30621
G1 X108.102 Y102.333 E0.09995
;WIDTH:0.249972
G1 X107.285 Y101.547 E0.12004
;WIDTH:0.193734
G1 X106.468 Y100.762 E0.13468
G1 X106.414 Y100.709 E0.13566
G92 E0
G1 E-5.95 F3000
;WIPE_START
G1 F7200
G1 X106.468 Y100.762 E-5.97986
G1 X107.285 Y101.547 E-6.42849
;WIPE_END
G1 E-8.5 F3000
; acceleration to travel
M204 S1500
G1 X116.601 Y121.383 F9000
; decel to extrusion
M204 S500
G1 X117.739 Y123.806
; end travel
G1 E0 F3000
;WIDTH:0.426216
G1 F1200
G1 X117.807 Y123.871 E0.00308
G1 X117.875 Y123.936 E0.00617
G1 X118.721 Y124.75 E0.04473
;WIDTH:0.366572
G1 X119.568 Y125.564 E0.07729
;WIDTH:0.314459
G1 X120.415 Y126.378 E0.1046
;WIDTH:0.262346
G1 X121.262 Y127.192 E0.12668
;WIDTH:0.210233
G1 X122.109 Y128.006 E0.14351
;WIDTH:0.15812
G1 X122.956 Y128.82 E0.1551
M106 S84.15
;LAYER_CHANGE
;Z:0.52
;HEIGHT:0.32
;BEFORE_LAYER_CHANGE
;0.52


G92 E0
G1 E-5.95 F3000
;WIPE_START
G1 F7200
G1 X122.109 Y128.006 E-6.41495
;WIPE_END
G1 E-8.5 F3000
; stop printing object Pea9.STL id:0 copy 0
M486 S-1
G1 Z0.47 F9000
;AFTER_LAYER_CHANGE
;0.52
G92 E0
; acceleration to travel
M204 S1500
G1 X118.249 Y132.185
; decel to extrusion
M204 S500
G1 X117.778 Y132.695
; end travel
G1 E8.5 F3000
;TYPE:Skirt
;WIDTH:0.48
G1 F1200
G1 X122.526 Y137.081 E8.86434
G1 X124.151 Y137.886 E8.96654
G1 X125.738 Y137.767 E9.05628
G1 X127.074 Y136.9 E9.14602
G1 X137.751 Y125.341 E10.03298
G1 X138.556 Y123.716 E10.13518
G1 X138.436 Y122.128 E10.22492
G1 X137.57 Y120.792 E10.31466
G1 X108.474 Y93.919 E12.54717
G1 X106.849 Y93.114 E12.64937
G1 X105.262 Y93.233 E12.73911
G1 X103.926 Y94.1 E12.82885
G1 X93.249 Y105.659 E13.71581
G1 X92.444 Y107.284 E13.81801
G1 X92.564 Y108.872 E13.90775
G1 X93.43 Y110.208 E13.99748
G1 X117.734 Y132.655 E15.86227
G92 E0
G1 E-5.95 F3000
;WIPE_START
G1 F7200
G1 X122.229 Y136.807 E-8.3725
;WIPE_END
G1 E-8.5 F3000
; printing object Pea9.STL id:0 copy 0
M486 S0
; acceleration to travel
M204 S1500
G1 X124.302 Y131.822 F9000
; decel to extrusion
M204 S500
G1 X124.569 Y131.178
; end travel
G1 E0 F3000
;TYPE:Internal perimeter
;WIDTH:0.476
G1 F2400
G1 X99.152 Y107.703 E1.93124
G1 X106.431 Y99.822 E2.53003
G1 X131.848 Y123.297 E4.46127
G1 X124.61 Y131.134 E5.05671
G1 X124.591 Y131.729 F9000
;TYPE:External perimeter
;WIDTH:0.428
G1 F1500
G1 X98.601 Y107.725 E6.7988
G1 X106.409 Y99.271 E7.36544
G1 X132.399 Y123.275 E9.10753
G1 X124.632 Y131.685 E9.67123
;WIPE_START
G1 X124.473 Y131.347 F9000
;WIPE_END
G1 X124.426 Y130.876
;TYPE:Solid infill
;WIDTH:0.483732
G1 F2400
G1 X124.563 Y130.74 E9.68219
G1 X131.421 Y123.314 E10.25555
G1 X131.411 Y123.305 E10.25629
G1 X124.248 Y130.469 E10.83095
G1 X123.943 Y130.188 E10.85446
G1 X131.107 Y123.024 E11.42912
G1 X130.802 Y122.743 E11.45264
G1 X123.638 Y129.907 E12.0273
G1 X123.334 Y129.625 E12.05081
G1 X130.498 Y122.462 E12.62547
G1 X130.193 Y122.181 E12.64898
G1 X123.029 Y129.344 E13.22365
G1 X122.725 Y129.063 E13.24716
G1 X129.889 Y121.899 E13.82182
G1 X129.584 Y121.618 E13.84533
G1 X122.42 Y128.782 E14.41999
G1 X122.116 Y128.5 E14.44351
G1 X129.28 Y121.337 E15.01817
G1 X128.975 Y121.056 E15.04168
G1 X121.811 Y128.219 E15.61634
G1 X121.507 Y127.938 E15.63986
G1 X128.671 Y120.774 E16.21452
G1 X128.366 Y120.493 E16.23803
G1 X121.202 Y127.657 E16.81269
G1 X120.898 Y127.375 E16.83621
G1 X128.062 Y120.212 E17.41087
G1 X127.757 Y119.931 E17.43438
G1 X120.593 Y127.094 E18.00904
G1 X120.289 Y126.813 E18.03255
G1 X127.452 Y119.649 E18.60722
G1 X127.148 Y119.368 E18.63073
G1 X119.984 Y126.532 E19.20539
G1 X119.68 Y126.25 E19.2289
G1 X126.843 Y119.087 E19.80357
G1 X126.539 Y118.806 E19.82708
G1 X119.375 Y125.969 E20.40174
G1 X119.071 Y125.688 E20.42525
G1 X126.234 Y118.524 E20.99991
G1 X125.93 Y118.243 E21.02343
G1 X118.766 Y125.407 E21.59809
G1 X118.462 Y125.125 E21.6216
G1 X125.625 Y117.962 E22.19626
G1 X125.321 Y117.681 E22.21978
G1 X118.157 Y124.844 E22.79444
G1 X117.853 Y124.563 E22.81795
G1 X125.016 Y117.399 E23.39261
G1 X124.712 Y117.118 E23.41613
G1 X117.548 Y124.282 E23.99079
G1 X117.244 Y124 E24.0143
G1 X124.407 Y116.837 E24.58896
G1 X124.103 Y116.556 E24.61247
G1 X116.939 Y123.719 E25.18714
G1 X116.635 Y123.438 E25.21065
G1 X123.798 Y116.274 E25.78531
G1 X123.494 Y115.993 E25.80882
G1 X116.33 Y123.157 E26.38348
G1 X116.026 Y122.875 E26.407
G1 X123.189 Y115.712 E26.98166
G1 X122.885 Y115.431 E27.00517
G1 X115.721 Y122.594 E27.57983
G1 X115.417 Y122.313 E27.60335
G1 X122.58 Y115.149 E28.17801
G1 X122.276 Y114.868 E28.20152
G1 X115.112 Y122.032 E28.77618
G1 X114.808 Y121.75 E28.7997
G1 X121.971 Y114.587 E29.37436
G1 X121.667 Y114.306 E29.39787
G1 X114.503 Y121.469 E29.97253
G1 X114.199 Y121.188 E29.99604
G1 X121.362 Y114.024 E30.57071
G1 X121.058 Y113.743 E30.59422
G1 X113.894 Y120.907 E31.16888
G1 X113.59 Y120.626 E31.19239
G1 X120.753 Y113.462 E31.76706
G1 X120.449 Y113.181 E31.79057
G1 X113.285 Y120.344 E32.36523
G1 X112.981 Y120.063 E32.38874
G1 X120.144 Y112.899 E32.9634
G1 X119.84 Y112.618 E32.98692
G1 X112.676 Y119.782 E33.56158
G1 X112.372 Y119.501 E33.58509
G1 X119.535 Y112.337 E34.15975
G1 X119.231 Y112.056 E34.18327
G1 X112.067 Y119.219 E34.75793
G1 X111.762 Y118.938 E34.78144
G1 X118.926 Y111.774 E35.3561
G1 X118.622 Y111.493 E35.37962
G1 X111.458 Y118.657 E35.95428
G1 X111.153 Y118.376 E35.97779
G1 X118.317 Y111.212 E36.55245
G1 X118.013 Y110.931 E36.57596
G1 X110.849 Y118.094 E37.15063
G1 X110.544 Y117.813 E37.17414
G1 X117.708 Y110.649 E37.7488
G1 X117.404 Y110.368 E37.77231
G1 X110.24 Y117.532 E38.34697
G1 X109.935 Y117.251 E38.37049
G1 X117.099 Y110.087 E38.94515
G1 X116.795 Y109.806 E38.96866
G1 X109.631 Y116.969 E39.54332
G1 X109.326 Y116.688 E39.56684
G1 X116.49 Y109.524 E40.1415
G1 X116.186 Y109.243 E40.16501
G1 X109.022 Y116.407 E40.73967
G1 X108.717 Y116.126 E40.76319
G1 X115.881 Y108.962 E41.33785
G1 X115.577 Y108.681 E41.36136
G1 X108.413 Y115.844 E41.93602
G1 X108.108 Y115.563 E41.95954
G1 X115.272 Y108.399 E42.5342
G1 X114.967 Y108.118 E42.55771
G1 X107.804 Y115.282 E43.13237
G1 X107.499 Y115.001 E43.15588
G1 X114.663 Y107.837 E43.73055
G1 X114.358 Y107.556 E43.75406
G1 X107.195 Y114.719 E44.32872
G1 X106.89 Y114.438 E44.35223
G1 X114.054 Y107.274 E44.92689
G1 X113.749 Y106.993 E44.95041
G1 X106.586 Y114.157 E45.52507
G1 X106.281 Y113.876 E45.54858
G1 X113.445 Y106.712 E46.12324
G1 X113.14 Y106.431 E46.14676
G1 X105.977 Y113.594 E46.72142
G1 X105.672 Y113.313 E46.74493
G1 X112.836 Y106.149 E47.31959
G1 X112.531 Y105.868 E47.34311
G1 X105.368 Y113.032 E47.91777
G1 X105.063 Y112.751 E47.94128
G1 X112.227 Y105.587 E48.51594
G1 X111.922 Y105.306 E48.53945
G1 X104.759 Y112.469 E49.11412
G1 X104.454 Y112.188 E49.13763
G1 X111.618 Y105.024 E49.71229
G1 X111.313 Y104.743 E49.7358
G1 X104.15 Y111.907 E50.31047
G1 X103.845 Y111.626 E50.33398
G1 X111.009 Y104.462 E50.90864
G1 X110.704 Y104.181 E50.93215
G1 X103.541 Y111.344 E51.50681
G1 X103.236 Y111.063 E51.53033
G1 X110.4 Y103.899 E52.10499
G1 X110.095 Y103.618 E52.1285
G1 X102.932 Y110.782 E52.70316
G1 X102.627 Y110.501 E52.72668
G1 X109.791 Y103.337 E53.30134
G1 X109.486 Y103.056 E53.32485
G1 X102.323 Y110.219 E53.89951
G1 X102.018 Y109.938 E53.92303
G1 X109.182 Y102.775 E54.49769
G1 X108.877 Y102.493 E54.5212
G1 X101.714 Y109.657 E55.09586
G1 X101.409 Y109.376 E55.11937
G1 X108.573 Y102.212 E55.69404
G1 X108.268 Y101.931 E55.71755
G1 X101.105 Y109.094 E56.29221
G1 X100.8 Y108.813 E56.31572
G1 X107.964 Y101.65 E56.89039
G1 X107.659 Y101.368 E56.9139
G1 X100.496 Y108.532 E57.48856
G1 X100.191 Y108.251 E57.51207
G1 X107.355 Y101.087 E58.08673
G1 X107.05 Y100.806 E58.11025
G1 X99.887 Y107.969 E58.68491
G1 X99.582 Y107.688 E58.70842
G1 X106.872 Y100.398 E59.29319
G1 X106.55 Y100.214 F9000
;TYPE:Gap fill
;WIDTH:0.366511
G1 F1800
G1 X106.5 Y100.267 E59.29617
G1 X106.45 Y100.32 E59.29914
G1 X105.882 Y100.911 E59.33259
;WIDTH:0.320857
G1 X105.314 Y101.502 E59.36092
;WIDTH:0.281811
G1 X104.746 Y102.093 E59.38486
;WIDTH:0.242765
G1 X104.178 Y102.684 E59.40441
;WIDTH:0.203719
G1 X103.61 Y103.275 E59.41958
;WIDTH:0.164674
G1 X103.042 Y103.866 E59.43037
G1 X103.009 Y103.901 E59.431
M106 S170.85
;LAYER_CHANGE
;Z:0.84
;HEIGHT:0.32
;BEFORE_LAYER_CHANGE
;0.84


G92 E0
G1 E-5.95 F3000
;WIPE_START
G1 F7200
G1 X103.042 Y103.866 E-5.969
G1 X103.61 Y103.275 E-6.29346
;WIPE_END
G1 E-8.5 F3000
; stop printing object Pea9.STL id:0 copy 0
M486 S-1
G1 Z0.79 F9000
;AFTER_LAYER_CHANGE
;0.84
G92 E0
; printing object Pea9.STL id:0 copy 0
M486 S0
; acceleration to travel
M204 S1500
G1 X106.108 Y100.217
; decel to extrusion
M204 S500
G1 X106.431 Y99.822
; end travel
G1 E8.5 F3000
;TYPE:Internal perimeter
;WIDTH:0.476
G1 F2400
G1 X131.848 Y123.297 E10.43124
G1 X124.569 Y131.178 E11.03003
G1 X99.152 Y107.703 E12.96127
G1 X106.39 Y99.866 E13.55671
G1 X106.409 Y99.271 F9000
;TYPE:External perimeter
;WIDTH:0.428
G1 F1500
G1 X132.399 Y123.275 E15.2988
G1 X124.591 Y131.729 E15.86544
G1 X98.601 Y107.725 E17.60753
G1 X106.368 Y99.315 E18.17123
;WIPE_START
G1 X106.527 Y99.653 F9000
;WIPE_END
G92 E0
G1 E-5.95 F3000
;WIPE_START
G1 F7200
G1 X111.023 Y103.805 E-8.3725
;WIPE_END
G1 E-8.5 F3000
; acceleration to travel
M204 S1500
G1 X108.294 Y114.296 F9000
; decel to extrusion
M204 S500
G1 X107.941 Y115.651
; end travel
G1 E0 F3000
;TYPE:Solid infill
;WIDTH:0.483266
G1 F2400
G1 X99.77 Y107.48 E0.65489
G1 X100.051 Y107.175 E0.67838
