; generated by SuperSlicer 2.4 on 2022-12-21 at 18:51:27 UTC

; 

; external perimeters extrusion width = 0.43mm
; perimeters extrusion width = 0.48mm
; infill extrusion width = 0.46mm
; solid infill extrusion width = 0.48mm
; top infill extrusion width = 0.46mm
; first layer extrusion width = 0.58mm

; object:{"name":"4_tofwer_ver","id":"4_tofwer_ver.stl id:0 copy 0","object_center":[115.500000,115.500000,0.000000],"boundingbox_center":[115.500000,115.500000,11.000000],"boundingbox_size":[22.068512,21.998199,22.000000]}
; Total objects to print: 1
M486 T1
; plater:{"center":[115.500000,115.500000,0.000000],"boundingbox_center":[115.500000,115.500000,11.000000],"boundingbox_size":[22.068512,21.998199,22.000000]}

;TYPE:Custom
G90 ; use absolute coordinates
M83 ; extruder relative mode
M140 S60 ; set final bed temp
M104 S150 ; set temporary nozzle temp to prevent oozing during homing and auto bed leveling
G4 S10 ; allow partial nozzle warmup
G28 ; home all axis
;G29 ; auto bed levelling
G1 Z10 F240
G1 X2 Y10 F3000
G1 Z0 F240
M104 S210 ; set final nozzle temp
M190 S60 ; wait for bed temp to stabilize
M109 S210 ; wait for nozzle temp to stabilize
G1 Z0.28 F240
G92 E0
G1 Y140 E10 F1500 ; prime the nozzle
G1 X2.3 F5000
G92 E0
G1 Y10 E10 F1200 ; prime the nozzle
G92 E0
;start
M107
G21 ; set units to millimeters
G90 ; use absolute coordinates
M82 ; use absolute distances for extrusion
G92 E0
; Filament gcode
;_TOOLCHANGE 0
M107
;LAYER_CHANGE
;Z:0.2
;HEIGHT:0.2
;BEFORE_LAYER_CHANGE
;0.2


G1 Z0.15 F9000
;AFTER_LAYER_CHANGE
;0.2
M204 S500
G1 X102.016 Y102.352
;TYPE:Skirt
;WIDTH:0.48
G1 F1200
G1 X101.396 Y103.067 E0.0347
G1 X100.543 Y104.357 E0.0915
G1 X99.798 Y106.093 E0.16081
G1 X99.501 Y107.291 E0.20615
G1 X99.379 Y108.221 E0.24055
G1 X99.347 Y122.096 E0.74986
G1 X99.411 Y123.147 E0.7885
G1 X99.564 Y124.075 E0.82305
G1 X100.019 Y125.571 E0.88045
G1 X100.54 Y126.673 E0.92517
G1 X101.054 Y127.504 E0.96105
G1 X102.276 Y128.938 E1.0302
G1 X102.985 Y129.557 E1.06475
G1 X104.285 Y130.422 E1.12208
G1 X105.381 Y130.94 E1.16658
G1 X106.269 Y131.244 E1.20104
G1 X108.152 Y131.587 E1.27126
G1 X121.982 Y131.618 E1.77891
G1 X123.049 Y131.553 E1.81815
G1 X124.602 Y131.244 E1.8763
G1 X125.506 Y130.937 E1.91131
G1 X127.2 Y130.067 E1.98125
G1 X128.207 Y129.322 E2.02722
G1 X128.908 Y128.668 E2.06241
G1 X129.556 Y127.928 E2.09851
G1 X130.421 Y126.633 E2.15568
G1 X130.85 Y125.764 E2.19124
G1 X131.28 Y124.564 E2.23805
G1 X131.587 Y123.021 E2.29579
G1 X131.649 Y122.103 E2.32956
G1 X131.649 Y108.897 E2.81432
G1 X131.496 Y107.363 E2.87092
G1 X131.188 Y106.133 E2.91744
G1 X130.562 Y104.631 E2.97716
G1 X129.93 Y103.577 E3.02228
G1 X128.924 Y102.349 E3.08056
G1 X127.986 Y101.497 E3.12708
G1 X126.666 Y100.613 E3.18537
G1 X125.492 Y100.058 E3.23307
G1 X123.7 Y99.545 E3.30146
G1 X122.138 Y99.387 E3.35911
G1 X108.851 Y99.383 E3.84681
G1 X107.752 Y99.459 E3.88726
G1 X106.829 Y99.623 E3.92167
G1 X105.052 Y100.215 E3.99041
G1 X103.427 Y101.137 E4.059
G1 X102.061 Y102.313 E4.12517
G92 E0
; acceleration to travel
M204 S1500
G1 X104.199 Y104.278 F9000
; decel to extrusion
M204 S500
G1 X104.911 Y104.934
; end travel
;WIDTH:0.576
G1 F1200
G1 X105.294 Y104.585 E0.02319
G1 X105.701 Y104.276 E0.04603
G1 X106.175 Y103.982 E0.07102
G1 X106.689 Y103.728 E0.09669
G1 X107.214 Y103.531 E0.12178
G1 X107.754 Y103.387 E0.14684
G1 X108.307 Y103.295 E0.17191
G1 X108.896 Y103.258 E0.19834
G1 X121.952 Y103.258 E0.78284
G1 X122.507 Y103.286 E0.80772
G1 X123.065 Y103.369 E0.83299
G1 X123.596 Y103.499 E0.85748
G1 X124.122 Y103.683 E0.88241
G1 X124.733 Y103.972 E0.91267
G1 X125.188 Y104.248 E0.93648
G1 X125.626 Y104.572 E0.96086
G1 X126.051 Y104.954 E0.98645
G1 X126.428 Y105.367 E1.01151
G1 X126.817 Y105.892 E1.04076
G1 X127.09 Y106.352 E1.0647
G1 X127.344 Y106.891 E1.09137
G1 X127.526 Y107.406 E1.11583
G1 X127.66 Y107.936 E1.14028
G1 X127.747 Y108.502 E1.16592
G1 X127.778 Y109.09 E1.1923
G1 X127.777 Y121.951 E1.76805
G1 X127.747 Y122.5 E1.79267
G1 X127.668 Y123.021 E1.81627
G1 X127.519 Y123.617 E1.84375
G1 X127.334 Y124.132 E1.86825
G1 X127.098 Y124.632 E1.89304
G1 X126.775 Y125.171 E1.92115
G1 X126.439 Y125.62 E1.94627
G1 X126.028 Y126.068 E1.97347
G1 X125.634 Y126.422 E1.9972
G1 X125.214 Y126.735 E2.02064
G1 X124.725 Y127.033 E2.04626
G1 X124.196 Y127.287 E2.07256
G1 X123.63 Y127.491 E2.09949
G1 X123.046 Y127.636 E2.12644
G1 X122.471 Y127.717 E2.15241
G1 X121.945 Y127.743 E2.176
G1 X108.898 Y127.742 E2.76008
G1 X108.414 Y127.72 E2.78181
G1 X107.796 Y127.631 E2.80975
G1 X107.213 Y127.481 E2.8367
G1 X106.727 Y127.305 E2.85984
G1 X106.278 Y127.094 E2.88202
G1 X105.729 Y126.767 E2.91066
G1 X105.282 Y126.431 E2.93568
G1 X104.898 Y126.083 E2.95888
G1 X104.547 Y125.7 E2.98214
G1 X104.202 Y125.241 E3.00785
G1 X103.905 Y124.751 E3.03349
G1 X103.658 Y124.233 E3.05921
G1 X103.461 Y123.679 E3.08551
G1 X103.327 Y123.134 E3.11063
G1 X103.246 Y122.568 E3.13625
G1 X103.222 Y122.06 E3.15902
G1 X103.222 Y108.99 E3.74412
G1 X103.246 Y108.481 E3.76693
G1 X103.339 Y107.848 E3.79557
G1 X103.464 Y107.353 E3.81844
G1 X103.638 Y106.856 E3.84202
G1 X103.892 Y106.31 E3.86895
G1 X104.2 Y105.796 E3.8958
G1 X104.521 Y105.364 E3.91989
G1 X104.871 Y104.978 E3.94322
G1 X105.269 Y105.337 F9000
G1 F1200
G1 X105.283 Y105.321 E3.9442
G1 X105.629 Y105.005 E3.96515
G1 X106.015 Y104.712 E3.98686
G1 X106.446 Y104.446 E4.00955
G1 X106.913 Y104.217 E4.03285
G1 X107.389 Y104.039 E4.05556
G1 X107.879 Y103.91 E4.07828
G1 X108.38 Y103.828 E4.101
G1 X108.905 Y103.795 E4.12452
G1 X121.945 Y103.795 E4.70832
G1 X122.466 Y103.822 E4.73169
G1 X122.973 Y103.898 E4.75462
G1 X123.455 Y104.018 E4.77685
G1 X123.931 Y104.186 E4.79944
G1 X124.467 Y104.439 E4.82599
G1 X124.899 Y104.701 E4.84861
G1 X125.295 Y104.995 E4.87071
G1 X125.681 Y105.344 E4.89399
G1 X126.022 Y105.719 E4.91668
G1 X126.362 Y106.179 E4.94229
G1 X126.61 Y106.594 E4.96393
G1 X126.842 Y107.085 E4.98824
G1 X127.009 Y107.55 E5.01038
G1 X127.136 Y108.055 E5.03366
G1 X127.213 Y108.569 E5.05694
G1 X127.24 Y109.097 E5.08063
G1 X127.24 Y121.93 E5.65512
G1 X127.213 Y122.433 E5.67767
G1 X127.138 Y122.928 E5.70012
G1 X127.009 Y123.448 E5.72408
G1 X126.833 Y123.937 E5.74738
G1 X126.618 Y124.39 E5.76983
G1 X126.336 Y124.861 E5.79439
G1 X126.033 Y125.268 E5.81708
G1 X125.659 Y125.677 E5.84194
G1 X125.303 Y125.999 E5.86341
G1 X124.903 Y126.296 E5.88571
G1 X124.458 Y126.566 E5.90901
G1 X123.976 Y126.796 E5.93292
G1 X123.486 Y126.973 E5.95624
G1 X122.955 Y127.106 E5.98074
G1 X122.432 Y127.181 E6.00439
G1 X121.938 Y127.205 E6.02654
G1 X108.905 Y127.205 E6.61004
G1 X108.452 Y127.183 E6.63034
G1 X107.914 Y127.107 E6.65465
G1 X107.383 Y126.971 E6.67919
G1 X106.944 Y126.813 E6.7001
G1 X106.519 Y126.613 E6.72112
G1 X106.039 Y126.328 E6.74611
G1 X105.633 Y126.024 E6.76881
G1 X105.286 Y125.711 E6.78974
G1 X104.952 Y125.346 E6.81186
G1 X104.64 Y124.93 E6.83519
G1 X104.373 Y124.485 E6.85839
G1 X104.159 Y124.038 E6.88058
G1 X103.979 Y123.536 E6.90444
G1 X103.857 Y123.044 E6.92715
G1 X103.782 Y122.529 E6.95044
G1 X103.76 Y122.053 E6.97178
G1 X103.76 Y108.997 E7.55631
G1 X103.782 Y108.52 E7.57767
G1 X103.864 Y107.967 E7.60271
G1 X103.982 Y107.496 E7.62442
G1 X104.141 Y107.047 E7.64576
G1 X104.36 Y106.574 E7.66911
G1 X104.64 Y106.105 E7.69356
G1 X104.928 Y105.714 E7.71529
G1 X105.229 Y105.382 E7.73535
G1 X105.627 Y105.739 F9000
G1 F1200
G1 X105.651 Y105.713 E7.73693
G1 X105.977 Y105.414 E7.75671
G1 X106.333 Y105.145 E7.77669
G1 X106.721 Y104.907 E7.79705
G1 X107.13 Y104.708 E7.81742
G1 X107.557 Y104.55 E7.83779
G1 X107.997 Y104.434 E7.85816
G1 X108.446 Y104.361 E7.87853
G1 X108.909 Y104.333 E7.8993
G1 X121.935 Y104.333 E8.48247
G1 X122.393 Y104.355 E8.50299
G1 X122.886 Y104.429 E8.52533
G1 X123.318 Y104.538 E8.54525
G1 X123.756 Y104.695 E8.56611
G1 X124.184 Y104.897 E8.58727
G1 X124.583 Y105.136 E8.60812
G1 X124.959 Y105.415 E8.62904
G1 X125.305 Y105.728 E8.64997
G1 X125.619 Y106.074 E8.67089
G1 X125.898 Y106.45 E8.69181
G1 X126.133 Y106.842 E8.71231
G1 X126.338 Y107.272 E8.73362
G1 X126.5 Y107.725 E8.75516
G1 X126.613 Y108.179 E8.77609
G1 X126.681 Y108.641 E8.79701
G1 X126.703 Y109.1 E8.8176
G1 X126.703 Y121.9 E9.39062
G1 X126.679 Y122.372 E9.41179
G1 X126.608 Y122.841 E9.43304
G1 X126.497 Y123.286 E9.45354
G1 X126.339 Y123.725 E9.47445
G1 X126.136 Y124.154 E9.4957
G1 X125.9 Y124.547 E9.5162
G1 X125.622 Y124.922 E9.5371
G1 X125.303 Y125.274 E9.55835
G1 X124.957 Y125.587 E9.57925
G1 X124.578 Y125.868 E9.60039
G1 X124.176 Y126.108 E9.62135
G1 X123.752 Y126.307 E9.64231
G1 X123.311 Y126.464 E9.66326
G1 X122.857 Y126.578 E9.68422
G1 X122.399 Y126.645 E9.70494
G1 X121.935 Y126.668 E9.72574
G1 X108.908 Y126.668 E10.30895
G1 X108.485 Y126.647 E10.32793
G1 X107.999 Y126.576 E10.34989
G1 X107.559 Y126.464 E10.37023
G1 X107.132 Y126.309 E10.39055
G1 X106.743 Y126.124 E10.40984
G1 X106.353 Y125.891 E10.43018
G1 X105.998 Y125.629 E10.44992
G1 X105.661 Y125.325 E10.47026
G1 X105.354 Y124.99 E10.4906
G1 X105.083 Y124.626 E10.51094
G1 X104.838 Y124.216 E10.53232
G1 X104.653 Y123.826 E10.55162
G1 X104.499 Y123.399 E10.57195
G1 X104.388 Y122.959 E10.59229
G1 X104.32 Y122.509 E10.61262
G1 X104.297 Y122.05 E10.63322
G1 X104.297 Y109 E11.21745
G1 X104.319 Y108.553 E11.23749
G1 X104.384 Y108.103 E11.25786
G1 X104.491 Y107.669 E11.27784
G1 X104.65 Y107.22 E11.29919
G1 X104.838 Y106.82 E11.31897
G1 X105.07 Y106.428 E11.33934
G1 X105.333 Y106.068 E11.35932
G1 X105.587 Y105.784 E11.3764
; printing object 4_tofwer_ver.stl id:0 copy 0
M486 S0
G1 X106.002 Y106.155 F9000
;TYPE:External perimeter
G1 F1200
G1 X106.043 Y106.109 E11.37914
G1 X106.338 Y105.838 E11.39708
G1 X106.652 Y105.602 E11.41465
G1 X106.994 Y105.393 E11.4326
G1 X107.354 Y105.218 E11.45054
G1 X107.73 Y105.079 E11.46848
G1 X108.118 Y104.978 E11.48642
G1 X108.514 Y104.914 E11.50435
G1 X108.922 Y104.889 E11.52266
G1 X121.925 Y104.889 E12.1048
G1 X122.344 Y104.91 E12.1236
G1 X122.771 Y104.974 E12.1429
G1 X123.15 Y105.069 E12.16043
G1 X123.537 Y105.207 E12.17882
G1 X123.927 Y105.391 E12.1981
G1 X124.279 Y105.603 E12.21648
G1 X124.61 Y105.849 E12.23496
G1 X124.915 Y106.126 E12.25344
G1 X125.192 Y106.432 E12.27192
G1 X125.438 Y106.764 E12.2904
G1 X125.639 Y107.1 E12.30793
G1 X125.826 Y107.492 E12.32738
G1 X125.965 Y107.88 E12.34583
G1 X126.065 Y108.281 E12.3643
G1 X126.126 Y108.689 E12.38278
G1 X126.146 Y109.111 E12.40169
G1 X126.146 Y121.89 E12.97379
G1 X126.126 Y122.31 E12.99263
G1 X126.061 Y122.738 E13.01201
G1 X125.966 Y123.118 E13.02954
G1 X125.827 Y123.506 E13.04797
G1 X125.641 Y123.897 E13.06735
G1 X125.44 Y124.232 E13.08488
G1 X125.195 Y124.564 E13.10332
G1 X124.905 Y124.884 E13.12267
G1 X124.599 Y125.16 E13.14111
G1 X124.274 Y125.401 E13.15924
G1 X123.919 Y125.614 E13.17776
G1 X123.545 Y125.79 E13.19626
G1 X123.156 Y125.929 E13.21477
G1 X122.755 Y126.03 E13.23329
G1 X122.351 Y126.09 E13.25158
G1 X121.925 Y126.111 E13.27068
G1 X108.919 Y126.111 E13.85295
G1 X108.532 Y126.092 E13.87026
G1 X108.115 Y126.031 E13.88915
G1 X107.728 Y125.933 E13.907
G1 X107.352 Y125.797 E13.92491
G1 X107.011 Y125.636 E13.94182
G1 X106.667 Y125.431 E13.95973
G1 X106.346 Y125.194 E13.97761
G1 X106.049 Y124.926 E13.99549
G1 X105.78 Y124.631 E14.01338
G1 X105.542 Y124.311 E14.03123
G1 X105.326 Y123.948 E14.05012
G1 X105.165 Y123.607 E14.06702
G1 X105.03 Y123.231 E14.08491
G1 X104.933 Y122.843 E14.1028
G1 X104.874 Y122.448 E14.12068
G1 X104.854 Y122.04 E14.139
G1 X104.854 Y109.01 E14.7223
G1 X104.874 Y108.601 E14.74067
G1 X104.932 Y108.204 E14.75861
G1 X105.027 Y107.823 E14.77618
G1 X105.163 Y107.437 E14.7945
G1 X105.333 Y107.075 E14.81243
G1 X105.538 Y106.73 E14.83037
G1 X105.77 Y106.414 E14.84793
G1 X105.962 Y106.2 E14.86082
;WIPE_START
G1 X106.394 Y106.237 F9000
;WIPE_END
G1 X106.533 Y106.389
;TYPE:Internal perimeter
G1 F1200
G1 X106.682 Y106.252 E14.86989
G1 X106.954 Y106.047 E14.88514
G1 X107.252 Y105.865 E14.90075
G1 X107.565 Y105.713 E14.91634
G1 X107.892 Y105.593 E14.93193
G1 X108.229 Y105.504 E14.94753
G1 X108.573 Y105.449 E14.96312
G1 X108.938 Y105.427 E14.97951
G1 X121.912 Y105.427 E15.56032
G1 X122.291 Y105.445 E15.57732
G1 X122.665 Y105.502 E15.59425
G1 X122.995 Y105.584 E15.60946
G1 X123.332 Y105.704 E15.6255
G1 X123.673 Y105.865 E15.64238
G1 X123.979 Y106.05 E15.65838
G1 X124.268 Y106.264 E15.6745
G1 X124.535 Y106.506 E15.69062
G1 X124.776 Y106.773 E15.70673
G1 X124.99 Y107.063 E15.72287
G1 X125.165 Y107.355 E15.73808
G1 X125.329 Y107.699 E15.75516
G1 X125.45 Y108.036 E15.7712
G1 X125.537 Y108.385 E15.78732
G1 X125.59 Y108.742 E15.80344
G1 X125.609 Y109.124 E15.82057
G1 X125.609 Y121.876 E16.39149
G1 X125.59 Y122.256 E16.40851
G1 X125.533 Y122.632 E16.42554
G1 X125.451 Y122.962 E16.44076
G1 X125.33 Y123.3 E16.4568
G1 X125.167 Y123.643 E16.47381
G1 X124.993 Y123.934 E16.48901
G1 X124.779 Y124.223 E16.50508
G1 X124.525 Y124.503 E16.52203
G1 X124.259 Y124.744 E16.5381
G1 X123.975 Y124.954 E16.55389
G1 X123.666 Y125.139 E16.57004
G1 X123.34 Y125.293 E16.58619
G1 X123 Y125.415 E16.60233
G1 X122.65 Y125.502 E16.61848
G1 X122.298 Y125.554 E16.63442
G1 X121.911 Y125.574 E16.65176
G1 X108.932 Y125.574 E17.23284
G1 X108.585 Y125.557 E17.24839
G1 X108.22 Y125.503 E17.26489
G1 X107.886 Y125.418 E17.28033
G1 X107.559 Y125.301 E17.2959
G1 X107.264 Y125.161 E17.3105
G1 X106.965 Y124.983 E17.32608
G1 X106.686 Y124.777 E17.34159
G1 X106.429 Y124.545 E17.3571
G1 X106.196 Y124.289 E17.37262
G1 X105.99 Y124.012 E17.38805
G1 X105.801 Y123.695 E17.40456
G1 X105.662 Y123.401 E17.41914
G1 X105.545 Y123.074 E17.43468
G1 X105.46 Y122.738 E17.45019
G1 X105.409 Y122.395 E17.46571
G1 X105.391 Y122.026 E17.48224
G1 X105.391 Y109.023 E18.06437
G1 X105.409 Y108.653 E18.08097
G1 X105.46 Y108.308 E18.09657
G1 X105.542 Y107.978 E18.11181
G1 X105.661 Y107.642 E18.12778
G1 X105.809 Y107.327 E18.14334
G1 X105.987 Y107.027 E18.15895
G1 X106.188 Y106.753 E18.17418
G1 X106.426 Y106.487 E18.19014
G1 X106.489 Y106.429 E18.19398
G92 E0
; acceleration to travel
M204 S1500
G1 X120.474 Y107.366 F9000
; decel to extrusion
M204 S500
G1 X125.136 Y107.678
; end travel
;TYPE:Solid infill
;WIDTH:0.57608
G1 F1200
G1 X124.092 Y106.635 E0.06607
G1 X124.026 Y106.574 E0.0701
G1 X123.487 Y106.213 E0.09915
G1 X122.88 Y105.961 E0.12855
G1 X122.605 Y105.907 E0.14113
G1 X125.147 Y108.449 E0.3021
G1 X125.154 Y108.472 E0.30315
G1 X125.198 Y108.771 E0.31668
G1 X125.198 Y109.26 E0.33861
G1 X121.775 Y105.838 E0.55533
G1 X121.016 Y105.838 E0.58935
G1 X125.198 Y110.02 E0.85418
G1 X125.198 Y110.78 E0.88821
G1 X120.256 Y105.838 E1.20115
G1 X119.496 Y105.838 E1.23517
G1 X125.198 Y111.54 E1.59622
G1 X125.198 Y112.3 E1.63025
G1 X118.736 Y105.838 E2.03941
G1 X117.977 Y105.839 E2.07343
G1 X125.198 Y113.06 E2.53069
G1 X125.198 Y113.82 E2.56472
G1 X117.217 Y105.839 E3.0701
G1 X116.457 Y105.839 E3.10412
G1 X125.198 Y114.58 E3.6576
G1 X125.198 Y115.34 E3.69163
G1 X115.697 Y105.839 E4.29322
G1 X114.938 Y105.839 E4.32724
G1 X125.198 Y116.1 E4.97694
G1 X125.198 Y116.86 E5.01097
G1 X114.178 Y105.84 E5.70878
G1 X113.418 Y105.84 E5.7428
G1 X125.198 Y117.62 E6.48872
G1 X125.198 Y118.38 E6.52275
G1 X112.658 Y105.84 E7.31678
G1 X111.899 Y105.84 E7.35079
G1 X125.198 Y119.14 E8.19293
G1 X125.198 Y119.9 E8.22696
G1 X111.139 Y105.841 E9.1172
G1 X110.379 Y105.841 E9.15122
G1 X125.198 Y120.66 E10.08958
G1 X125.198 Y121.42 E10.1236
G1 X109.619 Y105.841 E11.11007
G1 X108.86 Y105.841 E11.14408
G1 X125.198 Y122.18 E12.17865
G1 X125.198 Y122.227 E12.18077
G1 X125.15 Y122.545 E12.19519
G1 X125.069 Y122.81 E12.20761
G1 X108.189 Y105.931 E13.27646
G1 X108.01 Y105.968 E13.28464
G1 X107.629 Y106.131 E13.30319
G1 X124.864 Y123.366 E14.39454
G1 X124.825 Y123.448 E14.39864
G1 X124.569 Y123.831 E14.41924
G1 X107.148 Y106.41 E15.52237
G1 X106.935 Y106.555 E15.53394
G1 X106.735 Y106.757 E15.54663
G1 X124.213 Y124.234 E16.65334
G1 X124.009 Y124.439 E16.66629
G1 X123.798 Y124.579 E16.67763
G1 X106.385 Y107.166 E17.78025
G1 X106.152 Y107.519 E17.7992
G1 X106.096 Y107.637 E17.80504
G1 X123.325 Y124.866 E18.89599
G1 X123.198 Y124.926 E18.90227
G1 X122.758 Y125.06 E18.92285
G1 X105.898 Y108.199 E19.99046
G1 X105.801 Y108.691 E20.01291
