; generated by SuperSlicer 2.4 on 2022-12-21 at 18:52:18 UTC

; 

; external perimeters extrusion width = 0.43mm
; perimeters extrusion width = 0.48mm
; infill extrusion width = 0.46mm
; solid infill extrusion width = 0.48mm
; top infill extrusion width = 0.46mm
; first layer extrusion width = 0.58mm

; object:{"name":"90_deg_angle_litho_tower","id":"90_deg_angle_litho_tower.stl id:0 copy 0","object_center":[115.477874,115.406586,0.000000],"boundingbox_center":[115.477874,115.406586,32.039445],"boundingbox_size":[21.238121,21.095546,64.078889]}
; Total objects to print: 1
M486 T1
; plater:{"center":[115.477874,115.406586,0.000000],"boundingbox_center":[115.477874,115.406586,32.039445],"boundingbox_size":[21.238121,21.095546,64.078889]}

;TYPE:Custom
G90 ; use absolute coordinates
M83 ; extruder relative mode
M140 S60 ; set final bed temp
M104 S150 ; set temporary nozzle temp to prevent oozing during homing and auto bed leveling
G4 S10 ; allow partial nozzle warmup
G28 ; home all axis
;G29 ; auto bed levelling
G1 Z10 F240
G1 X2 Y10 F3000
G1 Z0 F240
M104 S210 ; set final nozzle temp
M190 S60 ; wait for bed temp to stabilize
M109 S210 ; wait for nozzle temp to stabilize
G1 Z0.28 F240
G92 E0
G1 Y140 E10 F1500 ; prime the nozzle
G1 X2.3 F5000
G92 E0
G1 Y10 E10 F1200 ; prime the nozzle
G92 E0
;start
M107
G21 ; set units to millimeters
G90 ; use absolute coordinates
M82 ; use absolute distances for extrusion
G92 E0
; Filament gcode
;_TOOLCHANGE 0
M107
;LAYER_CHANGE
;Z:0.2
;HEIGHT:0.2
;BEFORE_LAYER_CHANGE
;0.2


G1 Z0.15 F9000
;AFTER_LAYER_CHANGE
;0.2
M204 S500
G1 X101.042 Y101.595
;TYPE:Skirt
;WIDTH:0.48
G1 F1200
G1 X100 Y102.798 E0.05844
G1 X99.662 Y104.354 E0.11688
G1 X99.708 Y105.613 E0.1631
G1 X100.582 Y122.399 E0.78011
G1 X101.175 Y127.093 E0.95379
G1 X101.809 Y128.637 E1.01507
G1 X102.718 Y129.828 E1.07006
G1 X103.702 Y130.682 E1.11788
G1 X105.24 Y131.094 E1.17632
G1 X109.971 Y131.14 E1.34999
G1 X128.262 Y129.966 E2.02277
G1 X129.848 Y129.425 E2.08429
G1 X130.908 Y128.237 E2.14273
G1 X131.269 Y126.686 E2.20117
G1 X131.209 Y123.844 E2.3055
G1 X130.349 Y107.284 E2.91419
G1 X129.974 Y102.629 E3.0856
G1 X129.418 Y101.065 E3.14654
G1 X128.22 Y100.017 E3.20498
G1 X126.666 Y99.672 E3.26342
G1 X123.32 Y99.776 E3.38627
G1 X102.682 Y101.026 E4.14522
G1 X101.099 Y101.575 E4.20674
G92 E0
; acceleration to travel
M204 S1500
G1 X103.4 Y104.161 F9000
; decel to extrusion
M204 S500
G1 X104.168 Y105.023
; end travel
;WIDTH:0.576
G1 F1200
G1 X104.252 Y104.959 E0.00474
G1 X104.54 Y104.82 E0.01905
G1 X104.642 Y104.794 E0.02379
G1 X118.52 Y103.988 E0.64614
G1 X119.454 Y103.918 E0.68803
G1 X119.98 Y103.852 E0.7118
G1 X123.438 Y103.65 E0.86684
G1 X125.115 Y103.611 E0.94196
G1 X125.217 Y103.628 E0.9466
G1 X125.51 Y103.739 E0.9606
G1 X125.598 Y103.793 E0.96523
G1 X125.987 Y104.153 E0.98895
G1 X126.048 Y104.236 E0.99359
G1 X126.182 Y104.519 E1.00758
G1 X126.207 Y104.619 E1.01222
G1 X126.239 Y105.167 E1.03677
G1 X126.327 Y106.128 E1.07998
G1 X126.309 Y106.265 E1.08617
G1 X127.332 Y123.895 E1.87677
G1 X127.341 Y125.111 E1.93121
G1 X127.322 Y125.211 E1.9358
G1 X127.209 Y125.499 E1.94963
G1 X127.155 Y125.586 E1.95422
G1 X126.796 Y125.967 E1.97765
G1 X126.714 Y126.027 E1.98223
G1 X126.434 Y126.158 E1.99606
G1 X126.335 Y126.183 E2.00064
G1 X124.886 Y126.268 E2.06561
G1 X124.775 Y126.298 E2.07076
G1 X112.283 Y127.024 E2.63098
G1 X111.417 Y127.102 E2.66987
G1 X110.856 Y127.206 E2.69544
G1 X109.798 Y127.268 E2.74289
G1 X108.905 Y127.26 E2.78285
G1 X108.761 Y127.217 E2.78958
G1 X108.376 Y126.973 E2.80998
G1 X108.276 Y126.861 E2.8167
G1 X107.933 Y126.151 E2.85199
G1 X107.907 Y126.004 E2.8587
G1 X107.954 Y125.55 E2.8791
G1 X108.01 Y125.411 E2.88583
G1 X108.55 Y124.714 E2.9253
G1 X109.259 Y123.918 E2.97302
G1 X109.689 Y123.544 E2.99853
G1 X109.974 Y123.257 E3.01664
G1 X120.747 Y111.163 E3.74173
G1 X121.302 Y110.499 E3.78049
G1 X121.636 Y110.015 E3.80679
G1 X122.333 Y109.233 E3.85368
G1 X122.656 Y108.916 E3.87396
G1 X122.574 Y107.507 E3.93714
G1 X120.787 Y107.611 E4.01727
G1 X120.154 Y108.286 E4.05873
G1 X108.714 Y121.137 E4.82899
G1 X108.16 Y121.801 E4.86771
G1 X107.837 Y122.27 E4.89321
G1 X107.135 Y123.06 E4.94051
G1 X106.499 Y123.684 E4.9804
G1 X106.367 Y123.756 E4.98713
G1 X105.922 Y123.855 E5.00754
G1 X105.772 Y123.846 E5.01425
G1 X105.028 Y123.587 E5.04954
G1 X104.905 Y123.501 E5.05625
G1 X104.618 Y123.147 E5.07665
G1 X104.559 Y123.01 E5.08337
G1 X104.452 Y122.17 E5.12125
G1 X104.387 Y121.066 E5.17078
G1 X104.425 Y120.495 E5.19637
G1 X104.402 Y119.627 E5.23526
G1 X103.678 Y107.135 E5.79548
G1 X103.697 Y107.015 E5.80089
G1 X103.634 Y105.926 E5.84973
G1 X103.649 Y105.821 E5.85447
G1 X103.754 Y105.519 E5.86878
G1 X103.807 Y105.428 E5.87352
G1 X104.128 Y105.068 E5.8951
G1 X104.529 Y105.425 F9000
G1 F1200
G1 X104.726 Y105.327 E5.90497
G1 X118.556 Y104.524 E6.52516
G1 X119.507 Y104.452 E6.56786
G1 X120.021 Y104.388 E6.59102
G1 X123.464 Y104.187 E6.74545
G1 X125.076 Y104.149 E6.81762
G1 X125.271 Y104.223 E6.82698
G1 X125.585 Y104.512 E6.84606
G1 X125.674 Y104.701 E6.85542
G1 X125.703 Y105.207 E6.87808
G1 X125.788 Y106.131 E6.91964
G1 X125.767 Y106.213 E6.9234
G1 X126.795 Y123.919 E7.71743
G1 X126.803 Y125.063 E7.76865
G1 X126.728 Y125.255 E7.7779
G1 X126.44 Y125.562 E7.79675
G1 X126.252 Y125.65 E7.806
G1 X124.814 Y125.734 E7.87052
G1 X124.779 Y125.722 E7.87213
G1 X124.691 Y125.765 E7.87653
G1 X112.249 Y126.488 E8.4345
G1 X111.778 Y126.52 E8.4556
G1 X111.337 Y126.57 E8.47551
G1 X110.807 Y126.67 E8.49964
G1 X109.775 Y126.731 E8.5459
G1 X108.986 Y126.723 E8.58127
G1 X108.727 Y126.559 E8.59495
G1 X108.449 Y125.985 E8.62354
G1 X108.481 Y125.681 E8.63722
G1 X108.958 Y125.065 E8.67209
G1 X109.649 Y124.289 E8.71862
G1 X110.055 Y123.937 E8.74268
G1 X110.365 Y123.626 E8.76234
G1 X121.151 Y111.519 E9.48824
G1 X121.459 Y111.165 E9.50926
G1 X121.734 Y110.818 E9.52908
G1 X122.049 Y110.36 E9.55395
G1 X122.728 Y109.598 E9.59967
G1 X123.206 Y109.129 E9.62966
G1 X123.079 Y106.939 E9.72784
G1 X120.542 Y107.087 E9.84164
G1 X119.757 Y107.924 E9.89301
G1 X108.31 Y120.782 E10.6637
G1 X108.002 Y121.135 E10.68472
G1 X107.726 Y121.482 E10.70454
G1 X107.424 Y121.926 E10.7286
G1 X106.739 Y122.696 E10.77471
G1 X106.177 Y123.248 E10.81
G1 X105.878 Y123.314 E10.82369
G1 X105.275 Y123.104 E10.85227
G1 X105.083 Y122.867 E10.86596
G1 X104.986 Y122.111 E10.90007
G1 X104.924 Y121.052 E10.94758
G1 X104.962 Y120.514 E10.97171
G1 X104.962 Y120.069 E10.99162
G1 X104.939 Y119.599 E11.01272
G1 X104.217 Y107.156 E11.57069
G1 X104.24 Y107.091 E11.57379
G1 X104.174 Y105.948 E11.62505
G1 X104.244 Y105.746 E11.63462
G1 X104.489 Y105.47 E11.65115
G1 X104.864 Y105.857 F9000
G1 F1200
G1 X118.592 Y105.06 E12.26676
G1 X119.562 Y104.987 E12.3103
G1 X120.056 Y104.924 E12.33263
G1 X123.493 Y104.723 E12.48675
G1 X124.984 Y104.689 E12.55349
G1 X125.143 Y104.836 E12.56322
G1 X125.167 Y105.247 E12.58162
G1 X125.244 Y106.088 E12.61945
G1 X125.224 Y106.119 E12.62112
G1 X126.258 Y123.947 E13.42058
G1 X126.265 Y124.963 E13.46609
G1 X126.118 Y125.119 E13.47569
G1 X124.886 Y125.191 E13.53097
G1 X124.722 Y125.053 E13.54057
G1 X124.676 Y124.64 E13.55915
G1 X124.701 Y125.068 E13.57835
G1 X124.553 Y125.235 E13.58831
G1 X112.215 Y125.951 E14.14161
G1 X111.73 Y125.984 E14.16339
G1 X111.255 Y126.039 E14.18479
G1 X110.767 Y126.134 E14.20704
G1 X110.749 Y126.136 E14.20785
G1 X109.749 Y126.194 E14.25269
G1 X109.145 Y126.188 E14.27975
G1 X109 Y125.888 E14.29464
G1 X109.368 Y125.412 E14.32163
G1 X110.032 Y124.666 E14.36631
G1 X110.045 Y124.653 E14.36712
G1 X110.421 Y124.331 E14.38929
G1 X110.756 Y123.995 E14.41056
G1 X113.374 Y121.063 E14.5865
G1 X121.554 Y111.874 E15.13728
G1 X121.872 Y111.509 E15.15897
G1 X122.168 Y111.136 E15.18029
G1 X122.445 Y110.725 E15.20246
G1 X122.456 Y110.711 E15.20327
G1 X123.12 Y109.965 E15.24796
G1 X123.551 Y109.544 E15.27494
G1 X123.773 Y109.621 E15.2855
G1 X123.585 Y106.372 E15.43122
G1 X120.31 Y106.562 E15.57809
G1 X120.02 Y106.846 E15.59625
G1 X119.359 Y107.563 E15.63992
G1 X107.907 Y120.426 E16.41095
G1 X107.589 Y120.792 E16.43264
G1 X107.292 Y121.164 E16.45396
G1 X107.016 Y121.575 E16.47613
G1 X107.005 Y121.59 E16.47694
G1 X106.341 Y122.335 E16.52163
G1 X105.91 Y122.757 E16.54861
G1 X105.596 Y122.647 E16.5635
G1 X105.52 Y122.048 E16.59056
G1 X105.462 Y121.048 E16.6354
G1 X105.462 Y121.03 E16.63621
G1 X105.5 Y120.534 E16.65846
G1 X105.499 Y120.056 E16.67986
G1 X105.476 Y119.57 E16.70164
G1 X104.76 Y107.232 E17.25494
G1 X104.785 Y107.204 E17.25662
G1 X104.716 Y106.023 E17.30955
G1 X104.824 Y105.902 E17.31683
G92 E0
; printing object 90_deg_angle_litho_tower.stl id:0 copy 0
M486 S0
; acceleration to travel
M204 S1500
G1 X119.298 Y120.002 F9000
; decel to extrusion
M204 S500
G1 X124.122 Y124.702
; end travel
;TYPE:External perimeter
G1 F1200
G1 X112.176 Y125.396 E0.5357
G1 X111.173 Y125.488 E0.58082
G1 X110.688 Y125.582 E0.60292
G1 X109.922 Y125.627 E0.63727
G1 X110.429 Y125.058 E0.67137
G1 X110.8 Y124.74 E0.69325
G1 X111.161 Y124.377 E0.71618
G1 X113.789 Y121.434 E0.89281
G1 X121.974 Y112.24 E1.44389
G1 X122.616 Y111.468 E1.48886
G1 X122.891 Y111.06 E1.51088
G1 X123.397 Y110.491 E1.54498
G1 X123.442 Y111.256 E1.57933
G1 X123.404 Y111.749 E1.60143
G1 X123.429 Y112.756 E1.64655
G1 X124.119 Y124.642 E2.17957
;WIPE_START
G1 X123.765 Y124.522 F9000
;WIPE_END
G1 X123.555 Y124.197
;TYPE:Internal perimeter
G1 F1200
G1 X112.136 Y124.86 E2.69161
G1 X111.39 Y124.928 E2.72518
G1 X114.19 Y121.791 E2.91344
G1 X122.381 Y112.59 E3.46494
G1 X122.873 Y111.999 E3.49936
G1 X122.892 Y112.778 E3.53425
G1 X123.551 Y124.137 E4.04361
G92 E0
; acceleration to travel
M204 S1500
G1 X122.969 Y116.189 F9000
; decel to extrusion
M204 S500
G1 X122.775 Y113.54
; end travel
;TYPE:Solid infill
;WIDTH:0.569728
G1 F1200
G1 X122.38 Y113.145 E0.02475
G1 X122.022 Y113.548 E0.04859
G1 X122.576 Y114.101 E0.08326
G1 X122.623 Y114.908 E0.11905
G1 X121.665 Y113.95 E0.17904
G1 X121.307 Y114.353 E0.20288
G1 X122.67 Y115.715 E0.2882
G1 X122.716 Y116.522 E0.32398
G1 X120.95 Y114.755 E0.43461
G1 X120.592 Y115.158 E0.45845
G1 X122.763 Y117.328 E0.5944
G1 X122.81 Y118.135 E0.63018
G1 X120.235 Y115.56 E0.79145
G1 X119.877 Y115.963 E0.81529
G1 X122.857 Y118.942 E1.00187
G1 X122.904 Y119.749 E1.03766
G1 X119.52 Y116.365 E1.24956
G1 X119.162 Y116.768 E1.2734
G1 X122.95 Y120.556 E1.51062
G1 X122.997 Y121.362 E1.54641
G1 X118.805 Y117.17 E1.80895
G1 X118.447 Y117.572 E1.83278
G1 X123.044 Y122.169 E2.12064
G1 X123.091 Y122.976 E2.15642
G1 X118.09 Y117.975 E2.4696
G1 X117.732 Y118.377 E2.49344
G1 X123.138 Y123.783 E2.83193
G1 X123.14 Y123.829 E2.83397
G1 X122.464 Y123.869 E2.86396
G1 X117.375 Y118.78 E3.18267
G1 X117.018 Y119.182 E3.20651
G1 X121.748 Y123.912 E3.50272
G1 X121.031 Y123.956 E3.53452
G1 X116.66 Y119.585 E3.80823
G1 X116.303 Y119.987 E3.83207
G1 X120.314 Y123.999 E4.08327
G1 X119.597 Y124.042 E4.11507
G1 X115.945 Y120.39 E4.34376
G1 X115.588 Y120.792 E4.3676
G1 X118.88 Y124.085 E4.57379
G1 X118.163 Y124.128 E4.60559
G1 X115.23 Y121.195 E4.78928
G1 X114.873 Y121.597 E4.81311
G1 X117.446 Y124.171 E4.97429
G1 X116.73 Y124.214 E5.00609
G1 X114.515 Y122 E5.14476
G1 X114.158 Y122.402 E5.1686
G1 X116.013 Y124.257 E5.28477
G1 X115.296 Y124.3 E5.31657
G1 X113.8 Y122.805 E5.41023
G1 X113.443 Y123.207 E5.43407
G1 X114.579 Y124.343 E5.50522
G1 X113.862 Y124.387 E5.53702
G1 X113.085 Y123.61 E5.58567
G1 X112.728 Y124.012 E5.60951
G1 X113.145 Y124.43 E5.63566
G1 X112.428 Y124.473 E5.66746
G1 X112.207 Y124.251 E5.68135
G92 E0
; acceleration to travel
M204 S1500
G1 X121.133 Y110.4 F9000
; decel to extrusion
M204 S500
G1 X124.108 Y105.784
; end travel
;TYPE:External perimeter
;WIDTH:0.576
G1 F1200
G1 X120.069 Y106.018 E0.18113
G1 X119.62 Y106.458 E0.20927
G1 X118.946 Y107.189 E0.25378
G1 X107.487 Y120.061 E1.02531
G1 X106.845 Y120.833 E1.07027
G1 X106.57 Y121.241 E1.09229
G1 X106.064 Y121.81 E1.12639
G1 X106.019 Y121.044 E1.16074
G1 X106.057 Y120.552 E1.18284
G1 X106.032 Y119.544 E1.22796
G1 X105.339 Y107.598 E1.76366
G1 X105.365 Y107.597 E1.76485
G1 X105.295 Y106.39 E1.81897
G1 X118.629 Y105.616 E2.41692
G1 X119.618 Y105.541 E2.46132
G1 X120.104 Y105.479 E2.48324
G1 X123.518 Y105.28 E2.63637
G1 X124.61 Y105.255 E2.68524
G1 X124.612 Y105.288 E2.68676
G1 X124.66 Y105.81 E2.71021
G1 X125.702 Y123.968 E3.52446
G1 X125.706 Y124.586 E3.55213
G1 X125.233 Y124.613 E3.57332
G1 X125.166 Y123.999 E3.60098
G1 X124.112 Y105.844 E4.41515
;WIPE_START
G1 X124.085 Y105.384 F9000
;WIPE_END
G92 E0
; acceleration to travel
M204 S1500
G1 X120.428 Y105.929
; decel to extrusion
M204 S500
G1 X119.209 Y106.111
; end travel
;TYPE:Internal perimeter
G1 F1200
G1 X118.548 Y106.828 E0.04368
G1 X107.08 Y119.71 E0.81582
G1 X106.588 Y120.301 E0.85024
G1 X106.569 Y119.522 E0.88513
G1 X105.906 Y108.104 E1.39718
G1 X105.933 Y108.102 E1.39836
G1 X105.863 Y106.895 E1.45248
G1 X118.665 Y106.152 E2.02659
G1 X119.15 Y106.115 E2.04835
G1 X117.817 Y106.354 F9000
;TYPE:Solid infill
;WIDTH:0.571286
G1 F1200
G1 X118.149 Y106.687 E2.06923
G1 X117.792 Y107.089 E2.09313
G1 X117.317 Y106.615 E2.12292
G1 X116.6 Y106.657 E2.15484
G1 X117.434 Y107.492 E2.20726
G1 X117.077 Y107.894 E2.23116
G1 X115.882 Y106.699 E2.30621
G1 X115.164 Y106.741 E2.33813
G1 X116.72 Y108.297 E2.43581
G1 X116.362 Y108.7 E2.45971
G1 X114.446 Y106.784 E2.58002
G1 X113.729 Y106.826 E2.61195
G1 X116.005 Y109.102 E2.75489
G1 X115.648 Y109.505 E2.77879
G1 X113.011 Y106.868 E2.94436
G1 X112.293 Y106.91 E2.97629
G1 X115.29 Y109.907 E3.16449
G1 X114.933 Y110.31 E3.18839
G1 X111.575 Y106.952 E3.39923
G1 X110.857 Y106.995 E3.43115
G1 X114.575 Y110.712 E3.66462
G1 X114.218 Y111.115 E3.68852
G1 X110.14 Y107.037 E3.94462
G1 X109.422 Y107.079 E3.97654
G1 X113.861 Y111.518 E4.25527
G1 X113.503 Y111.92 E4.27918
G1 X108.704 Y107.121 E4.58054
G1 X107.986 Y107.163 E4.61246
G1 X113.146 Y112.323 E4.93645
G1 X112.789 Y112.725 E4.96036
G1 X107.269 Y107.205 E5.30698
G1 X106.551 Y107.248 E5.3389
G1 X112.431 Y113.128 E5.70816
G1 X112.074 Y113.531 E5.73206
G1 X106.302 Y107.759 E6.09448
G1 X106.346 Y108.562 E6.13021
G1 X111.716 Y113.933 E6.46746
G1 X111.359 Y114.336 E6.49136
G1 X106.389 Y109.366 E6.80344
G1 X106.433 Y110.169 E6.83917
G1 X111.002 Y114.738 E7.12607
G1 X110.644 Y115.141 E7.14998
G1 X106.476 Y110.973 E7.41171
G1 X106.52 Y111.776 E7.44744
G1 X110.287 Y115.543 E7.684
G1 X109.93 Y115.946 E7.70791
G1 X106.563 Y112.58 E7.9193
G1 X106.607 Y113.383 E7.95503
G1 X109.572 Y116.349 E8.14125
G1 X109.215 Y116.751 E8.16515
G1 X106.65 Y114.186 E8.3262
G1 X106.694 Y114.99 E8.36193
G1 X108.857 Y117.154 E8.49781
G1 X108.5 Y117.556 E8.52171
G1 X106.737 Y115.793 E8.63242
G1 X106.78 Y116.597 E8.66815
G1 X108.143 Y117.959 E8.75369
G1 X107.785 Y118.362 E8.77759
G1 X106.824 Y117.4 E8.83796
G1 X106.867 Y118.204 E8.87368
G1 X107.428 Y118.764 E8.90888
G1 X107.071 Y119.167 E8.93278
G1 X106.666 Y118.762 E8.95817
M106 S84.15
;LAYER_CHANGE
;Z:0.52
;HEIGHT:0.32
;BEFORE_LAYER_CHANGE
;0.52


G92 E0
; stop printing object 90_deg_angle_litho_tower.stl id:0 copy 0
M486 S-1
G1 Z0.47 F9000
;AFTER_LAYER_CHANGE
;0.52
; printing object 90_deg_angle_litho_tower.stl id:0 copy 0
M486 S0
; acceleration to travel
M204 S1500
G1 X108.972 Y123.96
; decel to extrusion
M204 S500
G1 X109.748 Y125.711
; end travel
;TYPE:External perimeter
;WIDTH:0.428
G1 F1500
G1 X123.461 Y110.308 E0.99572
G1 X124.306 Y124.866 E1.69979
G1 X109.808 Y125.707 E2.40098
;WIPE_START
G1 X110.082 Y125.491 F9000
;WIPE_END
G92 E0
; acceleration to travel
M204 S1500
G1 X120.005 Y124.99
; decel to extrusion
M204 S500
G1 X123.355 Y124.821
; end travel
;TYPE:Top solid infill
;WIDTH:0.464484
G1 F1800
G1 X123.997 Y124.18 E0.04812
G1 X123.966 Y123.653 E0.0761
G1 X122.944 Y124.676 E0.15279
G1 X122.352 Y124.71 E0.18421
G1 X123.936 Y123.126 E0.30298
G1 X123.905 Y122.599 E0.33096
G1 X121.76 Y124.744 E0.4918
G1 X121.168 Y124.779 E0.52323
G1 X123.875 Y122.072 E0.72615
G1 X123.844 Y121.545 E0.75412
G1 X120.576 Y124.813 E0.99912
G1 X119.984 Y124.847 E1.03055
G1 X123.813 Y121.018 E1.31763
G1 X123.783 Y120.491 E1.34561
G1 X119.393 Y124.882 E1.67476
G1 X118.801 Y124.916 E1.70619
G1 X123.752 Y119.965 E2.07742
