; generated by SuperSlicer 2.4 on 2022-12-21 at 18:52:28 UTC

; 

; external perimeters extrusion width = 0.43mm
; perimeters extrusion width = 0.48mm
; infill extrusion width = 0.46mm
; solid infill extrusion width = 0.48mm
; top infill extrusion width = 0.46mm
; first layer extrusion width = 0.58mm

; object:{"name":"ffffff","id":"ffffff.stl id:0 copy 0","object_center":[115.500000,115.500000,0.000000],"boundingbox_center":[115.500000,115.500000,7.000000],"boundingbox_size":[30.000000,30.000000,14.000000]}
; Total objects to print: 1
M486 T1
; plater:{"center":[115.500000,115.500000,0.000000],"boundingbox_center":[115.500000,115.500000,7.000000],"boundingbox_size":[30.000000,30.000000,14.000000]}

;TYPE:Custom
G90 ; use absolute coordinates
M83 ; extruder relative mode
M140 S60 ; set final bed temp
M104 S150 ; set temporary nozzle temp to prevent oozing during homing and auto bed leveling
G4 S10 ; allow partial nozzle warmup
G28 ; home all axis
;G29 ; auto bed levelling
G1 Z10 F240
G1 X2 Y10 F3000
G1 Z0 F240
M104 S210 ; set final nozzle temp
M190 S60 ; wait for bed temp to stabilize
M109 S210 ; wait for nozzle temp to stabilize
G1 Z0.28 F240
G92 E0
G1 Y140 E10 F1500 ; prime the nozzle
G1 X2.3 F5000
G92 E0
G1 Y10 E10 F1200 ; prime the nozzle
G92 E0
;start
M107
G21 ; set units to millimeters
G90 ; use absolute coordinates
M82 ; use absolute distances for extrusion
G92 E0
; Filament gcode
;_TOOLCHANGE 0
M107
;LAYER_CHANGE
;Z:0.2
;HEIGHT:0.2
;BEFORE_LAYER_CHANGE
;0.2


G1 Z0.15 F9000
;AFTER_LAYER_CHANGE
;0.2
M204 S500
G1 X97.785 Y98.331
;TYPE:Skirt
;WIDTH:0.48
G1 F1200
G1 X97.056 Y99.236 E0.04264
G1 X96.486 Y100.152 E0.08226
G1 X95.998 Y101.206 E0.12489
G1 X95.571 Y102.648 E0.1801
G1 X95.39 Y104.112 E0.23425
G1 X95.388 Y126.772 E1.06602
G1 X95.49 Y127.899 E1.10753
G1 X95.711 Y128.932 E1.14632
G1 X96.417 Y130.721 E1.21691
G1 X96.959 Y131.628 E1.2557
G1 X97.595 Y132.457 E1.29405
G1 X98.309 Y133.193 E1.33169
G1 X99.144 Y133.877 E1.37131
G1 X100.124 Y134.5 E1.41395
G1 X101.206 Y135.002 E1.45773
G1 X102.344 Y135.36 E1.50151
G1 X103.829 Y135.594 E1.55671
G1 X126.772 Y135.612 E2.39887
G1 X127.899 Y135.51 E2.44038
G1 X128.932 Y135.289 E2.47917
G1 X130.6 Y134.646 E2.54479
G1 X131.266 Y134.272 E2.57283
G1 X132.457 Y133.405 E2.6269
G1 X133.193 Y132.691 E2.66454
G1 X133.877 Y131.856 E2.70416
G1 X134.5 Y130.876 E2.7468
G1 X135.002 Y129.794 E2.79058
G1 X135.36 Y128.656 E2.83436
G1 X135.594 Y127.17 E2.88957
G1 X135.61 Y104.145 E3.73475
G1 X135.504 Y103.071 E3.77437
G1 X135.159 Y101.639 E3.82844
G1 X134.434 Y100.005 E3.89406
G1 X133.604 Y98.784 E3.94826
G1 X132.568 Y97.693 E4.00347
G1 X131.389 Y96.804 E4.05768
G1 X130.343 Y96.231 E4.10146
G1 X128.758 Y95.666 E4.16322
G1 X127.306 Y95.418 E4.21729
G1 X103.694 Y95.418 E5.08403
G1 X102.648 Y95.571 E5.12282
G1 X101.639 Y95.841 E5.16117
G1 X100.005 Y96.566 E5.22679
G1 X98.543 Y97.595 E5.29241
G1 X97.828 Y98.29 E5.32899
G92 E0
; acceleration to travel
M204 S1500
G1 X99.901 Y100.331 F9000
; decel to extrusion
M204 S500
G1 X100.591 Y101.012
; end travel
;WIDTH:0.576
G1 F1200
G1 X101.006 Y100.591 E0.02648
G1 X101.302 Y100.345 E0.04368
G1 X101.837 Y99.984 E0.07259
G1 X102.174 Y99.801 E0.08975
G1 X102.769 Y99.551 E0.11866
G1 X103.142 Y99.435 E0.13615
G1 X103.525 Y99.349 E0.15372
G1 X104.159 Y99.268 E0.18231
G1 X126.843 Y99.268 E1.19786
G1 X127.562 Y99.365 E1.23033
G1 X128.203 Y99.541 E1.2601
G1 X128.787 Y99.782 E1.28839
G1 X129.397 Y100.13 E1.31981
G1 X129.973 Y100.572 E1.35231
G1 X130.241 Y100.826 E1.36887
G1 X130.659 Y101.307 E1.39737
G1 X131.016 Y101.836 E1.42596
G1 X131.193 Y102.161 E1.44254
G1 X131.449 Y102.768 E1.47203
G1 X131.559 Y103.122 E1.48863
G1 X131.702 Y103.838 E1.52129
G1 X131.735 Y104.218 E1.53837
G1 X131.735 Y126.796 E2.54918
G1 X131.692 Y127.23 E2.56871
G1 X131.578 Y127.805 E2.59493
G1 X131.358 Y128.472 E2.62635
G1 X131.023 Y129.152 E2.66031
G1 X130.688 Y129.654 E2.68732
G1 X130.457 Y129.941 E2.70384
G1 X129.993 Y130.409 E2.73333
G1 X129.698 Y130.655 E2.75052
G1 X129.163 Y131.017 E2.77945
G1 X128.777 Y131.223 E2.79903
G1 X128.229 Y131.449 E2.82556
G1 X127.81 Y131.577 E2.84518
G1 X127.149 Y131.703 E2.87533
G1 X126.514 Y131.743 E2.90381
G1 X104.177 Y131.733 E3.9038
G1 X103.77 Y131.692 E3.92213
G1 X103.195 Y131.578 E3.94835
G1 X102.528 Y131.358 E3.97978
G1 X101.848 Y131.023 E4.01373
G1 X101.346 Y130.688 E4.04075
G1 X101.059 Y130.457 E4.05726
G1 X100.59 Y129.993 E4.08677
G1 X100.329 Y129.677 E4.10515
G1 X100.114 Y129.372 E4.12186
G1 X99.782 Y128.787 E4.15196
G1 X99.551 Y128.23 E4.17898
G1 X99.423 Y127.81 E4.1986
G1 X99.297 Y127.149 E4.22876
G1 X99.257 Y126.514 E4.25723
G1 X99.266 Y104.192 E5.25656
G1 X99.361 Y103.456 E5.28977
G1 X99.448 Y103.097 E5.30631
G1 X99.642 Y102.526 E5.33332
G1 X99.97 Y101.86 E5.36654
G1 X100.167 Y101.548 E5.38308
G1 X100.535 Y101.07 E5.41007
G1 X100.549 Y101.055 E5.41101
G1 X100.95 Y101.41 F9000
G1 F1200
G1 X101.379 Y100.978 E5.43824
G1 X101.634 Y100.767 E5.45306
G1 X102.126 Y100.437 E5.47959
G1 X102.417 Y100.28 E5.49441
G1 X102.964 Y100.052 E5.52094
G1 X103.29 Y99.952 E5.53622
G1 X103.606 Y99.88 E5.55072
G1 X104.21 Y99.803 E5.57796
G1 X126.79 Y99.803 E6.58887
G1 X127.437 Y99.888 E6.61807
G1 X128.044 Y100.055 E6.64627
G1 X128.566 Y100.272 E6.67154
G1 X129.085 Y100.568 E6.69831
G1 X129.614 Y100.972 E6.7281
G1 X129.845 Y101.19 E6.74233
G1 X130.223 Y101.621 E6.768
G1 X130.563 Y102.126 E6.79523
G1 X130.714 Y102.405 E6.80946
G1 X130.948 Y102.964 E6.83658
G1 X131.042 Y103.268 E6.85081
G1 X131.168 Y103.9 E6.87969
G1 X131.198 Y104.23 E6.89451
G1 X131.197 Y126.783 E7.90418
G1 X131.162 Y127.139 E7.92018
G1 X131.054 Y127.684 E7.94506
G1 X130.854 Y128.285 E7.97341
G1 X130.567 Y128.868 E8.00253
G1 X130.248 Y129.345 E8.0282
G1 X130.048 Y129.592 E8.04243
G1 X129.621 Y130.022 E8.06954
G1 X129.366 Y130.233 E8.08436
G1 X128.874 Y130.563 E8.11089
G1 X128.559 Y130.731 E8.12689
G1 X128.036 Y130.948 E8.15224
G1 X127.694 Y131.052 E8.16824
G1 X127.097 Y131.168 E8.19547
G1 X126.505 Y131.206 E8.22201
G1 X104.217 Y131.197 E9.21985
G1 X103.861 Y131.162 E9.23584
G1 X103.316 Y131.054 E9.26072
G1 X102.715 Y130.854 E9.28906
G1 X102.132 Y130.567 E9.31819
G1 X101.655 Y130.248 E9.34385
G1 X101.408 Y130.048 E9.35809
G1 X100.978 Y129.621 E9.3852
G1 X100.761 Y129.358 E9.40049
G1 X100.574 Y129.094 E9.41499
G1 X100.272 Y128.566 E9.44222
G1 X100.052 Y128.036 E9.46789
G1 X99.948 Y127.694 E9.48389
G1 X99.832 Y127.097 E9.51113
G1 X99.794 Y126.505 E9.53766
G1 X99.803 Y104.21 E10.53582
G1 X99.887 Y103.567 E10.56482
G1 X99.961 Y103.258 E10.57905
G1 X100.146 Y102.715 E10.60471
G1 X100.432 Y102.134 E10.63372
G1 X100.601 Y101.865 E10.64795
G1 X100.914 Y101.458 E10.67093
G1 X101.34 Y101.785 F9000
G1 F1200
G1 X101.372 Y101.745 E10.67322
G1 X101.745 Y101.372 E10.69682
G1 X101.959 Y101.195 E10.70928
G1 X102.408 Y100.895 E10.73345
G1 X102.653 Y100.763 E10.74591
G1 X103.151 Y100.556 E10.77007
G1 X103.425 Y100.472 E10.7829
G1 X103.696 Y100.41 E10.79533
G1 X104.219 Y100.341 E10.81893
G1 X104.236 Y100.34 E10.81972
G1 X126.764 Y100.34 E11.82826
G1 X126.781 Y100.341 E11.82905
G1 X127.306 Y100.41 E11.85275
G1 X127.323 Y100.414 E11.85354
G1 X127.83 Y100.549 E11.87702
G1 X127.847 Y100.555 E11.8778
G1 X128.336 Y100.758 E11.9015
G1 X128.352 Y100.765 E11.90229
G1 X128.809 Y101.029 E11.92591
G1 X128.823 Y101.039 E11.9267
G1 X129.241 Y101.36 E11.9503
G1 X129.445 Y101.55 E11.96276
G1 X129.802 Y101.955 E11.98695
G1 X129.812 Y101.969 E11.98774
G1 X130.105 Y102.408 E12.01134
G1 X130.243 Y102.665 E12.02439
G1 X130.444 Y103.151 E12.04796
G1 X130.526 Y103.417 E12.06042
G1 X130.632 Y103.947 E12.08459
G1 X130.66 Y104.237 E12.09764
G1 X130.66 Y126.763 E13.10613
G1 X130.632 Y127.053 E13.11918
G1 X130.529 Y127.57 E13.14278
G1 X130.524 Y127.587 E13.14357
G1 X130.355 Y128.087 E13.16719
G1 X130.348 Y128.103 E13.16798
G1 X130.114 Y128.577 E13.1916
G1 X130.106 Y128.592 E13.19239
G1 X129.813 Y129.03 E13.21599
G1 X129.628 Y129.255 E13.22904
G1 X129.255 Y129.628 E13.25261
G1 X129.041 Y129.805 E13.26507
G1 X128.592 Y130.105 E13.28924
G1 X128.335 Y130.243 E13.30229
G1 X127.849 Y130.444 E13.32586
G1 X127.57 Y130.529 E13.33891
G1 X127.053 Y130.632 E13.36251
G1 X127.035 Y130.634 E13.3633
G1 X126.501 Y130.669 E13.38727
G1 X104.237 Y130.66 E14.38403
G1 X103.947 Y130.632 E14.39707
G1 X103.43 Y130.529 E14.42067
G1 X103.413 Y130.524 E14.42146
G1 X102.913 Y130.355 E14.44509
G1 X102.897 Y130.348 E14.44587
G1 X102.423 Y130.114 E14.4695
G1 X102.408 Y130.106 E14.47028
G1 X101.97 Y129.813 E14.49389
G1 X101.745 Y129.628 E14.50693
G1 X101.372 Y129.255 E14.53051
G1 X101.19 Y129.034 E14.54334
G1 X101.029 Y128.808 E14.55577
G1 X100.765 Y128.352 E14.57937
G1 X100.758 Y128.336 E14.58016
G1 X100.556 Y127.849 E14.60376
G1 X100.471 Y127.57 E14.61681
G1 X100.368 Y127.053 E14.64041
G1 X100.366 Y127.035 E14.6412
G1 X100.331 Y126.501 E14.66517
G1 X100.34 Y104.236 E15.66195
G1 X100.341 Y104.219 E15.66273
G1 X100.412 Y103.683 E15.68692
G1 X100.476 Y103.412 E15.69938
G1 X100.645 Y102.913 E15.72298
G1 X100.652 Y102.897 E15.72377
G1 X100.892 Y102.412 E15.74796
G1 X101.039 Y102.176 E15.76042
G1 X101.303 Y101.832 E15.77983
; printing object ffffff.stl id:0 copy 0
M486 S0
G1 X101.745 Y102.171 F9000
;TYPE:External perimeter
G1 F1200
G1 X101.785 Y102.119 E15.78278
G1 X102.123 Y101.78 E15.80421
G1 X102.296 Y101.639 E15.81422
G1 X102.7 Y101.369 E15.83594
G1 X102.897 Y101.264 E15.84595
G1 X103.345 Y101.078 E15.86767
G1 X103.565 Y101.011 E15.87797
G1 X103.789 Y100.959 E15.88826
G1 X104.264 Y100.897 E15.90969
G1 X126.736 Y100.897 E16.91576
G1 X127.206 Y100.958 E16.93698
G1 X127.659 Y101.08 E16.95798
G1 X128.097 Y101.261 E16.9792
G1 X128.506 Y101.497 E17.00035
G1 X128.886 Y101.789 E17.02178
G1 X129.049 Y101.942 E17.03179
G1 X129.365 Y102.302 E17.05323
G1 X129.631 Y102.7 E17.07466
G1 X129.736 Y102.897 E17.08467
G1 X129.922 Y103.345 E17.10639
G1 X129.987 Y103.559 E17.1164
G1 X130.082 Y104.035 E17.13812
G1 X130.103 Y104.257 E17.14813
G1 X130.103 Y126.743 E18.15477
G1 X130.082 Y126.965 E18.16478
G1 X129.988 Y127.435 E18.18621
G1 X129.836 Y127.882 E18.20736
G1 X129.627 Y128.306 E18.2285
G1 X129.361 Y128.704 E18.24994
G1 X129.22 Y128.877 E18.25995
G1 X128.877 Y129.22 E18.28167
G1 X128.704 Y129.361 E18.29168
G1 X128.3 Y129.631 E18.3134
G1 X128.103 Y129.736 E18.32341
G1 X127.655 Y129.922 E18.34512
G1 X127.441 Y129.987 E18.35514
G1 X126.971 Y130.08 E18.37657
G1 X126.487 Y130.112 E18.39828
G1 X104.258 Y130.103 E19.39349
G1 X104.035 Y130.082 E19.40351
G1 X103.565 Y129.988 E19.42494
G1 X103.118 Y129.836 E19.44609
G1 X102.694 Y129.627 E19.46723
G1 X102.296 Y129.361 E19.48867
G1 X102.123 Y129.22 E19.49868
G1 X101.78 Y128.877 E19.52039
G1 X101.635 Y128.699 E19.53069
G1 X101.501 Y128.512 E19.54099
G1 X101.261 Y128.097 E19.56242
G1 X101.078 Y127.655 E19.58385
G1 X101.013 Y127.441 E19.59386
G1 X100.92 Y126.971 E19.6153
G1 X100.888 Y126.487 E19.63701
G1 X100.897 Y104.264 E20.63193
G1 X100.959 Y103.789 E20.65337
G1 X101.01 Y103.571 E20.66338
G1 X101.164 Y103.118 E20.68481
G1 X101.375 Y102.689 E20.70625
G1 X101.494 Y102.499 E20.71626
G1 X101.708 Y102.219 E20.73205
;WIPE_START
G1 X102.141 Y102.224 F9000
;WIPE_END
G1 X102.291 Y102.373
;TYPE:Internal perimeter
G1 F1200
G1 X102.485 Y102.179 E20.74433
G1 X102.617 Y102.071 E20.75197
G1 X102.976 Y101.831 E20.77133
G1 X103.127 Y101.75 E20.77898
G1 X103.526 Y101.585 E20.79833
G1 X103.704 Y101.531 E20.80666
G1 X103.885 Y101.488 E20.81498
G1 X104.299 Y101.434 E20.83366
G1 X126.701 Y101.434 E21.83657
G1 X127.101 Y101.487 E21.85464
G1 X127.486 Y101.59 E21.87249
G1 X127.859 Y101.744 E21.89055
G1 X128.207 Y101.945 E21.90855
G1 X128.538 Y102.199 E21.92722
G1 X128.663 Y102.316 E21.93487
G1 X128.938 Y102.629 E21.95354
G1 X129.169 Y102.976 E21.97222
G1 X129.25 Y103.127 E21.97986
G1 X129.415 Y103.526 E21.99922
G1 X129.465 Y103.69 E22.00687
G1 X129.549 Y104.114 E22.02622
G1 X129.566 Y104.284 E22.03387
G1 X129.566 Y126.716 E23.03814
G1 X129.549 Y126.886 E23.04579
G1 X129.468 Y127.295 E23.06446
G1 X129.339 Y127.676 E23.08245
G1 X129.161 Y128.036 E23.10045
G1 X128.929 Y128.383 E23.11912
G1 X128.821 Y128.515 E23.12677
G1 X128.515 Y128.821 E23.14612
G1 X128.383 Y128.929 E23.15377
G1 X128.024 Y129.169 E23.17313
G1 X127.873 Y129.25 E23.18077
G1 X127.474 Y129.415 E23.20013
G1 X127.31 Y129.465 E23.20777
G1 X126.901 Y129.546 E23.22645
G1 X126.47 Y129.575 E23.24579
G1 X104.284 Y129.566 E24.23903
G1 X104.114 Y129.549 E24.24669
G1 X103.705 Y129.468 E24.26536
G1 X103.324 Y129.339 E24.28336
G1 X102.964 Y129.161 E24.30135
G1 X102.617 Y128.929 E24.32002
G1 X102.485 Y128.821 E24.32767
G1 X102.179 Y128.515 E24.34702
G1 X102.061 Y128.371 E24.35535
G1 X101.953 Y128.22 E24.36368
G1 X101.744 Y127.859 E24.38235
G1 X101.585 Y127.474 E24.40103
G1 X101.535 Y127.31 E24.40867
G1 X101.454 Y126.901 E24.42735
G1 X101.425 Y126.47 E24.44669
G1 X101.434 Y104.299 E25.43925
G1 X101.488 Y103.886 E25.45793
G1 X101.527 Y103.719 E25.46558
G1 X101.661 Y103.324 E25.48426
G1 X101.846 Y102.95 E25.50293
G1 X101.936 Y102.805 E25.51058
G1 X102.19 Y102.474 E25.52925
G1 X102.248 Y102.415 E25.53296
G92 E0
; acceleration to travel
M204 S1500
G1 X121.246 Y101.956 F9000
; decel to extrusion
M204 S500
G1 X127.579 Y101.803
; end travel
;TYPE:Solid infill
;WIDTH:0.578218
G1 F1200
G1 X128.49 Y102.714 E0.05789
G1 X128.622 Y102.865 E0.06692
G1 X128.897 Y103.303 E0.09018
G1 X129.085 Y103.794 E0.1138
G1 X129.141 Y104.125 E0.12889
G1 X126.868 Y101.852 E0.27339
G1 X126.675 Y101.826 E0.28211
G1 X126.082 Y101.826 E0.30875
G1 X129.174 Y104.918 E0.50523
G1 X129.174 Y105.678 E0.53939
G1 X125.322 Y101.826 E0.78416
G1 X124.562 Y101.826 E0.81832
G1 X129.174 Y106.438 E1.1114
G1 X129.174 Y107.197 E1.14555
G1 X123.803 Y101.826 E1.48693
G1 X123.043 Y101.826 E1.52109
G1 X129.174 Y107.957 E1.91077
G1 X129.174 Y108.717 E1.94492
G1 X122.283 Y101.826 E2.3829
G1 X121.523 Y101.826 E2.41705
G1 X129.174 Y109.477 E2.90334
G1 X129.174 Y110.237 E2.93749
G1 X120.763 Y101.826 E3.47207
G1 X120.003 Y101.826 E3.50622
G1 X129.174 Y110.997 E4.08911
G1 X129.174 Y111.757 E4.12326
G1 X119.243 Y101.826 E4.75444
G1 X118.483 Y101.826 E4.7886
G1 X129.174 Y112.517 E5.46808
G1 X129.174 Y113.277 E5.50223
G1 X117.723 Y101.826 E6.23002
G1 X116.963 Y101.826 E6.26417
G1 X129.174 Y114.037 E7.04026
G1 X129.174 Y114.797 E7.07441
G1 X116.203 Y101.826 E7.89879
G1 X115.443 Y101.826 E7.93295
G1 X129.174 Y115.557 E8.80563
G1 X129.174 Y116.317 E8.83979
G1 X114.683 Y101.826 E9.76077
G1 X113.923 Y101.826 E9.79492
G1 X129.174 Y117.077 E10.76421
G1 X129.174 Y117.837 E10.79836
G1 X113.163 Y101.826 E11.81595
G1 X112.403 Y101.826 E11.8501
G1 X129.174 Y118.597 E12.91599
G1 X129.174 Y119.357 E12.95014
G1 X111.643 Y101.826 E14.06433
G1 X110.883 Y101.826 E14.09848
G1 X129.174 Y120.117 E15.26097
G1 X129.174 Y120.877 E15.29513
G1 X110.123 Y101.826 E16.50591
G1 X109.363 Y101.826 E16.54007
G1 X129.174 Y121.637 E17.79916
G1 X129.174 Y122.397 E17.83331
G1 X108.603 Y101.826 E19.1407
G1 X107.843 Y101.826 E19.17485
G1 X129.174 Y123.157 E20.53054
G1 X129.174 Y123.917 E20.5647
G1 X107.083 Y101.826 E21.96869
G1 X106.324 Y101.826 E22.00284
G1 X129.174 Y124.676 E23.45513
G1 X129.174 Y125.436 E23.48928
G1 X105.564 Y101.826 E24.98987
G1 X104.804 Y101.826 E25.02403
G1 X129.174 Y126.196 E26.57292
G1 X129.174 Y126.683 E26.59479
G1 X129.134 Y126.917 E26.60544
G1 X104.084 Y101.866 E28.19757
G1 X103.807 Y101.911 E28.21019
G1 X103.489 Y102.032 E28.22544
G1 X128.977 Y127.52 E29.84537
G1 X128.823 Y127.835 E29.86113
G1 X128.702 Y128.005 E29.8705
G1 X102.994 Y102.297 E31.50442
G1 X102.858 Y102.382 E31.51164
G1 X102.581 Y102.644 E31.52875
G1 X128.354 Y128.417 E33.16679
G1 X128.142 Y128.618 E33.17994
G1 X127.929 Y128.751 E33.19123
G1 X102.242 Y103.065 E34.82379
G1 X102.025 Y103.475 E34.84465
G1 X101.994 Y103.576 E34.84942
G1 X127.421 Y129.003 E36.46545
G1 X127.201 Y129.087 E36.47601
G1 X126.85 Y129.157 E36.49211
G1 X126.817 Y129.159 E36.49361
G1 X101.844 Y104.187 E38.08075
G1 X101.826 Y104.325 E38.08703
G1 X101.826 Y104.928 E38.11413
G1 X126.08 Y129.182 E39.65564
G1 X125.32 Y129.182 E39.68981
G1 X101.826 Y105.688 E41.18301
G1 X101.825 Y106.448 E41.21716
G1 X124.559 Y129.182 E42.66206
