; generated by SuperSlicer 2.4 on 2022-12-21 at 18:53:14 UTC

; 

; external perimeters extrusion width = 0.43mm
; perimeters extrusion width = 0.48mm
; infill extrusion width = 0.46mm
; solid infill extrusion width = 0.48mm
; top infill extrusion width = 0.46mm
; first layer extrusion width = 0.58mm

; object:{"name":"Kuwait_Towers","id":"Kuwait_Towers.stl id:0 copy 0","object_center":[115.500000,115.500000,0.000000],"boundingbox_center":[115.500000,115.500000,43.720610],"boundingbox_size":[40.811832,28.668487,87.440653]}
; Total objects to print: 1
M486 T1
; plater:{"center":[115.500000,115.500000,0.000000],"boundingbox_center":[115.500000,115.500000,43.720610],"boundingbox_size":[40.811832,28.668487,87.440653]}

;TYPE:Custom
G90 ; use absolute coordinates
M83 ; extruder relative mode
M140 S60 ; set final bed temp
M104 S150 ; set temporary nozzle temp to prevent oozing during homing and auto bed leveling
G4 S10 ; allow partial nozzle warmup
G28 ; home all axis
;G29 ; auto bed levelling
G1 Z10 F240
G1 X2 Y10 F3000
G1 Z0 F240
M104 S210 ; set final nozzle temp
M190 S60 ; wait for bed temp to stabilize
M109 S210 ; wait for nozzle temp to stabilize
G1 Z0.28 F240
G92 E0
G1 Y140 E10 F1500 ; prime the nozzle
G1 X2.3 F5000
G92 E0
G1 Y10 E10 F1200 ; prime the nozzle
G92 E0
;start
M107
G21 ; set units to millimeters
G90 ; use absolute coordinates
M82 ; use absolute distances for extrusion
G92 E0
; Filament gcode
;_TOOLCHANGE 0
M107
;LAYER_CHANGE
;Z:0.2
;HEIGHT:0.2
;BEFORE_LAYER_CHANGE
;0.2


G1 Z0.15 F9000
;AFTER_LAYER_CHANGE
;0.2
M204 S500
G1 X96.758 Y112.175
;TYPE:Skirt
;WIDTH:0.48
G1 F1200
G1 X95.869 Y113.064 E0.04612
G1 X94.094 Y115.72 E0.16339
G1 X93.613 Y116.88 E0.20947
G1 X92.989 Y120.015 E0.32681
G1 X92.989 Y121.272 E0.37294
G1 X93.613 Y124.407 E0.49027
G1 X94.094 Y125.567 E0.53636
G1 X95.869 Y128.222 E0.65362
G1 X96.756 Y129.11 E0.69968
G1 X99.413 Y130.886 E0.817
G1 X100.573 Y131.367 E0.86309
G1 X103.707 Y131.991 E0.98038
G1 X104.964 Y131.991 E1.02653
G1 X130.594 Y126.562 E1.98821
G1 X131.709 Y126.091 E2.03264
G1 X134.367 Y124.316 E2.14995
G1 X135.256 Y123.427 E2.1961
G1 X137.031 Y120.769 E2.31341
G1 X137.511 Y119.61 E2.35945
G1 X138.135 Y116.477 E2.47672
G1 X138.135 Y115.22 E2.52287
G1 X137.511 Y112.085 E2.64019
G1 X137.031 Y110.926 E2.68624
G1 X135.256 Y108.268 E2.80356
G1 X134.367 Y107.379 E2.84971
G1 X131.709 Y105.604 E2.96704
G1 X130.548 Y105.124 E3.01315
G1 X127.416 Y104.501 E3.13039
G1 X126.162 Y104.501 E3.1764
G1 X123.028 Y105.123 E3.2937
G1 X100.531 Y109.929 E4.13813
G1 X99.416 Y110.4 E4.18256
G1 X96.808 Y112.142 E4.29768
G92 E0
; acceleration to travel
M204 S1500
G1 X98.514 Y114.508 F9000
; decel to extrusion
M204 S500
G1 X99.083 Y115.297
; end travel
;WIDTH:0.576
G1 F1200
G1 X101.298 Y113.803 E0.11963
G1 X101.53 Y113.694 E0.13107
G1 X104.151 Y113.161 E0.25083
G1 X104.52 Y113.161 E0.26734
G1 X107.026 Y113.658 E0.3817
G1 X107.265 Y113.744 E0.39311
G1 X109.494 Y115.218 E0.51274
G1 X109.684 Y115.39 E0.52419
G1 X111.178 Y117.604 E0.64377
G1 X111.287 Y117.835 E0.65521
G1 X111.82 Y120.454 E0.77485
G1 X111.832 Y120.709 E0.7863
G1 X111.323 Y123.333 E0.90594
G1 X111.236 Y123.573 E0.91738
G1 X109.763 Y125.8 E1.03695
G1 X109.591 Y125.989 E1.04838
G1 X107.376 Y127.485 E1.16804
G1 X107.144 Y127.594 E1.17948
G1 X104.526 Y128.128 E1.29913
G1 X104.27 Y128.14 E1.31058
G1 X101.648 Y127.63 E1.43018
G1 X101.407 Y127.543 E1.44162
G1 X99.179 Y126.068 E1.56126
G1 X98.99 Y125.896 E1.57269
G1 X97.496 Y123.683 E1.69226
G1 X97.387 Y123.451 E1.7037
G1 X96.853 Y120.833 E1.82334
G1 X96.841 Y120.577 E1.83479
G1 X97.351 Y117.954 E1.95444
G1 X97.437 Y117.713 E1.96588
G1 X98.911 Y115.486 E2.08545
G1 X99.043 Y115.341 E2.09421
G1 X99.434 Y115.708 F9000
G1 F1200
G1 X99.454 Y115.687 E2.09553
G1 X101.579 Y114.261 E2.21007
G1 X101.724 Y114.196 E2.21716
G1 X104.231 Y113.693 E2.33165
G1 X104.441 Y113.693 E2.34107
G1 X106.899 Y114.181 E2.45326
G1 X107.048 Y114.237 E2.46035
G1 X109.178 Y115.653 E2.5749
G1 X109.294 Y115.761 E2.58199
G1 X110.719 Y117.885 E2.69649
G1 X110.785 Y118.029 E2.70357
G1 X111.289 Y120.538 E2.81814
G1 X111.294 Y120.696 E2.82523
G1 X110.8 Y123.207 E2.93979
G1 X110.744 Y123.355 E2.94688
G1 X109.327 Y125.484 E3.06137
G1 X109.219 Y125.6 E3.06845
G1 X107.095 Y127.026 E3.18303
G1 X106.95 Y127.092 E3.19012
G1 X104.442 Y127.596 E3.30468
G1 X104.283 Y127.601 E3.31178
G1 X101.773 Y127.107 E3.42629
G1 X101.625 Y127.051 E3.43338
G1 X99.495 Y125.633 E3.54795
G1 X99.38 Y125.525 E3.55503
G1 X97.954 Y123.402 E3.66952
G1 X97.889 Y123.257 E3.67661
G1 X97.384 Y120.749 E3.79117
G1 X97.379 Y120.59 E3.79826
G1 X97.874 Y118.08 E3.91283
G1 X97.929 Y117.931 E3.91992
G1 X99.346 Y115.802 E4.03441
G1 X99.393 Y115.752 E4.03749
G1 X99.778 Y116.123 F9000
G1 F1200
G1 X99.816 Y116.085 E4.03986
G1 X101.856 Y114.723 E4.14969
G1 X101.905 Y114.703 E4.15206
G1 X104.31 Y114.225 E4.26183
G1 X104.362 Y114.225 E4.2642
G1 X104.848 Y114.321 E4.28634
G1 X106.769 Y114.703 E4.37403
G1 X106.818 Y114.723 E4.3764
G1 X108.858 Y116.085 E4.48623
G1 X108.895 Y116.123 E4.4886
G1 X110.258 Y118.162 E4.59837
G1 X110.278 Y118.21 E4.60074
G1 X110.757 Y120.617 E4.71059
G1 X110.757 Y120.67 E4.71296
G1 X110.278 Y123.076 E4.8228
G1 X110.258 Y123.125 E4.82517
G1 X108.895 Y125.164 E4.93495
G1 X108.858 Y125.201 E4.93731
G1 X106.818 Y126.565 E5.04717
G1 X106.769 Y126.585 E5.04954
G1 X104.363 Y127.064 E5.15939
G1 X104.31 Y127.064 E5.16176
G1 X101.904 Y126.585 E5.27155
G1 X101.855 Y126.565 E5.27392
G1 X99.816 Y125.201 E5.38377
G1 X99.778 Y125.164 E5.38614
G1 X98.416 Y123.125 E5.49591
G1 X98.396 Y123.076 E5.49828
G1 X97.917 Y120.67 E5.60813
G1 X97.917 Y120.617 E5.6105
G1 X98.396 Y118.21 E5.72035
G1 X98.416 Y118.161 E5.72272
G1 X99.745 Y116.173 E5.8298
G92 E0
; acceleration to travel
M204 S1500
G1 X114.406 Y115.88 F9000
; decel to extrusion
M204 S500
G1 X119.294 Y115.783
; end travel
G1 F1200
G1 X119.8 Y113.16 E0.11959
G1 X119.887 Y112.919 E0.13106
G1 X121.362 Y110.689 E0.25075
G1 X121.534 Y110.5 E0.26219
G1 X123.75 Y109.006 E0.38181
G1 X123.981 Y108.897 E0.39326
G1 X126.599 Y108.365 E0.51289
G1 X126.915 Y108.358 E0.52702
G1 X129.476 Y108.861 E0.64386
G1 X129.717 Y108.948 E0.65531
G1 X131.945 Y110.422 E0.77493
G1 X132.135 Y110.594 E0.78639
G1 X133.629 Y112.809 E0.90602
G1 X133.738 Y113.04 E0.91745
G1 X134.271 Y115.659 E1.03708
G1 X134.284 Y115.914 E1.04854
G1 X133.774 Y118.536 E1.16812
G1 X133.687 Y118.776 E1.17955
G1 X132.214 Y121.005 E1.29917
G1 X132.042 Y121.194 E1.31062
G1 X129.826 Y122.689 E1.43025
G1 X129.595 Y122.797 E1.44168
G1 X126.978 Y123.331 E1.56125
G1 X126.723 Y123.343 E1.57271
G1 X124.099 Y122.833 E1.69236
G1 X123.859 Y122.747 E1.70379
G1 X121.63 Y121.273 E1.8234
G1 X121.441 Y121.101 E1.83484
G1 X119.945 Y118.886 E1.9545
G1 X119.836 Y118.654 E1.96598
G1 X119.305 Y116.037 E2.08554
G1 X119.296 Y115.843 E2.09425
G1 X119.833 Y115.825 F9000
G1 F1200
G1 X119.832 Y115.796 E2.09557
G1 X120.323 Y113.285 E2.2101
G1 X120.379 Y113.136 E2.21721
G1 X121.797 Y111.006 E2.3318
G1 X121.906 Y110.89 E2.33889
G1 X124.03 Y109.465 E2.45343
G1 X124.175 Y109.4 E2.46052
G1 X126.683 Y108.896 E2.57507
G1 X126.841 Y108.891 E2.58215
G1 X129.351 Y109.384 E2.69663
G1 X129.499 Y109.44 E2.70372
G1 X131.629 Y110.857 E2.81826
G1 X131.745 Y110.965 E2.82536
G1 X133.17 Y113.09 E2.93991
G1 X133.236 Y113.234 E2.94699
G1 X133.74 Y115.743 E3.06155
G1 X133.745 Y115.901 E3.06864
G1 X133.251 Y118.41 E3.18314
G1 X133.195 Y118.558 E3.19022
G1 X131.779 Y120.689 E3.30476
G1 X131.67 Y120.805 E3.31186
G1 X129.545 Y122.23 E3.42641
G1 X129.401 Y122.295 E3.43349
G1 X126.894 Y122.8 E3.54799
G1 X126.736 Y122.805 E3.55508
G1 X124.225 Y122.31 E3.66966
G1 X124.077 Y122.255 E3.67674
G1 X121.946 Y120.838 E3.79127
G1 X121.831 Y120.73 E3.79836
G1 X120.404 Y118.605 E3.91294
G1 X120.339 Y118.461 E3.92005
G1 X119.837 Y115.953 E4.03453
G1 X119.835 Y115.885 E4.03757
G1 X120.369 Y115.875 F9000
G1 F1200
G1 X120.369 Y115.822 E4.03993
G1 X120.845 Y113.415 E4.14975
G1 X120.866 Y113.366 E4.15213
G1 X122.229 Y111.326 E4.26199
G1 X122.267 Y111.289 E4.26436
G1 X124.307 Y109.927 E4.37418
G1 X124.356 Y109.906 E4.37655
G1 X126.762 Y109.429 E4.48639
G1 X126.815 Y109.429 E4.48875
G1 X128.735 Y109.81 E4.57639
G1 X129.22 Y109.906 E4.59852
G1 X129.269 Y109.927 E4.60089
G1 X131.309 Y111.289 E4.71072
G1 X131.346 Y111.326 E4.71309
G1 X132.709 Y113.366 E4.82292
G1 X132.729 Y113.415 E4.82529
G1 X133.208 Y115.822 E4.93513
G1 X133.208 Y115.875 E4.9375
G1 X132.729 Y118.28 E5.04728
G1 X132.709 Y118.328 E5.04965
G1 X131.346 Y120.369 E5.15948
G1 X131.309 Y120.406 E5.16185
G1 X129.269 Y121.768 E5.27168
G1 X129.22 Y121.789 E5.27404
G1 X126.815 Y122.268 E5.38383
G1 X126.762 Y122.268 E5.3862
G1 X124.356 Y121.789 E5.49605
G1 X124.307 Y121.768 E5.49842
G1 X122.267 Y120.406 E5.60824
G1 X122.229 Y120.369 E5.61061
G1 X120.866 Y118.329 E5.72047
G1 X120.845 Y118.279 E5.72284
G1 X120.381 Y115.933 E5.82992
G92 E0
; printing object Kuwait_Towers.stl id:0 copy 0
M486 S0
; acceleration to travel
M204 S1500
G1 X112.406 Y117.784 F9000
; decel to extrusion
M204 S500
G1 X109.748 Y118.401
; end travel
;TYPE:External perimeter
G1 F1200
G1 X110.195 Y120.643 E0.10234
G1 X109.748 Y122.885 E0.20469
G1 X108.479 Y124.785 E0.30697
G1 X106.578 Y126.055 E0.40933
G1 X104.336 Y126.502 E0.51167
G1 X102.095 Y126.055 E0.61396
G1 X100.195 Y124.785 E0.71632
G1 X98.925 Y122.885 E0.81859
G1 X98.479 Y120.643 E0.92094
G1 X98.925 Y118.401 E1.02328
G1 X100.195 Y116.502 E1.12556
G1 X102.095 Y115.232 E1.22788
G1 X104.336 Y114.787 E1.33016
G1 X104.739 Y114.867 E1.34856
G1 X106.578 Y115.232 E1.4325
G1 X108.479 Y116.502 E1.53483
G1 X109.715 Y118.351 E1.63441
;WIPE_START
G1 X109.485 Y118.702 F9000
;WIPE_END
G1 X109.269 Y118.745
;TYPE:Internal perimeter
G1 F1200
G1 X109.647 Y120.643 E1.72107
G1 X109.242 Y122.676 E1.81384
G1 X108.092 Y124.397 E1.90655
G1 X106.368 Y125.549 E1.99935
G1 X104.336 Y125.954 E2.09211
G1 X102.305 Y125.549 E2.18483
G1 X100.582 Y124.397 E2.27761
G1 X99.431 Y122.676 E2.37033
G1 X99.027 Y120.643 E2.4631
G1 X99.431 Y118.611 E2.55587
G1 X100.582 Y116.889 E2.64857
G1 X102.305 Y115.739 E2.74132
G1 X104.336 Y115.335 E2.83404
G1 X104.635 Y115.395 E2.84766
G1 X106.369 Y115.739 E2.92681
G1 X108.092 Y116.889 E3.01956
G1 X109.242 Y118.611 E3.11227
G1 X109.257 Y118.686 E3.1157
G92 E0
; acceleration to travel
M204 S1500
G1 X107.525 Y116.911 F9000
; decel to extrusion
M204 S500
G1 X106.948 Y116.319
; end travel
;TYPE:Solid infill
;WIDTH:0.569851
G1 F1200
G1 X107.825 Y117.197 E0.05495
G1 X108.873 Y118.764 E0.13844
G1 X108.932 Y119.064 E0.15198
G1 X105.918 Y116.049 E0.3408
G1 X104.97 Y115.861 E0.38361
G1 X109.121 Y120.012 E0.64365
G1 X109.247 Y120.643 E0.67214
G1 X109.204 Y120.856 E0.68173
G1 X104.126 Y115.777 E0.99985
G1 X103.492 Y115.903 E1.02848
G1 X109.078 Y121.489 E1.37841
G1 X108.952 Y122.123 E1.40703
G1 X102.858 Y116.029 E1.78877
G1 X102.458 Y116.108 E1.80683
G1 X102.289 Y116.221 E1.81579
G1 X108.76 Y122.691 E2.22109
G1 X108.456 Y123.147 E2.24536
G1 X101.834 Y116.525 E2.66012
G1 X101.378 Y116.829 E2.68439
G1 X108.151 Y123.602 E3.10863
G1 X107.847 Y124.058 E3.1329
G1 X100.923 Y117.133 E3.56661
G1 X100.865 Y117.172 E3.56969
G1 X100.599 Y117.57 E3.59088
G1 X107.41 Y124.381 E4.01752
G1 X106.955 Y124.686 E4.04178
G1 X100.294 Y118.025 E4.45896
G1 X99.99 Y118.481 E4.48322
G1 X106.499 Y124.99 E4.89094
G1 X106.215 Y125.18 E4.90607
G1 X105.977 Y125.227 E4.91684
G1 X99.753 Y119.004 E5.30667
G1 X99.627 Y119.638 E5.33529
G1 X105.343 Y125.354 E5.69331
G1 X104.709 Y125.48 E5.72194
G1 X99.501 Y120.271 E6.04816
G1 X99.427 Y120.643 E6.06495
G1 X99.505 Y121.035 E6.08267
G1 X103.945 Y125.476 E6.36081
G1 X102.996 Y125.287 E6.40367
G1 X99.694 Y121.984 E6.61054
G1 X99.801 Y122.523 E6.63485
G1 X100.463 Y123.514 E6.68766
G1 X102.304 Y125.355 E6.80297
G92 E0
; acceleration to travel
M204 S1500
G1 X116.607 Y119.905 F9000
; decel to extrusion
M204 S500
G1 X121.375 Y118.089
; end travel
;TYPE:External perimeter
;WIDTH:0.576
G1 F1200
G1 X120.931 Y115.848 E0.10227
G1 X121.375 Y113.606 E0.20459
G1 X122.646 Y111.705 E0.30694
G1 X124.546 Y110.436 E0.40927
G1 X126.789 Y109.991 E0.51161
G1 X128.627 Y110.356 E0.59551
G1 X129.029 Y110.436 E0.61389
G1 X130.93 Y111.705 E0.71621
G1 X132.199 Y113.606 E0.81854
G1 X132.646 Y115.848 E0.92088
G1 X132.199 Y118.089 E1.02317
G1 X130.93 Y119.99 E1.12549
G1 X129.029 Y121.259 E1.22782
G1 X126.789 Y121.705 E1.33011
G1 X124.546 Y121.259 E1.43246
G1 X122.646 Y119.99 E1.53478
G1 X121.408 Y118.139 E1.63445
;WIPE_START
G1 X121.639 Y117.788 F9000
;WIPE_END
G1 X121.855 Y117.746
;TYPE:Internal perimeter
G1 F1200
G1 X121.479 Y115.848 E1.72105
G1 X121.881 Y113.815 E1.81381
G1 X123.033 Y112.093 E1.90658
G1 X124.756 Y110.942 E1.99933
G1 X126.789 Y110.539 E2.0921
G1 X128.522 Y110.883 E2.17123
G1 X128.82 Y110.942 E2.18482
G1 X130.543 Y112.093 E2.27756
G1 X131.693 Y113.816 E2.37032
G1 X132.098 Y115.848 E2.46309
G1 X131.693 Y117.879 E2.55581
G1 X130.543 Y119.602 E2.64857
G1 X128.82 Y120.753 E2.74132
G1 X126.789 Y121.157 E2.83404
G1 X124.756 Y120.753 E2.92682
G1 X123.033 Y119.602 E3.01958
G1 X121.881 Y117.879 E3.11235
G1 X121.866 Y117.804 E3.11577
G92 E0
; acceleration to travel
M204 S1500
G1 X128.801 Y114.378 F9000
; decel to extrusion
M204 S500
G1 X131.112 Y113.236
; end travel
;TYPE:Solid infill
;WIDTH:0.569852
G1 F1200
G1 X130.235 Y112.359 E0.05494
G1 X128.667 Y111.312 E0.13848
G1 X128.446 Y111.268 E0.14847
G1 X128.369 Y111.253 E0.15194
G1 X131.383 Y114.267 E0.34075
G1 X131.572 Y115.216 E0.3836
G1 X127.42 Y111.064 E0.64364
G1 X126.789 Y110.939 E0.67218
G1 X126.577 Y110.981 E0.68173
G1 X131.656 Y116.059 E0.99985
G1 X131.53 Y116.693 E1.02847
G1 X125.943 Y111.107 E1.3784
G1 X125.309 Y111.232 E1.40703
G1 X131.403 Y117.327 E1.78878
G1 X131.324 Y117.726 E1.8068
G1 X131.211 Y117.895 E1.81578
G1 X124.741 Y111.424 E2.22109
G1 X124.285 Y111.728 E2.24535
G1 X130.907 Y118.35 E2.66014
G1 X130.603 Y118.806 E2.6844
G1 X123.829 Y112.033 E3.10867
G1 X123.374 Y112.337 E3.13293
G1 X130.298 Y119.262 E3.56668
G1 X130.26 Y119.319 E3.56975
G1 X129.862 Y119.585 E3.59095
G1 X123.05 Y112.773 E4.01763
G1 X122.745 Y113.229 E4.04189
G1 X129.406 Y119.89 E4.4591
G1 X128.95 Y120.194 E4.48337
G1 X122.441 Y113.684 E4.89111
G1 X122.251 Y113.968 E4.90625
G1 X122.204 Y114.207 E4.91702
G1 X128.428 Y120.431 E5.30687
G1 X127.794 Y120.557 E5.33549
G1 X122.078 Y114.841 E5.69351
G1 X121.953 Y115.476 E5.72216
G1 X127.16 Y120.683 E6.04835
G1 X126.789 Y120.757 E6.06513
G1 X126.396 Y120.679 E6.08285
G1 X121.956 Y116.24 E6.36094
G1 X122.144 Y117.187 E6.40373
G1 X125.447 Y120.49 E6.61063
G1 X124.909 Y120.383 E6.63494
G1 X123.919 Y119.722 E6.68766
G1 X122.073 Y117.876 E6.8033
M106 S84.15
;LAYER_CHANGE
;Z:0.52
;HEIGHT:0.32
;BEFORE_LAYER_CHANGE
;0.52


G92 E0
; stop printing object Kuwait_Towers.stl id:0 copy 0
M486 S-1
G1 Z0.47 F9000
;AFTER_LAYER_CHANGE
;0.52
; printing object Kuwait_Towers.stl id:0 copy 0
M486 S0
; acceleration to travel
M204 S1500
G1 X113.007 Y119.922
; decel to extrusion
M204 S500
G1 X109.812 Y120.643
; end travel
;TYPE:Internal perimeter
;WIDTH:0.476
G1 F2400
G1 X109.394 Y122.739 E0.11695
G1 X108.208 Y124.514 E0.23381
G1 X106.431 Y125.702 E0.35078
G1 X104.336 Y126.119 E0.46771
G1 X102.242 Y125.702 E0.58458
G1 X100.465 Y124.514 E0.70155
G1 X99.279 Y122.739 E0.81841
G1 X98.862 Y120.643 E0.93536
G1 X99.279 Y118.548 E1.0523
G1 X100.465 Y116.773 E1.16916
G1 X102.242 Y115.586 E1.28608
G1 X104.336 Y115.17 E1.40295
G1 X106.432 Y115.586 E1.51989
G1 X108.208 Y116.773 E1.63681
G1 X109.395 Y118.548 E1.75367
G1 X109.8 Y120.584 E1.86732
G1 X110.209 Y120.643 F9000
;TYPE:External perimeter
;WIDTH:0.428
G1 F1500
G1 X109.762 Y122.891 E1.97799
G1 X108.489 Y124.795 E2.08857
G1 X106.584 Y126.069 E2.19925
G1 X104.336 Y126.517 E2.3099
G1 X102.09 Y126.069 E2.42049
G1 X100.184 Y124.795 E2.53117
G1 X98.911 Y122.891 E2.64176
G1 X98.464 Y120.643 E2.75242
G1 X98.911 Y118.395 E2.86308
G1 X100.184 Y116.491 E2.97366
G1 X102.09 Y115.219 E3.0843
G1 X104.336 Y114.772 E3.19489
G1 X106.584 Y115.219 E3.30553
G1 X108.49 Y116.491 E3.41618
G1 X109.762 Y118.396 E3.52676
G1 X110.198 Y120.584 E3.63452
;WIPE_START
G1 X109.851 Y120.82 F9000
;WIPE_END
G92 E0
