; generated by SuperSlicer 2.4 on 2022-12-21 at 18:54:30 UTC

; 

; external perimeters extrusion width = 0.43mm
; perimeters extrusion width = 0.48mm
; infill extrusion width = 0.46mm
; solid infill extrusion width = 0.48mm
; top infill extrusion width = 0.46mm
; first layer extrusion width = 0.58mm

; object:{"name":"stringing-test","id":"stringing-test.stl id:0 copy 0","object_center":[115.500000,115.500000,0.000000],"boundingbox_center":[115.500000,115.500000,12.800000],"boundingbox_size":[50.000000,10.000000,25.600000]}
; Total objects to print: 1
M486 T1
; plater:{"center":[115.500000,115.500000,0.000000],"boundingbox_center":[115.500000,115.500000,12.800000],"boundingbox_size":[50.000000,10.000000,25.600000]}

;TYPE:Custom
G90 ; use absolute coordinates
M83 ; extruder relative mode
M140 S60 ; set final bed temp
M104 S150 ; set temporary nozzle temp to prevent oozing during homing and auto bed leveling
G4 S10 ; allow partial nozzle warmup
G28 ; home all axis
;G29 ; auto bed levelling
G1 Z10 F240
G1 X2 Y10 F3000
G1 Z0 F240
M104 S210 ; set final nozzle temp
M190 S60 ; wait for bed temp to stabilize
M109 S210 ; wait for nozzle temp to stabilize
G1 Z0.28 F240
G92 E0
G1 Y140 E10 F1500 ; prime the nozzle
G1 X2.3 F5000
G92 E0
G1 Y10 E10 F1200 ; prime the nozzle
G92 E0
;start
M107
G21 ; set units to millimeters
G90 ; use absolute coordinates
M82 ; use absolute distances for extrusion
G92 E0
; Filament gcode
;_TOOLCHANGE 0
M107
;LAYER_CHANGE
;Z:0.2
;HEIGHT:0.2
;BEFORE_LAYER_CHANGE
;0.2


G1 Z0.15 F9000
;AFTER_LAYER_CHANGE
;0.2
M204 S500
G1 X86.86 Y105.892
;TYPE:Skirt
;WIDTH:0.48
G1 F1200
G1 X85.775 Y107.057 E0.05844
G1 X85.381 Y108.6 E0.11688
G1 X85.381 Y122.4 E0.62344
G1 X85.892 Y124.14 E0.68999
G1 X87.057 Y125.225 E0.74843
G1 X88.6 Y125.619 E0.80687
G1 X142.4 Y125.619 E2.7817
G1 X144.14 Y125.108 E2.84825
G1 X145.225 Y123.943 E2.90669
G1 X145.619 Y122.4 E2.96514
G1 X145.619 Y108.6 E3.47169
G1 X145.108 Y106.86 E3.53824
G1 X143.943 Y105.775 E3.59669
G1 X142.4 Y105.381 E3.65513
G1 X88.6 Y105.381 E5.62995
G1 X86.918 Y105.875 E5.6943
G92 E0
; acceleration to travel
M204 S1500
G1 X89.111 Y108.563 F9000
; decel to extrusion
M204 S500
G1 X89.842 Y109.458
; end travel
;WIDTH:0.576
G1 F1200
G1 X89.93 Y109.4 E0.00474
G1 X90.225 Y109.277 E0.01905
G1 X90.329 Y109.257 E0.02379
G1 X140.671 Y109.257 E2.27756
G1 X140.775 Y109.277 E2.2823
G1 X141.07 Y109.4 E2.29661
G1 X141.158 Y109.458 E2.30135
G1 X141.542 Y109.842 E2.32562
G1 X141.6 Y109.93 E2.33036
G1 X141.723 Y110.225 E2.34467
G1 X141.743 Y110.329 E2.34941
G1 X141.743 Y120.671 E2.81242
G1 X141.723 Y120.775 E2.81716
G1 X141.6 Y121.07 E2.83147
G1 X141.542 Y121.158 E2.83621
G1 X141.158 Y121.542 E2.86048
G1 X141.07 Y121.6 E2.86522
G1 X140.775 Y121.723 E2.87953
G1 X140.671 Y121.743 E2.88427
G1 X90.329 Y121.743 E5.13804
G1 X90.225 Y121.723 E5.14278
G1 X89.93 Y121.6 E5.15709
G1 X89.842 Y121.542 E5.16183
G1 X89.458 Y121.158 E5.18611
G1 X89.4 Y121.07 E5.19084
G1 X89.277 Y120.775 E5.20515
G1 X89.257 Y120.671 E5.20989
G1 X89.257 Y110.329 E5.6729
G1 X89.277 Y110.225 E5.67764
G1 X89.4 Y109.93 E5.69195
G1 X89.458 Y109.842 E5.69669
G1 X89.799 Y109.501 E5.71828
G1 X90.179 Y109.881 F9000
G1 F1200
G1 X90.382 Y109.794 E5.72814
G1 X140.618 Y109.794 E7.97718
G1 X140.816 Y109.876 E7.98675
G1 X141.124 Y110.184 E8.00628
G1 X141.206 Y110.382 E8.01586
G1 X141.206 Y120.618 E8.47413
G1 X141.124 Y120.816 E8.4837
G1 X140.816 Y121.124 E8.50323
G1 X140.618 Y121.206 E8.51281
G1 X90.382 Y121.206 E10.76184
G1 X90.184 Y121.124 E10.77141
G1 X89.876 Y120.816 E10.79094
G1 X89.794 Y120.618 E10.80052
G1 X89.794 Y110.382 E11.25879
G1 X89.876 Y110.184 E11.26836
G1 X90.137 Y109.923 E11.28489
G1 X90.489 Y110.331 F9000
G1 F1200
G1 X140.511 Y110.331 E13.52435
G1 X140.669 Y110.489 E13.53432
G1 X140.669 Y120.511 E13.98302
G1 X140.511 Y120.669 E13.99299
G1 X90.489 Y120.669 E16.23245
G1 X90.331 Y120.511 E16.24241
G1 X90.331 Y110.489 E16.69112
G1 X90.446 Y110.374 E16.6984
; printing object stringing-test.stl id:0 copy 0
M486 S0
G1 X90.888 Y110.888 F9000
;TYPE:External perimeter
G1 F1200
G1 X140.112 Y110.888 E18.90211
G1 X140.112 Y120.112 E19.31506
G1 X90.888 Y120.112 E21.51877
G1 X90.888 Y110.948 E21.92903
;WIPE_START
G1 X91.234 Y111.088 F9000
;WIPE_END
G1 X91.425 Y111.425
;TYPE:Internal perimeter
G1 F1200
G1 X139.575 Y111.425 E24.08462
G1 X139.575 Y119.575 E24.44946
G1 X91.425 Y119.575 E26.60505
G1 X91.425 Y111.485 E26.9672
G92 E0
; acceleration to travel
M204 S1500
G1 X126.602 Y111.561 F9000
; decel to extrusion
M204 S500
G1 X138.327 Y111.587
; end travel
;TYPE:Solid infill
;WIDTH:0.574664
G1 F1200
G1 X139.182 Y112.442 E0.05402
G1 X139.182 Y113.202 E0.08796
G1 X137.798 Y111.818 E0.17539
G1 X137.038 Y111.818 E0.20933
G1 X139.182 Y113.962 E0.34476
G1 X139.182 Y114.722 E0.37871
G1 X136.278 Y111.818 E0.56214
G1 X135.518 Y111.818 E0.59609
G1 X139.182 Y115.482 E0.82752
G1 X139.182 Y116.242 E0.86147
G1 X134.758 Y111.818 E1.14091
G1 X133.998 Y111.818 E1.17485
G1 X139.182 Y117.002 E1.5023
G1 X139.182 Y117.761 E1.53624
G1 X133.239 Y111.818 E1.91169
G1 X132.479 Y111.818 E1.94563
G1 X139.182 Y118.521 E2.36909
G1 X139.182 Y119.182 E2.39861
G1 X139.083 Y119.182 E2.40303
G1 X131.719 Y111.818 E2.86823
G1 X130.959 Y111.818 E2.90217
G1 X138.323 Y119.182 E3.36738
G1 X137.563 Y119.182 E3.40132
G1 X130.199 Y111.818 E3.86652
G1 X129.439 Y111.818 E3.90046
G1 X136.803 Y119.182 E4.36567
G1 X136.044 Y119.182 E4.39961
G1 X128.679 Y111.818 E4.86481
G1 X127.919 Y111.818 E4.89875
G1 X135.284 Y119.182 E5.36396
G1 X134.524 Y119.182 E5.3979
G1 X127.159 Y111.818 E5.8631
G1 X126.399 Y111.818 E5.89704
G1 X133.764 Y119.182 E6.36225
G1 X133.004 Y119.182 E6.39619
G1 X125.639 Y111.818 E6.86139
G1 X124.879 Y111.818 E6.89533
G1 X132.244 Y119.182 E7.36054
G1 X131.484 Y119.182 E7.39448
G1 X124.119 Y111.818 E7.85968
G1 X123.359 Y111.818 E7.89362
G1 X130.724 Y119.182 E8.35883
G1 X129.964 Y119.182 E8.39277
G1 X122.599 Y111.818 E8.85797
G1 X121.839 Y111.818 E8.89191
G1 X129.204 Y119.182 E9.35712
G1 X128.444 Y119.182 E9.39106
G1 X121.079 Y111.818 E9.85626
G1 X120.319 Y111.818 E9.8902
G1 X127.684 Y119.182 E10.35541
G1 X126.924 Y119.182 E10.38935
G1 X119.559 Y111.818 E10.85455
G1 X118.799 Y111.818 E10.88849
G1 X126.164 Y119.182 E11.3537
G1 X125.404 Y119.182 E11.38764
G1 X118.039 Y111.818 E11.85284
G1 X117.279 Y111.818 E11.88678
G1 X124.644 Y119.182 E12.35199
G1 X123.884 Y119.182 E12.38593
G1 X116.519 Y111.818 E12.85113
G1 X115.76 Y111.818 E12.88507
G1 X123.124 Y119.182 E13.35028
G1 X122.364 Y119.182 E13.38422
G1 X115 Y111.818 E13.84942
G1 X114.24 Y111.818 E13.88336
G1 X121.604 Y119.182 E14.34857
G1 X120.844 Y119.182 E14.38251
G1 X113.48 Y111.818 E14.84771
G1 X112.72 Y111.818 E14.88165
G1 X120.084 Y119.182 E15.34686
G1 X119.324 Y119.182 E15.3808
G1 X111.96 Y111.818 E15.846
G1 X111.2 Y111.818 E15.87994
G1 X118.565 Y119.182 E16.34515
G1 X117.805 Y119.182 E16.37909
G1 X110.44 Y111.818 E16.84429
G1 X109.68 Y111.818 E16.87823
G1 X117.045 Y119.182 E17.34344
G1 X116.285 Y119.182 E17.37738
G1 X108.92 Y111.818 E17.84258
G1 X108.16 Y111.818 E17.87652
G1 X115.525 Y119.182 E18.34173
G1 X114.765 Y119.182 E18.37567
G1 X107.4 Y111.818 E18.84087
G1 X106.64 Y111.818 E18.87481
G1 X114.005 Y119.182 E19.34002
G1 X113.245 Y119.182 E19.37396
G1 X105.88 Y111.818 E19.83916
G1 X105.12 Y111.818 E19.8731
G1 X112.485 Y119.182 E20.33831
G1 X111.725 Y119.182 E20.37225
G1 X104.36 Y111.818 E20.83745
G1 X103.6 Y111.818 E20.87139
G1 X110.965 Y119.182 E21.3366
G1 X110.205 Y119.182 E21.37054
G1 X102.84 Y111.818 E21.83574
G1 X102.08 Y111.818 E21.86968
G1 X109.445 Y119.182 E22.33489
G1 X108.685 Y119.182 E22.36883
G1 X101.32 Y111.818 E22.83403
G1 X100.56 Y111.818 E22.86797
G1 X107.925 Y119.182 E23.33318
G1 X107.165 Y119.182 E23.36712
G1 X99.8 Y111.818 E23.83232
G1 X99.04 Y111.818 E23.86626
G1 X106.405 Y119.182 E24.33147
G1 X105.645 Y119.182 E24.36541
G1 X98.281 Y111.818 E24.83061
G1 X97.521 Y111.818 E24.86455
G1 X104.885 Y119.182 E25.32976
G1 X104.125 Y119.182 E25.3637
G1 X96.761 Y111.818 E25.8289
G1 X96.001 Y111.818 E25.86284
G1 X103.365 Y119.182 E26.32805
G1 X102.605 Y119.182 E26.36199
G1 X95.241 Y111.818 E26.82719
G1 X94.481 Y111.818 E26.86113
G1 X101.845 Y119.182 E27.32634
G1 X101.085 Y119.182 E27.36028
G1 X93.721 Y111.818 E27.82548
G1 X92.961 Y111.818 E27.85942
G1 X100.326 Y119.182 E28.32463
G1 X99.566 Y119.182 E28.35857
G1 X92.201 Y111.818 E28.82377
G1 X91.818 Y111.818 E28.84089
G1 X91.818 Y112.194 E28.85771
G1 X98.806 Y119.182 E29.29912
G1 X98.046 Y119.182 E29.33306
G1 X91.818 Y112.954 E29.72646
G1 X91.818 Y113.714 E29.76041
G1 X97.286 Y119.182 E30.1058
G1 X96.526 Y119.182 E30.13975
G1 X91.818 Y114.474 E30.43714
G1 X91.818 Y115.234 E30.47108
G1 X95.766 Y119.182 E30.72047
G1 X95.006 Y119.182 E30.75442
G1 X91.818 Y115.994 E30.9558
G1 X91.818 Y116.754 E30.98975
G1 X94.246 Y119.182 E31.14313
G1 X93.486 Y119.182 E31.17707
G1 X91.818 Y117.514 E31.28245
G1 X91.818 Y118.274 E31.31639
G1 X92.726 Y119.182 E31.37377
G1 X91.966 Y119.182 E31.40771
G1 X91.587 Y118.803 E31.43168
M106 S84.15
;LAYER_CHANGE
;Z:0.52
;HEIGHT:0.32
;BEFORE_LAYER_CHANGE
;0.52


G92 E0
; stop printing object stringing-test.stl id:0 copy 0
M486 S-1
G1 Z0.47 F9000
;AFTER_LAYER_CHANGE
;0.52
; printing object stringing-test.stl id:0 copy 0
M486 S0
G1 X90.714 Y120.286
;TYPE:External perimeter
;WIDTH:0.428
G1 F1500
G1 X90.714 Y110.714 E0.46217
G1 X140.286 Y110.714 E2.85566
G1 X140.286 Y120.286 E3.31783
G1 X90.774 Y120.286 E5.70842
;WIPE_START
G1 X90.914 Y119.94 F9000
;WIPE_END
G92 E0
; acceleration to travel
M204 S1500
G1 X127.156 Y120.124
; decel to extrusion
M204 S500
G1 X139.39 Y120.187
; end travel
;TYPE:Top solid infill
;WIDTH:0.46377
G1 F1800
G1 X140.017 Y119.559 E0.04696
G1 X140.017 Y119.002 E0.07647
G1 X139.002 Y120.017 E0.15248
G1 X138.444 Y120.017 E0.18199
G1 X140.017 Y118.444 E0.29972
G1 X140.017 Y117.887 E0.32923
G1 X137.887 Y120.017 E0.4887
G1 X137.33 Y120.017 E0.51821
G1 X140.017 Y117.33 E0.71941
G1 X140.017 Y116.772 E0.74891
G1 X136.772 Y120.017 E0.99185
G1 X136.215 Y120.017 E1.02135
G1 X140.017 Y116.215 E1.30602
G1 X140.017 Y115.657 E1.33552
G1 X135.657 Y120.017 E1.66192
G1 X135.1 Y120.017 E1.69143
G1 X140.017 Y115.1 E2.05955
G1 X140.017 Y114.542 E2.08906
G1 X134.542 Y120.017 E2.49891
G1 X133.985 Y120.017 E2.52842
G1 X140.017 Y113.985 E2.98001
G1 X140.017 Y113.427 E3.00952
G1 X133.427 Y120.017 E3.50284
G1 X132.87 Y120.017 E3.53234
G1 X140.017 Y112.87 E4.06739
G1 X140.017 Y112.312 E4.0969
G1 X132.312 Y120.017 E4.67368
G1 X131.755 Y120.017 E4.70319
G1 X140.017 Y111.755 E5.3217
G1 X140.017 Y111.197 E5.35121
G1 X131.197 Y120.017 E6.01145
G1 X130.64 Y120.017 E6.04096
G1 X139.674 Y110.983 E6.71727
G1 X139.117 Y110.983 E6.74678
G1 X130.082 Y120.017 E7.42308
G1 X129.525 Y120.017 E7.45259
G1 X138.559 Y110.983 E8.12889
G1 X138.002 Y110.983 E8.1584
G1 X128.967 Y120.017 E8.8347
G1 X128.41 Y120.017 E8.86421
G1 X137.444 Y110.983 E9.54051
G1 X136.887 Y110.983 E9.57002
G1 X127.852 Y120.017 E10.24633
G1 X127.295 Y120.017 E10.27583
G1 X136.329 Y110.983 E10.95214
G1 X135.772 Y110.983 E10.98165
G1 X126.737 Y120.017 E11.65795
G1 X126.18 Y120.017 E11.68746
G1 X135.215 Y110.983 E12.36376
G1 X134.657 Y110.983 E12.39327
G1 X125.623 Y120.017 E13.06957
G1 X125.065 Y120.017 E13.09908
G1 X134.1 Y110.983 E13.77539
G1 X133.542 Y110.983 E13.80489
G1 X124.508 Y120.017 E14.4812
G1 X123.95 Y120.017 E14.51071
G1 X132.985 Y110.983 E15.18701
G1 X132.427 Y110.983 E15.21652
G1 X123.393 Y120.017 E15.89282
G1 X122.835 Y120.017 E15.92233
G1 X131.87 Y110.983 E16.59863
G1 X131.312 Y110.983 E16.62814
G1 X122.278 Y120.017 E17.30444
G1 X121.72 Y120.017 E17.33395
G1 X130.755 Y110.983 E18.01026
G1 X130.197 Y110.983 E18.03976
G1 X121.163 Y120.017 E18.71607
G1 X120.605 Y120.017 E18.74558
G1 X129.64 Y110.983 E19.42188
G1 X129.082 Y110.983 E19.45139
G1 X120.048 Y120.017 E20.12769
G1 X119.49 Y120.017 E20.1572
G1 X128.525 Y110.983 E20.8335
G1 X127.967 Y110.983 E20.86301
G1 X118.933 Y120.017 E21.53931
G1 X118.375 Y120.017 E21.56882
G1 X127.41 Y110.983 E22.24513
G1 X126.852 Y110.983 E22.27464
G1 X117.818 Y120.017 E22.95094
G1 X117.26 Y120.017 E22.98045
G1 X126.295 Y110.983 E23.65675
G1 X125.737 Y110.983 E23.68626
G1 X116.703 Y120.017 E24.36256
G1 X116.145 Y120.017 E24.39207
G1 X125.18 Y110.983 E25.06837
G1 X124.623 Y110.983 E25.09788
G1 X115.588 Y120.017 E25.77419
G1 X115.031 Y120.017 E25.80369
G1 X124.065 Y110.983 E26.48
G1 X123.508 Y110.983 E26.50951
G1 X114.473 Y120.017 E27.18581
G1 X113.916 Y120.017 E27.21532
G1 X122.95 Y110.983 E27.89162
G1 X122.393 Y110.983 E27.92113
G1 X113.358 Y120.017 E28.59743
G1 X112.801 Y120.017 E28.62694
G1 X121.835 Y110.983 E29.30324
G1 X121.278 Y110.983 E29.33275
G1 X112.243 Y120.017 E30.00906
G1 X111.686 Y120.017 E30.03857
G1 X120.72 Y110.983 E30.71487
G1 X120.163 Y110.983 E30.74438
G1 X111.128 Y120.017 E31.42068
G1 X110.571 Y120.017 E31.45019
G1 X119.605 Y110.983 E32.12649
G1 X119.048 Y110.983 E32.156
G1 X110.013 Y120.017 E32.8323
G1 X109.456 Y120.017 E32.86181
G1 X118.49 Y110.983 E33.53812
G1 X117.933 Y110.983 E33.56762
G1 X108.898 Y120.017 E34.24393
G1 X108.341 Y120.017 E34.27344
G1 X117.375 Y110.983 E34.94974
G1 X116.818 Y110.983 E34.97925
G1 X107.783 Y120.017 E35.65555
G1 X107.226 Y120.017 E35.68506
G1 X116.26 Y110.983 E36.36136
G1 X115.703 Y110.983 E36.39087
G1 X106.668 Y120.017 E37.06717
G1 X106.111 Y120.017 E37.09668
G1 X115.145 Y110.983 E37.77299
G1 X114.588 Y110.983 E37.8025
G1 X105.553 Y120.017 E38.4788
G1 X104.996 Y120.017 E38.50831
G1 X114.03 Y110.983 E39.18461
G1 X113.473 Y110.983 E39.21412
G1 X104.439 Y120.017 E39.89042
G1 X103.881 Y120.017 E39.91993
G1 X112.916 Y110.983 E40.59623
G1 X112.358 Y110.983 E40.62574
G1 X103.324 Y120.017 E41.30205
G1 X102.766 Y120.017 E41.33155
G1 X111.801 Y110.983 E42.00786
G1 X111.243 Y110.983 E42.03737
G1 X102.209 Y120.017 E42.71367
G1 X101.651 Y120.017 E42.74318
G1 X110.686 Y110.983 E43.41948
G1 X110.128 Y110.983 E43.44899
G1 X101.094 Y120.017 E44.12529
G1 X100.536 Y120.017 E44.1548
G1 X109.571 Y110.983 E44.8311
G1 X109.013 Y110.983 E44.86061
G1 X99.979 Y120.017 E45.53692
G1 X99.421 Y120.017 E45.56643
G1 X108.456 Y110.983 E46.24273
G1 X107.898 Y110.983 E46.27224
G1 X98.864 Y120.017 E46.94854
G1 X98.306 Y120.017 E46.97805
G1 X107.341 Y110.983 E47.65435
G1 X106.783 Y110.983 E47.68386
G1 X97.749 Y120.017 E48.36016
G1 X97.191 Y120.017 E48.38967
G1 X106.226 Y110.983 E49.06598
G1 X105.668 Y110.983 E49.09548
G1 X96.634 Y120.017 E49.77179
G1 X96.076 Y120.017 E49.8013
G1 X105.111 Y110.983 E50.4776
G1 X104.553 Y110.983 E50.50711
G1 X95.519 Y120.017 E51.18341
G1 X94.961 Y120.017 E51.21292
G1 X103.996 Y110.983 E51.88922
G1 X103.438 Y110.983 E51.91873
G1 X94.404 Y120.017 E52.59503
G1 X93.846 Y120.017 E52.62454
G1 X102.881 Y110.983 E53.30085
G1 X102.324 Y110.983 E53.33036
G1 X93.289 Y120.017 E54.00666
G1 X92.732 Y120.017 E54.03617
G1 X101.766 Y110.983 E54.71247
G1 X101.209 Y110.983 E54.74198
G1 X92.174 Y120.017 E55.41828
G1 X91.617 Y120.017 E55.44779
G1 X100.651 Y110.983 E56.12409
G1 X100.094 Y110.983 E56.1536
G1 X91.059 Y120.017 E56.82991
G1 X90.983 Y120.017 E56.83395
G1 X90.983 Y119.536 E56.85941
G1 X99.536 Y110.983 E57.4997
G1 X98.979 Y110.983 E57.52921
G1 X90.983 Y118.979 E58.12777
G1 X90.983 Y118.421 E58.15728
G1 X98.421 Y110.983 E58.7141
G1 X97.864 Y110.983 E58.74361
G1 X90.983 Y117.864 E59.25871
G1 X90.983 Y117.306 E59.28822
G1 X97.306 Y110.983 E59.76158
G1 X96.749 Y110.983 E59.79109
G1 X90.983 Y116.749 E60.22272
G1 X90.983 Y116.191 E60.25223
G1 X96.191 Y110.983 E60.64213
G1 X95.634 Y110.983 E60.67164
G1 X90.983 Y115.634 E61.01981
G1 X90.983 Y115.076 E61.04932
G1 X95.076 Y110.983 E61.35576
G1 X94.519 Y110.983 E61.38527
G1 X90.983 Y114.519 E61.64997
G1 X90.983 Y113.961 E61.67948
G1 X93.961 Y110.983 E61.90246
G1 X93.404 Y110.983 E61.93197
G1 X90.983 Y113.404 E62.11321
G1 X90.983 Y112.846 E62.14272
G1 X92.846 Y110.983 E62.28223
G1 X92.289 Y110.983 E62.31174
G1 X90.983 Y112.289 E62.40952
G1 X90.983 Y111.732 E62.43903
G1 X91.732 Y110.983 E62.49508
G1 X91.174 Y110.983 E62.52459
G1 X90.813 Y111.344 E62.5516
M106 S170.85
;LAYER_CHANGE
;Z:0.84
;HEIGHT:0.32
;BEFORE_LAYER_CHANGE
;0.84


G92 E0
