; generated by SuperSlicer 2.4 on 2022-12-21 at 18:53:47 UTC

; 

; external perimeters extrusion width = 0.43mm
; perimeters extrusion width = 0.48mm
; infill extrusion width = 0.46mm
; solid infill extrusion width = 0.48mm
; top infill extrusion width = 0.46mm
; first layer extrusion width = 0.58mm

; object:{"name":"Stringing_Extreme_Test","id":"Stringing_Extreme_Test.stl id:0 copy 0","object_center":[115.500000,115.500000,0.000000],"boundingbox_center":[115.500000,115.500000,16.069103],"boundingbox_size":[48.549241,12.818202,32.138205]}
; Total objects to print: 1
M486 T1
; plater:{"center":[115.500000,115.500000,0.000000],"boundingbox_center":[115.500000,115.500000,16.069103],"boundingbox_size":[48.549241,12.818202,32.138205]}

;TYPE:Custom
G90 ; use absolute coordinates
M83 ; extruder relative mode
M140 S60 ; set final bed temp
M104 S150 ; set temporary nozzle temp to prevent oozing during homing and auto bed leveling
G4 S10 ; allow partial nozzle warmup
G28 ; home all axis
;G29 ; auto bed levelling
G1 Z10 F240
G1 X2 Y10 F3000
G1 Z0 F240
M104 S210 ; set final nozzle temp
M190 S60 ; wait for bed temp to stabilize
M109 S210 ; wait for nozzle temp to stabilize
G1 Z0.28 F240
G92 E0
G1 Y140 E10 F1500 ; prime the nozzle
G1 X2.3 F5000
G92 E0
G1 Y10 E10 F1200 ; prime the nozzle
G92 E0
;start
M107
G21 ; set units to millimeters
G90 ; use absolute coordinates
M82 ; use absolute distances for extrusion
G92 E0
; Filament gcode
;_TOOLCHANGE 0
M107
;LAYER_CHANGE
;Z:0.2
;HEIGHT:0.2
;BEFORE_LAYER_CHANGE
;0.2


G1 Z0.15 F9000
;AFTER_LAYER_CHANGE
;0.2
M204 S500
G1 X87.437 Y106.18
;TYPE:Skirt
;WIDTH:0.48
G1 F1200
G1 X86.391 Y107.38 E0.05844
G1 X86.047 Y108.935 E0.11688
G1 X86.539 Y123.975 E0.66926
G1 X87.107 Y125.698 E0.73582
G1 X88.307 Y126.744 E0.79426
G1 X89.861 Y127.087 E0.8527
G1 X141.841 Y125.387 E2.76172
G1 X143.563 Y124.82 E2.82827
G1 X144.609 Y123.62 E2.88671
G1 X144.953 Y122.065 E2.94516
G1 X144.461 Y107.025 E3.49753
G1 X143.893 Y105.302 E3.56409
G1 X142.693 Y104.256 E3.62253
G1 X141.139 Y103.913 E3.68097
G1 X89.159 Y105.613 E5.58999
G1 X87.494 Y106.162 E5.65434
G92 E0
; acceleration to travel
M204 S1500
G1 X89.774 Y108.776 F9000
; decel to extrusion
M204 S500
G1 X90.533 Y109.647
; end travel
;WIDTH:0.576
G1 F1200
G1 X90.619 Y109.586 E0.00474
G1 X90.911 Y109.454 E0.01905
G1 X91.014 Y109.43 E0.02379
G1 X139.537 Y107.843 E2.1973
G1 X139.642 Y107.86 E2.20204
G1 X139.941 Y107.972 E2.21635
G1 X140.031 Y108.028 E2.22109
G1 X140.427 Y108.399 E2.24536
G1 X140.488 Y108.485 E2.2501
G1 X140.62 Y108.776 E2.26441
G1 X140.644 Y108.879 E2.26915
G1 X141.023 Y120.464 E2.78805
G1 X141.006 Y120.568 E2.79279
G1 X140.893 Y120.867 E2.8071
G1 X140.837 Y120.957 E2.81184
G1 X140.467 Y121.353 E2.83611
G1 X140.381 Y121.415 E2.84085
G1 X140.089 Y121.546 E2.85516
G1 X139.986 Y121.57 E2.8599
G1 X91.463 Y123.157 E5.03342
G1 X91.358 Y123.14 E5.03816
G1 X91.059 Y123.028 E5.05247
G1 X90.969 Y122.972 E5.0572
G1 X90.573 Y122.601 E5.08148
G1 X90.512 Y122.515 E5.08622
G1 X90.38 Y122.224 E5.10053
G1 X90.356 Y122.121 E5.10527
G1 X89.977 Y110.536 E5.62417
G1 X89.994 Y110.432 E5.62891
G1 X90.107 Y110.133 E5.64322
G1 X90.163 Y110.043 E5.64795
G1 X90.492 Y109.691 E5.66954
G1 X90.885 Y110.058 F9000
G1 F1200
G1 X91.084 Y109.965 E5.67941
G1 X139.502 Y108.381 E7.84818
G1 X139.702 Y108.457 E7.85775
G1 X140.021 Y108.755 E7.87729
G1 X140.109 Y108.95 E7.88686
G1 X140.484 Y120.428 E8.40102
G1 X140.409 Y120.628 E8.41059
G1 X140.111 Y120.947 E8.43013
G1 X139.916 Y121.035 E8.4397
G1 X91.498 Y122.619 E10.60847
G1 X91.298 Y122.543 E10.61805
G1 X90.979 Y122.245 E10.63758
G1 X90.891 Y122.05 E10.64715
G1 X90.516 Y110.572 E11.16131
G1 X90.591 Y110.372 E11.17088
G1 X90.844 Y110.102 E11.18742
G1 X91.209 Y110.499 F9000
G1 F1200
G1 X139.413 Y108.922 E13.34662
G1 X139.575 Y109.074 E13.35659
G1 X139.592 Y109.574 E13.37899
G1 X139.944 Y120.339 E13.86118
G1 X139.791 Y120.501 E13.87114
G1 X91.587 Y122.078 E16.03035
G1 X91.425 Y121.926 E16.04031
G1 X91.056 Y110.661 E16.5449
G1 X91.168 Y110.542 E16.55218
; printing object Stringing_Extreme_Test.stl id:0 copy 0
M486 S0
G1 X91.626 Y111.042 F9000
;TYPE:External perimeter
G1 F1200
G1 X139.032 Y109.491 E18.67564
G1 X139.035 Y109.592 E18.68016
G1 X139.374 Y119.958 E19.14447
G1 X91.968 Y121.509 E21.26793
G1 X91.628 Y111.102 E21.73408
;WIPE_START
G1 X91.979 Y111.23 F9000
;WIPE_END
G1 X92.181 Y111.561
;TYPE:Internal perimeter
G1 F1200
G1 X138.512 Y110.046 E23.80942
G1 X138.819 Y119.439 E24.23014
G1 X92.488 Y120.954 E26.30548
G1 X92.182 Y111.621 E26.72351
G92 E0
; acceleration to travel
M204 S1500
G1 X126.841 Y111.407 F9000
; decel to extrusion
M204 S500
G1 X138.393 Y111.335
; end travel
;TYPE:Solid infill
;WIDTH:0.575227
G1 F1200
G1 X137.528 Y110.471 E0.05468
G1 X136.793 Y110.495 E0.0876
G1 X138.18 Y111.882 E0.17531
G1 X138.206 Y112.668 E0.21046
G1 X136.057 Y110.519 E0.34633
G1 X135.321 Y110.543 E0.37925
G1 X138.231 Y113.453 E0.56327
G1 X138.257 Y114.239 E0.59842
G1 X134.585 Y110.567 E0.8306
G1 X133.849 Y110.591 E0.86351
G1 X138.283 Y115.025 E1.14385
G1 X138.308 Y115.81 E1.17899
G1 X133.113 Y110.615 E1.50748
G1 X132.377 Y110.639 E1.54039
G1 X138.334 Y116.596 E1.91703
G1 X138.36 Y117.382 E1.95218
G1 X131.641 Y110.663 E2.37697
G1 X130.905 Y110.687 E2.40989
G1 X138.385 Y118.167 E2.88283
G1 X138.411 Y118.953 E2.91798
G1 X130.17 Y110.711 E3.43908
G1 X129.434 Y110.735 E3.472
G1 X137.778 Y119.08 E3.99962
G1 X137.043 Y119.104 E4.03254
G1 X128.698 Y110.759 E4.56016
G1 X127.962 Y110.784 E4.59308
G1 X136.307 Y119.128 E5.12071
G1 X135.571 Y119.152 E5.15363
G1 X127.226 Y110.808 E5.68125
G1 X126.49 Y110.832 E5.71417
G1 X134.835 Y119.176 E6.24179
G1 X134.099 Y119.201 E6.27471
G1 X125.754 Y110.856 E6.80233
G1 X125.018 Y110.88 E6.83525
G1 X133.363 Y119.225 E7.36288
G1 X132.627 Y119.249 E7.3958
G1 X124.282 Y110.904 E7.92342
G1 X123.547 Y110.928 E7.95634
G1 X131.891 Y119.273 E8.48396
G1 X131.155 Y119.297 E8.51688
G1 X122.811 Y110.952 E9.04451
G1 X122.075 Y110.976 E9.07742
G1 X130.42 Y119.321 E9.60505
G1 X129.684 Y119.345 E9.63797
G1 X121.339 Y111 E10.16559
G1 X120.603 Y111.024 E10.19851
G1 X128.948 Y119.369 E10.72613
G1 X128.212 Y119.393 E10.75905
G1 X119.867 Y111.048 E11.28668
G1 X119.131 Y111.072 E11.31959
G1 X127.476 Y119.417 E11.84722
G1 X126.74 Y119.441 E11.88014
G1 X118.395 Y111.096 E12.40776
G1 X117.659 Y111.121 E12.44068
G1 X126.004 Y119.465 E12.9683
G1 X125.268 Y119.489 E13.00122
G1 X116.924 Y111.145 E13.52885
G1 X116.188 Y111.169 E13.56177
G1 X124.532 Y119.513 E14.08939
G1 X123.797 Y119.538 E14.12231
G1 X115.452 Y111.193 E14.64993
G1 X114.716 Y111.217 E14.68285
G1 X123.061 Y119.562 E15.21047
G1 X122.325 Y119.586 E15.24339
G1 X113.98 Y111.241 E15.77102
G1 X113.244 Y111.265 E15.80394
G1 X121.589 Y119.61 E16.33156
G1 X120.853 Y119.634 E16.36448
G1 X112.508 Y111.289 E16.8921
G1 X111.772 Y111.313 E16.92502
G1 X120.117 Y119.658 E17.45265
G1 X119.381 Y119.682 E17.48556
G1 X111.036 Y111.337 E18.01319
G1 X110.301 Y111.361 E18.04611
G1 X118.645 Y119.706 E18.57373
G1 X117.909 Y119.73 E18.60665
G1 X109.565 Y111.385 E19.13427
G1 X108.829 Y111.409 E19.16719
G1 X117.174 Y119.754 E19.69482
G1 X116.438 Y119.778 E19.72773
G1 X108.093 Y111.433 E20.25536
G1 X107.357 Y111.457 E20.28828
G1 X115.702 Y119.802 E20.8159
G1 X114.966 Y119.826 E20.84882
G1 X106.621 Y111.482 E21.37644
G1 X105.885 Y111.506 E21.40936
G1 X114.23 Y119.85 E21.93699
G1 X113.494 Y119.874 E21.96991
G1 X105.149 Y111.53 E22.49753
G1 X104.413 Y111.554 E22.53045
G1 X112.758 Y119.899 E23.05807
G1 X112.022 Y119.923 E23.09099
G1 X103.678 Y111.578 E23.61862
G1 X102.942 Y111.602 E23.65153
G1 X111.286 Y119.947 E24.17916
G1 X110.551 Y119.971 E24.21208
G1 X102.206 Y111.626 E24.7397
G1 X101.47 Y111.65 E24.77262
G1 X109.815 Y119.995 E25.30024
G1 X109.079 Y120.019 E25.33316
G1 X100.734 Y111.674 E25.86079
G1 X99.998 Y111.698 E25.8937
G1 X108.343 Y120.043 E26.42133
G1 X107.607 Y120.067 E26.45425
G1 X99.262 Y111.722 E26.98187
G1 X98.526 Y111.746 E27.01479
G1 X106.871 Y120.091 E27.54241
G1 X106.135 Y120.115 E27.57533
G1 X97.79 Y111.77 E28.10296
G1 X97.055 Y111.794 E28.13588
G1 X105.399 Y120.139 E28.6635
G1 X104.663 Y120.163 E28.69642
G1 X96.319 Y111.818 E29.22404
G1 X95.583 Y111.843 E29.25696
G1 X103.928 Y120.187 E29.78458
G1 X103.192 Y120.211 E29.8175
G1 X94.847 Y111.867 E30.34513
G1 X94.111 Y111.891 E30.37805
G1 X102.456 Y120.235 E30.90567
G1 X101.72 Y120.26 E30.93859
G1 X93.375 Y111.915 E31.46621
G1 X92.639 Y111.939 E31.49913
G1 X100.984 Y120.284 E32.02676
G1 X100.248 Y120.308 E32.05967
G1 X92.609 Y112.669 E32.54267
G1 X92.635 Y113.454 E32.57781
G1 X99.512 Y120.332 E33.01265
G1 X98.776 Y120.356 E33.04557
G1 X92.661 Y114.24 E33.43226
G1 X92.686 Y115.026 E33.4674
G1 X98.04 Y120.38 E33.80593
G1 X97.305 Y120.404 E33.83885
G1 X92.712 Y115.811 E34.12923
G1 X92.738 Y116.597 E34.16437
G1 X96.569 Y120.428 E34.4066
G1 X95.833 Y120.452 E34.43952
G1 X92.763 Y117.383 E34.63359
G1 X92.789 Y118.168 E34.66874
G1 X95.097 Y120.476 E34.81465
G1 X94.361 Y120.5 E34.84757
G1 X92.815 Y118.954 E34.94534
G1 X92.84 Y119.74 E34.98048
G1 X93.625 Y120.524 E35.03009
G1 X92.889 Y120.548 E35.06301
G1 X92.627 Y120.286 E35.07958
M106 S84.15
;LAYER_CHANGE
;Z:0.52
;HEIGHT:0.32
;BEFORE_LAYER_CHANGE
;0.52


G92 E0
; stop printing object Stringing_Extreme_Test.stl id:0 copy 0
M486 S-1
G1 Z0.47 F9000
;AFTER_LAYER_CHANGE
;0.52
; printing object Stringing_Extreme_Test.stl id:0 copy 0
M486 S0
G1 X92.177 Y121.285
;TYPE:Internal perimeter
;WIDTH:0.476
G1 F2400
G1 X91.849 Y111.251 E0.54952
G1 X138.823 Y109.715 E3.12191
G1 X139.151 Y119.749 E3.67143
G1 X92.237 Y121.284 E6.24053
G1 X91.8 Y121.688 F9000
;TYPE:External perimeter
;WIDTH:0.428
G1 F1500
G1 X91.446 Y110.874 E6.76297
G1 X139.2 Y109.312 E9.06991
G1 X139.554 Y120.126 E9.59235
G1 X91.86 Y121.686 E11.89639
;WIPE_START
G1 X91.989 Y121.335 F9000
;WIPE_END
G92 E0
; acceleration to travel
M204 S1500
G1 X92.422 Y113.934
; decel to extrusion
M204 S500
G1 X92.573 Y111.351
; end travel
;TYPE:Solid infill
;WIDTH:0.483692
G1 F2400
G1 X92.168 Y111.757 E0.03186
G1 X92.187 Y112.324 E0.06343
G1 X92.994 Y111.516 E0.12697
G1 X93.6 Y111.496 E0.16067
G1 X92.205 Y112.891 E0.27038
G1 X92.224 Y113.458 E0.30195
G1 X94.206 Y111.476 E0.45784
G1 X94.811 Y111.456 E0.49153
G1 X92.242 Y114.025 E0.69359
G1 X92.261 Y114.593 E0.72516
G1 X95.417 Y111.437 E0.97339
G1 X96.022 Y111.417 E1.00708
G1 X92.279 Y115.16 E1.30149
G1 X92.298 Y115.727 E1.33305
G1 X96.628 Y111.397 E1.67362
G1 X97.233 Y111.377 E1.70732
G1 X92.316 Y116.294 E2.09406
G1 X92.335 Y116.861 E2.12563
G1 X97.839 Y111.357 E2.55854
G1 X98.445 Y111.338 E2.59224
G1 X92.354 Y117.429 E3.07133
G1 X92.372 Y117.996 E3.10289
G1 X99.05 Y111.318 E3.62815
G1 X99.656 Y111.298 E3.66185
G1 X92.391 Y118.563 E4.23328
G1 X92.409 Y119.13 E4.26484
G1 X100.261 Y111.278 E4.88245
G1 X100.867 Y111.258 E4.91614
G1 X92.428 Y119.697 E5.57992
G1 X92.446 Y120.265 E5.61148
G1 X101.472 Y111.239 E6.32143
G1 X102.078 Y111.219 E6.35512
G1 X92.465 Y120.832 E7.11124
G1 X92.47 Y120.973 E7.11911
G1 X92.924 Y120.959 E7.14441
G1 X102.684 Y111.199 E7.91204
G1 X103.289 Y111.179 E7.94574
G1 X93.53 Y120.939 E8.71337
G1 X94.135 Y120.919 E8.74707
G1 X103.895 Y111.159 E9.51471
G1 X104.5 Y111.14 E9.5484
G1 X94.741 Y120.899 E10.31604
G1 X95.346 Y120.879 E10.34974
G1 X105.106 Y111.12 E11.11737
G1 X105.711 Y111.1 E11.15107
G1 X95.952 Y120.86 E11.9187
G1 X96.557 Y120.84 E11.9524
G1 X106.317 Y111.08 E12.72003
G1 X106.922 Y111.06 E12.75373
G1 X97.163 Y120.82 E13.52137
G1 X97.769 Y120.8 E13.55506
G1 X107.528 Y111.041 E14.3227
G1 X108.134 Y111.021 E14.3564
G1 X98.374 Y120.78 E15.12403
G1 X98.98 Y120.76 E15.15773
G1 X108.739 Y111.001 E15.92536
G1 X109.345 Y110.981 E15.95906
G1 X99.585 Y120.741 E16.7267
G1 X100.191 Y120.721 E16.76039
G1 X109.95 Y110.961 E17.52803
G1 X110.556 Y110.942 E17.56173
G1 X100.796 Y120.701 E18.32936
G1 X101.402 Y120.681 E18.36306
G1 X111.161 Y110.922 E19.13069
G1 X111.767 Y110.902 E19.16439
G1 X102.007 Y120.661 E19.93203
G1 X102.613 Y120.642 E19.96572
G1 X112.373 Y110.882 E20.73336
G1 X112.978 Y110.862 E20.76706
G1 X103.219 Y120.622 E21.53469
G1 X103.824 Y120.602 E21.56839
G1 X113.584 Y110.843 E22.33602
G1 X114.189 Y110.823 E22.36972
G1 X104.43 Y120.582 E23.13735
G1 X105.035 Y120.562 E23.17105
G1 X114.795 Y110.803 E23.93869
G1 X115.4 Y110.783 E23.97239
G1 X105.641 Y120.543 E24.74002
G1 X106.246 Y120.523 E24.77372
G1 X116.006 Y110.763 E25.54135
G1 X116.612 Y110.743 E25.57505
G1 X106.852 Y120.503 E26.34268
G1 X107.458 Y120.483 E26.37638
G1 X117.217 Y110.724 E27.14402
G1 X117.823 Y110.704 E27.17771
G1 X108.063 Y120.463 E27.94535
G1 X108.669 Y120.444 E27.97905
G1 X118.428 Y110.684 E28.74668
G1 X119.034 Y110.664 E28.78038
G1 X109.274 Y120.424 E29.54801
G1 X109.88 Y120.404 E29.58171
G1 X119.639 Y110.644 E30.34935
G1 X120.245 Y110.625 E30.38304
G1 X110.485 Y120.384 E31.15068
G1 X111.091 Y120.364 E31.18438
G1 X120.85 Y110.605 E31.95201
G1 X121.456 Y110.585 E31.98571
G1 X111.697 Y120.345 E32.75334
G1 X112.302 Y120.325 E32.78704
G1 X122.062 Y110.565 E33.55468
G1 X122.667 Y110.545 E33.58837
G1 X112.908 Y120.305 E34.35601
G1 X113.513 Y120.285 E34.38971
G1 X123.273 Y110.526 E35.15734
G1 X123.878 Y110.506 E35.19104
G1 X114.119 Y120.265 E35.95867
G1 X114.724 Y120.246 E35.99237
G1 X124.484 Y110.486 E36.76
G1 X125.089 Y110.466 E36.7937
G1 X115.33 Y120.226 E37.56134
G1 X115.935 Y120.206 E37.59503
G1 X125.695 Y110.446 E38.36267
G1 X126.301 Y110.427 E38.39637
G1 X116.541 Y120.186 E39.164
G1 X117.147 Y120.166 E39.1977
G1 X126.906 Y110.407 E39.96533
G1 X127.512 Y110.387 E39.99903
G1 X117.752 Y120.147 E40.76667
G1 X118.358 Y120.127 E40.80036
G1 X128.117 Y110.367 E41.568
G1 X128.723 Y110.347 E41.6017
G1 X118.963 Y120.107 E42.36933
G1 X119.569 Y120.087 E42.40303
G1 X129.328 Y110.328 E43.17066
G1 X129.934 Y110.308 E43.20436
G1 X120.174 Y120.067 E43.972
G1 X120.78 Y120.047 E44.00569
G1 X130.54 Y110.288 E44.77333
G1 X131.145 Y110.268 E44.80703
G1 X121.386 Y120.028 E45.57466
G1 X121.991 Y120.008 E45.60836
G1 X131.751 Y110.248 E46.37599
G1 X132.356 Y110.229 E46.40969
G1 X122.597 Y119.988 E47.17732
G1 X123.202 Y119.968 E47.21102
G1 X132.962 Y110.209 E47.97866
G1 X133.567 Y110.189 E48.01235
G1 X123.808 Y119.948 E48.77999
G1 X124.413 Y119.929 E48.81369
G1 X134.173 Y110.169 E49.58132
G1 X134.778 Y110.149 E49.61502
G1 X125.019 Y119.909 E50.38265
G1 X125.624 Y119.889 E50.41635
G1 X135.384 Y110.13 E51.18399
G1 X135.99 Y110.11 E51.21768
G1 X126.23 Y119.869 E51.98532
G1 X126.836 Y119.849 E52.01902
G1 X136.595 Y110.09 E52.78665
G1 X137.201 Y110.07 E52.82035
G1 X127.441 Y119.83 E53.58798
G1 X128.047 Y119.81 E53.62168
G1 X137.806 Y110.05 E54.38932
G1 X138.412 Y110.03 E54.42301
G1 X128.652 Y119.79 E55.19065
G1 X129.258 Y119.77 E55.22435
G1 X138.545 Y110.483 E55.95486
G1 X138.564 Y111.05 E55.98642
G1 X129.863 Y119.75 E56.67076
G1 X130.469 Y119.731 E56.70446
G1 X138.583 Y111.617 E57.34262
G1 X138.601 Y112.184 E57.37419
G1 X131.075 Y119.711 E57.96618
G1 X131.68 Y119.691 E57.99988
G1 X138.62 Y112.751 E58.5457
G1 X138.638 Y113.319 E58.57727
G1 X132.286 Y119.671 E59.07692
G1 X132.891 Y119.651 E59.11062
G1 X138.657 Y113.886 E59.5641
G1 X138.675 Y114.453 E59.59566
G1 X133.497 Y119.632 E60.00297
G1 X134.102 Y119.612 E60.03667
G1 X138.694 Y115.02 E60.3978
G1 X138.712 Y115.588 E60.42937
G1 X134.708 Y119.592 E60.74433
G1 X135.314 Y119.572 E60.77803
G1 X138.731 Y116.155 E61.04683
G1 X138.749 Y116.722 E61.07839
G1 X135.919 Y119.552 E61.30101
G1 X136.525 Y119.533 E61.33471
G1 X138.768 Y117.289 E61.51116
G1 X138.787 Y117.856 E61.54273
G1 X137.13 Y119.513 E61.67301
G1 X137.736 Y119.493 E61.7067
G1 X138.805 Y118.424 E61.79081
G1 X138.824 Y118.991 E61.82238
G1 X138.157 Y119.657 E61.8748
M106 S170.85
;LAYER_CHANGE
;Z:0.84
;HEIGHT:0.32
;BEFORE_LAYER_CHANGE
;0.84


G92 E0
; stop printing object Stringing_Extreme_Test.stl id:0 copy 0
M486 S-1
G1 Z0.79 F9000
;AFTER_LAYER_CHANGE
;0.84
; printing object Stringing_Extreme_Test.stl id:0 copy 0
M486 S0
G1 X139.151 Y119.749
;TYPE:Internal perimeter
;WIDTH:0.476
G1 F2400
G1 X92.177 Y121.285 E2.57239
G1 X91.849 Y111.251 E3.12191
G1 X138.823 Y109.715 E5.6943
G1 X139.149 Y119.689 E6.24053
G1 X139.554 Y120.126 F9000
