; generated by SuperSlicer 2.4 on 2022-12-21 at 18:53:56 UTC

; 

; external perimeters extrusion width = 0.43mm
; perimeters extrusion width = 0.48mm
; infill extrusion width = 0.46mm
; solid infill extrusion width = 0.48mm
; top infill extrusion width = 0.46mm
; first layer extrusion width = 0.58mm

; object:{"name":"Stringing_sdfTest","id":"Stringing_sdfTest.stl id:0 copy 0","object_center":[115.500000,115.500000,0.000000],"boundingbox_center":[115.500000,115.500000,9.410573],"boundingbox_size":[30.000000,30.000000,18.821147]}
; Total objects to print: 1
M486 T1
; plater:{"center":[115.500000,115.500000,0.000000],"boundingbox_center":[115.500000,115.500000,9.410573],"boundingbox_size":[30.000000,30.000000,18.821147]}

;TYPE:Custom
G90 ; use absolute coordinates
M83 ; extruder relative mode
M140 S60 ; set final bed temp
M104 S150 ; set temporary nozzle temp to prevent oozing during homing and auto bed leveling
G4 S10 ; allow partial nozzle warmup
G28 ; home all axis
;G29 ; auto bed levelling
G1 Z10 F240
G1 X2 Y10 F3000
G1 Z0 F240
M104 S210 ; set final nozzle temp
M190 S60 ; wait for bed temp to stabilize
M109 S210 ; wait for nozzle temp to stabilize
G1 Z0.28 F240
G92 E0
G1 Y140 E10 F1500 ; prime the nozzle
G1 X2.3 F5000
G92 E0
G1 Y10 E10 F1200 ; prime the nozzle
G92 E0
;start
M107
G21 ; set units to millimeters
G90 ; use absolute coordinates
M82 ; use absolute distances for extrusion
G92 E0
; Filament gcode
;_TOOLCHANGE 0
M107
;LAYER_CHANGE
;Z:0.2
;HEIGHT:0.2
;BEFORE_LAYER_CHANGE
;0.2


G1 Z0.15 F9000
;AFTER_LAYER_CHANGE
;0.2
M204 S500
G1 X96.86 Y95.892
;TYPE:Skirt
;WIDTH:0.48
G1 F1200
G1 X95.775 Y97.057 E0.05844
G1 X95.381 Y98.6 E0.11688
G1 X95.381 Y132.4 E1.35757
G1 X95.892 Y134.14 E1.42413
G1 X97.057 Y135.225 E1.48257
G1 X98.6 Y135.619 E1.54101
G1 X132.4 Y135.619 E2.7817
G1 X134.14 Y135.108 E2.84825
G1 X135.225 Y133.943 E2.90669
G1 X135.619 Y132.4 E2.96514
G1 X135.619 Y98.6 E4.20582
G1 X135.108 Y96.86 E4.27238
G1 X133.943 Y95.775 E4.33082
G1 X132.4 Y95.381 E4.38926
G1 X98.6 Y95.381 E5.62995
G1 X96.918 Y95.875 E5.6943
G92 E0
; acceleration to travel
M204 S1500
G1 X99.111 Y98.563 F9000
; decel to extrusion
M204 S500
G1 X99.842 Y99.458
; end travel
;WIDTH:0.576
G1 F1200
G1 X99.93 Y99.4 E0.00474
G1 X100.225 Y99.277 E0.01905
G1 X100.329 Y99.257 E0.02379
G1 X130.671 Y99.257 E1.38218
G1 X130.775 Y99.277 E1.38692
G1 X131.07 Y99.4 E1.40123
G1 X131.158 Y99.458 E1.40597
G1 X131.542 Y99.842 E1.43024
G1 X131.6 Y99.93 E1.43498
G1 X131.723 Y100.225 E1.44929
G1 X131.743 Y100.329 E1.45403
G1 X131.743 Y130.671 E2.81242
G1 X131.723 Y130.775 E2.81716
G1 X131.6 Y131.07 E2.83147
G1 X131.542 Y131.158 E2.83621
G1 X131.158 Y131.542 E2.86048
G1 X131.07 Y131.6 E2.86522
G1 X130.775 Y131.723 E2.87953
G1 X130.671 Y131.743 E2.88427
G1 X100.329 Y131.743 E4.24266
G1 X100.225 Y131.723 E4.2474
G1 X99.93 Y131.6 E4.26171
G1 X99.842 Y131.542 E4.26645
G1 X99.458 Y131.158 E4.29073
G1 X99.4 Y131.07 E4.29546
G1 X99.277 Y130.775 E4.30977
G1 X99.257 Y130.671 E4.31451
G1 X99.257 Y100.329 E5.6729
G1 X99.277 Y100.225 E5.67764
G1 X99.4 Y99.93 E5.69195
G1 X99.458 Y99.842 E5.69669
G1 X99.799 Y99.501 E5.71828
G1 X100.179 Y99.881 F9000
G1 F1200
G1 X100.382 Y99.794 E5.72814
G1 X130.618 Y99.794 E7.0818
G1 X130.816 Y99.876 E7.09137
G1 X131.124 Y100.184 E7.1109
G1 X131.206 Y100.382 E7.12047
G1 X131.206 Y130.618 E8.47413
G1 X131.124 Y130.816 E8.4837
G1 X130.816 Y131.124 E8.50323
G1 X130.618 Y131.206 E8.51281
G1 X100.382 Y131.206 E9.86646
G1 X100.184 Y131.124 E9.87603
G1 X99.876 Y130.816 E9.89556
G1 X99.794 Y130.618 E9.90514
G1 X99.794 Y100.382 E11.25879
G1 X99.876 Y100.184 E11.26836
G1 X100.137 Y99.923 E11.28489
G1 X100.489 Y100.331 F9000
G1 F1200
G1 X130.511 Y100.331 E12.62897
G1 X130.669 Y100.489 E12.63894
G1 X130.669 Y130.511 E13.98302
G1 X130.511 Y130.669 E13.99299
G1 X100.489 Y130.669 E15.33707
G1 X100.331 Y130.511 E15.34703
G1 X100.331 Y100.489 E16.69112
G1 X100.446 Y100.374 E16.6984
; printing object Stringing_sdfTest.stl id:0 copy 0
M486 S0
G1 X100.888 Y100.888 F9000
;TYPE:External perimeter
G1 F1200
G1 X130.112 Y100.888 E18.00673
G1 X130.112 Y130.112 E19.31506
G1 X100.888 Y130.112 E20.62338
G1 X100.888 Y100.948 E21.92903
;WIPE_START
G1 X101.234 Y101.088 F9000
;WIPE_END
G1 X101.425 Y101.425
;TYPE:Internal perimeter
G1 F1200
G1 X129.575 Y101.425 E23.18924
G1 X129.575 Y129.575 E24.44946
G1 X101.425 Y129.575 E25.70967
G1 X101.425 Y101.485 E26.9672
G92 E0
; acceleration to travel
M204 S1500
G1 X121.602 Y101.561 F9000
; decel to extrusion
M204 S500
G1 X128.327 Y101.587
; end travel
;TYPE:Solid infill
;WIDTH:0.577721
G1 F1200
G1 X129.182 Y102.442 E0.05431
G1 X129.182 Y103.202 E0.08843
G1 X127.798 Y101.818 E0.17632
G1 X127.038 Y101.818 E0.21045
G1 X129.182 Y103.962 E0.3466
G1 X129.182 Y104.722 E0.38072
G1 X126.278 Y101.818 E0.56513
G1 X125.518 Y101.818 E0.59926
G1 X129.182 Y105.482 E0.83193
G1 X129.182 Y106.242 E0.86605
G1 X124.758 Y101.818 E1.14698
G1 X123.998 Y101.818 E1.1811
G1 X129.182 Y107.002 E1.51029
G1 X129.182 Y107.761 E1.54442
G1 X123.239 Y101.818 E1.92186
G1 X122.479 Y101.818 E1.95599
G1 X129.182 Y108.521 E2.38169
G1 X129.182 Y109.281 E2.41581
G1 X121.719 Y101.818 E2.88978
G1 X120.959 Y101.818 E2.9239
G1 X129.182 Y110.041 E3.44613
G1 X129.182 Y110.801 E3.48025
G1 X120.199 Y101.818 E4.05073
G1 X119.439 Y101.818 E4.08486
G1 X129.182 Y111.561 E4.7036
G1 X129.182 Y112.321 E4.73772
G1 X118.679 Y101.818 E5.40472
G1 X117.919 Y101.818 E5.43884
G1 X129.182 Y113.081 E6.1541
G1 X129.182 Y113.841 E6.18823
G1 X117.159 Y101.818 E6.95175
G1 X116.399 Y101.818 E6.98587
G1 X129.182 Y114.601 E7.79765
G1 X129.182 Y115.361 E7.83177
G1 X115.639 Y101.818 E8.69181
G1 X114.879 Y101.818 E8.72593
G1 X129.182 Y116.121 E9.63422
G1 X129.182 Y116.881 E9.66835
G1 X114.119 Y101.818 E10.6249
G1 X113.359 Y101.818 E10.65903
G1 X129.182 Y117.641 E11.66384
G1 X129.182 Y118.401 E11.69796
G1 X112.599 Y101.818 E12.75103
G1 X111.839 Y101.818 E12.78516
G1 X129.182 Y119.161 E13.88649
G1 X129.182 Y119.921 E13.92061
G1 X111.079 Y101.818 E15.0702
G1 X110.319 Y101.818 E15.10432
G1 X129.182 Y120.681 E16.30217
G1 X129.182 Y121.441 E16.3363
G1 X109.559 Y101.818 E17.5824
G1 X108.799 Y101.818 E17.61653
G1 X129.182 Y122.201 E18.91089
G1 X129.182 Y122.961 E18.94502
G1 X108.039 Y101.818 E20.28764
G1 X107.279 Y101.818 E20.32177
G1 X129.182 Y123.721 E21.71265
G1 X129.182 Y124.481 E21.74677
G1 X106.519 Y101.818 E23.18592
G1 X105.76 Y101.818 E23.22004
G1 X129.182 Y125.24 E24.70744
G1 X129.182 Y126 E24.74157
G1 X105 Y101.818 E26.27723
G1 X104.24 Y101.818 E26.31135
G1 X129.182 Y126.76 E27.89527
G1 X129.182 Y127.52 E27.9294
G1 X103.48 Y101.818 E29.56157
G1 X102.72 Y101.818 E29.5957
G1 X129.182 Y128.28 E31.27614
G1 X129.182 Y129.04 E31.31026
G1 X101.96 Y101.818 E33.03896
G1 X101.818 Y101.818 E33.04534
G1 X101.818 Y102.435 E33.07308
G1 X128.565 Y129.182 E34.77156
G1 X127.805 Y129.182 E34.80569
G1 X101.818 Y103.195 E36.45591
G1 X101.818 Y103.955 E36.49004
G1 X127.045 Y129.182 E38.09201
G1 X126.285 Y129.182 E38.12613
G1 X101.818 Y104.715 E39.67984
G1 X101.818 Y105.475 E39.71396
G1 X125.525 Y129.182 E41.21941
G1 X124.765 Y129.182 E41.25354
G1 X101.818 Y106.235 E42.71073
G1 X101.818 Y106.995 E42.74485
G1 X124.005 Y129.182 E44.15378
G1 X123.245 Y129.182 E44.1879
G1 X101.818 Y107.755 E45.54858
G1 X101.818 Y108.515 E45.5827
G1 X122.485 Y129.182 E46.89511
G1 X121.725 Y129.182 E46.92924
G1 X101.818 Y109.275 E48.19339
G1 X101.818 Y110.035 E48.22752
G1 X120.965 Y129.182 E49.44341
G1 X120.205 Y129.182 E49.47754
G1 X101.818 Y110.795 E50.64517
G1 X101.818 Y111.555 E50.6793
G1 X119.445 Y129.182 E51.79867
G1 X118.685 Y129.182 E51.8328
G1 X101.818 Y112.315 E52.90392
G1 X101.818 Y113.075 E52.93804
G1 X117.925 Y129.182 E53.9609
G1 X117.165 Y129.182 E53.99502
G1 X101.818 Y113.835 E54.96963
G1 X101.818 Y114.595 E55.00375
G1 X116.405 Y129.182 E55.93009
G1 X115.645 Y129.182 E55.96422
G1 X101.818 Y115.355 E56.8423
G1 X101.818 Y116.115 E56.87642
G1 X114.885 Y129.182 E57.70625
G1 X114.125 Y129.182 E57.74037
G1 X101.818 Y116.875 E58.52194
G1 X101.818 Y117.635 E58.55606
G1 X113.365 Y129.182 E59.28937
G1 X112.605 Y129.182 E59.32349
G1 X101.818 Y118.395 E60.00854
G1 X101.818 Y119.155 E60.04266
G1 X111.845 Y129.182 E60.67945
G1 X111.085 Y129.182 E60.71357
G1 X101.818 Y119.915 E61.3021
G1 X101.818 Y120.674 E61.33623
G1 X110.326 Y129.182 E61.8765
G1 X109.566 Y129.182 E61.91062
G1 X101.818 Y121.434 E62.40263
G1 X101.818 Y122.194 E62.43676
G1 X108.806 Y129.182 E62.88051
G1 X108.046 Y129.182 E62.91463
G1 X101.818 Y122.954 E63.31013
G1 X101.818 Y123.714 E63.34425
G1 X107.286 Y129.182 E63.69148
G1 X106.526 Y129.182 E63.72561
G1 X101.818 Y124.474 E64.02458
G1 X101.818 Y125.234 E64.05871
G1 X105.766 Y129.182 E64.30943
G1 X105.006 Y129.182 E64.34355
G1 X101.818 Y125.994 E64.54601
G1 X101.818 Y126.754 E64.58013
G1 X104.246 Y129.182 E64.73433
G1 X103.486 Y129.182 E64.76845
G1 X101.818 Y127.514 E64.87439
G1 X101.818 Y128.274 E64.90852
G1 X102.726 Y129.182 E64.9662
G1 X101.966 Y129.182 E65.00032
G1 X101.587 Y128.803 E65.02442
M106 S84.15
;LAYER_CHANGE
;Z:0.52
;HEIGHT:0.32
;BEFORE_LAYER_CHANGE
;0.52


G92 E0
; stop printing object Stringing_sdfTest.stl id:0 copy 0
M486 S-1
G1 Z0.47 F9000
;AFTER_LAYER_CHANGE
;0.52
; printing object Stringing_sdfTest.stl id:0 copy 0
M486 S0
G1 X101.104 Y129.896
;TYPE:Internal perimeter
;WIDTH:0.476
G1 F2400
G1 X101.104 Y101.104 E1.57585
G1 X129.896 Y101.104 E3.1517
G1 X129.896 Y129.896 E4.72755
G1 X101.164 Y129.896 E6.30012
G1 X100.714 Y130.286 F9000
;TYPE:External perimeter
;WIDTH:0.428
G1 F1500
G1 X100.714 Y100.714 E7.72795
G1 X130.286 Y100.714 E9.15578
G1 X130.286 Y130.286 E10.58361
G1 X100.774 Y130.286 E12.00854
;WIPE_START
G1 X100.914 Y129.94 F9000
;WIPE_END
G92 E0
; acceleration to travel
M204 S1500
G1 X121.687 Y129.815
; decel to extrusion
M204 S500
G1 X128.934 Y129.772
; end travel
;TYPE:Solid infill
;WIDTH:0.483849
G1 F2400
G1 X129.593 Y129.112 E0.05187
G1 X129.593 Y128.527 E0.08445
G1 X128.527 Y129.593 E0.16839
G1 X127.941 Y129.593 E0.20098
G1 X129.593 Y127.941 E0.33101
G1 X129.593 Y127.355 E0.3636
G1 X127.355 Y129.593 E0.53971
G1 X126.769 Y129.593 E0.5723
G1 X129.593 Y126.769 E0.79451
G1 X129.593 Y126.184 E0.82709
G1 X126.184 Y129.593 E1.09539
G1 X125.598 Y129.593 E1.12797
G1 X129.593 Y125.598 E1.44235
G1 X129.593 Y125.012 E1.47494
G1 X125.012 Y129.593 E1.83541
G1 X124.426 Y129.593 E1.868
G1 X129.593 Y124.426 E2.27455
G1 X129.593 Y123.841 E2.30714
G1 X123.841 Y129.593 E2.75978
G1 X123.255 Y129.593 E2.79237
G1 X129.593 Y123.255 E3.2911
G1 X129.593 Y122.669 E3.32369
G1 X122.669 Y129.593 E3.8685
G1 X122.083 Y129.593 E3.90109
G1 X129.593 Y122.083 E4.492
G1 X129.593 Y121.498 E4.52459
G1 X121.498 Y129.593 E5.16158
G1 X120.912 Y129.593 E5.19417
G1 X129.593 Y120.912 E5.87725
G1 X129.593 Y120.326 E5.90984
G1 X120.326 Y129.593 E6.63901
G1 X119.74 Y129.593 E6.67159
G1 X129.593 Y119.74 E7.44685
G1 X129.593 Y119.154 E7.47944
G1 X119.154 Y129.593 E8.30078
G1 X118.569 Y129.593 E8.33337
G1 X129.593 Y118.569 E9.2008
G1 X129.593 Y117.983 E9.23339
G1 X117.983 Y129.593 E10.14691
G1 X117.397 Y129.593 E10.1795
G1 X129.593 Y117.397 E11.13911
G1 X129.593 Y116.811 E11.17169
G1 X116.811 Y129.593 E12.17739
G1 X116.226 Y129.593 E12.20998
G1 X129.593 Y116.226 E13.26176
G1 X129.593 Y115.64 E13.29435
G1 X115.64 Y129.593 E14.39222
G1 X115.054 Y129.593 E14.42481
G1 X129.593 Y115.054 E15.56877
G1 X129.593 Y114.468 E15.60135
G1 X114.468 Y129.593 E16.7914
G1 X113.883 Y129.593 E16.82399
G1 X129.593 Y113.883 E18.06012
G1 X129.593 Y113.297 E18.09271
G1 X113.297 Y129.593 E19.37493
G1 X112.711 Y129.593 E19.40752
G1 X129.593 Y112.711 E20.73583
G1 X129.593 Y112.125 E20.76842
G1 X112.125 Y129.593 E22.14281
G1 X111.54 Y129.593 E22.1754
G1 X129.593 Y111.54 E23.59589
G1 X129.593 Y110.954 E23.62848
G1 X110.954 Y129.593 E25.09505
G1 X110.368 Y129.593 E25.12764
G1 X129.593 Y110.368 E26.6403
G1 X129.593 Y109.782 E26.67288
G1 X109.782 Y129.593 E28.23163
G1 X109.197 Y129.593 E28.26422
G1 X129.593 Y109.197 E29.86906
G1 X129.593 Y108.611 E29.90164
G1 X108.611 Y129.593 E31.55257
G1 X108.025 Y129.593 E31.58516
G1 X129.593 Y108.025 E33.28217
G1 X129.593 Y107.439 E33.31476
G1 X107.439 Y129.593 E35.05785
G1 X106.854 Y129.593 E35.09044
G1 X129.593 Y106.854 E36.87963
G1 X129.593 Y106.268 E36.91222
G1 X106.268 Y129.593 E38.74749
G1 X105.682 Y129.593 E38.78008
G1 X129.593 Y105.682 E40.66144
G1 X129.593 Y105.096 E40.69403
G1 X105.096 Y129.593 E42.62148
G1 X104.51 Y129.593 E42.65407
G1 X129.593 Y104.511 E44.62761
G1 X129.593 Y103.925 E44.66019
G1 X103.925 Y129.593 E46.67982
G1 X103.339 Y129.593 E46.71241
G1 X129.593 Y103.339 E48.77812
G1 X129.593 Y102.753 E48.81071
G1 X102.753 Y129.593 E50.92251
G1 X102.167 Y129.593 E50.9551
G1 X129.593 Y102.167 E53.11299
G1 X129.593 Y101.582 E53.14558
G1 X101.582 Y129.593 E55.34955
G1 X101.407 Y129.593 E55.3593
G1 X101.407 Y129.183 E55.38214
G1 X129.183 Y101.407 E57.56759
G1 X128.597 Y101.407 E57.60018
G1 X101.407 Y128.597 E59.73954
G1 X101.407 Y128.011 E59.77213
G1 X128.011 Y101.407 E61.86541
G1 X127.426 Y101.407 E61.898
G1 X101.407 Y127.426 E63.94519
G1 X101.407 Y126.84 E63.97778
G1 X126.84 Y101.407 E65.97888
G1 X126.254 Y101.407 E66.01146
G1 X101.407 Y126.254 E67.96648
G1 X101.407 Y125.668 E67.99907
G1 X125.668 Y101.407 E69.90799
G1 X125.083 Y101.407 E69.94058
G1 X101.407 Y125.083 E71.80342
G1 X101.407 Y124.497 E71.83601
G1 X124.497 Y101.407 E73.65276
G1 X123.911 Y101.407 E73.68535
G1 X101.407 Y123.911 E75.45601
G1 X101.407 Y123.325 E75.4886
G1 X123.325 Y101.407 E77.21317
G1 X122.74 Y101.407 E77.24576
G1 X101.407 Y122.74 E78.92425
G1 X101.407 Y122.154 E78.95684
G1 X122.154 Y101.407 E80.58923
G1 X121.568 Y101.407 E80.62182
G1 X101.407 Y121.568 E82.20813
G1 X101.407 Y120.982 E82.24072
G1 X120.982 Y101.407 E83.78095
G1 X120.396 Y101.407 E83.81354
G1 X101.407 Y120.396 E85.30767
G1 X101.407 Y119.811 E85.34026
G1 X119.811 Y101.407 E86.78831
G1 X119.225 Y101.407 E86.8209
G1 X101.407 Y119.225 E88.22286
G1 X101.407 Y118.639 E88.25545
G1 X118.639 Y101.407 E89.61132
G1 X118.053 Y101.407 E89.64391
G1 X101.407 Y118.053 E90.95369
G1 X101.407 Y117.468 E90.98628
G1 X117.468 Y101.407 E92.24998
G1 X116.882 Y101.407 E92.28257
G1 X101.407 Y116.882 E93.50018
G1 X101.407 Y116.296 E93.53276
G1 X116.296 Y101.407 E94.70429
G1 X115.71 Y101.407 E94.73687
G1 X101.407 Y115.71 E95.86231
G1 X101.407 Y115.125 E95.8949
G1 X115.125 Y101.407 E96.97424
G1 X114.539 Y101.407 E97.00683
G1 X101.407 Y114.539 E98.04009
G1 X101.407 Y113.953 E98.07268
G1 X113.953 Y101.407 E99.05985
G1 X113.367 Y101.407 E99.09244
G1 X101.407 Y113.367 E100.03352
G1 X101.407 Y112.782 E100.06611
G1 X112.782 Y101.407 E100.9611
G1 X112.196 Y101.407 E100.99369
G1 X101.407 Y112.196 E101.8426
G1 X101.407 Y111.61 E101.87519
G1 X111.61 Y101.407 E102.67801
G1 X111.024 Y101.407 E102.7106
G1 X101.407 Y111.024 E103.46733
G1 X101.407 Y110.439 E103.49992
G1 X110.439 Y101.407 E104.21056
G1 X109.853 Y101.407 E104.24315
G1 X101.407 Y109.853 E104.90771
G1 X101.407 Y109.267 E104.9403
G1 X109.267 Y101.407 E105.55877
G1 X108.681 Y101.407 E105.59135
G1 X101.407 Y108.681 E106.16373
G1 X101.407 Y108.096 E106.19632
G1 X108.096 Y101.407 E106.72262
G1 X107.51 Y101.407 E106.75521
G1 X101.407 Y107.51 E107.23541
G1 X101.407 Y106.924 E107.268
G1 X106.924 Y101.407 E107.70212
G1 X106.338 Y101.407 E107.73471
G1 X101.407 Y106.338 E108.12274
G1 X101.407 Y105.753 E108.15533
G1 X105.753 Y101.407 E108.49727
G1 X105.167 Y101.407 E108.52986
G1 X101.407 Y105.167 E108.82571
G1 X101.407 Y104.581 E108.8583
G1 X104.581 Y101.407 E109.10807
G1 X103.995 Y101.407 E109.14065
G1 X101.407 Y103.995 E109.34433
G1 X101.407 Y103.409 E109.37692
G1 X103.409 Y101.407 E109.53451
G1 X102.824 Y101.407 E109.5671
G1 X101.407 Y102.824 E109.67861
G1 X101.407 Y102.238 E109.71119
G1 X102.238 Y101.407 E109.77661
G1 X101.652 Y101.407 E109.8092
G1 X101.228 Y101.83 E109.84254
M106 S170.85
;LAYER_CHANGE
;Z:0.84
;HEIGHT:0.32
;BEFORE_LAYER_CHANGE
;0.84


G92 E0
; stop printing object Stringing_sdfTest.stl id:0 copy 0
M486 S-1
G1 Z0.79 F9000
;AFTER_LAYER_CHANGE
;0.84
; printing object Stringing_sdfTest.stl id:0 copy 0
M486 S0
G1 X101.104 Y101.104
