; generated by SuperSlicer 2.4 on 2022-12-21 at 18:54:15 UTC

; 

; external perimeters extrusion width = 0.43mm
; perimeters extrusion width = 0.48mm
; infill extrusion width = 0.46mm
; solid infill extrusion width = 0.48mm
; top infill extrusion width = 0.46mm
; first layer extrusion width = 0.58mm

; object:{"name":"Stringing_Testingfff","id":"Stringing_Testingfff.stl id:0 copy 0","object_center":[115.501171,115.497557,0.000000],"boundingbox_center":[115.501171,115.497557,17.723075],"boundingbox_size":[44.678456,28.262094,35.446151]}
; Total objects to print: 1
M486 T1
; plater:{"center":[115.501171,115.497557,0.000000],"boundingbox_center":[115.501171,115.497557,17.723075],"boundingbox_size":[44.678456,28.262094,35.446151]}

;TYPE:Custom
G90 ; use absolute coordinates
M83 ; extruder relative mode
M140 S60 ; set final bed temp
M104 S150 ; set temporary nozzle temp to prevent oozing during homing and auto bed leveling
G4 S10 ; allow partial nozzle warmup
G28 ; home all axis
;G29 ; auto bed levelling
G1 Z10 F240
G1 X2 Y10 F3000
G1 Z0 F240
M104 S210 ; set final nozzle temp
M190 S60 ; wait for bed temp to stabilize
M109 S210 ; wait for nozzle temp to stabilize
G1 Z0.28 F240
G92 E0
G1 Y140 E10 F1500 ; prime the nozzle
G1 X2.3 F5000
G92 E0
G1 Y10 E10 F1200 ; prime the nozzle
G92 E0
;start
M107
G21 ; set units to millimeters
G90 ; use absolute coordinates
M82 ; use absolute distances for extrusion
G92 E0
; Filament gcode
;_TOOLCHANGE 0
M107
;LAYER_CHANGE
;Z:0.2
;HEIGHT:0.2
;BEFORE_LAYER_CHANGE
;0.2


G1 Z0.15 F9000
;AFTER_LAYER_CHANGE
;0.2
M204 S500
G1 X96.912 Y96.786
;TYPE:Skirt
;WIDTH:0.48
G1 F1200
G1 X95.828 Y97.952 E0.05844
G1 X95.435 Y99.495 E0.11688
G1 X95.457 Y131.532 E1.29287
G1 X95.969 Y133.271 E1.35943
G1 X97.134 Y134.356 E1.41787
G1 X98.677 Y134.748 E1.47631
G1 X139.744 Y134.721 E2.98373
G1 X141.483 Y134.209 E3.05029
G1 X142.567 Y133.044 E3.10873
G1 X142.96 Y131.501 E3.16717
G1 X142.939 Y99.463 E4.34316
G1 X142.427 Y97.724 E4.40972
G1 X141.261 Y96.639 E4.46816
G1 X139.718 Y96.247 E4.5266
G1 X98.652 Y96.274 E6.03402
G1 X96.97 Y96.769 E6.09837
G92 E0
; acceleration to travel
M204 S1500
G1 X99.165 Y99.455 F9000
; decel to extrusion
M204 S500
G1 X99.896 Y100.35
; end travel
;WIDTH:0.576
G1 F1200
G1 X99.984 Y100.291 E0.00474
G1 X100.28 Y100.169 E0.01905
G1 X100.383 Y100.148 E0.02379
G1 X137.992 Y100.123 E1.70749
G1 X138.096 Y100.144 E1.71223
G1 X138.391 Y100.266 E1.72654
G1 X138.479 Y100.324 E1.73128
G1 X138.863 Y100.708 E1.75556
G1 X138.922 Y100.796 E1.76029
G1 X139.044 Y101.091 E1.7746
G1 X139.065 Y101.195 E1.77934
G1 X139.084 Y129.774 E3.05883
G1 X139.063 Y129.878 E3.06357
G1 X138.941 Y130.173 E3.07788
G1 X138.882 Y130.262 E3.08262
G1 X138.499 Y130.645 E3.10689
G1 X138.411 Y130.704 E3.11163
G1 X138.116 Y130.827 E3.12594
G1 X138.012 Y130.847 E3.13068
G1 X100.404 Y130.872 E4.81438
G1 X100.3 Y130.852 E4.81912
G1 X100.004 Y130.729 E4.83343
G1 X99.916 Y130.671 E4.83817
G1 X99.533 Y130.288 E4.86245
G1 X99.474 Y130.2 E4.86719
G1 X99.351 Y129.904 E4.88149
G1 X99.331 Y129.801 E4.88623
G1 X99.312 Y101.221 E6.16572
G1 X99.332 Y101.117 E6.17046
G1 X99.454 Y100.822 E6.18477
G1 X99.513 Y100.734 E6.18951
G1 X99.854 Y100.392 E6.2111
G1 X100.234 Y100.772 F9000
G1 F1200
G1 X100.437 Y100.685 E6.22096
G1 X137.939 Y100.66 E7.89993
G1 X138.137 Y100.742 E7.9095
G1 X138.446 Y101.05 E7.92903
G1 X138.528 Y101.248 E7.9386
G1 X138.547 Y129.722 E9.21335
G1 X138.465 Y129.919 E9.22292
G1 X138.157 Y130.228 E9.24246
G1 X137.959 Y130.31 E9.25203
G1 X100.456 Y130.335 E10.93099
G1 X100.259 Y130.253 E10.94057
G1 X99.95 Y129.945 E10.9601
G1 X99.868 Y129.747 E10.96967
G1 X99.849 Y101.273 E12.24442
G1 X99.931 Y101.076 E12.25399
G1 X100.192 Y100.815 E12.27052
G1 X100.544 Y101.222 F9000
G1 F1200
G1 X137.833 Y101.198 E13.93992
G1 X137.99 Y101.355 E13.94988
G1 X137.991 Y101.862 E13.97257
G1 X138.009 Y129.615 E15.21506
G1 X137.852 Y129.773 E15.22502
G1 X100.563 Y129.797 E16.89442
G1 X100.405 Y129.64 E16.90439
G1 X100.387 Y101.38 E18.16956
G1 X100.501 Y101.265 E18.17684
; printing object Stringing_Testingfff.stl id:0 copy 0
M486 S0
G1 X100.944 Y101.779 F9000
;TYPE:External perimeter
G1 F1200
G1 X137.434 Y101.755 E19.81048
G1 X137.434 Y101.862 E19.81529
G1 X137.452 Y129.216 E21.03991
G1 X100.962 Y129.24 E22.67355
G1 X100.944 Y101.839 E23.90029
;WIPE_START
G1 X101.29 Y101.979 F9000
;WIPE_END
G1 X101.481 Y102.316
;TYPE:Internal perimeter
G1 F1200
G1 X136.897 Y102.292 E25.48582
G1 X136.914 Y128.679 E26.66712
G1 X101.499 Y128.703 E28.25265
G1 X101.481 Y102.376 E29.43127
G92 E0
; acceleration to travel
M204 S1500
G1 X127.923 Y103.25 F9000
; decel to extrusion
M204 S500
G1 X136.737 Y103.541
; end travel
;TYPE:Solid infill
;WIDTH:0.577953
G1 F1200
G1 X135.881 Y102.685 E0.05434
G1 X135.122 Y102.686 E0.08845
G1 X136.506 Y104.07 E0.17638
G1 X136.506 Y104.83 E0.21054
G1 X134.362 Y102.686 E0.34675
G1 X133.603 Y102.687 E0.38086
G1 X136.507 Y105.591 E0.56535
G1 X136.507 Y106.351 E0.59951
G1 X132.843 Y102.687 E0.83227
G1 X132.084 Y102.688 E0.86639
G1 X136.508 Y107.112 E1.14743
G1 X136.508 Y107.872 E1.18159
G1 X131.325 Y102.688 E1.51091
G1 X130.565 Y102.689 E1.54502
G1 X136.509 Y108.633 E1.92262
G1 X136.509 Y109.393 E1.95678
G1 X129.806 Y102.689 E2.38266
G1 X129.046 Y102.69 E2.41677
G1 X136.51 Y110.154 E2.89093
G1 X136.51 Y110.914 E2.92509
G1 X128.287 Y102.69 E3.44752
G1 X127.527 Y102.691 E3.48164
G1 X136.511 Y111.675 E4.05235
G1 X136.511 Y112.435 E4.08651
G1 X126.768 Y102.691 E4.7055
G1 X126.008 Y102.692 E4.73961
G1 X136.512 Y113.196 E5.40688
G1 X136.512 Y113.956 E5.44104
G1 X125.249 Y102.692 E6.15659
G1 X124.489 Y102.693 E6.1907
G1 X136.513 Y114.716 E6.95453
G1 X136.513 Y115.477 E6.98869
G1 X123.73 Y102.693 E7.80079
G1 X122.971 Y102.694 E7.8349
G1 X136.514 Y116.237 E8.69529
G1 X136.514 Y116.998 E8.72945
G1 X122.211 Y102.694 E9.63811
G1 X121.452 Y102.695 E9.67222
G1 X136.515 Y117.758 E10.62916
G1 X136.515 Y118.519 E10.66332
G1 X120.692 Y102.695 E11.66853
G1 X119.933 Y102.696 E11.70265
G1 X136.516 Y119.279 E12.75614
G1 X136.516 Y120.04 E12.79031
G1 X119.173 Y102.696 E13.89208
G1 X118.414 Y102.697 E13.92619
G1 X136.517 Y120.8 E15.07624
G1 X136.517 Y121.561 E15.1104
G1 X117.654 Y102.697 E16.30873
G1 X116.895 Y102.698 E16.34285
G1 X136.518 Y122.321 E17.58946
G1 X136.518 Y123.082 E17.62362
G1 X116.135 Y102.698 E18.9185
G1 X115.376 Y102.699 E18.95262
G1 X136.519 Y123.842 E20.29578
G1 X136.519 Y124.602 E20.32994
G1 X114.617 Y102.699 E21.72139
G1 X113.857 Y102.7 E21.7555
G1 X136.52 Y125.363 E23.19522
G1 X136.52 Y126.123 E23.22938
G1 X113.098 Y102.7 E24.71738
G1 X112.338 Y102.701 E24.7515
G1 X136.521 Y126.884 E26.28777
G1 X136.521 Y127.644 E26.32193
G1 X111.579 Y102.701 E27.90649
G1 X110.819 Y102.702 E27.9406
G1 X136.405 Y128.287 E29.56598
G1 X135.645 Y128.288 E29.60009
G1 X110.06 Y102.702 E31.22547
G1 X109.3 Y102.703 E31.25958
G1 X134.886 Y128.288 E32.88496
G1 X134.126 Y128.289 E32.91907
G1 X108.541 Y102.703 E34.54445
G1 X107.781 Y102.704 E34.57856
G1 X133.367 Y128.289 E36.20393
G1 X132.607 Y128.29 E36.23805
G1 X107.022 Y102.704 E37.86342
G1 X106.262 Y102.705 E37.89754
G1 X131.848 Y128.29 E39.52291
G1 X131.088 Y128.291 E39.55703
G1 X105.503 Y102.705 E41.1824
G1 X104.744 Y102.706 E41.21652
G1 X130.329 Y128.291 E42.84189
G1 X129.569 Y128.292 E42.876
G1 X103.984 Y102.707 E44.50138
G1 X103.225 Y102.707 E44.53549
G1 X128.81 Y128.292 E46.16087
G1 X128.051 Y128.293 E46.19498
G1 X102.465 Y102.708 E47.82036
G1 X101.874 Y102.708 E47.84693
G1 X101.874 Y102.876 E47.85448
G1 X127.291 Y128.293 E49.46918
G1 X126.532 Y128.294 E49.50329
G1 X101.874 Y103.637 E51.06971
G1 X101.875 Y104.397 E51.10387
G1 X125.772 Y128.294 E52.62201
G1 X125.013 Y128.295 E52.65612
G1 X101.875 Y105.157 E54.12598
G1 X101.876 Y105.918 E54.16014
G1 X124.253 Y128.295 E55.58172
G1 X123.494 Y128.296 E55.61584
G1 X101.876 Y106.678 E56.98914
G1 X101.877 Y107.439 E57.0233
G1 X122.734 Y128.296 E58.34833
G1 X121.975 Y128.297 E58.38244
G1 X101.877 Y108.199 E59.65919
G1 X101.878 Y108.96 E59.69335
G1 X121.215 Y128.297 E60.92182
G1 X120.456 Y128.298 E60.95593
G1 X101.878 Y109.72 E62.13612
G1 X101.879 Y110.481 E62.17028
G1 X119.697 Y128.298 E63.30219
G1 X118.937 Y128.299 E63.33631
G1 X101.879 Y111.241 E64.41994
G1 X101.88 Y112.002 E64.4541
G1 X118.178 Y128.299 E65.48946
G1 X117.418 Y128.3 E65.52357
G1 X101.88 Y112.762 E66.51065
G1 X101.881 Y113.523 E66.54481
G1 X116.659 Y128.3 E67.48361
G1 X115.899 Y128.301 E67.51772
G1 X101.881 Y114.283 E68.40824
G1 X101.882 Y115.043 E68.4424
G1 X115.14 Y128.301 E69.28464
G1 X114.38 Y128.302 E69.31876
G1 X101.882 Y115.804 E70.11272
G1 X101.883 Y116.564 E70.14688
G1 X113.621 Y128.302 E70.89257
G1 X112.861 Y128.303 E70.92668
G1 X101.883 Y117.325 E71.62409
G1 X101.884 Y118.085 E71.65825
G1 X112.102 Y128.303 E72.30738
G1 X111.343 Y128.304 E72.34149
G1 X101.884 Y118.846 E72.94234
G1 X101.885 Y119.606 E72.9765
G1 X110.583 Y128.304 E73.52907
G1 X109.824 Y128.305 E73.56319
G1 X101.885 Y120.367 E74.06748
G1 X101.886 Y121.127 E74.10164
G1 X109.064 Y128.305 E74.55766
G1 X108.305 Y128.306 E74.59177
G1 X101.886 Y121.888 E74.99951
G1 X101.887 Y122.648 E75.03367
G1 X107.545 Y128.306 E75.39313
G1 X106.786 Y128.307 E75.42724
G1 X101.887 Y123.409 E75.73842
G1 X101.888 Y124.169 E75.77258
G1 X106.026 Y128.307 E76.03549
G1 X105.267 Y128.308 E76.0696
G1 X101.888 Y124.929 E76.28422
G1 X101.889 Y125.69 E76.31838
G1 X104.507 Y128.308 E76.48473
G1 X103.748 Y128.309 E76.51884
G1 X101.889 Y126.45 E76.63691
G1 X101.89 Y127.211 E76.67107
G1 X102.988 Y128.309 E76.74086
G1 X102.229 Y128.31 E76.77498
G1 X101.659 Y127.74 E76.81117
M106 S84.15
;LAYER_CHANGE
;Z:0.52
;HEIGHT:0.32
;BEFORE_LAYER_CHANGE
;0.52


G92 E0
; stop printing object Stringing_Testingfff.stl id:0 copy 0
M486 S-1
G1 Z0.47 F9000
;AFTER_LAYER_CHANGE
;0.52
; printing object Stringing_Testingfff.stl id:0 copy 0
M486 S0
; acceleration to travel
M204 S1500
G1 X104.613 Y125.256
; decel to extrusion
M204 S500
G1 X105.635 Y124.396
; end travel
;TYPE:Internal perimeter
;WIDTH:0.476
G1 F2101.466
G1 X105.595 Y124.356 E0.0031
G1 X105.497 Y124.249 E0.01105
G1 X105.292 Y123.971 E0.02993
G1 X105.126 Y123.669 E0.04881
G1 X105.077 Y123.552 E0.05574
G1 X104.969 Y123.205 E0.07563
G1 X104.944 Y123.081 E0.08257
G1 X104.907 Y122.719 E0.10246
G1 X104.907 Y122.593 E0.10939
G1 X104.943 Y122.231 E0.12928
G1 X104.968 Y122.107 E0.13622
G1 X105.076 Y121.76 E0.15611
G1 X105.125 Y121.643 E0.16304
G1 X105.3 Y121.324 E0.18293
G1 X105.382 Y121.204 E0.19088
G1 X105.472 Y121.091 E0.19882
G1 X105.711 Y120.842 E0.2177
G1 X105.982 Y120.628 E0.23658
G1 X106.089 Y120.56 E0.24352
G1 X106.413 Y120.396 E0.2634
G1 X106.531 Y120.35 E0.27034
G1 X106.881 Y120.254 E0.29023
G1 X107.006 Y120.233 E0.29717
G1 X107.369 Y120.209 E0.31705
G1 X107.496 Y120.213 E0.32399
G1 X107.856 Y120.261 E0.34388
G1 X107.979 Y120.29 E0.35082
G1 X108.322 Y120.409 E0.37071
G1 X108.437 Y120.462 E0.37764
G1 X108.734 Y120.638 E0.39652
G1 X109.005 Y120.852 E0.4154
G1 X109.109 Y120.952 E0.42335
G1 X109.207 Y121.06 E0.43129
G1 X109.412 Y121.338 E0.45017
G1 X109.578 Y121.64 E0.46905
G1 X109.627 Y121.757 E0.47599
G1 X109.735 Y122.104 E0.49588
G1 X109.76 Y122.228 E0.50281
G1 X109.797 Y122.589 E0.5227
G1 X109.797 Y122.716 E0.52964
G1 X109.761 Y123.078 E0.54953
G1 X109.736 Y123.202 E0.55646
G1 X109.628 Y123.549 E0.57635
G1 X109.579 Y123.666 E0.58329
G1 X109.405 Y123.984 E0.60318
G1 X109.323 Y124.104 E0.61112
G1 X109.233 Y124.218 E0.61906
G1 X108.993 Y124.466 E0.63794
G1 X108.723 Y124.68 E0.65682
G1 X108.616 Y124.748 E0.66376
G1 X108.292 Y124.913 E0.68365
G1 X108.173 Y124.958 E0.69058
G1 X107.823 Y125.054 E0.71047
G1 X107.698 Y125.076 E0.71741
G1 X107.335 Y125.1 E0.7373
G1 X107.209 Y125.096 E0.74424
G1 X106.849 Y125.048 E0.76412
G1 X106.725 Y125.018 E0.77106
G1 X106.382 Y124.9 E0.79095
G1 X106.267 Y124.846 E0.79788
G1 X105.97 Y124.671 E0.81677
G1 X105.699 Y124.457 E0.83565
G1 X105.679 Y124.437 E0.8372
G92 E0
; acceleration to travel
M204 S1500
G1 X123.709 Y123.137 F9000
; decel to extrusion
M204 S500
G1 X129.719 Y122.703
; end travel
G1 F2101.466
G1 X129.719 Y122.576 E0.00694
G1 X129.755 Y122.215 E0.02682
G1 X129.781 Y122.09 E0.03376
G1 X129.888 Y121.743 E0.05365
G1 X129.937 Y121.627 E0.06059
G1 X130.112 Y121.308 E0.08048
G1 X130.194 Y121.188 E0.08842
G1 X130.284 Y121.074 E0.09636
G1 X130.523 Y120.826 E0.11524
G1 X130.794 Y120.612 E0.13412
G1 X130.901 Y120.544 E0.14106
G1 X131.225 Y120.38 E0.16095
G1 X131.343 Y120.334 E0.16788
G1 X131.694 Y120.238 E0.18777
G1 X131.819 Y120.217 E0.19471
G1 X132.181 Y120.192 E0.2146
G1 X132.308 Y120.196 E0.22154
G1 X132.668 Y120.245 E0.24142
G1 X132.791 Y120.274 E0.24836
G1 X133.135 Y120.393 E0.26825
G1 X133.25 Y120.446 E0.27518
G1 X133.547 Y120.622 E0.29407
G1 X133.817 Y120.835 E0.31295
G1 X133.922 Y120.936 E0.32089
G1 X134.019 Y121.044 E0.32883
G1 X134.224 Y121.321 E0.34771
G1 X134.39 Y121.624 E0.36659
G1 X134.44 Y121.74 E0.37353
G1 X134.547 Y122.087 E0.39342
G1 X134.573 Y122.211 E0.40036
G1 X134.609 Y122.573 E0.42024
G1 X134.609 Y122.7 E0.42718
G1 X134.573 Y123.061 E0.44707
G1 X134.548 Y123.185 E0.45401
G1 X134.441 Y123.533 E0.4739
G1 X134.391 Y123.649 E0.48083
G1 X134.217 Y123.968 E0.50072
G1 X134.135 Y124.088 E0.50866
G1 X134.045 Y124.202 E0.51661
G1 X133.805 Y124.45 E0.53549
G1 X133.535 Y124.664 E0.55437
G1 X133.428 Y124.732 E0.5613
G1 X133.104 Y124.896 E0.58119
G1 X132.986 Y124.942 E0.58813
G1 X132.635 Y125.038 E0.60802
G1 X132.51 Y125.059 E0.61495
G1 X132.148 Y125.084 E0.63484
G1 X132.021 Y125.08 E0.64178
G1 X131.661 Y125.031 E0.66167
G1 X131.538 Y125.002 E0.6686
G1 X131.194 Y124.883 E0.68849
G1 X131.079 Y124.83 E0.69543
G1 X130.782 Y124.654 E0.71431
G1 X130.511 Y124.441 E0.73319
G1 X130.407 Y124.34 E0.74113
G1 X130.31 Y124.232 E0.74908
G1 X130.105 Y123.955 E0.76796
G1 X129.939 Y123.652 E0.78684
G1 X129.889 Y123.536 E0.79377
G1 X129.781 Y123.189 E0.81366
G1 X129.756 Y123.064 E0.8206
G1 X129.725 Y122.763 E0.8372
G92 E0
; acceleration to travel
M204 S1500
G1 X129.72 Y113.911 F9000
; decel to extrusion
M204 S500
G1 X129.718 Y110.908
; end travel
G1 F2400
G1 X128.136 Y110.909 E0.08657
G1 X108.17 Y110.922 E1.17937
G1 X108.167 Y106.028 E1.44723
G1 X128.473 Y106.015 E2.55864
G1 X134.6 Y106.011 E2.89403
G1 X134.604 Y110.905 E3.16189
G1 X129.778 Y110.908 E3.42603
G92 E0
; acceleration to travel
M204 S1500
G1 X135.716 Y103.834 F9000
; decel to extrusion
M204 S500
G1 X137.608 Y101.581
; end travel
;TYPE:External perimeter
;WIDTH:0.428
G1 F1500
G1 X137.626 Y129.39 E1.34273
G1 X100.788 Y129.414 E3.12141
G1 X100.769 Y101.605 E4.46414
G1 X137.548 Y101.581 E6.23992
;WIPE_START
G1 X137.408 Y101.927 F9000
;WIPE_END
G92 E0
; acceleration to travel
M204 S1500
G1 X131.837 Y105.533
; decel to extrusion
M204 S500
G1 X129.893 Y106.79
; end travel
;TYPE:Solid infill
;WIDTH:0.518609
G1 F2400
G1 X130.305 Y106.378 E0.03476
G1 X130.892 Y106.378 E0.06972
G1 X130.072 Y107.198 E0.13887
G1 X130.072 Y107.783 E0.17377
G1 X131.478 Y106.377 E0.29232
G1 X132.064 Y106.377 E0.32728
G1 X130.072 Y108.368 E0.49522
G1 X130.073 Y108.954 E0.53013
G1 X132.65 Y106.377 E0.74748
G1 X133.236 Y106.376 E0.78243
G1 X130.073 Y109.539 E1.04918
G1 X130.074 Y110.125 E1.08409
G1 X133.822 Y106.376 E1.40023
G1 X134.236 Y106.376 E1.42491
G1 X134.236 Y106.548 E1.43517
G1 X130.241 Y110.543 E1.77213
G1 X130.827 Y110.543 E1.80709
G1 X134.237 Y107.133 E2.09465
G1 X134.237 Y107.718 E2.12956
G1 X131.413 Y110.543 E2.36773
G1 X131.999 Y110.542 E2.40268
G1 X134.237 Y108.304 E2.59145
G1 X134.238 Y108.889 E2.62635
G1 X132.585 Y110.542 E2.76572
G1 X133.171 Y110.541 E2.80068
G1 X134.238 Y109.475 E2.89065
G1 X134.239 Y110.06 E2.92555
G1 X133.579 Y110.719 E2.98115
G92 E0
; acceleration to travel
M204 S1500
G1 X130.283 Y110.769 F9000
; decel to extrusion
M204 S500
G1 X129.22 Y110.785
; end travel
;TYPE:Top solid infill
;WIDTH:0.495049
G1 F1800
G1 X129.686 Y110.32 E0.0372
G1 X129.685 Y109.763 E0.06868
G1 X128.832 Y110.616 E0.13687
G1 X128.274 Y110.616 E0.16839
G1 X129.685 Y109.205 E0.28112
G1 X129.685 Y108.648 E0.3126
G1 X127.716 Y110.617 E0.46988
G1 X127.158 Y110.617 E0.5014
G1 X129.684 Y108.091 E0.70323
G1 X129.684 Y107.534 E0.73471
G1 X126.926 Y110.292 E0.95512
