; generated by SuperSlicer 2.4 on 2023-02-23 at 13:13:59 UTC

; 

; external perimeters extrusion width = 0.43mm
; perimeters extrusion width = 0.48mm
; infill extrusion width = 0.46mm
; solid infill extrusion width = 0.48mm
; top infill extrusion width = 0.46mm
; first layer extrusion width = 0.58mm

; object:{"name":"4_tofwer_ver","id":"4_tofwer_ver.stl id:0 copy 0","object_center":[115.496321,115.496928,0.000000],"boundingbox_center":[115.496321,115.496928,11.000000],"boundingbox_size":[22.825378,22.759171,22.000000]}
; Total objects to print: 1
M486 T1
; plater:{"center":[115.496321,115.496928,0.000000],"boundingbox_center":[115.496321,115.496928,11.000000],"boundingbox_size":[22.825378,22.759171,22.000000]}

;TYPE:Custom
G90 ; use absolute coordinates
M83 ; extruder relative mode
M140 S60 ; set final bed temp
M104 S150 ; set temporary nozzle temp to prevent oozing during homing and auto bed leveling
G4 S10 ; allow partial nozzle warmup
G28 ; home all axis
;G29 ; auto bed levelling
G1 Z10 F240
G1 X2 Y10 F3000
G1 Z0 F240
M104 S210 ; set final nozzle temp
M190 S60 ; wait for bed temp to stabilize
M109 S210 ; wait for nozzle temp to stabilize
G1 Z0.28 F240
G92 E0
G1 Y100 E7.1 F1500 ; prime the nozzle
G1 X2.3 F5000
G92 E0
G1 Y10 E10 F1200 ; prime the nozzle
G92 E0
;start
M107
G21 ; set units to millimeters
G90 ; use absolute coordinates
M82 ; use absolute distances for extrusion
G92 E0
; Filament gcode
;_TOOLCHANGE 0
M107
;LAYER_CHANGE
;Z:0.2
;HEIGHT:0.2
;BEFORE_LAYER_CHANGE
;0.2


G1 E-0.5 F3000
G1 Z0.15 F9000
;AFTER_LAYER_CHANGE
;0.2
G92 E0
G1 Z0.65
M204 S500
G1 X103.869 Y102.737
G1 Z0.15
G1 E0.5 F3000
;TYPE:Skirt
;WIDTH:0.48
G1 F1200
G1 X102.837 Y103.911 E0.55683
G1 X102.204 Y104.946 E0.60091
G1 X101.755 Y106.005 E0.64271
G1 X101.451 Y107.169 E0.68644
G1 X101.332 Y108.127 E0.72153
G1 X100.533 Y121.326 E1.2021
G1 X100.542 Y122.116 E1.2308
G1 X100.707 Y123.319 E1.27493
G1 X101.026 Y124.416 E1.31645
G1 X101.528 Y125.51 E1.36021
G1 X102.43 Y126.816 E1.41787
G1 X103.233 Y127.634 E1.45953
G1 X103.848 Y128.125 E1.48813
G1 X104.854 Y128.744 E1.53109
G1 X105.562 Y129.068 E1.55936
G1 X107.107 Y129.51 E1.61776
G1 X108.04 Y129.626 E1.65193
G1 X121.666 Y130.429 E2.14802
G1 X122.812 Y130.329 E2.18981
G1 X123.595 Y130.165 E2.2189
G1 X124.769 Y129.761 E2.26401
G1 X125.487 Y129.408 E2.2931
G1 X126.445 Y128.785 E2.33463
G1 X127.063 Y128.269 E2.3639
G1 X128.137 Y127.06 E2.42267
G1 X128.944 Y125.679 E2.48079
G1 X129.366 Y124.541 E2.5249
G1 X129.552 Y123.755 E2.55425
G1 X129.675 Y122.77 E2.59032
G1 X130.464 Y109.378 E3.07787
G1 X130.413 Y108.581 E3.10691
G1 X130.201 Y107.444 E3.14895
G1 X129.956 Y106.668 E3.1785
G1 X129.444 Y105.553 E3.22312
G1 X128.815 Y104.585 E3.26506
G1 X128.302 Y103.972 E3.2941
G1 X127.11 Y102.911 E3.3521
G1 X125.708 Y102.091 E3.41114
G1 X124.204 Y101.572 E3.46894
G1 X122.805 Y101.362 E3.52037
G1 X109.81 Y100.571 E3.99352
G1 X108.371 Y100.624 E4.04585
G1 X107.252 Y100.846 E4.08731
G1 X106.11 Y101.253 E4.13139
G1 X104.755 Y102.018 E4.18793
G1 X103.915 Y102.699 E4.22723
G1 X104.189 Y103.037 F9000
G1 F1200
G1 X103.198 Y104.157 E4.2816
G1 X102.588 Y105.156 E4.32413
G1 X102.172 Y106.136 E4.36284
G1 X101.879 Y107.259 E4.40503
G1 X101.769 Y108.154 E4.43779
G1 X100.97 Y121.332 E4.91758
G1 X100.977 Y122.078 E4.94472
G1 X101.136 Y123.239 E4.98729
G1 X101.432 Y124.254 E5.0257
G1 X101.917 Y125.31 E5.06794
G1 X102.771 Y126.542 E5.12242
G1 X103.513 Y127.299 E5.16095
G1 X104.094 Y127.764 E5.188
G1 X105.065 Y128.361 E5.22944
G1 X105.735 Y128.666 E5.25618
G1 X106.755 Y128.99 E5.2951
G1 X107.504 Y129.132 E5.32278
G1 X121.671 Y129.992 E5.83861
G1 X122.731 Y129.9 E5.8773
G1 X123.473 Y129.746 E5.90483
G1 X124.606 Y129.355 E5.94838
G1 X125.285 Y129.02 E5.97592
G1 X126.172 Y128.443 E6.01436
G1 X126.757 Y127.956 E6.04204
G1 X127.776 Y126.813 E6.0977
G1 X128.542 Y125.507 E6.15269
G1 X128.949 Y124.409 E6.19525
G1 X129.124 Y123.663 E6.2231
G1 X129.239 Y122.744 E6.25678
G1 X130.027 Y109.373 E6.74355
G1 X129.935 Y108.306 E6.78248
G1 X129.781 Y107.566 E6.80996
G1 X129.551 Y106.832 E6.8379
G1 X129.056 Y105.754 E6.88101
G1 X128.473 Y104.858 E6.91985
G1 X127.989 Y104.277 E6.94734
G1 X126.862 Y103.271 E7.00223
G1 X125.536 Y102.493 E7.05811
G1 X124.114 Y102 E7.11281
G1 X122.778 Y101.798 E7.16191
G1 X109.783 Y101.007 E7.63507
G1 X108.414 Y101.059 E7.68488
G1 X107.379 Y101.264 E7.72324
G1 X106.276 Y101.657 E7.76577
G1 X104.996 Y102.382 E7.81924
G1 X104.236 Y102.999 E7.85481
G92 E0
G1 E-0.35 F3000
;WIPE_START
G1 F7200
G1 X104.176 Y103.047 E-0.38057
G1 X103.989 Y103.26 E-0.4925
;WIPE_END
G1 E-0.5 F3000
G1 Z0.65 F9000
; printing object 4_tofwer_ver.stl id:0 copy 0
M486 S0
; acceleration to travel
M204 S1500
G1 X106.664 Y105.658
; decel to extrusion
M204 S500
G1 X106.991 Y105.951
; end travel
G1 Z0.15
G1 E0 F3000
;TYPE:Internal perimeter
;WIDTH:0.576
G1 F1200
G1 X107.261 Y105.732 E0.01544
G1 X107.545 Y105.544 E0.03053
G1 X107.853 Y105.381 E0.04599
G1 X108.175 Y105.248 E0.06143
G1 X108.509 Y105.147 E0.07686
G1 X108.85 Y105.08 E0.0923
G1 X109.197 Y105.045 E0.10774
G1 X109.563 Y105.045 E0.12396
G1 X110.016 Y105.073 E0.14409
G1 X122.513 Y105.834 E0.69902
G1 X122.891 Y105.875 E0.71592
G1 X123.242 Y105.949 E0.73182
G1 X123.584 Y106.057 E0.74771
G1 X123.913 Y106.197 E0.76356
G1 X124.244 Y106.379 E0.78027
G1 X124.538 Y106.581 E0.79612
G1 X124.814 Y106.813 E0.81208
G1 X125.065 Y107.071 E0.82803
G1 X125.29 Y107.352 E0.84399
G1 X125.486 Y107.654 E0.85996
G1 X125.643 Y107.956 E0.87503
G1 X125.786 Y108.309 E0.89194
G1 X125.886 Y108.653 E0.90782
G1 X125.952 Y109.007 E0.92378
G1 X125.983 Y109.366 E0.93974
G1 X125.978 Y109.749 E0.9567
G1 X125.203 Y122.478 E1.52197
G1 X125.162 Y122.856 E1.53883
G1 X125.082 Y123.228 E1.55568
G1 X124.979 Y123.552 E1.57075
G1 X124.839 Y123.881 E1.58663
G1 X124.655 Y124.214 E1.60347
G1 X124.463 Y124.494 E1.61852
G1 X124.233 Y124.769 E1.63444
G1 X123.962 Y125.034 E1.65122
G1 X123.681 Y125.258 E1.66713
G1 X123.386 Y125.45 E1.68276
G1 X123.065 Y125.616 E1.69875
G1 X122.731 Y125.75 E1.71474
G1 X122.384 Y125.851 E1.73072
G1 X122.03 Y125.917 E1.74672
G1 X121.675 Y125.948 E1.76249
G1 X121.288 Y125.943 E1.77966
G1 X108.332 Y125.155 E2.35499
G1 X107.987 Y125.117 E2.37038
G1 X107.626 Y125.041 E2.38672
G1 X107.298 Y124.936 E2.40201
G1 X106.978 Y124.799 E2.41742
G1 X106.692 Y124.641 E2.43188
G1 X106.405 Y124.446 E2.4473
G1 X106.139 Y124.223 E2.46266
G1 X105.897 Y123.976 E2.47802
G1 X105.679 Y123.706 E2.49338
G1 X105.491 Y123.417 E2.50866
G1 X105.322 Y123.089 E2.52501
G1 X105.201 Y122.787 E2.53944
G1 X105.103 Y122.454 E2.55483
G1 X105.04 Y122.113 E2.57019
G1 X105.01 Y121.768 E2.58555
G1 X105.014 Y121.399 E2.60192
G1 X105.804 Y108.42 E3.17829
G1 X105.844 Y108.051 E3.19473
G1 X105.916 Y107.71 E3.21017
G1 X106.018 Y107.386 E3.22525
G1 X106.157 Y107.057 E3.24107
G1 X106.324 Y106.752 E3.25648
G1 X106.52 Y106.464 E3.27193
G1 X106.737 Y106.202 E3.28701
G1 X106.948 Y105.994 E3.30015
G1 X106.632 Y105.551 F9000
;TYPE:External perimeter
G1 F1200
G1 X106.943 Y105.298 E3.31791
G1 X107.27 Y105.082 E3.33531
G1 X107.624 Y104.894 E3.35308
G1 X107.995 Y104.741 E3.37084
G1 X108.378 Y104.625 E3.3886
G1 X108.772 Y104.547 E3.40637
G1 X109.17 Y104.508 E3.42413
G1 X109.579 Y104.508 E3.44225
G1 X110.049 Y104.536 E3.4631
G1 X122.558 Y105.298 E4.01862
G1 X122.976 Y105.344 E4.03727
G1 X123.379 Y105.429 E4.05549
G1 X123.771 Y105.552 E4.07371
G1 X124.149 Y105.713 E4.09192
G1 X124.526 Y105.921 E4.111
G1 X124.864 Y106.153 E4.12921
G1 X125.18 Y106.419 E4.1475
G1 X125.468 Y106.715 E4.1658
G1 X125.726 Y107.037 E4.18409
G1 X125.951 Y107.383 E4.20239
G1 X126.132 Y107.731 E4.21975
G1 X126.294 Y108.133 E4.23901
G1 X126.409 Y108.529 E4.25727
G1 X126.485 Y108.935 E4.27556
G1 X126.52 Y109.346 E4.29386
G1 X126.515 Y109.768 E4.31258
G1 X125.739 Y122.524 E4.87901
G1 X125.693 Y122.942 E4.89766
G1 X125.602 Y123.365 E4.91686
G1 X125.484 Y123.739 E4.93422
G1 X125.322 Y124.117 E4.95246
G1 X125.113 Y124.496 E4.97165
G1 X124.892 Y124.819 E4.989
G1 X124.627 Y125.135 E5.00726
G1 X124.318 Y125.437 E5.02642
G1 X123.996 Y125.694 E5.04468
G1 X123.657 Y125.915 E5.06263
G1 X123.29 Y126.105 E5.08096
G1 X122.906 Y126.259 E5.09929
G1 X122.509 Y126.374 E5.11761
G1 X122.102 Y126.45 E5.13594
G1 X121.695 Y126.485 E5.15405
G1 X121.268 Y126.481 E5.17297
G1 X108.286 Y125.69 E5.74947
G1 X107.902 Y125.648 E5.76661
G1 X107.489 Y125.561 E5.78531
G1 X107.109 Y125.44 E5.80299
G1 X106.742 Y125.282 E5.82072
G1 X106.411 Y125.1 E5.83746
G1 X106.08 Y124.875 E5.85519
G1 X105.774 Y124.618 E5.8729
G1 X105.494 Y124.333 E5.8906
G1 X105.244 Y124.022 E5.90831
G1 X105.026 Y123.688 E5.92598
G1 X104.832 Y123.313 E5.94469
G1 X104.692 Y122.963 E5.96142
G1 X104.58 Y122.579 E5.97914
G1 X104.507 Y122.186 E5.99685
G1 X104.472 Y121.788 E6.01455
G1 X104.477 Y121.379 E6.03269
G1 X105.268 Y108.374 E6.61022
G1 X105.313 Y107.966 E6.6284
G1 X105.396 Y107.574 E6.64616
G1 X105.513 Y107.2 E6.66355
G1 X105.673 Y106.823 E6.6817
G1 X105.865 Y106.471 E6.69945
G1 X106.09 Y106.14 E6.71721
G1 X106.341 Y105.838 E6.7346
G1 X106.589 Y105.593 E6.75008
;WIPE_START
G1 X107.01 Y105.681 F9000
;WIPE_END
G92 E0
G1 E-0.35 F3000
;WIPE_START
G1 F7200
G1 X107.243 Y105.407 E-0.4925
;WIPE_END
G1 E-0.5 F3000
G1 Z0.65 F9000
; acceleration to travel
M204 S1500
G1 X123.535 Y107.803
; decel to extrusion
M204 S500
G1 X125.526 Y108.096
; end travel
G1 Z0.15
G1 E0 F3000
;TYPE:Solid infill
;WIDTH:0.57809
G1 F1200
G1 X124.487 Y107.058 E0.06533
G1 X124.037 Y106.714 E0.09053
G1 X123.447 Y106.426 E0.11971
G1 X122.972 Y106.302 E0.14158
G1 X125.508 Y108.839 E0.30118
G1 X125.563 Y109.07 E0.31176
G1 X125.589 Y109.371 E0.32521
G1 X125.572 Y109.662 E0.33818
G1 X122.131 Y106.221 E0.55469
G1 X121.32 Y106.17 E0.59081
G1 X125.53 Y110.38 E0.85563
G1 X125.487 Y111.097 E0.88759
G1 X120.51 Y106.12 E1.20072
G1 X119.699 Y106.069 E1.23684
G1 X125.444 Y111.814 E1.59827
G1 X125.402 Y112.532 E1.63024
G1 X118.889 Y106.019 E2.03997
G1 X118.078 Y105.968 E2.0761
G1 X125.359 Y113.249 E2.53414
G1 X125.316 Y113.966 E2.56611
G1 X117.268 Y105.918 E3.07246
G1 X116.458 Y105.867 E3.10858
G1 X125.274 Y114.683 E3.66324
G1 X125.231 Y115.401 E3.69521
G1 X115.647 Y105.817 E4.29817
G1 X114.837 Y105.766 E4.33429
G1 X125.188 Y116.118 E4.98556
G1 X125.146 Y116.835 E5.01753
G1 X114.026 Y105.716 E5.71711
G1 X113.216 Y105.665 E5.75323
G1 X125.103 Y117.553 E6.50112
G1 X125.06 Y118.27 E6.53309
G1 X112.405 Y105.615 E7.32928
G1 X111.595 Y105.564 E7.3654
G1 X125.018 Y118.987 E8.2099
G1 X124.975 Y119.705 E8.24187
G1 X110.784 Y105.514 E9.13467
G1 X109.997 Y105.465 E9.16975
G1 X109.974 Y105.464 E9.17077
G1 X124.933 Y120.422 E10.11183
G1 X124.89 Y121.139 E10.1438
G1 X109.191 Y105.44 E11.13149
G1 X108.917 Y105.467 E11.14371
G1 X108.55 Y105.559 E11.16058
G1 X124.847 Y121.857 E12.18593
G1 X124.813 Y122.435 E12.21169
G1 X124.792 Y122.562 E12.21741
G1 X107.996 Y105.766 E13.27411
G1 X107.747 Y105.883 E13.28638
G1 X107.52 Y106.049 E13.29889
G1 X124.673 Y123.202 E14.37803
G1 X124.481 Y123.717 E14.40248
G1 X124.462 Y123.751 E14.40423
G1 X107.111 Y106.4 E15.49586
G1 X106.834 Y106.701 E15.51403
G1 X106.765 Y106.814 E15.51994
G1 X124.163 Y124.212 E16.61453
G1 X123.944 Y124.501 E16.63066
G1 X123.81 Y124.619 E16.63859
G1 X106.487 Y107.296 E17.72846
G1 X106.298 Y107.81 E17.75281
G1 X106.29 Y107.859 E17.75502
G1 X123.399 Y124.968 E18.83142
G1 X122.919 Y125.248 E18.85614
G1 X106.191 Y108.52 E19.90855
G1 X106.147 Y109.236 E19.94048
G1 X122.36 Y125.449 E20.9605
G1 X122.303 Y125.466 E20.96317
G1 X121.699 Y125.548 E20.99025
G1 X106.104 Y109.953 E21.97144
G1 X106.06 Y110.669 E22.00337
G1 X120.9 Y125.509 E22.93699
G1 X120.092 Y125.461 E22.973
G1 X106.016 Y111.385 E23.85853
G1 X105.973 Y112.102 E23.89046
G1 X119.284 Y125.413 E24.7279
G1 X118.476 Y125.365 E24.76391
G1 X105.929 Y112.818 E25.55326
G1 X105.886 Y113.534 E25.58519
G1 X117.668 Y125.317 E26.32645
G1 X116.86 Y125.269 E26.36246
G1 X105.842 Y114.251 E27.05563
G1 X105.798 Y114.967 E27.08756
G1 X116.052 Y125.221 E27.73265
G1 X115.244 Y125.173 E27.76865
G1 X105.755 Y115.683 E28.36565
G1 X105.711 Y116.4 E28.39758
G1 X114.436 Y125.124 E28.94648
G1 X113.628 Y125.076 E28.98249
G1 X105.668 Y117.116 E29.48331
G1 X105.624 Y117.832 E29.51524
G1 X112.82 Y125.028 E29.96796
G1 X112.012 Y124.98 E30.00397
G1 X105.58 Y118.549 E30.40861
G1 X105.537 Y119.265 E30.44054
G1 X111.204 Y124.932 E30.79709
G1 X110.396 Y124.884 E30.83309
G1 X105.493 Y119.981 E31.14155
G1 X105.449 Y120.698 E31.17348
G1 X109.588 Y124.836 E31.43385
G1 X108.78 Y124.788 E31.46986
G1 X105.406 Y121.414 E31.68214
G1 X105.402 Y121.744 E31.6968
G1 X105.47 Y122.238 E31.71899
G1 X108.202 Y124.97 E31.8909
G1 X107.406 Y124.62 F9000
;TYPE:Gap fill
;WIDTH:0.15812
G1 F1200
G1 X107.276 Y124.537 E31.89237
;WIDTH:0.269576
G1 X107.147 Y124.454 E31.89528
G1 X107.028 Y124.36 E31.89814
;WIDTH:0.316724
G1 X106.909 Y124.266 E31.90159
;WIDTH:0.363872
G1 X106.789 Y124.171 E31.90565
;WIDTH:0.41102
G1 X106.67 Y124.077 E31.91029
G1 X106.567 Y123.983 E31.91457
G1 X106.464 Y123.889 E31.91885
G1 X106.254 Y123.665 E31.92824
G1 X106.043 Y123.442 E31.93762
G1 X105.946 Y123.316 E31.9425
;WIDTH:0.344738
G1 X105.849 Y123.19 E31.94649
;WIDTH:0.289782
G1 X105.752 Y123.064 E31.94976
;WIDTH:0.234825
G1 X105.655 Y122.937 E31.95231
G1 X105.599 Y122.847 E31.954
;WIDTH:0.15812
G1 X105.542 Y122.757 E31.95502
M106 S84.15
;LAYER_CHANGE
;Z:0.52
;HEIGHT:0.32
;BEFORE_LAYER_CHANGE
;0.52


G92 E0
G1 E-0.35 F3000
;WIPE_START
G1 F7200
G1 X105.599 Y122.847 E-0.39211
;WIPE_END
G1 E-0.5 F3000
G1 Z0.65 F9000
; stop printing object 4_tofwer_ver.stl id:0 copy 0
M486 S-1
;AFTER_LAYER_CHANGE
;0.52
; printing object 4_tofwer_ver.stl id:0 copy 0
M486 S0
G1 X104.978 Y123.096
G1 Z0.47
G1 E0 F3000
;TYPE:Internal perimeter
;WIDTH:0.476
G1 F2400
G1 X104.9 Y122.901 E0.01134
G1 X104.792 Y122.535 E0.03202
G1 X104.722 Y122.161 E0.05264
G1 X104.688 Y121.782 E0.07325
G1 X104.693 Y121.387 E0.09468
G1 X105.484 Y108.393 E0.80017
G1 X105.527 Y108 E0.8216
G1 X105.606 Y107.627 E0.84225
G1 X105.711 Y107.292 E0.86127
G1 X105.87 Y106.912 E0.88358
G1 X106.052 Y106.58 E0.90411
G1 X106.267 Y106.265 E0.92478
G1 X106.491 Y105.995 E0.94379
G1 X106.784 Y105.705 E0.96612
G1 X107.056 Y105.484 E0.98511
G1 X107.374 Y105.272 E1.0058
G1 X107.709 Y105.093 E1.02643
G1 X108.061 Y104.947 E1.04705
G1 X108.425 Y104.837 E1.06768
G1 X108.799 Y104.762 E1.08831
G1 X109.177 Y104.724 E1.10894
G1 X109.569 Y104.724 E1.13015
G1 X122.54 Y105.513 E1.83437
G1 X122.937 Y105.557 E1.856
G1 X123.313 Y105.635 E1.87685
G1 X123.681 Y105.75 E1.89769
G1 X124.033 Y105.898 E1.91841
G1 X124.43 Y106.116 E1.94295
G1 X124.744 Y106.334 E1.96366
G1 X125.042 Y106.586 E1.9848
G1 X125.313 Y106.866 E2.00594
G1 X125.556 Y107.172 E2.02709
G1 X125.768 Y107.5 E2.04827
G1 X125.914 Y107.779 E2.06534
G1 X126.092 Y108.212 E2.09071
G1 X126.2 Y108.583 E2.11164
G1 X126.271 Y108.967 E2.13279
G1 X126.304 Y109.355 E2.15393
G1 X126.299 Y109.76 E2.17588
G1 X125.523 Y122.505 E2.86781
G1 X125.48 Y122.902 E2.88942
G1 X125.379 Y123.354 E2.91452
G1 X125.284 Y123.654 E2.9316
G1 X125.134 Y124.009 E2.95249
G1 X124.909 Y124.413 E2.97754
G1 X124.731 Y124.672 E2.99459
G1 X124.484 Y124.97 E3.01556
G1 X124.155 Y125.291 E3.04044
G1 X123.852 Y125.531 E3.06139
G1 X123.547 Y125.728 E3.08105
G1 X123.198 Y125.909 E3.10236
G1 X122.834 Y126.055 E3.12363
G1 X122.457 Y126.164 E3.14491
G1 X122.088 Y126.233 E3.16524
G1 X121.679 Y126.269 E3.18751
G1 X121.277 Y126.265 E3.2093
G1 X108.309 Y125.475 E3.91334
G1 X107.974 Y125.439 E3.93161
G1 X107.523 Y125.346 E3.95653
G1 X107.162 Y125.229 E3.9771
G1 X106.885 Y125.11 E3.99342
G1 X106.48 Y124.887 E4.01851
G1 X106.231 Y124.717 E4.03483
G1 X105.936 Y124.473 E4.05558
G1 X105.668 Y124.203 E4.0762
G1 X105.429 Y123.907 E4.09681
G1 X105.221 Y123.593 E4.11721
G1 X105.012 Y123.182 E4.14221
G1 X105 Y123.151 E4.14399
G1 X104.615 Y123.241 F9000
;TYPE:External perimeter
;WIDTH:0.428
G1 F1500
G1 X104.531 Y123.029 E4.15488
G1 X104.412 Y122.627 E4.17494
G1 X104.335 Y122.215 E4.19497
G1 X104.298 Y121.797 E4.21501
G1 X104.303 Y121.373 E4.2353
G1 X105.095 Y108.359 E4.85857
G1 X105.141 Y107.938 E4.87884
G1 X105.228 Y107.528 E4.89887
G1 X105.344 Y107.157 E4.91743
