; generated by SuperSlicer 2.4 on 2023-02-23 at 13:20:20 UTC

; 

; external perimeters extrusion width = 0.43mm
; perimeters extrusion width = 0.48mm
; infill extrusion width = 0.46mm
; solid infill extrusion width = 0.48mm
; top infill extrusion width = 0.46mm
; first layer extrusion width = 0.58mm

; object:{"name":"cube_1_thick","id":"cube_1_thick.stl id:0 copy 0","object_center":[115.500000,115.500000,0.000000],"boundingbox_center":[115.500000,115.500000,14.819282],"boundingbox_size":[29.642270,29.674243,29.638563]}
; Total objects to print: 1
M486 T1
; plater:{"center":[115.500000,115.500000,0.000000],"boundingbox_center":[115.500000,115.500000,14.819282],"boundingbox_size":[29.642270,29.674243,29.638563]}

;TYPE:Custom
G90 ; use absolute coordinates
M83 ; extruder relative mode
M140 S60 ; set final bed temp
M104 S150 ; set temporary nozzle temp to prevent oozing during homing and auto bed leveling
G4 S10 ; allow partial nozzle warmup
G28 ; home all axis
;G29 ; auto bed levelling
G1 Z10 F240
G1 X2 Y10 F3000
G1 Z0 F240
M104 S220 ; set final nozzle temp
M190 S60 ; wait for bed temp to stabilize
M109 S220 ; wait for nozzle temp to stabilize
G1 Z0.28 F240
G92 E0
G1 Y100 E7.1 F1500 ; prime the nozzle
G1 X2.3 F5000
G92 E0
G1 Y10 E10 F1200 ; prime the nozzle
G92 E0
;start
M107
G21 ; set units to millimeters
G90 ; use absolute coordinates
M82 ; use absolute distances for extrusion
G92 E0
; Filament gcode
;_TOOLCHANGE 0
M107
;LAYER_CHANGE
;Z:0.2
;HEIGHT:0.2
;BEFORE_LAYER_CHANGE
;0.2


G1 E-1 F3000
G1 Z0.15 F9000
;AFTER_LAYER_CHANGE
;0.2
G92 E0
G1 Z0.65
M204 S500
G1 X98.521 Y99.282
G1 Z0.15
G1 E1 F3000
;TYPE:Skirt
;WIDTH:0.48
G1 F1200
G1 X97.962 Y100.362 E1.04418
G1 X97.803 Y101.01 E1.06843
G1 X97.721 Y101.794 E1.0971
G1 X97.707 Y128.324 E2.0613
G1 X97.839 Y129.578 E2.10709
G1 X98.084 Y130.451 E2.14007
G1 X98.55 Y131.358 E2.17713
G1 X99.255 Y132.144 E2.21549
G1 X100.215 Y132.788 E2.25752
G1 X100.942 Y133.087 E2.28608
G1 X101.959 Y133.309 E2.32393
G1 X102.578 Y133.349 E2.34646
G1 X128.237 Y133.314 E3.27902
G1 X128.809 Y133.29 E3.29981
G1 X129.91 Y133.049 E3.34078
G1 X131.075 Y132.43 E3.38871
G1 X132.067 Y131.58 E3.43618
G1 X132.526 Y130.975 E3.46381
G1 X132.897 Y130.263 E3.49297
G1 X133.166 Y129.42 E3.52515
G1 X133.284 Y128.597 E3.55534
G1 X133.251 Y101.359 E4.54528
G1 X133.091 Y100.465 E4.57828
G1 X132.782 Y99.696 E4.60841
G1 X131.838 Y98.56 E4.66205
G1 X130.678 Y97.944 E4.70979
G1 X129.989 Y97.787 E4.73547
G1 X129.372 Y97.739 E4.75798
G1 X101.551 Y97.779 E5.7691
G1 X100.841 Y97.869 E5.7951
G1 X99.884 Y98.173 E5.8316
G1 X98.568 Y99.244 E5.89327
G92 E0
G1 E-0.7 F3000
;WIPE_START
G1 F7200
G1 X98.225 Y99.877 E-0.985
;WIPE_END
G1 E-1 F3000
G1 Z0.65 F9000
; printing object cube_1_thick.stl id:0 copy 0
M486 S0
; acceleration to travel
M204 S1500
G1 X114.117 Y113.857
; decel to extrusion
M204 S500
G1 X116.059 Y115.564
; end travel
G1 Z0.15
G1 E0 F3000
;TYPE:Internal perimeter
;WIDTH:0.576
G1 F1200
G1 X115.772 Y115.759 E0.01539
G1 X115.511 Y116.126 E0.03535
G1 X115.288 Y115.827 E0.05188
G1 X114.971 Y115.517 E0.0715
G1 X115.541 Y114.986 E0.10605
G1 X116.019 Y115.52 E0.1378
G92 E0
G1 E-0.7 F3000
;WIPE_START
G1 F7200
G1 X115.772 Y115.759 E-0.83635
G1 X115.554 Y116.065 E-0.985
;WIPE_END
G1 E-1 F3000
G1 Z0.65 F9000
; acceleration to travel
M204 S1500
G1 X121.736 Y115.175
; decel to extrusion
M204 S500
G1 X122.491 Y115.066
; end travel
G1 Z0.15
G1 E0 F3000
G1 F1200
G1 X122.687 Y115.363 E0.01579
G1 X123.024 Y115.514 E0.03215
G1 X122.649 Y115.742 E0.05159
G1 X122.42 Y116.073 E0.06947
G1 X121.897 Y115.461 E0.10516
G1 X122.441 Y115.099 E0.13411
G92 E0
G1 E-0.7 F3000
;WIPE_START
G1 F7200
G1 X122.687 Y115.363 E-0.84286
G1 X123.015 Y115.51 E-0.985
;WIPE_END
G1 E-1 F3000
G1 Z0.65 F9000
; acceleration to travel
M204 S1500
G1 X122.485 Y122.204
; decel to extrusion
M204 S500
G1 X122.421 Y123.021
; end travel
G1 Z0.15
G1 E0 F3000
G1 F1200
G1 X122.199 Y122.647 E0.01929
G1 X121.814 Y122.422 E0.03906
G1 X122.506 Y121.973 E0.07566
G1 X122.724 Y122.261 E0.09167
G1 X123.043 Y122.418 E0.10744
G1 X122.619 Y122.682 E0.12959
G1 X122.451 Y122.97 E0.14436
G92 E0
G1 E-0.7 F3000
;WIPE_START
G1 F7200
G1 X122.199 Y122.647 E-0.86204
G1 X121.931 Y122.491 E-0.985
;WIPE_END
G1 E-1 F3000
G1 Z0.65 F9000
; acceleration to travel
M204 S1500
G1 X116.175 Y122.942
; decel to extrusion
M204 S500
G1 X115.472 Y122.997
; end travel
G1 Z0.15
G1 E0 F3000
G1 F1200
G1 X115.3 Y122.717 E0.01457
G1 X114.998 Y122.478 E0.03163
G1 X115.506 Y121.821 E0.06843
G1 X116.019 Y122.48 E0.10544
G1 X115.722 Y122.719 E0.12236
G1 X115.512 Y123.062 E0.14017
G1 X115.503 Y123.048 E0.14087
G92 E0
G1 E-0.7 F3000
;WIPE_START
G1 F7200
G1 X115.3 Y122.717 E-0.85382
G1 X115.04 Y122.511 E-0.985
;WIPE_END
G1 E-1 F3000
G1 Z0.65 F9000
; acceleration to travel
M204 S1500
G1 X109.277 Y122.955
; decel to extrusion
M204 S500
G1 X108.573 Y123.009
; end travel
G1 Z0.15
G1 E0 F3000
G1 F1200
G1 X108.398 Y122.713 E0.01526
G1 X108.025 Y122.423 E0.03623
G1 X108.658 Y121.899 E0.07268
G1 X108.859 Y122.165 E0.08747
G1 X109.212 Y122.416 E0.10666
G1 X108.848 Y122.673 E0.12641
G1 X108.606 Y123.015 E0.14499
G92 E0
G1 E-0.7 F3000
;WIPE_START
G1 F7200
G1 X108.398 Y122.713 E-0.84518
G1 X108.119 Y122.496 E-0.985
;WIPE_END
G1 E-1 F3000
G1 Z0.65 F9000
; acceleration to travel
M204 S1500
G1 X109.049 Y116.245
; decel to extrusion
M204 S500
G1 X109.163 Y115.481
; end travel
G1 Z0.15
G1 E0 F3000
G1 F1200
G1 X109.202 Y115.509 E0.00217
G1 X108.855 Y115.774 E0.02154
G1 X108.59 Y116.135 E0.04136
G1 X108.374 Y115.803 E0.05891
G1 X108.062 Y115.566 E0.07628
G1 X108.617 Y114.946 E0.11319
G1 X108.878 Y115.277 E0.13189
G1 X109.114 Y115.446 E0.14474
G92 E0
G1 E-0.7 F3000
;WIPE_START
G1 F7200
G1 X109.202 Y115.509 E-0.74313
G1 X108.855 Y115.774 E-0.9161
G1 X108.752 Y115.914 E-0.985
;WIPE_END
G1 E-1 F3000
G1 Z0.65 F9000
; acceleration to travel
M204 S1500
G1 X108.235 Y109.5
; decel to extrusion
M204 S500
G1 X108.172 Y108.716
; end travel
G1 Z0.15
G1 E0 F3000
G1 F1200
G1 X108.065 Y108.623 E0.00629
G1 X108.661 Y108.086 E0.04183
G1 X108.837 Y108.362 E0.0563
G1 X109.23 Y108.616 E0.07705
G1 X108.889 Y108.828 E0.09485
G1 X108.61 Y109.185 E0.11493
G1 X108.351 Y108.872 E0.13297
G1 X108.217 Y108.756 E0.14082
G92 E0
G1 E-0.7 F3000
;WIPE_START
G1 F7200
G1 X108.065 Y108.623 E-0.77994
G1 X108.45 Y108.276 E-0.985
;WIPE_END
G1 E-1 F3000
G1 Z0.65 F9000
; acceleration to travel
M204 S1500
G1 X114.384 Y108.477
; decel to extrusion
M204 S500
G1 X115.109 Y108.502
; end travel
G1 Z0.15
G1 E0 F3000
G1 F1200
G1 X115.557 Y108.084 E0.02713
G1 X115.751 Y108.405 E0.04373
G1 X116.143 Y108.612 E0.06339
G1 X115.796 Y108.815 E0.08121
G1 X115.529 Y109.175 E0.10108
G1 X115.009 Y108.595 E0.13562
G1 X115.065 Y108.543 E0.13903
G92 E0
G1 E-0.7 F3000
;WIPE_START
G1 F7200
G1 X115.557 Y108.084 E-0.96606
G1 X115.581 Y108.125 E-0.985
;WIPE_END
G1 E-1 F3000
G1 Z0.65 F9000
; acceleration to travel
M204 S1500
G1 X121.992 Y108.475
; decel to extrusion
M204 S500
G1 X122.775 Y108.518
; end travel
G1 Z0.15
G1 E0 F3000
G1 F1200
G1 X122.931 Y108.6 E0.00781
G1 X122.354 Y109.085 E0.04123
G1 X122.208 Y108.801 E0.05536
G1 X121.822 Y108.615 E0.07436
G1 X122.458 Y108.175 E0.10863
G1 X122.662 Y108.459 E0.12412
G1 X122.722 Y108.49 E0.12711
G92 E0
G1 E-0.7 F3000
;WIPE_START
G1 F7200
G1 X122.931 Y108.6 E-0.79351
G1 X122.561 Y108.911 E-0.985
;WIPE_END
G1 E-1 F3000
G1 Z0.65 F9000
; acceleration to travel
M204 S1500
G1 X121.787 Y115.271
; decel to extrusion
M204 S500
G1 X121.692 Y116.048
; end travel
G1 Z0.15
G1 E0 F3000
;TYPE:External perimeter
G1 F1200
G1 X121.387 Y115.961 E0.01407
G1 X121.204 Y115.953 E0.02222
G1 X120.734 Y115.968 E0.04306
G1 X117.177 Y115.971 E0.2007
G1 X116.617 Y115.952 E0.22554
G1 X116.36 Y116.01 E0.23725
G1 X116.153 Y116.15 E0.2483
G1 X115.983 Y116.39 E0.26135
G1 X115.911 Y116.676 E0.27442
G1 X115.968 Y117.664 E0.31832
G1 X115.97 Y120.757 E0.45539
G1 X115.947 Y121.255 E0.47748
G1 X116.008 Y121.591 E0.49263
G1 X116.198 Y121.835 E0.50636
G1 X116.505 Y121.96 E0.52103
G1 X116.726 Y121.978 E0.53086
G1 X117.188 Y121.964 E0.55137
G1 X120.759 Y121.967 E0.70967
G1 X121.249 Y121.99 E0.73141
G1 X121.567 Y121.942 E0.74567
G1 X121.887 Y121.734 E0.76257
G1 X122.001 Y121.406 E0.77798
G1 X122.016 Y121.222 E0.78615
G1 X121.977 Y120.781 E0.80576
G1 X121.963 Y120.297 E0.82722
G1 X121.965 Y117.167 E0.96597
G1 X121.987 Y116.698 E0.9868
G1 X121.975 Y116.519 E0.99473
G1 X121.908 Y116.301 E1.00486
G1 X121.731 Y116.094 E1.0169
;WIPE_START
G1 X121.673 Y115.649 F9000
;WIPE_END
G1 X123.026 Y116.141
G1 F1200
G1 X122.872 Y116.365 E1.02896
G1 X122.802 Y116.687 E1.04356
G1 X122.865 Y117.58 E1.08325
G1 X122.867 Y120.725 E1.22264
G1 X122.827 Y121.25 E1.24596
G1 X122.842 Y121.44 E1.25442
G1 X122.911 Y121.616 E1.26282
G1 X123.076 Y121.835 E1.27497
G1 X123.342 Y121.966 E1.2881
G1 X123.622 Y121.983 E1.30054
G1 X127.674 Y121.973 E1.48015
G1 X128.147 Y122.002 E1.50115
G1 X128.473 Y121.959 E1.51575
G1 X128.805 Y121.735 E1.5335
G1 X128.915 Y121.399 E1.54916
G1 X128.927 Y121.224 E1.55696
G1 X128.873 Y120.414 E1.59293
G1 X128.875 Y117.184 E1.73609
G1 X128.908 Y116.691 E1.75798
G1 X128.897 Y116.5 E1.76646
G1 X128.819 Y116.283 E1.77672
G1 X128.692 Y116.124 E1.78574
G1 X128.439 Y115.974 E1.79876
G1 X128.131 Y115.941 E1.8125
G1 X127.658 Y115.962 E1.83349
G1 X124.068 Y115.965 E1.99263
G1 X123.502 Y115.942 E2.01772
G1 X123.287 Y115.983 E2.02744
G1 X123.077 Y116.11 E2.0383
;WIPE_START
G1 X122.636 Y116.054 F9000
;WIPE_END
G92 E0
G1 E-0.7 F3000
;WIPE_START
G1 F7200
G1 X122.6 Y116.673 E-0.94551
G1 X122.608 Y116.772 E-0.985
;WIPE_END
G1 E-1 F3000
G1 Z0.65 F9000
; acceleration to travel
M204 S1500
G1 X122.972 Y122.382
; decel to extrusion
M204 S500
G1 X123.016 Y123.068
; end travel
G1 Z0.15
G1 E0 F3000
G1 F1200
G1 X122.888 Y123.287 E0.01123
G1 X122.835 Y123.483 E0.02025
G1 X122.869 Y124.107 E0.04797
G1 X122.871 Y126.866 E0.17026
G1 X122.828 Y128.184 E0.22871
G1 X122.887 Y128.474 E0.24183
G1 X123.041 Y128.728 E0.255
G1 X123.306 Y128.876 E0.26843
G1 X123.581 Y128.916 E0.28074
G1 X124.222 Y128.871 E0.30923
G1 X127.744 Y128.87 E0.46535
G1 X128.16 Y128.897 E0.48383
G1 X128.501 Y128.814 E0.49939
G1 X128.743 Y128.629 E0.51291
G1 X128.851 Y128.443 E0.52244
G1 X128.904 Y128.155 E0.53542
G1 X128.868 Y127.498 E0.56458
G1 X128.87 Y124.212 E0.71023
G1 X128.921 Y123.424 E0.74523
G1 X128.736 Y123.014 E0.76517
G1 X128.323 Y122.842 E0.785
G1 X128.068 Y122.846 E0.7963
G1 X127.682 Y122.869 E0.81346
G1 X123.985 Y122.873 E0.97729
G1 X123.599 Y122.857 E0.99445
G1 X123.297 Y122.893 E1.00791
G1 X123.067 Y123.036 E1.01992
;WIPE_START
G1 X122.622 Y123.001 F9000
;WIPE_END
G1 X121.808 Y123.041
G1 F1200
G1 X121.534 Y122.882 E1.03396
G1 X121.22 Y122.847 E1.04796
G1 X120.756 Y122.875 E1.06856
G1 X117.427 Y122.878 E1.21615
G1 X116.59 Y122.842 E1.25326
G1 X116.339 Y122.912 E1.26482
G1 X116.131 Y123.079 E1.27664
G1 X115.986 Y123.316 E1.28896
G1 X115.961 Y123.505 E1.2974
G1 X115.974 Y127.737 E1.48499
G1 X115.96 Y128.167 E1.50409
G1 X116.027 Y128.487 E1.51857
G1 X116.186 Y128.723 E1.53119
G1 X116.497 Y128.864 E1.54633
G1 X116.714 Y128.882 E1.55599
G1 X117.175 Y128.865 E1.57642
G1 X120.633 Y128.868 E1.72969
G1 X121.255 Y128.906 E1.75733
G1 X121.585 Y128.841 E1.77225
G1 X121.869 Y128.632 E1.78785
G1 X121.963 Y128.414 E1.79842
G1 X121.991 Y128.128 E1.81116
G1 X121.96 Y127.307 E1.84754
G1 X121.96 Y124.238 E1.9836
G1 X122.013 Y123.572 E2.0132
G1 X121.956 Y123.291 E2.02589
G1 X121.838 Y123.092 E2.03613
;WIPE_START
G1 X121.877 Y122.647 F9000
;WIPE_END
G92 E0
G1 E-0.7 F3000
;WIPE_START
G1 F7200
G1 X121.598 Y122.687 E-0.81149
G1 X121.225 Y122.647 E-0.96006
G1 X121.162 Y122.65 E-0.985
;WIPE_END
G1 E-1 F3000
G1 Z0.65 F9000
; acceleration to travel
M204 S1500
G1 X115.684 Y123.211
; decel to extrusion
M204 S500
G1 X115.014 Y123.279
; end travel
G1 Z0.15
G1 E0 F3000
G1 F1200
G1 X114.892 Y123.079 E0.01038
G1 X114.673 Y122.906 E0.02274
G1 X114.337 Y122.839 E0.03796
G1 X113.903 Y122.861 E0.05722
G1 X113.527 Y122.881 E0.07388
G1 X110.721 Y122.884 E0.19828
G1 X109.774 Y122.841 E0.24031
G1 X109.447 Y122.908 E0.25512
G1 X109.233 Y123.059 E0.2667
G1 X109.071 Y123.288 E0.27913
G1 X109.015 Y123.599 E0.29312
G1 X109.074 Y124.842 E0.34828
G1 X109.077 Y127.689 E0.47449
G1 X109.058 Y128.164 E0.49554
G1 X109.121 Y128.503 E0.51084
G1 X109.29 Y128.71 E0.52269
G1 X109.498 Y128.853 E0.53391
G1 X109.826 Y128.877 E0.54845
G1 X110.266 Y128.859 E0.56799
G1 X113.845 Y128.862 E0.72662
G1 X114.331 Y128.892 E0.7482
G1 X114.659 Y128.836 E0.76299
G1 X114.954 Y128.632 E0.77886
G1 X115.075 Y128.333 E0.79316
G1 X115.11 Y128.005 E0.80778
G1 X115.049 Y126.78 E0.86211
G1 X115.06 Y123.472 E1.00875
G1 X115.028 Y123.337 E1.01489
;WIPE_START
G1 X115.241 Y122.949 F9000
;WIPE_END
G92 E0
G1 E-0.7 F3000
;WIPE_START
G1 F7200
G1 X114.76 Y122.719 E-0.91103
G1 X114.577 Y122.683 E-0.985
;WIPE_END
G1 E-1 F3000
G1 Z0.65 F9000
; acceleration to travel
M204 S1500
G1 X108.814 Y123.217
; decel to extrusion
M204 S500
G1 X108.11 Y123.282
; end travel
G1 Z0.15
G1 E0 F3000
G1 F1200
G1 X107.988 Y123.074 E0.01071
G1 X107.76 Y122.897 E0.02351
G1 X107.477 Y122.827 E0.03639
G1 X107.291 Y122.827 E0.04467
G1 X106.208 Y122.888 E0.09275
G1 X103.466 Y122.89 E0.21429
G1 X102.877 Y122.844 E0.24047
G1 X102.531 Y122.912 E0.25612
G1 X102.326 Y123.079 E0.26781
G1 X102.177 Y123.315 E0.28017
G1 X102.152 Y123.515 E0.28911
G1 X102.176 Y124.098 E0.31499
G1 X102.195 Y127.514 E0.46639
G1 X102.174 Y128.156 E0.49489
G1 X102.205 Y128.354 E0.50375
G1 X102.288 Y128.521 E0.51203
G1 X102.474 Y128.736 E0.52463
G1 X102.8 Y128.856 E0.54001
G1 X102.995 Y128.863 E0.54868
G1 X103.36 Y128.85 E0.56485
G1 X107.45 Y128.869 E0.74615
G1 X107.793 Y128.805 E0.76162
G1 X108.017 Y128.613 E0.77469
G1 X108.124 Y128.422 E0.7844
G1 X108.155 Y128.12 E0.79787
G1 X108.14 Y127.699 E0.81652
G1 X108.154 Y123.473 E1.00383
G1 X108.124 Y123.341 E1.00986
;WIPE_START
G1 X108.341 Y122.956 F9000
;WIPE_END
G1 X107.798 Y121.913
G1 F1200
G1 X108.038 Y121.714 E1.02372
G1 X108.137 Y121.514 E1.03359
G1 X108.167 Y121.223 E1.04659
G1 X108.144 Y120.751 E1.0675
G1 X108.15 Y116.554 E1.25355
G1 X108.093 Y116.356 E1.26267
G1 X107.975 Y116.175 E1.27227
G1 X107.719 Y115.98 E1.28651
G1 X107.389 Y115.954 E1.30118
G1 X107.116 Y115.973 E1.31333
G1 X102.85 Y115.972 E1.50242
G1 X102.519 Y116.044 E1.51742
G1 X102.322 Y116.201 E1.52857
G1 X102.173 Y116.403 E1.5397
G1 X102.138 Y116.74 E1.55474
G1 X102.172 Y117.487 E1.58788
G1 X102.174 Y120.756 E1.73279
G1 X102.152 Y121.256 E1.75494
G1 X102.213 Y121.591 E1.77006
G1 X102.371 Y121.796 E1.78151
G1 X102.576 Y121.949 E1.79285
G1 X102.906 Y121.98 E1.80754
G1 X103.382 Y121.951 E1.82868
G1 X107.441 Y121.969 E2.00861
G1 X107.738 Y121.922 E2.02193
;WIPE_START
G1 X108.142 Y122.117 F9000
;WIPE_END
G1 X109.486 Y121.952
G1 F1200
G1 X109.818 Y121.979 E2.03673
G1 X110.646 Y121.958 E2.07344
G1 X113.623 Y121.96 E2.20539
G1 X114.341 Y121.982 E2.23724
G1 X114.758 Y121.91 E2.25598
G1 X115.038 Y121.548 E2.27628
G1 X115.068 Y121.216 E2.29105
G1 X115.053 Y120.855 E2.30706
G1 X115.055 Y117.74 E2.44513
G1 X115.076 Y116.685 E2.49188
G1 X115.02 Y116.368 E2.50618
G1 X114.882 Y116.182 E2.51646
G1 X114.744 Y116.046 E2.52503
G1 X114.456 Y115.966 E2.53825
G1 X114.291 Y115.96 E2.54559
G1 X110.822 Y115.976 E2.69935
G1 X109.769 Y115.928 E2.74608
G1 X109.435 Y116.008 E2.76131
G1 X109.242 Y116.154 E2.77205
G1 X109.074 Y116.384 E2.78466
G1 X109.028 Y116.694 E2.79856
G1 X109.069 Y117.66 E2.84139
G1 X109.071 Y118.604 E2.88326
G1 X109.072 Y120.552 E2.96959
G1 X109.033 Y121.254 E3.00076
G1 X109.097 Y121.587 E3.0158
G1 X109.239 Y121.775 E3.02625
G1 X109.437 Y121.917 E3.03704
;WIPE_START
G1 X109.589 Y122.338 F9000
;WIPE_END
G92 E0
G1 E-0.7 F3000
;WIPE_START
G1 F7200
G1 X109.812 Y122.179 E-0.80841
G1 X110.258 Y122.168 E-0.985
;WIPE_END
G1 E-1 F3000
G1 Z0.65 F9000
; acceleration to travel
M204 S1500
G1 X109.561 Y115.82
; decel to extrusion
M204 S500
G1 X109.476 Y115.044
; end travel
G1 Z0.15
G1 E0 F3000
G1 F1200
G1 X109.782 Y115.082 E0.0137
G1 X110.534 Y115.057 E0.04705
G1 X113.871 Y115.06 E0.19494
G1 X114.344 Y115.077 E0.21595
G1 X114.733 Y115.005 E0.23345
G1 X114.966 Y114.788 E0.2476
