; generated by SuperSlicer 2.4 on 2023-02-23 at 13:19:46 UTC

; 

; external perimeters extrusion width = 0.43mm
; perimeters extrusion width = 0.48mm
; infill extrusion width = 0.46mm
; solid infill extrusion width = 0.48mm
; top infill extrusion width = 0.46mm
; first layer extrusion width = 0.58mm

; object:{"name":"PART_7A","id":"PART_7A.stl id:0 copy 0","object_center":[114.985115,113.229559,0.000000],"boundingbox_center":[114.985115,113.229559,6.350000],"boundingbox_size":[25.400001,10.160000,12.700000]}
; Total objects to print: 1
M486 T1
; plater:{"center":[114.985115,113.229559,0.000000],"boundingbox_center":[114.985115,113.229559,6.350000],"boundingbox_size":[25.400001,10.160000,12.700000]}

;TYPE:Custom
G90 ; use absolute coordinates
M83 ; extruder relative mode
M140 S60 ; set final bed temp
M104 S150 ; set temporary nozzle temp to prevent oozing during homing and auto bed leveling
G4 S10 ; allow partial nozzle warmup
G28 ; home all axis
;G29 ; auto bed levelling
G1 Z10 F240
G1 X2 Y10 F3000
G1 Z0 F240
M104 S220 ; set final nozzle temp
M190 S60 ; wait for bed temp to stabilize
M109 S220 ; wait for nozzle temp to stabilize
G1 Z0.28 F240
G92 E0
G1 Y100 E7.1 F1500 ; prime the nozzle
G1 X2.3 F5000
G92 E0
G1 Y10 E10 F1200 ; prime the nozzle
G92 E0
;start
M107
G21 ; set units to millimeters
G90 ; use absolute coordinates
M82 ; use absolute distances for extrusion
G92 E0
; Filament gcode
;_TOOLCHANGE 0
M107
;LAYER_CHANGE
;Z:0.2
;HEIGHT:0.2
;BEFORE_LAYER_CHANGE
;0.2


G1 E-1 F3000
G1 Z0.15 F9000
;AFTER_LAYER_CHANGE
;0.2
G92 E0
G1 Z0.65
M204 S500
G1 X100.222 Y105.302
G1 Z0.15
G1 E1 F3000
;TYPE:Skirt
;WIDTH:0.48
G1 F1200
G1 X99.124 Y106.598 E1.06172
G1 X98.729 Y108.25 E1.12345
G1 X98.729 Y118.21 E1.48543
G1 X99.438 Y120.372 E1.56814
G1 X100.733 Y121.471 E1.62986
G1 X102.385 Y121.865 E1.69159
G1 X127.585 Y121.865 E2.60744
G1 X129.748 Y121.157 E2.69014
G1 X130.846 Y119.861 E2.75187
G1 X131.241 Y118.21 E2.81359
G1 X131.241 Y108.25 E3.17557
G1 X130.532 Y106.087 E3.25828
G1 X129.237 Y104.988 E3.32
G1 X127.585 Y104.594 E3.38173
G1 X102.385 Y104.594 E4.29758
G1 X100.279 Y105.284 E4.37811
G1 X100.604 Y105.586 F9000
G1 F1200
G1 X99.56 Y106.707 E4.43377
G1 X99.167 Y108.25 E4.49164
G1 X99.167 Y118.21 E4.85362
G1 X99.677 Y119.949 E4.91951
G1 X100.842 Y121.034 E4.97738
G1 X102.385 Y121.428 E5.03524
G1 X127.585 Y121.428 E5.95109
G1 X129.325 Y120.917 E6.01699
G1 X130.41 Y119.752 E6.07485
G1 X130.804 Y118.21 E6.13271
G1 X130.804 Y108.25 E6.49469
G1 X130.293 Y106.51 E6.56059
G1 X129.128 Y105.425 E6.61845
G1 X127.585 Y105.031 E6.67631
G1 X102.385 Y105.031 E7.59217
G1 X100.645 Y105.542 E7.65808
G92 E0
G1 E-0.7 F3000
;WIPE_START
G1 F7200
G1 X100.154 Y106.069 E-0.985
;WIPE_END
G1 E-1 F3000
G1 Z0.65 F9000
; printing object PART_7A.stl id:0 copy 0
M486 S0
; acceleration to travel
M204 S1500
G1 X102.878 Y108.748
; decel to extrusion
M204 S500
G1 X103.21 Y109.075
; end travel
G1 Z0.15
G1 E0 F3000
;TYPE:Internal perimeter
;WIDTH:0.576
G1 F1200
G1 X126.76 Y109.075 E1.04384
G1 X126.76 Y117.384 E1.41215
G1 X103.21 Y117.384 E2.45599
G1 X103.21 Y109.135 E2.82165
G1 X102.673 Y108.538 F9000
;TYPE:External perimeter
G1 F1200
G1 X127.297 Y108.538 E3.91312
G1 X127.297 Y117.922 E4.32908
G1 X102.673 Y117.922 E5.42055
G1 X102.673 Y108.598 E5.83385
;WIPE_START
G1 X103.02 Y108.738 F9000
;WIPE_END
G92 E0
G1 E-0.7 F3000
;WIPE_START
G1 F7200
G1 X103.74 Y108.738 E-0.985
;WIPE_END
G1 E-1 F3000
G1 Z0.65 F9000
; acceleration to travel
M204 S1500
G1 X123.142 Y109.182
; decel to extrusion
M204 S500
G1 X125.512 Y109.236
; end travel
G1 Z0.15
G1 E0 F3000
;TYPE:Solid infill
;WIDTH:0.574068
G1 F1200
G1 X126.367 Y110.091 E0.05343
G1 X126.367 Y110.851 E0.087
G1 X124.983 Y109.467 E0.17347
G1 X124.223 Y109.467 E0.20705
G1 X126.367 Y111.611 E0.341
G1 X126.367 Y112.371 E0.37457
G1 X123.463 Y109.467 E0.556
G1 X122.704 Y109.467 E0.58957
G1 X126.367 Y113.131 E0.81848
G1 X126.367 Y113.891 E0.85205
G1 X121.944 Y109.467 E1.12844
G1 X121.184 Y109.467 E1.16202
G1 X126.367 Y114.651 E1.48588
G1 X126.367 Y115.411 E1.51946
G1 X120.424 Y109.467 E1.8908
G1 X119.664 Y109.467 E1.92437
G1 X126.367 Y116.171 E2.3432
G1 X126.367 Y116.931 E2.37677
G1 X118.904 Y109.467 E2.84308
G1 X118.144 Y109.467 E2.87665
G1 X125.669 Y116.992 E3.34676
G1 X124.909 Y116.992 E3.38033
G1 X117.384 Y109.467 E3.85045
G1 X116.624 Y109.467 E3.88402
G1 X124.149 Y116.992 E4.35414
G1 X123.389 Y116.992 E4.38771
G1 X115.864 Y109.467 E4.85782
G1 X115.104 Y109.467 E4.8914
G1 X122.629 Y116.992 E5.36151
G1 X121.869 Y116.992 E5.39508
G1 X114.344 Y109.467 E5.8652
G1 X113.584 Y109.467 E5.89877
G1 X121.109 Y116.992 E6.36888
G1 X120.349 Y116.992 E6.40246
G1 X112.824 Y109.467 E6.87257
G1 X112.064 Y109.467 E6.90614
G1 X119.589 Y116.992 E7.37626
G1 X118.829 Y116.992 E7.40983
G1 X111.304 Y109.467 E7.87995
G1 X110.544 Y109.467 E7.91352
G1 X118.069 Y116.992 E8.38363
G1 X117.309 Y116.992 E8.41721
G1 X109.784 Y109.467 E8.88732
G1 X109.024 Y109.467 E8.92089
G1 X116.549 Y116.992 E9.39101
G1 X115.789 Y116.992 E9.42458
G1 X108.264 Y109.467 E9.89469
G1 X107.504 Y109.467 E9.92827
G1 X115.029 Y116.992 E10.39838
G1 X114.269 Y116.992 E10.43195
G1 X106.744 Y109.467 E10.90207
G1 X105.984 Y109.467 E10.93564
G1 X113.509 Y116.992 E11.40576
G1 X112.749 Y116.992 E11.43933
G1 X105.225 Y109.467 E11.90944
G1 X104.465 Y109.467 E11.94302
G1 X111.989 Y116.992 E12.41313
G1 X111.229 Y116.992 E12.4467
G1 X103.705 Y109.467 E12.91682
G1 X103.603 Y109.467 E12.92132
G1 X103.603 Y110.125 E12.95039
G1 X110.469 Y116.992 E13.37939
G1 X109.709 Y116.992 E13.41296
G1 X103.603 Y110.885 E13.79448
G1 X103.603 Y111.645 E13.82805
G1 X108.949 Y116.992 E14.16209
G1 X108.189 Y116.992 E14.19567
G1 X103.603 Y112.405 E14.48223
G1 X103.603 Y113.165 E14.5158
G1 X107.43 Y116.992 E14.75488
G1 X106.67 Y116.992 E14.78845
G1 X103.603 Y113.925 E14.98006
G1 X103.603 Y114.685 E15.01363
G1 X105.91 Y116.992 E15.15775
G1 X105.15 Y116.992 E15.19133
G1 X103.603 Y115.445 E15.28797
G1 X103.603 Y116.205 E15.32155
G1 X104.39 Y116.992 E15.37071
G1 X103.63 Y116.992 E15.40428
G1 X103.372 Y116.734 E15.42041
M106 S84.15
;LAYER_CHANGE
;Z:0.52
;HEIGHT:0.32
;BEFORE_LAYER_CHANGE
;0.52


G92 E0
G1 E-0.7 F3000
;WIPE_START
G1 F7200
G1 X103.63 Y116.992 E-0.84447
G1 X103.985 Y116.992 E-0.985
;WIPE_END
G1 E-1 F3000
G1 Z0.65 F9000
; stop printing object PART_7A.stl id:0 copy 0
M486 S-1
;AFTER_LAYER_CHANGE
;0.52
; printing object PART_7A.stl id:0 copy 0
M486 S0
G1 X102.889 Y117.705
G1 Z0.47
G1 E0 F3000
;TYPE:Internal perimeter
;WIDTH:0.476
G1 F2400
G1 X102.889 Y108.754 E0.4851
G1 X127.081 Y108.754 E1.79607
G1 X127.081 Y117.705 E2.28116
G1 X102.949 Y117.705 E3.58888
G1 X102.499 Y118.096 F9000
;TYPE:External perimeter
;WIDTH:0.428
G1 F1500
G1 X102.499 Y108.364 E4.05412
G1 X127.471 Y108.364 E5.24791
G1 X127.471 Y118.096 E5.71315
G1 X102.559 Y118.096 E6.90407
;WIPE_START
G1 X102.699 Y117.749 F9000
;WIPE_END
G92 E0
G1 E-0.7 F3000
;WIPE_START
G1 F7200
G1 X102.699 Y117.029 E-0.985
;WIPE_END
G1 E-1 F3000
G1 Z0.97 F9000
; acceleration to travel
M204 S1500
G1 X102.978 Y110.487
; decel to extrusion
M204 S500
G1 X103.014 Y109.642
; end travel
G1 Z0.47
G1 E0 F3000
;TYPE:Solid infill
;WIDTH:0.484048
G1 F2400
G1 X103.599 Y109.056 E0.04564
G1 X104.185 Y109.056 E0.07792
G1 X103.192 Y110.049 E0.15533
G1 X103.192 Y110.635 E0.18761
G1 X104.771 Y109.056 E0.31067
G1 X105.356 Y109.056 E0.34295
G1 X103.192 Y111.221 E0.51166
G1 X103.192 Y111.807 E0.54394
G1 X105.942 Y109.056 E0.7583
G1 X106.528 Y109.056 E0.79058
G1 X103.192 Y112.392 E1.05059
G1 X103.192 Y112.978 E1.08287
G1 X107.114 Y109.056 E1.38853
G1 X107.699 Y109.056 E1.42081
G1 X103.192 Y113.564 E1.77212
G1 X103.192 Y114.15 E1.8044
G1 X108.285 Y109.056 E2.20136
G1 X108.871 Y109.056 E2.23364
G1 X103.192 Y114.735 E2.67625
G1 X103.192 Y115.321 E2.70853
G1 X109.457 Y109.056 E3.19679
G1 X110.043 Y109.056 E3.22907
G1 X103.192 Y115.907 E3.76298
G1 X103.192 Y116.493 E3.79526
G1 X110.628 Y109.056 E4.37482
G1 X111.214 Y109.056 E4.4071
G1 X103.192 Y117.078 E5.03232
G1 X103.192 Y117.403 E5.0502
G1 X103.453 Y117.403 E5.06459
G1 X111.8 Y109.056 E5.7151
G1 X112.386 Y109.056 E5.74738
G1 X104.039 Y117.403 E6.39788
G1 X104.624 Y117.403 E6.43016
G1 X112.971 Y109.056 E7.08067
G1 X113.557 Y109.056 E7.11294
G1 X105.21 Y117.403 E7.76345
G1 X105.796 Y117.403 E7.79573
G1 X114.143 Y109.056 E8.44623
G1 X114.729 Y109.056 E8.47851
G1 X106.382 Y117.403 E9.12902
G1 X106.967 Y117.403 E9.1613
G1 X115.314 Y109.056 E9.8118
G1 X115.9 Y109.056 E9.84408
G1 X107.553 Y117.403 E10.49458
G1 X108.139 Y117.403 E10.52686
G1 X116.486 Y109.056 E11.17737
G1 X117.072 Y109.056 E11.20965
G1 X108.725 Y117.403 E11.86015
G1 X109.31 Y117.403 E11.89243
G1 X117.657 Y109.056 E12.54293
G1 X118.243 Y109.056 E12.57521
G1 X109.896 Y117.403 E13.22572
G1 X110.482 Y117.403 E13.258
G1 X118.829 Y109.056 E13.9085
G1 X119.415 Y109.056 E13.94078
G1 X111.068 Y117.403 E14.59128
G1 X111.654 Y117.403 E14.62356
G1 X120 Y109.056 E15.27407
G1 X120.586 Y109.056 E15.30635
G1 X112.239 Y117.403 E15.95685
G1 X112.825 Y117.403 E15.98913
G1 X121.172 Y109.056 E16.63963
G1 X121.758 Y109.056 E16.67191
G1 X113.411 Y117.403 E17.32242
G1 X113.997 Y117.403 E17.3547
G1 X122.343 Y109.056 E18.0052
G1 X122.929 Y109.056 E18.03748
G1 X114.582 Y117.403 E18.68798
G1 X115.168 Y117.403 E18.72026
G1 X123.515 Y109.056 E19.37077
G1 X124.101 Y109.056 E19.40305
G1 X115.754 Y117.403 E20.05355
G1 X116.34 Y117.403 E20.08583
G1 X124.686 Y109.056 E20.73633
G1 X125.272 Y109.056 E20.76861
G1 X116.925 Y117.403 E21.41912
G1 X117.511 Y117.403 E21.4514
G1 X125.858 Y109.056 E22.1019
G1 X126.444 Y109.056 E22.13418
G1 X118.097 Y117.403 E22.78468
G1 X118.683 Y117.403 E22.81696
G1 X126.779 Y109.307 E23.44791
G1 X126.779 Y109.893 E23.48019
G1 X119.268 Y117.403 E24.06548
G1 X119.854 Y117.403 E24.09776
G1 X126.779 Y110.479 E24.63741
G1 X126.779 Y111.064 E24.66969
G1 X120.44 Y117.403 E25.16368
G1 X121.026 Y117.403 E25.19596
G1 X126.779 Y111.65 E25.64431
G1 X126.779 Y112.236 E25.67659
G1 X121.611 Y117.403 E26.07928
G1 X122.197 Y117.403 E26.11156
G1 X126.779 Y112.822 E26.4686
G1 X126.779 Y113.407 E26.50088
G1 X122.783 Y117.403 E26.81228
G1 X123.369 Y117.403 E26.84456
G1 X126.779 Y113.993 E27.1103
G1 X126.779 Y114.579 E27.14258
G1 X123.954 Y117.403 E27.36267
G1 X124.54 Y117.403 E27.39495
G1 X126.779 Y115.165 E27.5694
G1 X126.779 Y115.75 E27.60168
G1 X125.126 Y117.403 E27.73047
G1 X125.712 Y117.403 E27.76275
G1 X126.779 Y116.336 E27.84589
G1 X126.779 Y116.922 E27.87817
G1 X126.119 Y117.581 E27.92954
M106 S170.85
;LAYER_CHANGE
;Z:0.84
;HEIGHT:0.32
;BEFORE_LAYER_CHANGE
;0.84


G92 E0
G1 E-0.7 F3000
;WIPE_START
G1 F7200
G1 X126.628 Y117.072 E-0.985
;WIPE_END
G1 E-1 F3000
G1 Z0.97 F9000
; stop printing object PART_7A.stl id:0 copy 0
M486 S-1
;AFTER_LAYER_CHANGE
;0.84
; printing object PART_7A.stl id:0 copy 0
M486 S0
G1 X127.081 Y117.705
G1 Z0.79
G1 E0 F3000
;TYPE:Internal perimeter
;WIDTH:0.476
G1 F2012
G1 X102.889 Y117.705 E1.31097
G1 X102.889 Y108.754 E1.79607
G1 X127.081 Y108.754 E3.10704
G1 X127.081 Y117.645 E3.58888
G1 X127.471 Y118.096 F9000
;TYPE:External perimeter
;WIDTH:0.428
G1 F1500
G1 X102.499 Y118.096 E4.78267
G1 X102.499 Y108.364 E5.24791
G1 X127.471 Y108.364 E6.4417
G1 X127.471 Y118.036 E6.90407
;WIPE_START
G1 X127.125 Y117.896 F9000
;WIPE_END
G92 E0
G1 E-0.7 F3000
;WIPE_START
G1 F7200
G1 X126.405 Y117.896 E-0.985
;WIPE_END
G1 E-1 F3000
G1 Z1.29 F9000
; acceleration to travel
M204 S1500
G1 X126.894 Y110.651
; decel to extrusion
M204 S500
G1 X126.957 Y109.715
; end travel
G1 Z0.79
G1 E0 F3000
;TYPE:Solid infill
;WIDTH:0.484048
G1 F2012
G1 X126.297 Y109.056 E0.05137
G1 X125.712 Y109.056 E0.08365
G1 X126.779 Y110.123 E0.1668
G1 X126.779 Y110.709 E0.19907
G1 X125.126 Y109.056 E0.32787
G1 X124.54 Y109.056 E0.36015
G1 X126.779 Y111.294 E0.53459
G1 X126.779 Y111.88 E0.56687
G1 X123.954 Y109.056 E0.78696
G1 X123.369 Y109.056 E0.81924
G1 X126.779 Y112.466 E1.08499
G1 X126.779 Y113.052 E1.11727
G1 X122.783 Y109.056 E1.42866
G1 X122.197 Y109.056 E1.46094
G1 X126.779 Y113.637 E1.81798
G1 X126.779 Y114.223 E1.85026
G1 X121.611 Y109.056 E2.25296
G1 X121.026 Y109.056 E2.28524
G1 X126.779 Y114.809 E2.73358
G1 X126.779 Y115.395 E2.76586
G1 X120.44 Y109.056 E3.25986
G1 X119.854 Y109.056 E3.29214
G1 X126.779 Y115.981 E3.83178
G1 X126.779 Y116.566 E3.86406
G1 X119.268 Y109.056 E4.44936
G1 X118.683 Y109.056 E4.48163
G1 X126.779 Y117.152 E5.11258
G1 X126.779 Y117.403 E5.12641
G1 X126.444 Y117.403 E5.14486
G1 X118.097 Y109.056 E5.79536
G1 X117.511 Y109.056 E5.82764
G1 X125.858 Y117.403 E6.47815
G1 X125.272 Y117.403 E6.51043
G1 X116.925 Y109.056 E7.16093
G1 X116.34 Y109.056 E7.19321
G1 X124.686 Y117.403 E7.84371
G1 X124.101 Y117.403 E7.87599
G1 X115.754 Y109.056 E8.5265
G1 X115.168 Y109.056 E8.55878
G1 X123.515 Y117.403 E9.20928
G1 X122.929 Y117.403 E9.24156
G1 X114.582 Y109.056 E9.89206
G1 X113.997 Y109.056 E9.92434
G1 X122.343 Y117.403 E10.57485
G1 X121.758 Y117.403 E10.60713
G1 X113.411 Y109.056 E11.25763
G1 X112.825 Y109.056 E11.28991
G1 X121.172 Y117.403 E11.94041
G1 X120.586 Y117.403 E11.97269
G1 X112.239 Y109.056 E12.6232
G1 X111.654 Y109.056 E12.65548
G1 X120 Y117.403 E13.30598
G1 X119.415 Y117.403 E13.33826
G1 X111.068 Y109.056 E13.98876
G1 X110.482 Y109.056 E14.02104
G1 X118.829 Y117.403 E14.67155
G1 X118.243 Y117.403 E14.70383
G1 X109.896 Y109.056 E15.35433
G1 X109.31 Y109.056 E15.38661
G1 X117.657 Y117.403 E16.03711
G1 X117.072 Y117.403 E16.06939
G1 X108.725 Y109.056 E16.7199
G1 X108.139 Y109.056 E16.75218
G1 X116.486 Y117.403 E17.40268
G1 X115.9 Y117.403 E17.43496
G1 X107.553 Y109.056 E18.08546
G1 X106.967 Y109.056 E18.11774
G1 X115.314 Y117.403 E18.76825
G1 X114.729 Y117.403 E18.80053
G1 X106.382 Y109.056 E19.45103
G1 X105.796 Y109.056 E19.48331
G1 X114.143 Y117.403 E20.13381
G1 X113.557 Y117.403 E20.16609
G1 X105.21 Y109.056 E20.8166
G1 X104.624 Y109.056 E20.84888
G1 X112.971 Y117.403 E21.49938
G1 X112.386 Y117.403 E21.53166
G1 X104.039 Y109.056 E22.18216
G1 X103.453 Y109.056 E22.21444
G1 X111.8 Y117.403 E22.86495
G1 X111.214 Y117.403 E22.89723
G1 X103.192 Y109.381 E23.52244
G1 X103.192 Y109.966 E23.55472
G1 X110.628 Y117.403 E24.13428
G1 X110.043 Y117.403 E24.16656
G1 X103.192 Y110.552 E24.70047
G1 X103.192 Y111.138 E24.73275
G1 X109.457 Y117.403 E25.22101
G1 X108.871 Y117.403 E25.25329
G1 X103.192 Y111.724 E25.6959
G1 X103.192 Y112.309 E25.72818
G1 X108.285 Y117.403 E26.12515
G1 X107.699 Y117.403 E26.15743
G1 X103.192 Y112.895 E26.50874
G1 X103.192 Y113.481 E26.54102
G1 X107.114 Y117.403 E26.84668
G1 X106.528 Y117.403 E26.87896
G1 X103.192 Y114.067 E27.13897
G1 X103.192 Y114.652 E27.17125
G1 X105.942 Y117.403 E27.38561
G1 X105.356 Y117.403 E27.41789
G1 X103.192 Y115.238 E27.5866
G1 X103.192 Y115.824 E27.61888
G1 X104.771 Y117.403 E27.74194
G1 X104.185 Y117.403 E27.77422
G1 X103.192 Y116.41 E27.85163
G1 X103.192 Y116.995 E27.8839
G1 X103.777 Y117.581 E27.92954
M106 S255
;LAYER_CHANGE
;Z:1.16
;HEIGHT:0.32
;BEFORE_LAYER_CHANGE
;1.16


G92 E0
G1 E-0.7 F3000
;WIPE_START
G1 F7200
G1 X103.268 Y117.072 E-0.985
;WIPE_END
G1 E-1 F3000
G1 Z1.29 F9000
; stop printing object PART_7A.stl id:0 copy 0
M486 S-1
;AFTER_LAYER_CHANGE
;1.16
; printing object PART_7A.stl id:0 copy 0
M486 S0
G1 X102.889 Y117.705
G1 Z1.11
G1 E0 F3000
;TYPE:Internal perimeter
;WIDTH:0.476
G1 F2012
G1 X102.889 Y108.754 E0.4851
G1 X127.081 Y108.754 E1.79607
G1 X127.081 Y117.705 E2.28116
G1 X102.949 Y117.705 E3.58888
G1 X102.499 Y118.096 F9000
;TYPE:External perimeter
;WIDTH:0.428
G1 F1500
G1 X102.499 Y108.364 E4.05412
G1 X127.471 Y108.364 E5.24791
G1 X127.471 Y118.096 E5.71315
G1 X102.559 Y118.096 E6.90407
;WIPE_START
G1 X102.699 Y117.749 F9000
;WIPE_END
G92 E0
G1 E-0.7 F3000
;WIPE_START
G1 F7200
G1 X102.699 Y117.029 E-0.985
;WIPE_END
G1 E-1 F3000
G1 Z1.61 F9000
; acceleration to travel
M204 S1500
G1 X102.978 Y110.487
; decel to extrusion
M204 S500
G1 X103.014 Y109.642
; end travel
G1 Z1.11
G1 E0 F3000
;TYPE:Solid infill
;WIDTH:0.484048
G1 F2012
G1 X103.599 Y109.056 E0.04564
G1 X104.185 Y109.056 E0.07792
G1 X103.192 Y110.049 E0.15533
G1 X103.192 Y110.635 E0.18761
G1 X104.771 Y109.056 E0.31067
G1 X105.356 Y109.056 E0.34295
