; generated by SuperSlicer 2.4 on 2023-02-23 at 13:18:35 UTC

; 

; external perimeters extrusion width = 0.43mm
; perimeters extrusion width = 0.48mm
; infill extrusion width = 0.46mm
; solid infill extrusion width = 0.48mm
; top infill extrusion width = 0.46mm
; first layer extrusion width = 0.58mm

; object:{"name":"variable_size_ooze_test","id":"variable_size_ooze_test.stl id:0 copy 0","object_center":[115.500000,115.500000,0.000000],"boundingbox_center":[115.500000,115.500000,20.000000],"boundingbox_size":[85.911862,85.911862,40.000000]}
; Total objects to print: 1
M486 T1
; plater:{"center":[115.500000,115.500000,0.000000],"boundingbox_center":[115.500000,115.500000,20.000000],"boundingbox_size":[85.911862,85.911862,40.000000]}

;TYPE:Custom
G90 ; use absolute coordinates
M83 ; extruder relative mode
M140 S60 ; set final bed temp
M104 S150 ; set temporary nozzle temp to prevent oozing during homing and auto bed leveling
G4 S10 ; allow partial nozzle warmup
G28 ; home all axis
;G29 ; auto bed levelling
G1 Z10 F240
G1 X2 Y10 F3000
G1 Z0 F240
M104 S220 ; set final nozzle temp
M190 S60 ; wait for bed temp to stabilize
M109 S220 ; wait for nozzle temp to stabilize
G1 Z0.28 F240
G92 E0
G1 Y100 E7.1 F1500 ; prime the nozzle
G1 X2.3 F5000
G92 E0
G1 Y10 E10 F1200 ; prime the nozzle
G92 E0
;start
M107
G21 ; set units to millimeters
G90 ; use absolute coordinates
M82 ; use absolute distances for extrusion
G92 E0
; Filament gcode
;_TOOLCHANGE 0
M107
;LAYER_CHANGE
;Z:0.2
;HEIGHT:0.2
;BEFORE_LAYER_CHANGE
;0.2


G1 E-1 F3000
G1 Z0.15 F9000
;AFTER_LAYER_CHANGE
;0.2
G92 E0
G1 Z0.65
M204 S500
G1 X104.081 Y70.908
G1 Z0.15
G1 E1 F3000
;TYPE:Skirt
;WIDTH:0.48
G1 F1200
G1 X69.998 Y122.46 E3.24602
G1 X69.464 Y124.193 E3.31191
G1 X69.838 Y125.74 E3.36978
G1 X70.908 Y126.919 E3.42764
G1 X122.46 Y161.002 E5.67366
G1 X124.193 Y161.536 E5.73955
G1 X125.74 Y161.162 E5.79742
G1 X126.919 Y160.092 E5.85528
G1 X161.002 Y108.54 E8.1013
G1 X161.536 Y106.807 E8.16719
G1 X161.162 Y105.26 E8.22506
G1 X160.092 Y104.081 E8.28292
G1 X108.54 Y69.998 E10.52894
G1 X106.807 Y69.464 E10.59483
G1 X105.26 Y69.838 E10.6527
G1 X104.125 Y70.867 E10.70838
G92 E0
G1 E-0.7 F3000
;WIPE_START
G1 F7200
G1 X103.728 Y71.468 E-0.985
;WIPE_END
G1 E-1 F3000
G1 Z0.65 F9000
; printing object variable_size_ooze_test.stl id:0 copy 0
M486 S0
; acceleration to travel
M204 S1500
G1 X106.643 Y73.57
; decel to extrusion
M204 S500
G1 X106.999 Y73.826
; end travel
G1 Z0.15
G1 E0 F3000
;TYPE:Internal perimeter
;WIDTH:0.576
G1 F1200
G1 X157.174 Y106.999 E2.66616
G1 X124.001 Y157.174 E5.33232
G1 X73.826 Y124.001 E7.99848
G1 X106.966 Y73.876 E10.66199
G1 X106.847 Y73.082 F9000
;TYPE:External perimeter
G1 F1200
G1 X106.937 Y73.141 E10.66677
G1 X157.918 Y106.847 E13.37579
G1 X124.153 Y157.918 E16.08959
G1 X73.082 Y124.153 E18.80339
G1 X106.814 Y73.132 E21.51453
;WIPE_START
G1 X107.025 Y73.44 F9000
;WIPE_END
G92 E0
G1 E-0.7 F3000
;WIPE_START
G1 F7200
G1 X107.626 Y73.837 E-0.985
;WIPE_END
G1 E-1 F3000
G1 Z0.65 F9000
; acceleration to travel
M204 S1500
G1 X148.7 Y101.525
; decel to extrusion
M204 S500
G1 X153.718 Y104.908
; end travel
G1 Z0.15
G1 E0 F3000
;TYPE:Solid infill
;WIDTH:0.579331
G1 F1200
G1 X156.348 Y107.537 E0.16577
G1 X156.045 Y107.994 E0.19022
G1 X152.293 Y104.242 E0.42678
G1 X150.051 Y102.76 E0.54664
G1 X155.743 Y108.452 E0.90552
G1 X155.44 Y108.909 E0.92997
G1 X147.808 Y101.277 E1.41118
G1 X145.565 Y99.794 E1.53104
G1 X155.138 Y109.367 E2.13458
G1 X154.835 Y109.824 E2.15903
G1 X143.323 Y98.312 E2.88489
G1 X141.08 Y96.829 E3.00475
G1 X154.533 Y110.282 E3.85293
G1 X154.23 Y110.739 E3.87738
G1 X138.837 Y95.346 E4.8479
G1 X136.595 Y93.863 E4.96776
G1 X153.928 Y111.197 E6.06059
G1 X153.625 Y111.654 E6.08505
G1 X134.352 Y92.381 E7.30021
G1 X132.109 Y90.898 E7.42007
G1 X153.323 Y112.112 E8.75756
G1 X153.021 Y112.569 E8.78201
G1 X129.867 Y89.415 E10.24183
G1 X127.624 Y87.933 E10.36168
G1 X152.718 Y113.027 E11.94383
G1 X152.416 Y113.484 E11.96828
G1 X125.381 Y86.45 E13.67275
G1 X123.139 Y84.967 E13.7926
G1 X152.113 Y113.942 E15.6194
G1 X151.811 Y114.399 E15.64385
G1 X120.896 Y83.485 E17.59297
G1 X118.654 Y82.002 E17.71283
G1 X151.508 Y114.857 E19.78427
G1 X151.206 Y115.314 E19.80873
G1 X116.411 Y80.519 E22.0025
G1 X114.168 Y79.037 E22.12236
G1 X150.903 Y115.772 E24.43845
G1 X150.601 Y116.229 E24.4629
G1 X111.926 Y77.554 E26.90133
G1 X109.683 Y76.071 E27.02119
G1 X150.298 Y116.687 E29.58194
G1 X149.996 Y117.144 E29.60639
G1 X107.44 Y74.589 E32.28946
G1 X107.11 Y74.37 E32.30714
G1 X106.852 Y74.76 E32.32798
G1 X149.693 Y117.602 E35.0291
G1 X149.391 Y118.059 E35.05355
G1 X106.549 Y75.217 E37.75466
G1 X106.247 Y75.675 E37.77911
G1 X149.089 Y118.517 E40.48022
G1 X148.786 Y118.974 E40.50467
G1 X105.944 Y76.132 E43.20579
G1 X105.642 Y76.59 E43.23024
G1 X148.484 Y119.432 E45.93135
G1 X148.181 Y119.889 E45.9558
G1 X105.339 Y77.047 E48.65692
G1 X105.037 Y77.505 E48.68137
G1 X147.879 Y120.347 E51.38248
G1 X147.576 Y120.804 E51.40693
G1 X104.734 Y77.962 E54.10804
G1 X104.432 Y78.42 E54.13249
G1 X147.274 Y121.262 E56.83361
G1 X146.971 Y121.719 E56.85806
G1 X104.13 Y78.877 E59.55917
G1 X103.827 Y79.335 E59.58362
G1 X146.669 Y122.177 E62.28474
G1 X146.366 Y122.634 E62.30919
G1 X103.525 Y79.792 E65.0103
G1 X103.222 Y80.25 E65.03475
G1 X146.064 Y123.092 E67.73586
G1 X145.761 Y123.549 E67.76031
G1 X102.92 Y80.707 E70.46143
G1 X102.617 Y81.165 E70.48588
G1 X145.459 Y124.007 E73.18699
G1 X145.156 Y124.464 E73.21144
G1 X102.315 Y81.622 E75.91256
G1 X102.012 Y82.08 E75.93701
G1 X144.854 Y124.922 E78.63812
G1 X144.552 Y125.379 E78.66257
G1 X101.71 Y82.537 E81.36368
G1 X101.407 Y82.995 E81.38813
G1 X144.249 Y125.837 E84.08925
G1 X143.947 Y126.294 E84.1137
G1 X101.105 Y83.452 E86.81481
G1 X100.802 Y83.91 E86.83926
G1 X143.644 Y126.752 E89.54038
G1 X143.342 Y127.209 E89.56483
G1 X100.5 Y84.367 E92.26594
G1 X100.198 Y84.825 E92.29039
G1 X143.039 Y127.667 E94.9915
G1 X142.737 Y128.124 E95.01595
G1 X99.895 Y85.282 E97.71707
G1 X99.593 Y85.74 E97.74152
G1 X142.434 Y128.581 E100.44263
G1 X142.132 Y129.039 E100.46708
G1 X99.29 Y86.197 E103.1682
G1 X98.988 Y86.655 E103.19265
G1 X141.829 Y129.496 E105.89376
G1 X141.527 Y129.954 E105.91821
G1 X98.685 Y87.112 E108.61932
G1 X98.383 Y87.57 E108.64377
G1 X141.224 Y130.411 E111.34489
G1 X140.922 Y130.869 E111.36934
G1 X98.08 Y88.027 E114.07045
G1 X97.778 Y88.485 E114.0949
G1 X140.62 Y131.326 E116.79602
G1 X140.317 Y131.784 E116.82047
G1 X97.475 Y88.942 E119.52158
G1 X97.173 Y89.4 E119.54603
G1 X140.015 Y132.241 E122.24714
G1 X139.712 Y132.699 E122.27159
G1 X96.87 Y89.857 E124.97271
G1 X96.568 Y90.315 E124.99716
G1 X139.41 Y133.156 E127.69827
G1 X139.107 Y133.614 E127.72272
G1 X96.265 Y90.772 E130.42384
G1 X95.963 Y91.23 E130.44829
G1 X138.805 Y134.071 E133.1494
G1 X138.502 Y134.529 E133.17385
G1 X95.661 Y91.687 E135.87496
G1 X95.358 Y92.145 E135.89941
G1 X138.2 Y134.986 E138.60053
G1 X137.897 Y135.444 E138.62498
G1 X95.056 Y92.602 E141.32609
G1 X94.753 Y93.06 E141.35054
G1 X137.595 Y135.901 E144.05166
G1 X137.292 Y136.359 E144.07611
G1 X94.451 Y93.517 E146.77722
G1 X94.148 Y93.975 E146.80167
G1 X136.99 Y136.816 E149.50278
G1 X136.687 Y137.274 E149.52723
G1 X93.846 Y94.432 E152.22835
G1 X93.543 Y94.89 E152.2528
G1 X136.385 Y137.731 E154.95391
G1 X136.083 Y138.189 E154.97836
G1 X93.241 Y95.347 E157.67948
G1 X92.938 Y95.805 E157.70393
G1 X135.78 Y138.646 E160.40504
G1 X135.478 Y139.104 E160.42949
G1 X92.636 Y96.262 E163.1306
G1 X92.333 Y96.72 E163.15505
G1 X135.175 Y139.561 E165.85617
G1 X134.873 Y140.019 E165.88062
G1 X92.031 Y97.177 E168.58173
G1 X91.729 Y97.635 E168.60618
G1 X134.57 Y140.476 E171.3073
G1 X134.268 Y140.934 E171.33175
G1 X91.426 Y98.092 E174.03286
G1 X91.124 Y98.55 E174.05731
G1 X133.965 Y141.391 E176.75842
G1 X133.663 Y141.849 E176.78287
G1 X90.821 Y99.007 E179.48399
G1 X90.519 Y99.465 E179.50844
G1 X133.36 Y142.306 E182.20955
G1 X133.058 Y142.764 E182.234
G1 X90.216 Y99.922 E184.93512
G1 X89.914 Y100.38 E184.95957
G1 X132.755 Y143.221 E187.66068
G1 X132.453 Y143.679 E187.68513
G1 X89.611 Y100.837 E190.38624
G1 X89.309 Y101.295 E190.41069
G1 X132.151 Y144.136 E193.11181
G1 X131.848 Y144.594 E193.13626
G1 X89.006 Y101.752 E195.83737
G1 X88.704 Y102.21 E195.86182
G1 X131.546 Y145.051 E198.56294
G1 X131.243 Y145.509 E198.58739
G1 X88.401 Y102.667 E201.2885
G1 X88.099 Y103.124 E201.31295
G1 X130.941 Y145.966 E204.01406
G1 X130.638 Y146.424 E204.03851
G1 X87.796 Y103.582 E206.73963
G1 X87.494 Y104.039 E206.76408
G1 X130.336 Y146.881 E209.46519
G1 X130.033 Y147.339 E209.48964
G1 X87.192 Y104.497 E212.19076
G1 X86.889 Y104.954 E212.21521
G1 X129.731 Y147.796 E214.91632
G1 X129.428 Y148.254 E214.94077
G1 X86.587 Y105.412 E217.64188
G1 X86.284 Y105.869 E217.66633
G1 X129.126 Y148.711 E220.36745
G1 X128.823 Y149.169 E220.3919
G1 X85.982 Y106.327 E223.09301
G1 X85.679 Y106.784 E223.11746
G1 X128.521 Y149.626 E225.81858
G1 X128.219 Y150.084 E225.84303
G1 X85.377 Y107.242 E228.54414
G1 X85.074 Y107.699 E228.56859
G1 X127.916 Y150.541 E231.2697
G1 X127.614 Y150.999 E231.29415
G1 X84.772 Y108.157 E233.99527
G1 X84.469 Y108.614 E234.01972
G1 X127.311 Y151.456 E236.72083
G1 X127.009 Y151.914 E236.74528
G1 X84.167 Y109.072 E239.4464
G1 X83.864 Y109.529 E239.47085
G1 X126.706 Y152.371 E242.17196
G1 X126.404 Y152.829 E242.19641
G1 X83.562 Y109.987 E244.89752
G1 X83.26 Y110.444 E244.92197
G1 X126.101 Y153.286 E247.62309
G1 X125.799 Y153.744 E247.64754
G1 X82.957 Y110.902 E250.34865
G1 X82.655 Y111.359 E250.3731
G1 X125.496 Y154.201 E253.07422
G1 X125.194 Y154.659 E253.09867
G1 X82.352 Y111.817 E255.79978
G1 X82.05 Y112.274 E255.82423
G1 X124.891 Y155.116 E258.52534
G1 X124.589 Y155.574 E258.54979
G1 X81.747 Y112.732 E261.25091
G1 X81.445 Y113.189 E261.27536
G1 X124.286 Y156.031 E263.97647
G1 X123.984 Y156.489 E264.00092
G1 X81.142 Y113.647 E266.70204
G1 X80.84 Y114.104 E266.72649
G1 X122.342 Y155.606 E269.34312
G1 X120.099 Y154.123 E269.46298
G1 X80.537 Y114.562 E271.95729
G1 X80.235 Y115.019 E271.98174
G1 X117.856 Y152.641 E274.35372
G1 X115.614 Y151.158 E274.47358
G1 X79.932 Y115.477 E276.72324
G1 X79.63 Y115.934 E276.74769
G1 X113.371 Y149.675 E278.87502
G1 X111.128 Y148.193 E278.99488
G1 X79.327 Y116.392 E280.99989
G1 X79.025 Y116.849 E281.02434
G1 X108.886 Y146.71 E282.90702
G1 X106.643 Y145.227 E283.02687
G1 X78.723 Y117.307 E284.78723
G1 X78.42 Y117.764 E284.81168
G1 X104.4 Y143.745 E286.44971
G1 X102.158 Y142.262 E286.56956
G1 X78.118 Y118.222 E288.08527
G1 X77.815 Y118.679 E288.10972
G1 X99.915 Y140.779 E289.50309
G1 X97.673 Y139.297 E289.62295
G1 X77.513 Y119.137 E290.894
G1 X77.21 Y119.594 E290.91845
G1 X95.43 Y137.814 E292.06718
G1 X93.187 Y136.331 E292.18704
G1 X76.908 Y120.052 E293.21343
G1 X76.605 Y120.509 E293.23788
G1 X90.945 Y134.849 E294.14196
G1 X88.702 Y133.366 E294.26182
G1 X76.303 Y120.967 E295.04356
G1 X76 Y121.424 E295.06801
G1 X86.459 Y131.883 E295.72743
G1 X84.217 Y130.4 E295.84729
G1 X75.698 Y121.882 E296.38439
G1 X75.395 Y122.339 E296.40884
G1 X81.974 Y128.918 E296.82361
G1 X79.731 Y127.435 E296.94346
G1 X75.093 Y122.797 E297.23591
G1 X74.791 Y123.254 E297.26036
G1 X77.489 Y125.952 E297.43048
G1 X75.246 Y124.47 E297.55033
G1 X74.321 Y123.545 E297.60864
G92 E0
G1 E-0.7 F3000
;WIPE_START
G1 F7200
G1 X74.83 Y124.054 E-0.985
;WIPE_END
G1 E-1 F3000
G1 Z0.65 F9000
; acceleration to travel
M204 S1500
G1 X146.796 Y108.26
; decel to extrusion
M204 S500
G1 X155.588 Y106.33
; end travel
G1 Z0.15
G1 E0 F3000
;TYPE:Gap fill
;WIDTH:0.15812
G1 F1200
G1 X155.75 Y106.462 E0.002
;WIDTH:0.204701
G1 X155.912 Y106.595 E0.00482
;WIDTH:0.251282
G1 X156.074 Y106.727 E0.00844
;WIDTH:0.297863
G1 X156.236 Y106.859 E0.01287
;WIDTH:0.344444
G1 X156.398 Y106.992 E0.01812
;WIDTH:0.391025
G1 X156.56 Y107.124 E0.02417
G1 X156.631 Y107.175 E0.02669
;WIDTH:0.432139
G1 X156.701 Y107.226 E0.02951
M106 S84.15
;LAYER_CHANGE
;Z:0.52
;HEIGHT:0.32
;BEFORE_LAYER_CHANGE
;0.52


G92 E0
G1 E-0.7 F3000
;WIPE_START
G1 F7200
G1 X156.631 Y107.175 E-0.73448
;WIPE_END
G1 E-1 F3000
G1 Z0.65 F9000
; stop printing object variable_size_ooze_test.stl id:0 copy 0
M486 S-1
;AFTER_LAYER_CHANGE
;0.52
; printing object variable_size_ooze_test.stl id:0 copy 0
M486 S0
G1 X157.619 Y106.908
G1 Z0.47
G1 E0 F3000
;TYPE:Internal perimeter
;WIDTH:0.476
G1 F2400
G1 X124.092 Y157.619 E3.29436
G1 X73.381 Y124.092 E6.58872
G1 X106.908 Y73.381 E9.88309
G1 X157.569 Y106.875 E13.1742
G1 X158.159 Y106.798 F9000
;TYPE:External perimeter
;WIDTH:0.428
G1 F1500
G1 X124.202 Y158.159 E16.11765
G1 X72.841 Y124.202 E19.06111
G1 X106.798 Y72.841 E22.00457
G1 X158.109 Y106.765 E24.94515
;WIPE_START
G1 X157.802 Y106.976 F9000
;WIPE_END
G92 E0
G1 E-0.7 F3000
;WIPE_START
G1 F7200
G1 X157.404 Y107.577 E-0.985
;WIPE_END
G1 E-1 F3000
G1 Z0.97 F9000
; acceleration to travel
M204 S1500
G1 X113.027 Y77.652
; decel to extrusion
M204 S500
G1 X107.295 Y73.786
; end travel
G1 Z0.47
G1 E0 F3000
;TYPE:Solid infill
;WIDTH:0.483945
G1 F2400
G1 X106.434 Y74.646 E0.06705
G1 X105.291 Y76.375 E0.18122
G1 X107.519 Y74.148 E0.35479
G1 X107.871 Y74.381 E0.37808
G1 X104.148 Y78.104 E0.66816
G1 X103.005 Y79.832 E0.78233
G1 X108.224 Y74.614 E1.18893
G1 X108.577 Y74.847 E1.21222
G1 X101.863 Y81.561 E1.73534
G1 X100.72 Y83.289 E1.84951
G1 X108.929 Y75.08 E2.48916
G1 X109.282 Y75.313 E2.51245
G1 X99.577 Y85.018 E3.26861
G1 X98.434 Y86.747 E3.38278
G1 X109.634 Y75.546 E4.25547
G1 X109.987 Y75.779 E4.27876
G1 X97.291 Y88.475 E5.26796
G1 X96.149 Y90.204 E5.38213
G1 X110.34 Y76.013 E6.48786
G1 X110.692 Y76.246 E6.51115
G1 X95.006 Y91.932 E7.7334
G1 X93.863 Y93.661 E7.84757
G1 X111.045 Y76.479 E9.18634
G1 X111.398 Y76.712 E9.20963
G1 X92.72 Y95.389 E10.66492
G1 X91.577 Y97.118 E10.77909
G1 X111.75 Y76.945 E12.3509
G1 X112.103 Y77.178 E12.37419
G1 X90.434 Y98.847 E14.06252
G1 X89.292 Y100.575 E14.17669
G1 X112.455 Y77.411 E15.98154
G1 X112.808 Y77.644 E16.00483
G1 X88.149 Y102.304 E17.92621
G1 X87.006 Y104.032 E18.04037
G1 X113.161 Y77.878 E20.07827
G1 X113.513 Y78.111 E20.10156
G1 X85.863 Y105.761 E22.25597
G1 X84.72 Y107.49 E22.37014
G1 X113.866 Y78.344 E24.64108
G1 X114.219 Y78.577 E24.66437
G1 X83.577 Y109.218 E27.05183
G1 X82.435 Y110.947 E27.166
G1 X114.571 Y78.81 E29.66997
G1 X114.924 Y79.043 E29.69326
G1 X81.292 Y112.675 E32.31376
G1 X80.149 Y114.404 E32.42793
G1 X115.276 Y79.276 E35.16495
G1 X115.629 Y79.51 E35.18824
G1 X79.006 Y116.132 E38.04178
G1 X77.863 Y117.861 E38.15595
G1 X115.982 Y79.743 E41.12601
G1 X116.334 Y79.976 E41.1493
G1 X76.72 Y119.59 E44.23588
G1 X75.578 Y121.318 E44.35005
G1 X116.687 Y80.209 E47.55315
G1 X117.04 Y80.442 E47.57644
G1 X74.435 Y123.047 E50.89607
G1 X73.8 Y124.007 E50.95946
G1 X73.957 Y124.11 E50.96982
G1 X117.392 Y80.675 E54.35415
G1 X117.745 Y80.908 E54.37744
G1 X74.31 Y124.343 E57.76176
G1 X74.662 Y124.577 E57.78505
G1 X118.097 Y81.141 E61.16938
G1 X118.45 Y81.375 E61.19267
G1 X75.015 Y124.81 E64.57699
G1 X75.368 Y125.043 E64.60028
G1 X118.803 Y81.608 E67.98461
G1 X119.155 Y81.841 E68.0079
G1 X75.72 Y125.276 E71.39222
G1 X76.073 Y125.509 E71.41551
G1 X119.508 Y82.074 E74.79984
G1 X119.861 Y82.307 E74.82313
G1 X76.425 Y125.742 E78.20745
G1 X76.778 Y125.975 E78.23074
G1 X120.213 Y82.54 E81.61507
G1 X120.566 Y82.773 E81.63836
G1 X77.131 Y126.208 E85.02268
G1 X77.483 Y126.442 E85.04597
G1 X120.918 Y83.007 E88.4303
G1 X121.271 Y83.24 E88.45359
G1 X77.836 Y126.675 E91.83791
G1 X78.189 Y126.908 E91.8612
G1 X121.624 Y83.473 E95.24553
G1 X121.976 Y83.706 E95.26882
G1 X78.541 Y127.141 E98.65314
G1 X78.894 Y127.374 E98.67644
G1 X122.329 Y83.939 E102.06076
G1 X122.682 Y84.172 E102.08405
G1 X79.246 Y127.607 E105.46838
G1 X79.599 Y127.84 E105.49167
G1 X123.034 Y84.405 E108.87599
G1 X123.387 Y84.638 E108.89928
G1 X79.952 Y128.074 E112.28361
G1 X80.304 Y128.307 E112.3069
G1 X123.739 Y84.872 E115.69122
G1 X124.092 Y85.105 E115.71451
G1 X80.657 Y128.54 E119.09884
G1 X81.01 Y128.773 E119.12213
G1 X124.445 Y85.338 E122.50645
G1 X124.797 Y85.571 E122.52974
G1 X81.362 Y129.006 E125.91407
G1 X81.715 Y129.239 E125.93736
G1 X125.15 Y85.804 E129.32168
G1 X125.503 Y86.037 E129.34497
G1 X82.067 Y129.472 E132.7293
