; generated by SuperSlicer 2.4 on 2022-12-01 at 15:01:56 UTC

; 

; external perimeters extrusion width = 0.43mm
; perimeters extrusion width = 0.48mm
; infill extrusion width = 0.46mm
; solid infill extrusion width = 0.48mm
; top infill extrusion width = 0.46mm
; first layer extrusion width = 0.58mm

; object:{"name":"ffffff","id":"ffffff.stl id:0 copy 0","object_center":[115.500000,115.500000,0.000000],"boundingbox_center":[115.500000,115.500000,7.000000],"boundingbox_size":[30.000000,30.000000,14.000000]}
; Total objects to print: 1
M486 T1
; plater:{"center":[115.500000,115.500000,0.000000],"boundingbox_center":[115.500000,115.500000,7.000000],"boundingbox_size":[30.000000,30.000000,14.000000]}

;TYPE:Custom
G90 ; use absolute coordinates
M83 ; extruder relative mode
M140 S60 ; set final bed temp
M104 S150 ; set temporary nozzle temp to prevent oozing during homing and auto bed leveling
G4 S10 ; allow partial nozzle warmup
G28 ; home all axis
;G29 ; auto bed levelling
G1 Z10 F240
G1 X2 Y10 F3000
G1 Z0 F240
M104 S210 ; set final nozzle temp
M190 S60 ; wait for bed temp to stabilize
M109 S210 ; wait for nozzle temp to stabilize
G1 Z0.28 F240
G92 E0
G1 Y140 E10 F1500 ; prime the nozzle
G1 X2.3 F5000
G92 E0
G1 Y10 E10 F1200 ; prime the nozzle
G92 E0
;start
M107
G21 ; set units to millimeters
G90 ; use absolute coordinates
M82 ; use absolute distances for extrusion
G92 E0
; Filament gcode
;_TOOLCHANGE 0
M107
;LAYER_CHANGE
;Z:0.2
;HEIGHT:0.2
;BEFORE_LAYER_CHANGE
;0.2


G1 E-8 F3000
G1 Z0.15 F9000
;AFTER_LAYER_CHANGE
;0.2
G92 E0
M204 S500
G1 X97.785 Y98.331
G1 E8 F3000
;TYPE:Skirt
;WIDTH:0.48
G1 F1200
G1 X97.056 Y99.236 E8.04432
G1 X96.486 Y100.152 E8.08551
G1 X95.998 Y101.206 E8.12984
G1 X95.571 Y102.648 E8.18723
G1 X95.39 Y104.112 E8.24352
G1 X95.388 Y126.772 E9.10824
G1 X95.49 Y127.899 E9.15139
G1 X95.711 Y128.932 E9.19172
G1 X96.417 Y130.721 E9.26511
G1 X96.959 Y131.628 E9.30543
G1 X97.595 Y132.457 E9.3453
G1 X98.309 Y133.193 E9.38443
G1 X99.144 Y133.877 E9.42562
G1 X100.124 Y134.5 E9.46995
G1 X101.206 Y135.002 E9.51546
G1 X102.344 Y135.36 E9.56098
G1 X103.829 Y135.594 E9.61836
G1 X126.772 Y135.612 E10.49388
G1 X127.899 Y135.51 E10.53703
G1 X128.932 Y135.289 E10.57735
G1 X130.6 Y134.646 E10.64557
G1 X131.266 Y134.272 E10.67473
G1 X132.457 Y133.405 E10.73093
G1 X133.193 Y132.691 E10.77007
G1 X133.877 Y131.856 E10.81126
G1 X134.5 Y130.876 E10.85558
G1 X135.002 Y129.794 E10.90109
G1 X135.36 Y128.656 E10.94661
G1 X135.594 Y127.17 E11.004
G1 X135.61 Y104.145 E11.88266
G1 X135.504 Y103.071 E11.92385
G1 X135.159 Y101.639 E11.98006
G1 X134.434 Y100.005 E12.04828
G1 X133.604 Y98.784 E12.10463
G1 X132.568 Y97.693 E12.16202
G1 X131.389 Y96.804 E12.21838
G1 X130.343 Y96.231 E12.26389
G1 X128.758 Y95.666 E12.3281
G1 X127.306 Y95.418 E12.38431
G1 X103.694 Y95.418 E13.28538
G1 X102.648 Y95.571 E13.3257
G1 X101.639 Y95.841 E13.36557
G1 X100.005 Y96.566 E13.43379
G1 X98.543 Y97.595 E13.50201
G1 X97.828 Y98.29 E13.54004
G92 E0
G1 E-5.6 F3000
;WIPE_START
G1 F7200
G1 X97.056 Y99.236 E-6.08335
G1 X96.486 Y100.152 E-6.51061
G1 X95.998 Y101.206 E-6.97038
G1 X95.571 Y102.648 E-7.56572
G1 X95.474 Y103.436 E-7.88
;WIPE_END
G1 E-8 F3000
; acceleration to travel
M204 S1500
G1 X100.034 Y101.276 F9000
; decel to extrusion
M204 S500
G1 X100.591 Y101.012
; end travel
G1 E0 F3000
;WIDTH:0.576
G1 F1200
G1 X101.006 Y100.591 E0.02753
G1 X101.302 Y100.345 E0.04541
G1 X101.837 Y99.984 E0.07546
G1 X102.174 Y99.801 E0.0933
G1 X102.769 Y99.551 E0.12336
G1 X103.142 Y99.435 E0.14154
G1 X103.525 Y99.349 E0.15981
G1 X104.159 Y99.268 E0.18953
G1 X126.843 Y99.268 E1.2453
G1 X127.562 Y99.365 E1.27905
G1 X128.203 Y99.541 E1.31001
G1 X128.787 Y99.782 E1.33942
G1 X129.397 Y100.13 E1.37208
G1 X129.973 Y100.572 E1.40587
G1 X130.241 Y100.826 E1.42308
G1 X130.659 Y101.307 E1.45272
G1 X131.016 Y101.836 E1.48243
G1 X131.193 Y102.161 E1.49967
G1 X131.449 Y102.768 E1.53033
G1 X131.559 Y103.122 E1.54758
G1 X131.702 Y103.838 E1.58153
G1 X131.735 Y104.218 E1.5993
G1 X131.735 Y126.796 E2.65014
G1 X131.692 Y127.23 E2.67044
G1 X131.578 Y127.805 E2.6977
G1 X131.358 Y128.472 E2.73037
G1 X131.023 Y129.152 E2.76567
G1 X130.688 Y129.654 E2.79375
G1 X130.457 Y129.941 E2.81092
G1 X129.993 Y130.409 E2.84158
G1 X129.698 Y130.655 E2.85945
G1 X129.163 Y131.017 E2.88953
G1 X128.777 Y131.223 E2.90989
G1 X128.229 Y131.449 E2.93746
G1 X127.81 Y131.577 E2.95786
G1 X127.149 Y131.703 E2.98921
G1 X126.514 Y131.743 E3.01881
G1 X104.177 Y131.733 E4.0584
G1 X103.77 Y131.692 E4.07747
G1 X103.195 Y131.578 E4.10472
G1 X102.528 Y131.358 E4.13739
G1 X101.848 Y131.023 E4.17269
G1 X101.346 Y130.688 E4.20078
G1 X101.059 Y130.457 E4.21795
G1 X100.59 Y129.993 E4.24862
G1 X100.329 Y129.677 E4.26774
G1 X100.114 Y129.372 E4.2851
G1 X99.782 Y128.787 E4.31639
G1 X99.551 Y128.23 E4.34448
G1 X99.423 Y127.81 E4.36488
G1 X99.297 Y127.149 E4.39623
G1 X99.257 Y126.514 E4.42584
G1 X99.266 Y104.192 E5.46474
G1 X99.361 Y103.456 E5.49927
G1 X99.448 Y103.097 E5.51646
G1 X99.642 Y102.526 E5.54454
G1 X99.97 Y101.86 E5.57908
G1 X100.167 Y101.548 E5.59628
G1 X100.535 Y101.07 E5.62433
G1 X100.549 Y101.055 E5.6253
G1 X100.95 Y101.41 F9000
G1 F1200
G1 X101.379 Y100.978 E5.65362
G1 X101.634 Y100.767 E5.66903
G1 X102.126 Y100.437 E5.6966
G1 X102.417 Y100.28 E5.71201
G1 X102.964 Y100.052 E5.73959
G1 X103.29 Y99.952 E5.75548
G1 X103.606 Y99.88 E5.77055
G1 X104.21 Y99.803 E5.79887
G1 X126.79 Y99.803 E6.84981
G1 X127.437 Y99.888 E6.88017
G1 X128.044 Y100.055 E6.90948
G1 X128.566 Y100.272 E6.93576
G1 X129.085 Y100.568 E6.96359
G1 X129.614 Y100.972 E6.99456
G1 X129.845 Y101.19 E7.00935
G1 X130.223 Y101.621 E7.03603
G1 X130.563 Y102.126 E7.06435
G1 X130.714 Y102.405 E7.07914
G1 X130.948 Y102.964 E7.10733
G1 X131.042 Y103.268 E7.12213
G1 X131.168 Y103.9 E7.15215
G1 X131.198 Y104.23 E7.16756
G1 X131.197 Y126.783 E8.21722
G1 X131.162 Y127.139 E8.23385
G1 X131.054 Y127.684 E8.25972
G1 X130.854 Y128.285 E8.28918
G1 X130.567 Y128.868 E8.31947
G1 X130.248 Y129.345 E8.34615
G1 X130.048 Y129.592 E8.36094
G1 X129.621 Y130.022 E8.38913
G1 X129.366 Y130.233 E8.40454
G1 X128.874 Y130.563 E8.43211
G1 X128.559 Y130.731 E8.44875
G1 X128.036 Y130.948 E8.4751
G1 X127.694 Y131.052 E8.49173
G1 X127.097 Y131.168 E8.52005
G1 X126.505 Y131.206 E8.54763
G1 X104.217 Y131.197 E9.58499
G1 X103.861 Y131.162 E9.60161
G1 X103.316 Y131.054 E9.62748
G1 X102.715 Y130.854 E9.65694
G1 X102.132 Y130.567 E9.68723
G1 X101.655 Y130.248 E9.71391
G1 X101.408 Y130.048 E9.7287
G1 X100.978 Y129.621 E9.75689
G1 X100.761 Y129.358 E9.77278
G1 X100.574 Y129.094 E9.78786
G1 X100.272 Y128.566 E9.81617
G1 X100.052 Y128.036 E9.84286
G1 X99.948 Y127.694 E9.85949
G1 X99.832 Y127.097 E9.88781
G1 X99.794 Y126.505 E9.91539
G1 X99.803 Y104.21 E10.95308
G1 X99.887 Y103.567 E10.98323
G1 X99.961 Y103.258 E10.99802
G1 X100.146 Y102.715 E11.0247
G1 X100.432 Y102.134 E11.05486
G1 X100.601 Y101.865 E11.06965
G1 X100.914 Y101.458 E11.09354
G1 X101.34 Y101.785 F9000
G1 F1200
G1 X101.372 Y101.745 E11.09592
G1 X101.745 Y101.372 E11.12046
G1 X101.959 Y101.195 E11.13341
G1 X102.408 Y100.895 E11.15853
G1 X102.653 Y100.763 E11.17149
G1 X103.151 Y100.556 E11.19661
G1 X103.425 Y100.472 E11.20994
G1 X103.696 Y100.41 E11.22287
G1 X104.219 Y100.341 E11.2474
G1 X104.236 Y100.34 E11.24822
G1 X126.764 Y100.34 E12.29671
G1 X126.781 Y100.341 E12.29753
G1 X127.306 Y100.41 E12.32217
G1 X127.323 Y100.414 E12.32298
G1 X127.83 Y100.549 E12.34739
G1 X127.847 Y100.555 E12.34821
G1 X128.336 Y100.758 E12.37285
G1 X128.352 Y100.765 E12.37367
G1 X128.809 Y101.029 E12.39823
G1 X128.823 Y101.039 E12.39905
G1 X129.241 Y101.36 E12.42358
G1 X129.445 Y101.55 E12.43653
G1 X129.802 Y101.955 E12.46168
G1 X129.812 Y101.969 E12.4625
G1 X130.105 Y102.408 E12.48704
G1 X130.243 Y102.665 E12.5006
G1 X130.444 Y103.151 E12.52511
G1 X130.526 Y103.417 E12.53806
G1 X130.632 Y103.947 E12.56318
G1 X130.66 Y104.237 E12.57675
G1 X130.66 Y126.763 E13.62518
G1 X130.632 Y127.053 E13.63875
G1 X130.529 Y127.57 E13.66328
G1 X130.524 Y127.587 E13.6641
G1 X130.355 Y128.087 E13.68866
G1 X130.348 Y128.103 E13.68948
G1 X130.114 Y128.577 E13.71404
G1 X130.106 Y128.592 E13.71486
G1 X129.813 Y129.03 E13.7394
G1 X129.628 Y129.255 E13.75296
G1 X129.255 Y129.628 E13.77747
G1 X129.041 Y129.805 E13.79042
G1 X128.592 Y130.105 E13.81555
G1 X128.335 Y130.243 E13.82911
G1 X127.849 Y130.444 E13.85362
G1 X127.57 Y130.529 E13.86718
G1 X127.053 Y130.632 E13.89172
G1 X127.035 Y130.634 E13.89254
G1 X126.501 Y130.669 E13.91746
G1 X104.237 Y130.66 E14.95369
G1 X103.947 Y130.632 E14.96725
G1 X103.43 Y130.529 E14.99179
G1 X103.413 Y130.524 E14.99261
G1 X102.913 Y130.355 E15.01717
G1 X102.897 Y130.348 E15.01799
G1 X102.423 Y130.114 E15.04255
G1 X102.408 Y130.106 E15.04337
G1 X101.97 Y129.813 E15.0679
G1 X101.745 Y129.628 E15.08147
G1 X101.372 Y129.255 E15.10597
G1 X101.19 Y129.034 E15.11931
G1 X101.029 Y128.808 E15.13224
G1 X100.765 Y128.352 E15.15677
G1 X100.758 Y128.336 E15.15759
G1 X100.556 Y127.849 E15.18212
G1 X100.471 Y127.57 E15.19569
G1 X100.368 Y127.053 E15.22023
G1 X100.366 Y127.035 E15.22104
G1 X100.331 Y126.501 E15.24596
G1 X100.34 Y104.236 E16.28222
G1 X100.341 Y104.219 E16.28304
G1 X100.412 Y103.683 E16.30819
G1 X100.476 Y103.412 E16.32114
G1 X100.645 Y102.913 E16.34567
G1 X100.652 Y102.897 E16.34649
G1 X100.892 Y102.412 E16.37164
G1 X101.039 Y102.176 E16.38459
G1 X101.303 Y101.832 E16.40477
; printing object ffffff.stl id:0 copy 0
M486 S0
G1 X101.745 Y102.171 F9000
;TYPE:External perimeter
G1 F1200
G1 X101.785 Y102.119 E16.40784
G1 X102.123 Y101.78 E16.43012
G1 X102.296 Y101.639 E16.44053
G1 X102.7 Y101.369 E16.46311
G1 X102.897 Y101.264 E16.47351
G1 X103.345 Y101.078 E16.49609
G1 X103.565 Y101.011 E16.5068
G1 X103.789 Y100.959 E16.5175
G1 X104.264 Y100.897 E16.53978
G1 X126.736 Y100.897 E17.58569
G1 X127.206 Y100.958 E17.60775
G1 X127.659 Y101.08 E17.62959
G1 X128.097 Y101.261 E17.65165
G1 X128.506 Y101.497 E17.67363
G1 X128.886 Y101.789 E17.69591
G1 X129.049 Y101.942 E17.70632
G1 X129.365 Y102.302 E17.7286
G1 X129.631 Y102.7 E17.75088
G1 X129.736 Y102.897 E17.76129
G1 X129.922 Y103.345 E17.78387
G1 X129.987 Y103.559 E17.79428
G1 X130.082 Y104.035 E17.81686
G1 X130.103 Y104.257 E17.82726
G1 X130.103 Y126.743 E18.87377
G1 X130.082 Y126.965 E18.88417
G1 X129.988 Y127.435 E18.90646
G1 X129.836 Y127.882 E18.92844
G1 X129.627 Y128.306 E18.95042
G1 X129.361 Y128.704 E18.97271
G1 X129.22 Y128.877 E18.98311
G1 X128.877 Y129.22 E19.00569
G1 X128.704 Y129.361 E19.0161
G1 X128.3 Y129.631 E19.03868
G1 X128.103 Y129.736 E19.04909
G1 X127.655 Y129.922 E19.07166
G1 X127.441 Y129.987 E19.08207
G1 X126.971 Y130.08 E19.10435
G1 X126.487 Y130.112 E19.12693
G1 X104.258 Y130.103 E20.16155
G1 X104.035 Y130.082 E20.17196
G1 X103.565 Y129.988 E20.19424
G1 X103.118 Y129.836 E20.21623
G1 X102.694 Y129.627 E20.23821
G1 X102.296 Y129.361 E20.26049
G1 X102.123 Y129.22 E20.2709
G1 X101.78 Y128.877 E20.29348
G1 X101.635 Y128.699 E20.30418
G1 X101.501 Y128.512 E20.31489
G1 X101.261 Y128.097 E20.33717
G1 X101.078 Y127.655 E20.35945
G1 X101.013 Y127.441 E20.36986
G1 X100.92 Y126.971 E20.39214
G1 X100.888 Y126.487 E20.41471
G1 X100.897 Y104.264 E21.44904
G1 X100.959 Y103.789 E21.47132
G1 X101.01 Y103.571 E21.48173
G1 X101.164 Y103.118 E21.50401
G1 X101.375 Y102.689 E21.52629
G1 X101.494 Y102.499 E21.5367
G1 X101.708 Y102.219 E21.55312
;WIPE_START
G1 X102.141 Y102.224 F9000
;WIPE_END
G1 X102.291 Y102.373
;TYPE:Internal perimeter
G1 F1200
G1 X102.485 Y102.179 E21.56588
G1 X102.617 Y102.071 E21.57384
G1 X102.976 Y101.831 E21.59396
G1 X103.127 Y101.75 E21.60191
G1 X103.526 Y101.585 E21.62203
G1 X103.704 Y101.531 E21.63068
G1 X103.885 Y101.488 E21.63934
G1 X104.299 Y101.434 E21.65875
G1 X126.701 Y101.434 E22.70139
G1 X127.101 Y101.487 E22.72017
G1 X127.486 Y101.59 E22.73872
G1 X127.859 Y101.744 E22.7575
G1 X128.207 Y101.945 E22.77621
G1 X128.538 Y102.199 E22.79562
G1 X128.663 Y102.316 E22.80358
G1 X128.938 Y102.629 E22.82299
G1 X129.169 Y102.976 E22.8424
G1 X129.25 Y103.127 E22.85035
G1 X129.415 Y103.526 E22.87047
G1 X129.465 Y103.69 E22.87842
G1 X129.549 Y104.114 E22.89854
G1 X129.566 Y104.284 E22.90649
G1 X129.566 Y126.716 E23.95054
G1 X129.549 Y126.886 E23.95849
G1 X129.468 Y127.295 E23.9779
G1 X129.339 Y127.676 E23.99661
G1 X129.161 Y128.036 E24.01532
G1 X128.929 Y128.383 E24.03473
G1 X128.821 Y128.515 E24.04268
G1 X128.515 Y128.821 E24.0628
G1 X128.383 Y128.929 E24.07075
G1 X128.024 Y129.169 E24.09087
G1 X127.873 Y129.25 E24.09882
G1 X127.474 Y129.415 E24.11894
G1 X127.31 Y129.465 E24.12689
G1 X126.901 Y129.546 E24.14631
G1 X126.47 Y129.575 E24.16642
G1 X104.284 Y129.566 E25.19899
G1 X104.114 Y129.549 E25.20695
G1 X103.705 Y129.468 E25.22637
G1 X103.324 Y129.339 E25.24507
G1 X102.964 Y129.161 E25.26378
G1 X102.617 Y128.929 E25.28319
G1 X102.485 Y128.821 E25.29114
G1 X102.179 Y128.515 E25.31126
G1 X102.061 Y128.371 E25.31992
G1 X101.953 Y128.22 E25.32858
G1 X101.744 Y127.859 E25.34799
G1 X101.585 Y127.474 E25.3674
G1 X101.535 Y127.31 E25.37535
G1 X101.454 Y126.901 E25.39477
G1 X101.425 Y126.47 E25.41488
G1 X101.434 Y104.299 E26.44675
G1 X101.488 Y103.886 E26.46617
G1 X101.527 Y103.719 E26.47412
G1 X101.661 Y103.324 E26.49353
G1 X101.846 Y102.95 E26.51295
G1 X101.936 Y102.805 E26.5209
G1 X102.19 Y102.474 E26.54031
G1 X102.248 Y102.415 E26.54417
G92 E0
G1 E-5.6 F3000
;WIPE_START
G1 F7200
G1 X102.485 Y102.179 E-5.73229
G1 X102.617 Y102.071 E-5.79991
G1 X102.976 Y101.831 E-5.97104
G1 X103.127 Y101.75 E-6.03866
G1 X103.526 Y101.585 E-6.20978
G1 X103.704 Y101.531 E-6.28339
G1 X103.885 Y101.488 E-6.35703
G1 X104.299 Y101.434 E-6.52213
G1 X107.729 Y101.434 E-7.88
;WIPE_END
G1 E-8 F3000
; acceleration to travel
M204 S1500
G1 X125.418 Y101.762 F9000
; decel to extrusion
M204 S500
G1 X127.579 Y101.803
; end travel
G1 E0 F3000
;TYPE:Solid infill
;WIDTH:0.578218
G1 F1200
G1 X128.49 Y102.714 E0.06019
G1 X128.622 Y102.865 E0.06957
G1 X128.897 Y103.303 E0.09375
G1 X129.085 Y103.794 E0.1183
G1 X129.141 Y104.125 E0.134
G1 X126.868 Y101.852 E0.28421
G1 X126.675 Y101.826 E0.29328
G1 X126.082 Y101.826 E0.32098
G1 X129.174 Y104.918 E0.52524
G1 X129.174 Y105.678 E0.56075
G1 X125.322 Y101.826 E0.81522
G1 X124.562 Y101.826 E0.85073
G1 X129.174 Y106.438 E1.15541
G1 X129.174 Y107.197 E1.19092
G1 X123.803 Y101.826 E1.54582
G1 X123.043 Y101.826 E1.58133
G1 X129.174 Y107.957 E1.98644
G1 X129.174 Y108.717 E2.02195
G1 X122.283 Y101.826 E2.47727
G1 X121.523 Y101.826 E2.51278
G1 X129.174 Y109.477 E3.01832
G1 X129.174 Y110.237 E3.05383
G1 X120.763 Y101.826 E3.60958
G1 X120.003 Y101.826 E3.64509
G1 X129.174 Y110.997 E4.25105
G1 X129.174 Y111.757 E4.28656
G1 X119.243 Y101.826 E4.94274
G1 X118.483 Y101.826 E4.97824
G1 X129.174 Y112.517 E5.68464
G1 X129.174 Y113.277 E5.72014
G1 X117.723 Y101.826 E6.47675
G1 X116.963 Y101.826 E6.51226
G1 X129.174 Y114.037 E7.31908
G1 X129.174 Y114.797 E7.35458
G1 X116.203 Y101.826 E8.21162
G1 X115.443 Y101.826 E8.24712
G1 X129.174 Y115.557 E9.15437
G1 X129.174 Y116.317 E9.18988
G1 X114.683 Y101.826 E10.14734
G1 X113.923 Y101.826 E10.18284
G1 X129.174 Y117.077 E11.19052
G1 X129.174 Y117.837 E11.22602
G1 X113.163 Y101.826 E12.28391
G1 X112.403 Y101.826 E12.31941
G1 X129.174 Y118.597 E13.42751
G1 X129.174 Y119.357 E13.46302
G1 X111.643 Y101.826 E14.62133
G1 X110.883 Y101.826 E14.65684
G1 X129.174 Y120.117 E15.86537
G1 X129.174 Y120.877 E15.90087
G1 X110.123 Y101.826 E17.15961
G1 X109.363 Y101.826 E17.19512
G1 X129.174 Y121.637 E18.50407
G1 X129.174 Y122.397 E18.53958
G1 X108.603 Y101.826 E19.89875
G1 X107.843 Y101.826 E19.93425
G1 X129.174 Y123.157 E21.34363
G1 X129.174 Y123.917 E21.37914
G1 X107.083 Y101.826 E22.83873
G1 X106.324 Y101.826 E22.87424
G1 X129.174 Y124.676 E24.38404
G1 X129.174 Y125.436 E24.41955
G1 X105.564 Y101.826 E25.97957
G1 X104.804 Y101.826 E26.01508
G1 X129.174 Y126.196 E27.62531
G1 X129.174 Y126.683 E27.64805
G1 X129.134 Y126.917 E27.65912
G1 X104.084 Y101.866 E29.3143
G1 X103.807 Y101.911 E29.32743
G1 X103.489 Y102.032 E29.34328
G1 X128.977 Y127.52 E31.02737
G1 X128.823 Y127.835 E31.04375
G1 X128.702 Y128.005 E31.05349
G1 X102.994 Y102.297 E32.75212
