; generated by SuperSlicer 2.4 on 2022-12-01 at 15:06:48 UTC

; 

; external perimeters extrusion width = 0.43mm
; perimeters extrusion width = 0.48mm
; infill extrusion width = 0.46mm
; solid infill extrusion width = 0.48mm
; top infill extrusion width = 0.46mm
; first layer extrusion width = 0.58mm

; object:{"name":"stringing-test","id":"stringing-test.stl id:0 copy 0","object_center":[115.500000,115.500000,0.000000],"boundingbox_center":[115.500000,115.500000,12.800000],"boundingbox_size":[50.000000,10.000000,25.600000]}
; Total objects to print: 1
M486 T1
; plater:{"center":[115.500000,115.500000,0.000000],"boundingbox_center":[115.500000,115.500000,12.800000],"boundingbox_size":[50.000000,10.000000,25.600000]}

;TYPE:Custom
G90 ; use absolute coordinates
M83 ; extruder relative mode
M140 S60 ; set final bed temp
M104 S150 ; set temporary nozzle temp to prevent oozing during homing and auto bed leveling
G4 S10 ; allow partial nozzle warmup
G28 ; home all axis
;G29 ; auto bed levelling
G1 Z10 F240
G1 X2 Y10 F3000
G1 Z0 F240
M104 S210 ; set final nozzle temp
M190 S60 ; wait for bed temp to stabilize
M109 S210 ; wait for nozzle temp to stabilize
G1 Z0.28 F240
G92 E0
G1 Y140 E10 F1500 ; prime the nozzle
G1 X2.3 F5000
G92 E0
G1 Y10 E10 F1200 ; prime the nozzle
G92 E0
;start
M107
G21 ; set units to millimeters
G90 ; use absolute coordinates
M82 ; use absolute distances for extrusion
G92 E0
; Filament gcode
;_TOOLCHANGE 0
M107
;LAYER_CHANGE
;Z:0.2
;HEIGHT:0.2
;BEFORE_LAYER_CHANGE
;0.2


G1 E-8 F3000
G1 Z0.15 F9000
;AFTER_LAYER_CHANGE
;0.2
G92 E0
M204 S500
G1 X86.86 Y105.892
G1 E8 F3000
;TYPE:Skirt
;WIDTH:0.48
G1 F1200
G1 X85.775 Y107.057 E8.06076
G1 X85.381 Y108.6 E8.12151
G1 X85.381 Y122.4 E8.64813
G1 X85.892 Y124.14 E8.71732
G1 X87.057 Y125.225 E8.77807
G1 X88.6 Y125.619 E8.83883
G1 X142.4 Y125.619 E10.89186
G1 X144.14 Y125.108 E10.96106
G1 X145.225 Y123.943 E11.02181
G1 X145.619 Y122.4 E11.08257
G1 X145.619 Y108.6 E11.60918
G1 X145.108 Y106.86 E11.67837
G1 X143.943 Y105.775 E11.73913
G1 X142.4 Y105.381 E11.79989
G1 X88.6 Y105.381 E13.85292
G1 X86.918 Y105.875 E13.91982
G92 E0
G1 E-5.6 F3000
;WIPE_START
G1 F7200
G1 X85.775 Y107.057 E-6.25075
G1 X85.381 Y108.6 E-6.88096
G1 X85.381 Y111.124 E-7.88
;WIPE_END
G1 E-8 F3000
; acceleration to travel
M204 S1500
G1 X89.356 Y109.64 F9000
; decel to extrusion
M204 S500
G1 X89.842 Y109.458
; end travel
G1 E0 F3000
;WIDTH:0.576
G1 F1200
G1 X89.93 Y109.4 E0.00493
G1 X90.225 Y109.277 E0.0198
G1 X90.329 Y109.257 E0.02473
G1 X140.671 Y109.257 E2.36776
G1 X140.775 Y109.277 E2.37269
G1 X141.07 Y109.4 E2.38756
G1 X141.158 Y109.458 E2.39249
G1 X141.542 Y109.842 E2.41773
G1 X141.6 Y109.93 E2.42265
G1 X141.723 Y110.225 E2.43753
G1 X141.743 Y110.329 E2.44246
G1 X141.743 Y120.671 E2.9238
G1 X141.723 Y120.775 E2.92873
G1 X141.6 Y121.07 E2.94361
G1 X141.542 Y121.158 E2.94853
G1 X141.158 Y121.542 E2.97377
G1 X141.07 Y121.6 E2.9787
G1 X140.775 Y121.723 E2.99357
G1 X140.671 Y121.743 E2.9985
G1 X90.329 Y121.743 E5.34153
G1 X90.225 Y121.723 E5.34646
G1 X89.93 Y121.6 E5.36133
G1 X89.842 Y121.542 E5.36626
G1 X89.458 Y121.158 E5.3915
G1 X89.4 Y121.07 E5.39642
G1 X89.277 Y120.775 E5.4113
G1 X89.257 Y120.671 E5.41623
G1 X89.257 Y110.329 E5.89757
G1 X89.277 Y110.225 E5.9025
G1 X89.4 Y109.93 E5.91738
G1 X89.458 Y109.842 E5.9223
G1 X89.799 Y109.501 E5.94475
G1 X90.179 Y109.881 F9000
G1 F1200
G1 X90.382 Y109.794 E5.955
G1 X140.618 Y109.794 E8.29311
G1 X140.816 Y109.876 E8.30306
G1 X141.124 Y110.184 E8.32337
G1 X141.206 Y110.382 E8.33331
G1 X141.206 Y120.618 E8.80974
G1 X141.124 Y120.816 E8.81969
G1 X140.816 Y121.124 E8.84
G1 X140.618 Y121.206 E8.84995
G1 X90.382 Y121.206 E11.18805
G1 X90.184 Y121.124 E11.198
G1 X89.876 Y120.816 E11.21831
G1 X89.794 Y120.618 E11.22826
G1 X89.794 Y110.382 E11.70468
G1 X89.876 Y110.184 E11.71463
G1 X90.137 Y109.923 E11.73182
G1 X90.489 Y110.331 F9000
G1 F1200
G1 X140.511 Y110.331 E14.05997
G1 X140.669 Y110.489 E14.07033
G1 X140.669 Y120.511 E14.53681
G1 X140.511 Y120.669 E14.54716
G1 X90.489 Y120.669 E16.87532
G1 X90.331 Y120.511 E16.88568
G1 X90.331 Y110.489 E17.35215
G1 X90.446 Y110.374 E17.35972
; printing object stringing-test.stl id:0 copy 0
M486 S0
G1 X90.888 Y110.888 F9000
;TYPE:External perimeter
G1 F1200
G1 X140.112 Y110.888 E19.6507
G1 X140.112 Y120.112 E20.08001
G1 X90.888 Y120.112 E22.37099
G1 X90.888 Y110.948 E22.7975
;WIPE_START
G1 X91.234 Y111.088 F9000
;WIPE_END
G1 X91.425 Y111.425
;TYPE:Internal perimeter
G1 F1200
G1 X139.575 Y111.425 E25.03847
G1 X139.575 Y119.575 E25.41775
G1 X91.425 Y119.575 E27.65872
G1 X91.425 Y111.485 E28.03521
G92 E0
G1 E-5.6 F3000
;WIPE_START
G1 F7200
G1 X97.185 Y111.478 E-7.88
;WIPE_END
G1 E-8 F3000
; acceleration to travel
M204 S1500
G1 X133.848 Y111.575 F9000
; decel to extrusion
M204 S500
G1 X138.327 Y111.587
; end travel
G1 E0 F3000
;TYPE:Solid infill
;WIDTH:0.574664
G1 F1200
G1 X139.182 Y112.442 E0.05616
G1 X139.182 Y113.202 E0.09145
G1 X137.798 Y111.818 E0.18234
G1 X137.038 Y111.818 E0.21762
G1 X139.182 Y113.962 E0.35842
G1 X139.182 Y114.722 E0.39371
G1 X136.278 Y111.818 E0.58441
G1 X135.518 Y111.818 E0.61969
G1 X139.182 Y115.482 E0.8603
G1 X139.182 Y116.242 E0.89559
G1 X134.758 Y111.818 E1.18609
G1 X133.998 Y111.818 E1.22138
G1 X139.182 Y117.002 E1.56179
G1 X139.182 Y117.761 E1.59708
G1 X133.239 Y111.818 E1.9874
G1 X132.479 Y111.818 E2.02269
G1 X139.182 Y118.521 E2.46291
G1 X139.182 Y119.182 E2.4936
G1 X139.083 Y119.182 E2.4982
G1 X131.719 Y111.818 E2.98182
G1 X130.959 Y111.818 E3.01711
G1 X138.323 Y119.182 E3.50074
G1 X137.563 Y119.182 E3.53602
G1 X130.199 Y111.818 E4.01965
G1 X129.439 Y111.818 E4.05494
G1 X136.803 Y119.182 E4.53856
G1 X136.044 Y119.182 E4.57385
G1 X128.679 Y111.818 E5.05748
G1 X127.919 Y111.818 E5.09276
G1 X135.284 Y119.182 E5.57639
G1 X134.524 Y119.182 E5.61168
G1 X127.159 Y111.818 E6.0953
G1 X126.399 Y111.818 E6.13059
G1 X133.764 Y119.182 E6.61422
G1 X133.004 Y119.182 E6.6495
G1 X125.639 Y111.818 E7.13313
G1 X124.879 Y111.818 E7.16842
G1 X132.244 Y119.182 E7.65204
G1 X131.484 Y119.182 E7.68733
G1 X124.119 Y111.818 E8.17095
G1 X123.359 Y111.818 E8.20624
G1 X130.724 Y119.182 E8.68987
G1 X129.964 Y119.182 E8.72516
G1 X122.599 Y111.818 E9.20878
G1 X121.839 Y111.818 E9.24407
G1 X129.204 Y119.182 E9.72769
G1 X128.444 Y119.182 E9.76298
G1 X121.079 Y111.818 E10.24661
G1 X120.319 Y111.818 E10.2819
G1 X127.684 Y119.182 E10.76552
G1 X126.924 Y119.182 E10.80081
G1 X119.559 Y111.818 E11.28443
G1 X118.799 Y111.818 E11.31972
G1 X126.164 Y119.182 E11.80335
G1 X125.404 Y119.182 E11.83863
G1 X118.039 Y111.818 E12.32226
G1 X117.279 Y111.818 E12.35755
G1 X124.644 Y119.182 E12.84117
G1 X123.884 Y119.182 E12.87646
G1 X116.519 Y111.818 E13.36009
G1 X115.76 Y111.818 E13.39537
G1 X123.124 Y119.182 E13.879
G1 X122.364 Y119.182 E13.91429
G1 X115 Y111.818 E14.39791
G1 X114.24 Y111.818 E14.4332
G1 X121.604 Y119.182 E14.91683
G1 X120.844 Y119.182 E14.95211
G1 X113.48 Y111.818 E15.43574
G1 X112.72 Y111.818 E15.47103
G1 X120.084 Y119.182 E15.95465
G1 X119.324 Y119.182 E15.98994
G1 X111.96 Y111.818 E16.47357
G1 X111.2 Y111.818 E16.50885
G1 X118.565 Y119.182 E16.99248
G1 X117.805 Y119.182 E17.02777
G1 X110.44 Y111.818 E17.51139
G1 X109.68 Y111.818 E17.54668
G1 X117.045 Y119.182 E18.0303
G1 X116.285 Y119.182 E18.06559
G1 X108.92 Y111.818 E18.54922
G1 X108.16 Y111.818 E18.58451
G1 X115.525 Y119.182 E19.06813
G1 X114.765 Y119.182 E19.10342
G1 X107.4 Y111.818 E19.58704
G1 X106.64 Y111.818 E19.62233
G1 X114.005 Y119.182 E20.10596
G1 X113.245 Y119.182 E20.14124
G1 X105.88 Y111.818 E20.62487
G1 X105.12 Y111.818 E20.66016
G1 X112.485 Y119.182 E21.14378
G1 X111.725 Y119.182 E21.17907
G1 X104.36 Y111.818 E21.6627
G1 X103.6 Y111.818 E21.69798
G1 X110.965 Y119.182 E22.18161
G1 X110.205 Y119.182 E22.2169
G1 X102.84 Y111.818 E22.70052
G1 X102.08 Y111.818 E22.73581
G1 X109.445 Y119.182 E23.21944
G1 X108.685 Y119.182 E23.25472
G1 X101.32 Y111.818 E23.73835
G1 X100.56 Y111.818 E23.77364
G1 X107.925 Y119.182 E24.25726
G1 X107.165 Y119.182 E24.29255
G1 X99.8 Y111.818 E24.77618
G1 X99.04 Y111.818 E24.81146
G1 X106.405 Y119.182 E25.29509
G1 X105.645 Y119.182 E25.33038
G1 X98.281 Y111.818 E25.814
G1 X97.521 Y111.818 E25.84929
G1 X104.885 Y119.182 E26.33291
G1 X104.125 Y119.182 E26.3682
G1 X96.761 Y111.818 E26.85183
G1 X96.001 Y111.818 E26.88712
G1 X103.365 Y119.182 E27.37074
G1 X102.605 Y119.182 E27.40603
G1 X95.241 Y111.818 E27.88965
G1 X94.481 Y111.818 E27.92494
G1 X101.845 Y119.182 E28.40857
G1 X101.085 Y119.182 E28.44385
G1 X93.721 Y111.818 E28.92748
G1 X92.961 Y111.818 E28.96277
G1 X100.326 Y119.182 E29.44639
G1 X99.566 Y119.182 E29.48168
G1 X92.201 Y111.818 E29.96531
G1 X91.818 Y111.818 E29.9831
G1 X91.818 Y112.194 E30.00059
G1 X98.806 Y119.182 E30.45948
G1 X98.046 Y119.182 E30.49477
G1 X91.818 Y112.954 E30.90375
G1 X91.818 Y113.714 E30.93904
G1 X97.286 Y119.182 E31.29811
G1 X96.526 Y119.182 E31.3334
G1 X91.818 Y114.474 E31.64257
G1 X91.818 Y115.234 E31.67786
G1 X95.766 Y119.182 E31.93712
G1 X95.006 Y119.182 E31.97241
G1 X91.818 Y115.994 E32.18177
G1 X91.818 Y116.754 E32.21706
G1 X94.246 Y119.182 E32.37652
G1 X93.486 Y119.182 E32.41181
G1 X91.818 Y117.514 E32.52136
G1 X91.818 Y118.274 E32.55665
G1 X92.726 Y119.182 E32.6163
G1 X91.966 Y119.182 E32.65158
G1 X91.587 Y118.803 E32.6765
M106 S84.15
;LAYER_CHANGE
;Z:0.52
;HEIGHT:0.32
;BEFORE_LAYER_CHANGE
;0.52


G92 E0
G1 E-5.6 F3000
;WIPE_START
G1 F7200
G1 X91.966 Y119.182 E-5.81241
G1 X92.726 Y119.182 E-6.11323
G1 X91.818 Y118.274 E-6.6217
G1 X91.818 Y117.514 E-6.92252
G1 X93.486 Y119.182 E-7.85641
G1 X93.546 Y119.182 E-7.88
;WIPE_END
G1 E-8 F3000
; stop printing object stringing-test.stl id:0 copy 0
M486 S-1
G1 Z0.47 F9000
;AFTER_LAYER_CHANGE
;0.52
G92 E0
; acceleration to travel
M204 S1500
G1 X93.546 Y124.918
; decel to extrusion
M204 S500
G1 X93.546 Y125.619
; end travel
G1 E8 F3000
;TYPE:Skirt
;WIDTH:0.48
G1 F1200
G1 X142.4 Y125.619 E10.80715
G1 X144.14 Y125.108 E10.91133
G1 X145.225 Y123.943 E11.00281
G1 X145.619 Y122.4 E11.0943
G1 X145.619 Y108.6 E11.88724
G1 X145.108 Y106.86 E11.99142
G1 X143.943 Y105.775 E12.0829
G1 X142.4 Y105.381 E12.17438
G1 X88.6 Y105.381 E15.2657
G1 X86.86 Y105.892 E15.36988
G1 X85.775 Y107.057 E15.46136
G1 X85.381 Y108.6 E15.55285
G1 X85.381 Y122.4 E16.34579
G1 X85.892 Y124.14 E16.44997
G1 X87.057 Y125.225 E16.54145
G1 X88.6 Y125.619 E16.63293
G1 X93.486 Y125.619 E16.91365
G92 E0
G1 E-5.6 F3000
;WIPE_START
G1 F7200
G1 X99.246 Y125.619 E-7.88
;WIPE_END
G1 E-8 F3000
; printing object stringing-test.stl id:0 copy 0
M486 S0
; acceleration to travel
M204 S1500
G1 X91.651 Y120.872 F9000
; decel to extrusion
M204 S500
G1 X90.714 Y120.286
; end travel
G1 E0 F3000
;TYPE:External perimeter
;WIDTH:0.428
G1 F1500
G1 X90.714 Y110.714 E0.48047
G1 X140.286 Y110.714 E2.96875
G1 X140.286 Y120.286 E3.44922
G1 X90.774 Y120.286 E5.9345
;WIPE_START
G1 X90.914 Y119.94 F9000
;WIPE_END
G92 E0
G1 E-5.6 F3000
;WIPE_START
G1 F7200
G1 X90.914 Y114.18 E-7.88
;WIPE_END
G1 E-8 F3000
; acceleration to travel
M204 S1500
G1 X134.004 Y119.519 F9000
; decel to extrusion
M204 S500
G1 X139.39 Y120.187
; end travel
G1 E0 F3000
;TYPE:Top solid infill
;WIDTH:0.46377
G1 F1800
G1 X140.017 Y119.559 E0.04882
G1 X140.017 Y119.002 E0.0795
G1 X139.002 Y120.017 E0.15852
G1 X138.444 Y120.017 E0.18919
G1 X140.017 Y118.444 E0.31159
G1 X140.017 Y117.887 E0.34227
G1 X137.887 Y120.017 E0.50805
G1 X137.33 Y120.017 E0.53873
G1 X140.017 Y117.33 E0.7479
G1 X140.017 Y116.772 E0.77857
G1 X136.772 Y120.017 E1.03113
G1 X136.215 Y120.017 E1.0618
G1 X140.017 Y116.215 E1.35774
G1 X140.017 Y115.657 E1.38842
G1 X135.657 Y120.017 E1.72774
G1 X135.1 Y120.017 E1.75841
G1 X140.017 Y115.1 E2.14112
G1 X140.017 Y114.542 E2.17179
G1 X134.542 Y120.017 E2.59788
G1 X133.985 Y120.017 E2.62856
G1 X140.017 Y113.985 E3.09803
G1 X140.017 Y113.427 E3.12871
G1 X133.427 Y120.017 E3.64156
G1 X132.87 Y120.017 E3.67224
G1 X140.017 Y112.87 E4.22848
G1 X140.017 Y112.312 E4.25916
G1 X132.312 Y120.017 E4.85878
G1 X131.755 Y120.017 E4.88946
G1 X140.017 Y111.755 E5.53246
G1 X140.017 Y111.197 E5.56314
G1 X131.197 Y120.017 E6.24953
G1 X130.64 Y120.017 E6.28021
G1 X139.674 Y110.983 E6.9833
G1 X139.117 Y110.983 E7.01397
G1 X130.082 Y120.017 E7.71706
G1 X129.525 Y120.017 E7.74774
G1 X138.559 Y110.983 E8.45083
G1 X138.002 Y110.983 E8.4815
G1 X128.967 Y120.017 E9.18459
G1 X128.41 Y120.017 E9.21527
G1 X137.444 Y110.983 E9.91836
G1 X136.887 Y110.983 E9.94903
G1 X127.852 Y120.017 E10.65212
G1 X127.295 Y120.017 E10.6828
G1 X136.329 Y110.983 E11.38589
G1 X135.772 Y110.983 E11.41656
G1 X126.737 Y120.017 E12.11965
G1 X126.18 Y120.017 E12.15033
G1 X135.215 Y110.983 E12.85342
G1 X134.657 Y110.983 E12.88409
G1 X125.623 Y120.017 E13.58718
G1 X125.065 Y120.017 E13.61786
G1 X134.1 Y110.983 E14.32094
G1 X133.542 Y110.983 E14.35162
G1 X124.508 Y120.017 E15.05471
G1 X123.95 Y120.017 E15.08539
G1 X132.985 Y110.983 E15.78847
G1 X132.427 Y110.983 E15.81915
G1 X123.393 Y120.017 E16.52224
G1 X122.835 Y120.017 E16.55292
G1 X131.87 Y110.983 E17.256
G1 X131.312 Y110.983 E17.28668
G1 X122.278 Y120.017 E17.98977
G1 X121.72 Y120.017 E18.02045
G1 X130.755 Y110.983 E18.72353
G1 X130.197 Y110.983 E18.75421
G1 X121.163 Y120.017 E19.4573
G1 X120.605 Y120.017 E19.48798
G1 X129.64 Y110.983 E20.19106
G1 X129.082 Y110.983 E20.22174
G1 X120.048 Y120.017 E20.92483
G1 X119.49 Y120.017 E20.9555
G1 X128.525 Y110.983 E21.65859
G1 X127.967 Y110.983 E21.68927
G1 X118.933 Y120.017 E22.39236
G1 X118.375 Y120.017 E22.42303
G1 X127.41 Y110.983 E23.12612
G1 X126.852 Y110.983 E23.1568
G1 X117.818 Y120.017 E23.85989
G1 X117.26 Y120.017 E23.89056
G1 X126.295 Y110.983 E24.59365
G1 X125.737 Y110.983 E24.62433
G1 X116.703 Y120.017 E25.32742
G1 X116.145 Y120.017 E25.35809
G1 X125.18 Y110.983 E26.06118
G1 X124.623 Y110.983 E26.09186
G1 X115.588 Y120.017 E26.79495
G1 X115.031 Y120.017 E26.82562
G1 X124.065 Y110.983 E27.52871
G1 X123.508 Y110.983 E27.55939
G1 X114.473 Y120.017 E28.26248
G1 X113.916 Y120.017 E28.29315
G1 X122.95 Y110.983 E28.99624
G1 X122.393 Y110.983 E29.02692
G1 X113.358 Y120.017 E29.73
G1 X112.801 Y120.017 E29.76068
G1 X121.835 Y110.983 E30.46377
G1 X121.278 Y110.983 E30.49445
G1 X112.243 Y120.017 E31.19753
G1 X111.686 Y120.017 E31.22821
G1 X120.72 Y110.983 E31.9313
G1 X120.163 Y110.983 E31.96198
G1 X111.128 Y120.017 E32.66506
G1 X110.571 Y120.017 E32.69574
G1 X119.605 Y110.983 E33.39883
G1 X119.048 Y110.983 E33.42951
G1 X110.013 Y120.017 E34.13259
G1 X109.456 Y120.017 E34.16327
G1 X118.49 Y110.983 E34.86636
G1 X117.933 Y110.983 E34.89704
G1 X108.898 Y120.017 E35.60012
G1 X108.341 Y120.017 E35.6308
G1 X117.375 Y110.983 E36.33389
G1 X116.818 Y110.983 E36.36456
G1 X107.783 Y120.017 E37.06765
G1 X107.226 Y120.017 E37.09833
G1 X116.26 Y110.983 E37.80142
G1 X115.703 Y110.983 E37.83209
G1 X106.668 Y120.017 E38.53518
G1 X106.111 Y120.017 E38.56586
G1 X115.145 Y110.983 E39.26895
G1 X114.588 Y110.983 E39.29962
G1 X105.553 Y120.017 E40.00271
G1 X104.996 Y120.017 E40.03339
G1 X114.03 Y110.983 E40.73648
G1 X113.473 Y110.983 E40.76715
G1 X104.439 Y120.017 E41.47024
G1 X103.881 Y120.017 E41.50092
G1 X112.916 Y110.983 E42.20401
G1 X112.358 Y110.983 E42.23468
G1 X103.324 Y120.017 E42.93777
G1 X102.766 Y120.017 E42.96845
G1 X111.801 Y110.983 E43.67154
G1 X111.243 Y110.983 E43.70221
G1 X102.209 Y120.017 E44.4053
G1 X101.651 Y120.017 E44.43598
G1 X110.686 Y110.983 E45.13906
G1 X110.128 Y110.983 E45.16974
G1 X101.094 Y120.017 E45.87283
G1 X100.536 Y120.017 E45.90351
G1 X109.571 Y110.983 E46.60659
G1 X109.013 Y110.983 E46.63727
G1 X99.979 Y120.017 E47.34036
G1 X99.421 Y120.017 E47.37104
G1 X108.456 Y110.983 E48.07412
G1 X107.898 Y110.983 E48.1048
G1 X98.864 Y120.017 E48.80789
G1 X98.306 Y120.017 E48.83857
G1 X107.341 Y110.983 E49.54165
G1 X106.783 Y110.983 E49.57233
G1 X97.749 Y120.017 E50.27542
G1 X97.191 Y120.017 E50.3061
G1 X106.226 Y110.983 E51.00918
G1 X105.668 Y110.983 E51.03986
G1 X96.634 Y120.017 E51.74295
G1 X96.076 Y120.017 E51.77362
G1 X105.111 Y110.983 E52.47671
G1 X104.553 Y110.983 E52.50739
G1 X95.519 Y120.017 E53.21048
G1 X94.961 Y120.017 E53.24115
G1 X103.996 Y110.983 E53.94424
