; generated by SuperSlicer 2.4 on 2022-12-01 at 15:05:23 UTC

; 

; external perimeters extrusion width = 0.43mm
; perimeters extrusion width = 0.48mm
; infill extrusion width = 0.46mm
; solid infill extrusion width = 0.48mm
; top infill extrusion width = 0.46mm
; first layer extrusion width = 0.58mm

; object:{"name":"Stringing_Extreme_Test","id":"Stringing_Extreme_Test.stl id:0 copy 0","object_center":[115.500000,115.500000,0.000000],"boundingbox_center":[115.500000,115.500000,10.000000],"boundingbox_size":[30.225322,8.039226,20.000000]}
; Total objects to print: 1
M486 T1
; plater:{"center":[115.500000,115.500000,0.000000],"boundingbox_center":[115.500000,115.500000,10.000000],"boundingbox_size":[30.225322,8.039226,20.000000]}

;TYPE:Custom
G90 ; use absolute coordinates
M83 ; extruder relative mode
M140 S60 ; set final bed temp
M104 S150 ; set temporary nozzle temp to prevent oozing during homing and auto bed leveling
G4 S10 ; allow partial nozzle warmup
G28 ; home all axis
;G29 ; auto bed levelling
G1 Z10 F240
G1 X2 Y10 F3000
G1 Z0 F240
M104 S210 ; set final nozzle temp
M190 S60 ; wait for bed temp to stabilize
M109 S210 ; wait for nozzle temp to stabilize
G1 Z0.28 F240
G92 E0
G1 Y140 E10 F1500 ; prime the nozzle
G1 X2.3 F5000
G92 E0
G1 Y10 E10 F1200 ; prime the nozzle
G92 E0
;start
M107
G21 ; set units to millimeters
G90 ; use absolute coordinates
M82 ; use absolute distances for extrusion
G92 E0
; Filament gcode
;_TOOLCHANGE 0
M107
;LAYER_CHANGE
;Z:0.2
;HEIGHT:0.2
;BEFORE_LAYER_CHANGE
;0.2


G1 E-8 F3000
G1 Z0.15 F9000
;AFTER_LAYER_CHANGE
;0.2
G92 E0
M204 S500
G1 X96.59 Y108.045
G1 E8 F3000
;TYPE:Skirt
;WIDTH:0.48
G1 F1200
G1 X95.546 Y109.248 E8.06076
G1 X95.206 Y110.803 E8.12151
G1 X95.581 Y121.596 E8.53365
G1 X96.152 Y123.317 E8.60284
G1 X97.355 Y124.361 E8.66359
G1 X98.91 Y124.701 E8.72435
G1 X132.69 Y123.526 E10.01417
G1 X134.41 Y122.955 E10.08336
G1 X135.454 Y121.752 E10.14412
G1 X135.794 Y120.197 E10.20488
G1 X135.419 Y109.404 E10.61701
G1 X134.848 Y107.683 E10.6862
G1 X133.645 Y106.639 E10.74696
G1 X132.09 Y106.299 E10.80771
G1 X98.31 Y107.474 E12.09754
G1 X96.646 Y108.027 E12.16444
G92 E0
G1 E-5.6 F3000
;WIPE_START
G1 F7200
G1 X95.546 Y109.248 E-6.25075
G1 X95.206 Y110.803 E-6.88096
G1 X95.294 Y113.325 E-7.88
;WIPE_END
G1 E-8 F3000
; acceleration to travel
M204 S1500
G1 X99.214 Y111.704 F9000
; decel to extrusion
M204 S500
G1 X99.693 Y111.506
; end travel
G1 E0 F3000
;WIDTH:0.576
G1 F1200
G1 X99.779 Y111.444 E0.00493
G1 X100.07 Y111.311 E0.0198
G1 X100.173 Y111.287 E0.02473
G1 X130.497 Y110.232 E1.43692
G1 X130.601 Y110.249 E1.44185
G1 X130.901 Y110.361 E1.45672
G1 X130.991 Y110.416 E1.46165
G1 X131.387 Y110.786 E1.48689
G1 X131.449 Y110.872 E1.49181
G1 X131.582 Y111.163 E1.50669
G1 X131.606 Y111.266 E1.51161
G1 X131.861 Y118.604 E1.85334
G1 X131.844 Y118.708 E1.85826
G1 X131.732 Y119.008 E1.87314
G1 X131.677 Y119.098 E1.87807
G1 X131.307 Y119.494 E1.9033
G1 X131.221 Y119.556 E1.90823
G1 X130.93 Y119.689 E1.92311
G1 X130.827 Y119.713 E1.92803
G1 X100.503 Y120.768 E3.34022
G1 X100.399 Y120.751 E3.34515
G1 X100.099 Y120.639 E3.36003
G1 X100.009 Y120.584 E3.36495
G1 X99.613 Y120.214 E3.39019
G1 X99.551 Y120.128 E3.39511
G1 X99.418 Y119.837 E3.40999
G1 X99.394 Y119.734 E3.41492
G1 X99.139 Y112.396 E3.75664
G1 X99.156 Y112.292 E3.76157
G1 X99.268 Y111.992 E3.77644
G1 X99.323 Y111.902 E3.78137
G1 X99.652 Y111.55 E3.80381
G1 X100.045 Y111.916 F9000
G1 F1200
G1 X100.245 Y111.822 E3.81407
G1 X130.463 Y110.771 E5.22133
G1 X130.663 Y110.846 E5.23128
G1 X130.982 Y111.143 E5.25159
G1 X131.071 Y111.338 E5.26154
G1 X131.322 Y118.57 E5.59834
G1 X131.248 Y118.77 E5.60829
G1 X130.95 Y119.089 E5.6286
G1 X130.755 Y119.178 E5.63855
G1 X100.537 Y120.229 E7.04581
G1 X100.337 Y120.154 E7.05576
G1 X100.018 Y119.857 E7.07607
G1 X99.929 Y119.662 E7.08602
G1 X99.678 Y112.43 E7.42281
G1 X99.752 Y112.23 E7.43276
G1 X100.004 Y111.96 E7.44995
G1 X100.37 Y112.356 F9000
G1 F1200
G1 X130.375 Y111.311 E8.84726
G1 X130.537 Y111.463 E8.85762
G1 X130.554 Y111.941 E8.87987
G1 X130.782 Y118.482 E9.18447
G1 X130.63 Y118.644 E9.19483
G1 X100.625 Y119.689 E10.59214
G1 X100.463 Y119.537 E10.6025
G1 X100.218 Y112.518 E10.92935
G1 X100.329 Y112.4 E10.93692
; printing object Stringing_Extreme_Test.stl id:0 copy 0
M486 S0
G1 X100.789 Y112.898 F9000
;TYPE:External perimeter
G1 F1200
G1 X129.995 Y111.882 E12.29706
G1 X129.998 Y111.96 E12.30072
G1 X130.211 Y118.102 E12.58674
G1 X101.005 Y119.118 E13.94688
G1 X100.791 Y112.958 E14.23377
;WIPE_START
G1 X101.142 Y113.086 F9000
;WIPE_END
G1 X101.344 Y113.416
;TYPE:Internal perimeter
G1 F1200
G1 X129.477 Y112.437 E15.54389
G1 X129.656 Y117.584 E15.78355
G1 X101.523 Y118.563 E17.09368
G1 X101.346 Y113.476 E17.33054
G92 E0
G1 E-5.6 F3000
;WIPE_START
G1 F7200
G1 X107.102 Y113.264 E-7.88
;WIPE_END
G1 E-8 F3000
; acceleration to travel
M204 S1500
G1 X126.937 Y113.679 F9000
; decel to extrusion
M204 S500
G1 X129.36 Y113.73
; end travel
G1 E0 F3000
;TYPE:Solid infill
;WIDTH:0.573042
G1 F1200
G1 X128.495 Y112.864 E0.05668
G1 X127.76 Y112.89 E0.0907
G1 X129.148 Y114.277 E0.18157
G1 X129.176 Y115.065 E0.21805
G1 X127.026 Y112.915 E0.35881
G1 X126.292 Y112.941 E0.39284
G1 X129.203 Y115.852 E0.58348
G1 X129.23 Y116.639 E0.61996
G1 X125.557 Y112.966 E0.86049
G1 X124.823 Y112.992 E0.89451
G1 X129.043 Y117.212 E1.17088
G1 X128.309 Y117.238 E1.2049
G1 X124.088 Y113.017 E1.48127
G1 X123.354 Y113.043 E1.5153
G1 X127.574 Y117.263 E1.79167
G1 X126.84 Y117.289 E1.82569
G1 X122.62 Y113.069 E2.10206
G1 X121.885 Y113.094 E2.13608
G1 X126.106 Y117.315 E2.41245
G1 X125.371 Y117.34 E2.44648
G1 X121.151 Y113.12 E2.72285
G1 X120.416 Y113.145 E2.75687
G1 X124.637 Y117.366 E3.03324
G1 X123.902 Y117.391 E3.06726
G1 X119.682 Y113.171 E3.34363
G1 X118.948 Y113.196 E3.37766
G1 X123.168 Y117.417 E3.65403
G1 X122.434 Y117.442 E3.68805
G1 X118.213 Y113.222 E3.96442
G1 X117.479 Y113.247 E3.99844
G1 X121.699 Y117.468 E4.27481
G1 X120.965 Y117.493 E4.30884
G1 X116.744 Y113.273 E4.58521
G1 X116.01 Y113.299 E4.61923
G1 X120.23 Y117.519 E4.8956
G1 X119.496 Y117.545 E4.92962
G1 X115.276 Y113.324 E5.20599
G1 X114.541 Y113.35 E5.24002
G1 X118.762 Y117.57 E5.51639
G1 X118.027 Y117.596 E5.55041
G1 X113.807 Y113.375 E5.82678
G1 X113.072 Y113.401 E5.8608
G1 X117.293 Y117.621 E6.13717
G1 X116.558 Y117.647 E6.1712
G1 X112.338 Y113.426 E6.44757
G1 X111.604 Y113.452 E6.48159
G1 X115.824 Y117.672 E6.75796
G1 X115.09 Y117.698 E6.79198
G1 X110.869 Y113.477 E7.06835
G1 X110.135 Y113.503 E7.10238
G1 X114.355 Y117.724 E7.37875
G1 X113.621 Y117.749 E7.41277
G1 X109.4 Y113.529 E7.68914
G1 X108.666 Y113.554 E7.72317
G1 X112.886 Y117.775 E7.99953
G1 X112.152 Y117.8 E8.03356
G1 X107.932 Y113.58 E8.30993
G1 X107.197 Y113.605 E8.34395
G1 X111.418 Y117.826 E8.62032
G1 X110.683 Y117.851 E8.65435
G1 X106.463 Y113.631 E8.93071
G1 X105.728 Y113.656 E8.96474
G1 X109.949 Y117.877 E9.24111
G1 X109.215 Y117.902 E9.27513
G1 X104.994 Y113.682 E9.5515
G1 X104.26 Y113.708 E9.58553
G1 X108.48 Y117.928 E9.86189
G1 X107.746 Y117.954 E9.89592
G1 X103.525 Y113.733 E10.17229
G1 X102.791 Y113.759 E10.20631
G1 X107.011 Y117.979 E10.48268
G1 X106.277 Y118.005 E10.51671
G1 X102.056 Y113.784 E10.79307
G1 X101.75 Y113.795 E10.80727
G1 X101.766 Y114.254 E10.82853
G1 X105.543 Y118.03 E11.07583
G1 X104.808 Y118.056 E11.10985
G1 X101.793 Y115.041 E11.30726
G1 X101.821 Y115.828 E11.34374
G1 X104.074 Y118.081 E11.49127
G1 X103.339 Y118.107 E11.5253
G1 X101.848 Y116.616 E11.62294
G1 X101.876 Y117.403 E11.65942
G1 X102.828 Y118.356 E11.72181
M106 S84.15
;LAYER_CHANGE
;Z:0.52
;HEIGHT:0.32
;BEFORE_LAYER_CHANGE
;0.52


G92 E0
G1 E-5.6 F3000
;WIPE_START
G1 F7200
G1 X101.876 Y117.403 E-6.13335
G1 X101.848 Y116.616 E-6.44521
G1 X103.339 Y118.107 E-7.27994
G1 X104.074 Y118.081 E-7.57081
G1 X103.521 Y117.529 E-7.88
;WIPE_END
G1 E-8 F3000
; stop printing object Stringing_Extreme_Test.stl id:0 copy 0
M486 S-1
G1 Z0.47 F9000
;AFTER_LAYER_CHANGE
;0.52
G92 E0
; acceleration to travel
M204 S1500
G1 X103.739 Y123.77
; decel to extrusion
M204 S500
G1 X103.765 Y124.532
; end travel
G1 E8 F3000
;TYPE:Skirt
;WIDTH:0.48
G1 F1200
G1 X132.69 Y123.526 E9.66299
G1 X134.41 Y122.955 E9.76717
G1 X135.454 Y121.752 E9.85865
G1 X135.794 Y120.197 E9.95013
G1 X135.419 Y109.404 E10.5707
G1 X134.848 Y107.683 E10.67488
G1 X133.645 Y106.639 E10.76636
G1 X132.09 Y106.299 E10.85784
G1 X98.31 Y107.474 E12.79997
G1 X96.59 Y108.045 E12.90415
G1 X95.546 Y109.248 E12.99564
G1 X95.206 Y110.803 E13.08712
G1 X95.581 Y121.596 E13.70768
G1 X96.152 Y123.317 E13.81186
G1 X97.355 Y124.361 E13.90334
G1 X98.91 Y124.701 E13.99483
G1 X103.705 Y124.534 E14.27052
G92 E0
G1 E-5.6 F3000
;WIPE_START
G1 F7200
G1 X109.462 Y124.334 E-7.88
;WIPE_END
G1 E-8 F3000
; printing object Stringing_Extreme_Test.stl id:0 copy 0
M486 S0
; acceleration to travel
M204 S1500
G1 X102.157 Y119.517 F9000
; decel to extrusion
M204 S500
G1 X101.214 Y118.895
; end travel
G1 E0 F3000
;TYPE:Internal perimeter
;WIDTH:0.476
G1 F2400
G1 X101.012 Y113.107 E0.32955
G1 X129.786 Y112.105 E1.96781
G1 X129.988 Y117.893 E2.29735
G1 X101.274 Y118.893 E3.9322
G1 X100.837 Y119.298 F9000
;TYPE:External perimeter
;WIDTH:0.428
G1 F1500
G1 X100.609 Y112.73 E4.26208
G1 X130.163 Y111.702 E5.74646
G1 X130.391 Y118.27 E6.07634
G1 X100.897 Y119.296 E7.55771
;WIPE_START
G1 X101.025 Y118.945 F9000
;WIPE_END
G92 E0
G1 E-5.6 F3000
;WIPE_START
G1 F7200
G1 X100.825 Y113.189 E-7.88
;WIPE_END
G1 E-8 F3000
G1 X101.967 Y113.198 F9000
G1 E0 F3000
;TYPE:Solid infill
;WIDTH:0.484056
G1 F2400
G1 X101.34 Y113.825 E0.05131
G1 X101.359 Y114.391 E0.08409
G1 X102.389 Y113.361 E0.16834
G1 X102.996 Y113.34 E0.20348
G1 X101.379 Y114.957 E0.33578
G1 X101.399 Y115.523 E0.36855
G1 X103.603 Y113.319 E0.5489
G1 X104.21 Y113.298 E0.58404
G1 X101.419 Y116.089 E0.81244
G1 X101.438 Y116.655 E0.84522
G1 X104.817 Y113.277 E1.12167
G1 X105.423 Y113.256 E1.15681
G1 X101.458 Y117.221 E1.48131
G1 X101.478 Y117.787 E1.51408
G1 X106.03 Y113.235 E1.88663
G1 X106.637 Y113.213 E1.92177
G1 X101.497 Y118.353 E2.34237
G1 X101.505 Y118.582 E2.35562
G1 X101.867 Y118.57 E2.37655
G1 X107.244 Y113.192 E2.81658
G1 X107.851 Y113.171 E2.85171
G1 X102.474 Y118.548 E3.29174
G1 X103.081 Y118.527 E3.32688
G1 X108.458 Y113.15 E3.7669
G1 X109.065 Y113.129 E3.80204
G1 X103.687 Y118.506 E4.24206
G1 X104.294 Y118.485 E4.2772
G1 X109.672 Y113.108 E4.71722
G1 X110.278 Y113.087 E4.75236
G1 X104.901 Y118.464 E5.19238
G1 X105.508 Y118.443 E5.22752
G1 X110.885 Y113.066 E5.66754
G1 X111.492 Y113.044 E5.70268
G1 X106.115 Y118.422 E6.14271
G1 X106.722 Y118.401 E6.17784
G1 X112.099 Y113.023 E6.61787
G1 X112.706 Y113.002 E6.653
G1 X107.329 Y118.379 E7.09303
G1 X107.936 Y118.358 E7.12817
G1 X113.313 Y112.981 E7.56819
G1 X113.92 Y112.96 E7.60333
G1 X108.543 Y118.337 E8.04335
G1 X109.149 Y118.316 E8.07849
G1 X114.527 Y112.939 E8.51851
G1 X115.133 Y112.918 E8.55365
G1 X109.756 Y118.295 E8.99367
G1 X110.363 Y118.274 E9.02881
G1 X115.74 Y112.897 E9.46883
G1 X116.347 Y112.875 E9.50397
G1 X110.97 Y118.253 E9.94399
G1 X111.577 Y118.232 E9.97913
G1 X116.954 Y112.854 E10.41916
G1 X117.561 Y112.833 E10.45429
G1 X112.184 Y118.21 E10.89432
G1 X112.791 Y118.189 E10.92945
G1 X118.168 Y112.812 E11.36948
G1 X118.775 Y112.791 E11.40462
G1 X113.398 Y118.168 E11.84464
G1 X114.004 Y118.147 E11.87978
G1 X119.382 Y112.77 E12.3198
G1 X119.989 Y112.749 E12.35494
G1 X114.611 Y118.126 E12.79496
G1 X115.218 Y118.105 E12.8301
G1 X120.595 Y112.728 E13.27012
G1 X121.202 Y112.707 E13.30526
G1 X115.825 Y118.084 E13.74528
G1 X116.432 Y118.063 E13.78042
G1 X121.809 Y112.685 E14.22044
G1 X122.416 Y112.664 E14.25558
G1 X117.039 Y118.041 E14.69561
G1 X117.646 Y118.02 E14.73074
G1 X123.023 Y112.643 E15.17077
G1 X123.63 Y112.622 E15.2059
G1 X118.253 Y117.999 E15.64593
G1 X118.859 Y117.978 E15.68107
G1 X124.237 Y112.601 E16.12109
G1 X124.844 Y112.58 E16.15623
G1 X119.466 Y117.957 E16.59625
G1 X120.073 Y117.936 E16.63139
G1 X125.45 Y112.559 E17.07141
G1 X126.057 Y112.538 E17.10655
G1 X120.68 Y117.915 E17.54657
G1 X121.287 Y117.894 E17.58171
G1 X126.664 Y112.516 E18.02173
G1 X127.271 Y112.495 E18.05687
G1 X121.894 Y117.872 E18.4969
G1 X122.501 Y117.851 E18.53203
G1 X127.878 Y112.474 E18.97206
G1 X128.485 Y112.453 E19.00719
G1 X123.108 Y117.83 E19.44722
G1 X123.715 Y117.809 E19.48236
G1 X129.092 Y112.432 E19.92238
G1 X129.495 Y112.418 E19.94571
G1 X129.501 Y112.608 E19.95672
G1 X124.321 Y117.788 E20.3806
G1 X124.928 Y117.767 E20.41574
G1 X129.521 Y113.174 E20.79157
G1 X129.541 Y113.74 E20.82435
G1 X125.535 Y117.746 E21.15213
G1 X126.142 Y117.725 E21.18727
G1 X129.56 Y114.306 E21.467
G1 X129.58 Y114.872 E21.49977
G1 X126.749 Y117.704 E21.73145
G1 X127.356 Y117.682 E21.76659
G1 X129.6 Y115.438 E21.95022
G1 X129.62 Y116.004 E21.983
G1 X127.963 Y117.661 E22.11858
G1 X128.57 Y117.64 E22.15372
G1 X129.639 Y116.57 E22.24125
G1 X129.659 Y117.137 E22.27402
G1 X128.992 Y117.804 E22.32862
M106 S170.85
;LAYER_CHANGE
;Z:0.84
;HEIGHT:0.32
;BEFORE_LAYER_CHANGE
;0.84


G92 E0
G1 E-5.6 F3000
;WIPE_START
G1 F7200
G1 X129.659 Y117.137 E-5.97345
G1 X129.639 Y116.57 E-6.19765
G1 X128.57 Y117.64 E-6.79645
G1 X127.963 Y117.661 E-7.03682
G1 X129.469 Y116.155 E-7.88
;WIPE_END
G1 E-8 F3000
; stop printing object Stringing_Extreme_Test.stl id:0 copy 0
M486 S-1
G1 Z0.79 F9000
;AFTER_LAYER_CHANGE
;0.84
; printing object Stringing_Extreme_Test.stl id:0 copy 0
M486 S0
G1 X129.988 Y117.893
G1 E0 F3000
;TYPE:Internal perimeter
;WIDTH:0.476
G1 F2023
G1 X101.214 Y118.895 E1.63826
G1 X101.012 Y113.107 E1.96781
G1 X129.786 Y112.105 E3.60607
G1 X129.986 Y117.833 E3.9322
G1 X130.391 Y118.27 F9000
;TYPE:External perimeter
;WIDTH:0.428
G1 F1500
G1 X100.837 Y119.298 E5.41658
G1 X100.609 Y112.73 E5.74646
G1 X130.163 Y111.702 E7.23084
G1 X130.389 Y118.21 E7.55771
;WIPE_START
G1 X130.038 Y118.082 F9000
;WIPE_END
G92 E0
G1 E-5.6 F3000
;WIPE_START
G1 F7200
G1 X124.282 Y118.282 E-7.88
;WIPE_END
G1 E-8 F3000
; acceleration to travel
M204 S1500
G1 X129.077 Y113.694 F9000
; decel to extrusion
M204 S500
G1 X129.697 Y113.101
; end travel
G1 E0 F3000
;TYPE:Solid infill
;WIDTH:0.483725
G1 F2023
G1 X129.03 Y112.434 E0.05455
G1 X128.464 Y112.454 E0.08731
G1 X129.533 Y113.523 E0.17478
G1 X129.554 Y114.13 E0.20989
G1 X127.897 Y112.474 E0.34538
G1 X127.331 Y112.493 E0.37813
G1 X129.575 Y114.737 E0.56164
G1 X129.597 Y115.344 E0.59675
G1 X126.765 Y112.513 E0.82828
G1 X126.199 Y112.533 E0.86103
G1 X129.618 Y115.951 E1.14057
G1 X129.639 Y116.558 E1.17568
G1 X125.633 Y112.552 E1.50324
G1 X125.067 Y112.572 E1.53599
G1 X129.66 Y117.165 E1.91157
G1 X129.675 Y117.602 E1.93685
G1 X129.517 Y117.607 E1.94602
G1 X124.501 Y112.592 E2.35616
G1 X123.935 Y112.611 E2.38892
G1 X128.951 Y117.627 E2.79906
G1 X128.385 Y117.647 E2.83181
G1 X123.369 Y112.631 E3.24196
G1 X122.803 Y112.651 E3.27471
G1 X127.818 Y117.666 E3.68485
G1 X127.252 Y117.686 E3.7176
G1 X122.237 Y112.671 E4.12775
G1 X121.671 Y112.69 E4.1605
G1 X126.686 Y117.706 E4.57065
G1 X126.12 Y117.725 E4.6034
G1 X121.105 Y112.71 E5.01354
G1 X120.539 Y112.73 E5.04629
G1 X125.554 Y117.745 E5.45644
G1 X124.988 Y117.765 E5.48919
G1 X119.973 Y112.749 E5.89934
G1 X119.407 Y112.769 E5.93209
G1 X124.422 Y117.785 E6.34223
G1 X123.856 Y117.804 E6.37498
G1 X118.841 Y112.789 E6.78513
G1 X118.274 Y112.808 E6.81788
G1 X123.29 Y117.824 E7.22802
G1 X122.724 Y117.844 E7.26078
G1 X117.708 Y112.828 E7.67092
G1 X117.142 Y112.848 E7.70367
G1 X122.158 Y117.863 E8.11382
G1 X121.592 Y117.883 E8.14657
G1 X116.576 Y112.868 E8.55671
G1 X116.01 Y112.887 E8.58947
G1 X121.026 Y117.903 E8.99961
G1 X120.46 Y117.922 E9.03236
G1 X115.444 Y112.907 E9.44251
G1 X114.878 Y112.927 E9.47526
G1 X119.894 Y117.942 E9.8854
G1 X119.328 Y117.962 E9.91816
G1 X114.312 Y112.946 E10.3283
G1 X113.746 Y112.966 E10.36105
G1 X118.762 Y117.982 E10.7712
G1 X118.195 Y118.001 E10.80395
G1 X113.18 Y112.986 E11.21409
G1 X112.614 Y113.005 E11.24684
G1 X117.629 Y118.021 E11.65699
G1 X117.063 Y118.041 E11.68974
G1 X112.048 Y113.025 E12.09989
G1 X111.482 Y113.045 E12.13264
G1 X116.497 Y118.06 E12.54278
G1 X115.931 Y118.08 E12.57553
G1 X110.916 Y113.065 E12.98568
