; generated by SuperSlicer 2.4 on 2022-12-01 at 15:01:22 UTC

; 

; external perimeters extrusion width = 0.43mm
; perimeters extrusion width = 0.48mm
; infill extrusion width = 0.46mm
; solid infill extrusion width = 0.48mm
; top infill extrusion width = 0.46mm
; first layer extrusion width = 0.58mm

; object:{"name":"90_deg_angle_litho_tower","id":"90_deg_angle_litho_tower.stl id:0 copy 0","object_center":[115.481497,115.159411,0.000000],"boundingbox_center":[115.481497,115.159411,27.591846],"boundingbox_size":[21.041578,20.397407,55.183692]}
; Total objects to print: 1
M486 T1
; plater:{"center":[115.481497,115.159411,0.000000],"boundingbox_center":[115.481497,115.159411,27.591846],"boundingbox_size":[21.041578,20.397407,55.183692]}

;TYPE:Custom
G90 ; use absolute coordinates
M83 ; extruder relative mode
M140 S60 ; set final bed temp
M104 S150 ; set temporary nozzle temp to prevent oozing during homing and auto bed leveling
G4 S10 ; allow partial nozzle warmup
G28 ; home all axis
;G29 ; auto bed levelling
G1 Z10 F240
G1 X2 Y10 F3000
G1 Z0 F240
M104 S210 ; set final nozzle temp
M190 S60 ; wait for bed temp to stabilize
M109 S210 ; wait for nozzle temp to stabilize
G1 Z0.28 F240
G92 E0
G1 Y140 E10 F1500 ; prime the nozzle
G1 X2.3 F5000
G92 E0
G1 Y10 E10 F1200 ; prime the nozzle
G92 E0
;start
M107
G21 ; set units to millimeters
G90 ; use absolute coordinates
M82 ; use absolute distances for extrusion
G92 E0
; Filament gcode
;_TOOLCHANGE 0
M107
;LAYER_CHANGE
;Z:0.2
;HEIGHT:0.2
;BEFORE_LAYER_CHANGE
;0.2


G1 E-8 F3000
G1 Z0.15 F9000
;AFTER_LAYER_CHANGE
;0.2
G92 E0
M204 S500
G1 X99.92 Y105.437
G1 E8 F3000
;TYPE:Skirt
;WIDTH:0.48
G1 F1200
G1 X99.134 Y106.943 E8.06481
G1 X99.113 Y108.641 E8.12962
G1 X102.866 Y123.994 E8.73273
G1 X104.345 Y128.513 E8.91418
G1 X105.106 Y129.822 E8.97198
G1 X105.667 Y130.442 E9.00389
G1 X107.329 Y131.492 E9.07889
G1 X109.024 Y131.588 E9.1437
G1 X113.452 Y130.792 E9.31537
G1 X129.022 Y126.889 E9.9279
G1 X130.61 Y126.025 E9.99689
G1 X131.553 Y124.613 E10.0617
G1 X131.756 Y122.927 E10.12651
G1 X131.396 Y120.054 E10.23701
G1 X128.074 Y106.532 E10.76836
G1 X127.353 Y103.984 E10.86939
G1 X126.656 Y101.674 E10.96147
G1 X125.654 Y100.06 E11.03399
G1 X124.178 Y99.219 E11.0988
G1 X122.482 Y99.136 E11.16361
G1 X119.512 Y99.701 E11.27896
G1 X115.949 Y100.603 E11.41923
G1 X101.757 Y104.298 E11.97883
G1 X99.971 Y105.406 E12.05906
G1 X100.355 Y105.63 F9000
G1 F1200
G1 X99.583 Y106.953 E12.11753
G1 X99.539 Y108.545 E12.17828
G1 X103.353 Y124.103 E12.78957
G1 X104.76 Y128.376 E12.96124
G1 X105.43 Y129.529 E13.01214
G1 X105.991 Y130.149 E13.04404
G1 X107.359 Y131.043 E13.1064
G1 X108.947 Y131.158 E13.16715
G1 X113.375 Y130.362 E13.33883
G1 X128.914 Y126.465 E13.95019
G1 X130.162 Y125.836 E14.00352
G1 X131.107 Y124.554 E14.06428
G1 X131.322 Y122.977 E14.12504
G1 X130.972 Y120.158 E14.23344
G1 X127.62 Y106.523 E14.76922
G1 X126.238 Y101.8 E14.95702
G1 X125.497 Y100.519 E15.01349
G1 X124.151 Y99.668 E15.07425
G1 X122.562 Y99.566 E15.135
G1 X119.619 Y100.125 E15.24932
G1 X101.868 Y104.721 E15.94907
G1 X100.385 Y105.578 E16.01442
G92 E0
G1 E-5.6 F3000
;WIPE_START
G1 F7200
G1 X99.583 Y106.953 E-6.23022
G1 X99.539 Y108.545 E-6.86044
G1 X100.152 Y111.047 E-7.88
;WIPE_END
G1 E-8 F3000
; acceleration to travel
M204 S1500
G1 X103.664 Y108.655 F9000
; decel to extrusion
M204 S500
G1 X104.093 Y108.363
; end travel
G1 E0 F3000
;WIDTH:0.576
G1 F1200
G1 X104.164 Y108.285 E0.00493
G1 X104.42 Y108.094 E0.0198
G1 X104.516 Y108.048 E0.02473
G1 X115.711 Y105.214 E0.5622
G1 X116.55 Y104.971 E0.60289
G1 X117.101 Y104.76 E0.63032
G1 X120.511 Y103.897 E0.79403
G1 X121.744 Y103.673 E0.85238
G1 X121.843 Y103.673 E0.85701
G1 X122.137 Y103.73 E0.87094
G1 X122.23 Y103.766 E0.87556
G1 X122.659 Y104.034 E0.89913
G1 X122.733 Y104.101 E0.90375
G1 X122.912 Y104.34 E0.91768
G1 X122.957 Y104.429 E0.92229
G1 X123.083 Y104.876 E0.94392
G1 X123.227 Y105.242 E0.9622
G1 X123.405 Y105.868 E0.99253
G1 X123.404 Y106.051 E1.00101
G1 X127.186 Y120.991 E1.7183
G1 X127.288 Y121.813 E1.75683
G1 X127.281 Y121.916 E1.76163
G1 X127.201 Y122.212 E1.77593
G1 X127.157 Y122.304 E1.78065
G1 X126.848 Y122.72 E1.80479
G1 X126.773 Y122.789 E1.80951
G1 X126.513 Y122.95 E1.82376
G1 X126.418 Y122.987 E1.82848
G1 X125.922 Y123.077 E1.85195
G1 X125.675 Y123.139 E1.86382
G1 X125.196 Y123.296 E1.88729
G1 X125.05 Y123.307 E1.8941
G1 X115.063 Y125.843 E2.37368
G1 X114.239 Y126.08 E2.41355
G1 X113.712 Y126.287 E2.43992
G1 X112.695 Y126.545 E2.48876
G1 X111.821 Y126.704 E2.53008
G1 X111.672 Y126.689 E2.53707
G1 X111.248 Y126.522 E2.55828
G1 X111.129 Y126.431 E2.56525
G1 X110.658 Y125.799 E2.60193
G1 X110.605 Y125.659 E2.6089
G1 X110.566 Y125.205 E2.6301
G1 X110.594 Y125.058 E2.63707
G1 X110.983 Y124.289 E2.67718
G1 X111.537 Y123.36 E2.72754
G1 X111.887 Y122.911 E2.75402
G1 X112.114 Y122.577 E2.77282
G1 X118.878 Y111.237 E3.38737
G1 X119.296 Y110.482 E3.42752
G1 X119.532 Y109.945 E3.45481
G1 X120.067 Y109.048 E3.50343
G1 X120.25 Y108.783 E3.51844
G1 X120.018 Y107.867 E3.56242
G1 X118.77 Y108.183 E3.62235
G1 X118.311 Y108.899 E3.66194
G1 X111.031 Y121.113 E4.32371
G1 X110.614 Y121.867 E4.36382
G1 X110.387 Y122.388 E4.39028
G1 X109.848 Y123.293 E4.43932
G1 X109.342 Y124.025 E4.48073
G1 X109.226 Y124.121 E4.48773
G1 X108.808 Y124.302 E4.50894
G1 X108.659 Y124.322 E4.51591
G1 X107.879 Y124.208 E4.55258
G1 X107.743 Y124.147 E4.55955
G1 X107.394 Y123.854 E4.58075
G1 X107.31 Y123.73 E4.58773
G1 X107.047 Y122.931 E4.62686
G1 X106.777 Y121.868 E4.6779
G1 X106.708 Y121.306 E4.70428
G1 X106.525 Y120.469 E4.74414
G1 X103.969 Y110.367 E5.22915
G1 X103.966 Y110.245 E5.23481
G1 X103.739 Y109.351 E5.27774
G1 X103.734 Y109.245 E5.28267
G1 X103.78 Y108.929 E5.29755
G1 X103.815 Y108.829 E5.30247
G1 X104.062 Y108.415 E5.32491
G1 X104.524 Y108.69 F9000
G1 F1200
G1 X104.699 Y108.556 E5.33517
G1 X115.845 Y105.734 E5.87032
G1 X116.302 Y105.613 E5.89228
G1 X116.729 Y105.478 E5.91313
G1 X117.248 Y105.277 E5.93908
G1 X120.634 Y104.42 E6.1016
G1 X121.791 Y104.21 E6.15634
G1 X121.987 Y104.248 E6.16565
G1 X122.333 Y104.464 E6.18461
G1 X122.453 Y104.623 E6.19392
G1 X122.574 Y105.049 E6.2145
G1 X122.714 Y105.402 E6.23216
G1 X122.874 Y105.964 E6.25935
G1 X122.859 Y106.085 E6.26503
G1 X126.66 Y121.107 E6.98622
G1 X126.748 Y121.826 E7.01998
G1 X126.695 Y122.024 E7.0295
G1 X126.446 Y122.359 E7.04892
G1 X126.273 Y122.467 E7.05845
G1 X125.808 Y122.551 E7.08041
G1 X125.525 Y122.623 E7.094
G1 X125.077 Y122.77 E7.11596
G1 X124.999 Y122.765 E7.1196
G1 X114.928 Y125.323 E7.6032
G1 X114.478 Y125.442 E7.62487
G1 X114.059 Y125.573 E7.64528
G1 X113.563 Y125.77 E7.67014
G1 X112.572 Y126.022 E7.71774
G1 X111.799 Y126.162 E7.75427
G1 X111.515 Y126.05 E7.76849
G1 X111.134 Y125.538 E7.79819
G1 X111.108 Y125.234 E7.81241
G1 X111.45 Y124.556 E7.84773
G1 X111.99 Y123.65 E7.89685
G1 X112.322 Y123.229 E7.9218
G1 X112.567 Y122.865 E7.94219
G1 X113.565 Y121.201 E8.03251
G1 X119.341 Y111.51 E8.55762
G1 X119.577 Y111.105 E8.5794
G1 X119.781 Y110.714 E8.59993
G1 X120.002 Y110.206 E8.62573
G1 X120.524 Y109.331 E8.67313
G1 X120.831 Y108.888 E8.69823
G1 X120.407 Y107.214 E8.77859
G1 X118.461 Y107.707 E8.87202
G1 X118.342 Y107.857 E8.88095
G1 X118.095 Y108.222 E8.90149
G1 X117.851 Y108.622 E8.92327
G1 X110.568 Y120.84 E9.58529
G1 X110.333 Y121.245 E9.60708
G1 X110.129 Y121.636 E9.62761
G1 X109.916 Y122.128 E9.65256
G1 X109.391 Y123.011 E9.70038
G1 X108.943 Y123.658 E9.737
G1 X108.662 Y123.779 E9.75122
G1 X108.031 Y123.687 E9.78092
G1 X107.797 Y123.491 E9.79514
G1 X107.561 Y122.772 E9.83035
G1 X107.302 Y121.753 E9.87927
G1 X107.24 Y121.223 E9.90413
G1 X107.156 Y120.792 E9.92454
G1 X107.047 Y120.34 E9.9462
G1 X104.503 Y110.286 E10.42888
G1 X104.513 Y110.217 E10.43214
G1 X104.273 Y109.27 E10.47758
G1 X104.304 Y109.059 E10.48753
G1 X104.493 Y108.741 E10.50472
G1 X104.934 Y109.051 F9000
G1 F1200
G1 X115.98 Y106.254 E11.03505
G1 X116.451 Y106.129 E11.05773
G1 X116.909 Y105.985 E11.08006
G1 X117.372 Y105.801 E11.10325
G1 X117.389 Y105.795 E11.10407
G1 X120.761 Y104.942 E11.26596
G1 X121.788 Y104.757 E11.31452
G1 X121.963 Y104.866 E11.32417
G1 X122.065 Y105.224 E11.34146
G1 X122.199 Y105.556 E11.35811
G1 X122.327 Y106.006 E11.37989
G1 X122.297 Y106.057 E11.38265
G1 X126.137 Y121.23 E12.11108
G1 X126.141 Y121.247 E12.11191
G1 X126.203 Y121.786 E12.13716
G1 X126.076 Y121.957 E12.14704
G1 X125.694 Y122.026 E12.1651
G1 X125.376 Y122.107 E12.1804
G1 X125.007 Y122.227 E12.19845
G1 X124.829 Y122.144 E12.2076
G1 X124.746 Y122.283 E12.21513
G1 X114.793 Y124.803 E12.69296
G1 X114.328 Y124.925 E12.71534
G1 X113.878 Y125.067 E12.73733
G1 X113.422 Y125.251 E12.7602
G1 X113.405 Y125.257 E12.76105
G1 X112.444 Y125.5 E12.80716
G1 X111.855 Y125.606 E12.83504
G1 X111.656 Y125.34 E12.85051
G1 X111.928 Y124.803 E12.8785
G1 X112.437 Y123.948 E12.92482
G1 X112.447 Y123.933 E12.92567
G1 X112.755 Y123.547 E12.94865
G1 X113.02 Y123.154 E12.9707
G1 X114.026 Y121.477 E13.06173
G1 X119.804 Y111.783 E13.58699
G1 X120.048 Y111.365 E13.60948
G1 X120.267 Y110.944 E13.63158
G1 X120.46 Y110.49 E13.65456
G1 X120.469 Y110.473 E13.65541
G1 X120.978 Y109.618 E13.70173
G1 X121.321 Y109.124 E13.72972
G1 X121.45 Y109.143 E13.73578
G1 X120.797 Y106.561 E13.85974
G1 X118.154 Y107.23 E13.98661
G1 X117.908 Y107.538 E14.00495
G1 X117.643 Y107.932 E14.02705
G1 X117.391 Y108.344 E14.04954
G1 X110.105 Y120.567 E14.71182
G1 X109.862 Y120.985 E14.73431
G1 X109.643 Y121.406 E14.75641
G1 X109.449 Y121.86 E14.77939
G1 X109.441 Y121.877 E14.78024
G1 X108.931 Y122.731 E14.82656
G1 X108.589 Y123.225 E14.85455
G1 X108.26 Y123.178 E14.87002
G1 X108.073 Y122.608 E14.8979
G1 X107.83 Y121.648 E14.94401
G1 X107.826 Y121.63 E14.94486
G1 X107.771 Y121.142 E14.96773
G1 X107.682 Y120.678 E14.98972
G1 X107.569 Y120.211 E15.01209
G1 X105.05 Y110.258 E15.48992
G1 X105.069 Y110.225 E15.49169
G1 X104.82 Y109.242 E15.5389
G1 X104.904 Y109.102 E15.54646
G92 E0
G1 E-5.6 F3000
;WIPE_START
G1 F7200
G1 X110.482 Y107.668 E-7.88
;WIPE_END
G1 E-8 F3000
; printing object 90_deg_angle_litho_tower.stl id:0 copy 0
M486 S0
; acceleration to travel
M204 S1500
G1 X122.726 Y120.298 F9000
; decel to extrusion
M204 S500
G1 X124.222 Y121.842
; end travel
G1 E0 F3000
;TYPE:External perimeter
G1 F1200
G1 X114.651 Y124.264 E0.45954
G1 X113.693 Y124.541 E0.50594
G1 X113.24 Y124.724 E0.52866
G1 X112.513 Y124.908 E0.56358
G1 X112.901 Y124.258 E0.59883
G1 X113.204 Y123.877 E0.62151
G1 X113.49 Y123.453 E0.64527
G1 X114.504 Y121.763 E0.73702
G1 X120.286 Y112.062 E1.26263
G1 X120.77 Y111.185 E1.30924
G1 X120.962 Y110.734 E1.33207
G1 X121.349 Y110.083 E1.36733
G1 X121.533 Y110.811 E1.40225
G1 X121.588 Y111.296 E1.42497
G1 X121.8 Y112.27 E1.47137
G1 X124.208 Y121.783 E1.92811
;WIPE_START
G1 X123.837 Y121.733 F9000
;WIPE_END
G1 X123.569 Y121.453
;TYPE:Internal perimeter
G1 F1200
G1 X114.51 Y123.746 E2.36306
G1 X113.822 Y123.945 E2.39639
G1 X114.965 Y122.039 E2.49982
G1 X120.752 Y112.33 E3.02588
G1 X121.118 Y111.665 E3.0612
G1 X121.277 Y112.393 E3.09586
G1 X123.555 Y121.394 E3.52802
G92 E0
G1 E-5.6 F3000
;WIPE_START
G1 F7200
G1 X117.98 Y122.844 E-7.88
;WIPE_END
G1 E-8 F3000
; acceleration to travel
M204 S1500
G1 X121.027 Y114.546 F9000
; decel to extrusion
M204 S500
G1 X121.399 Y113.533
; end travel
G1 E0 F3000
;TYPE:Solid infill
;WIDTH:0.570601
G1 F1200
G1 X120.813 Y112.947 E0.0382
G1 X120.53 Y113.423 E0.06376
G1 X121.337 Y114.231 E0.11641
G1 X121.595 Y115.248 E0.1648
G1 X120.247 Y113.9 E0.2527
G1 X119.963 Y114.377 E0.27827
G1 X121.852 Y116.266 E0.40143
G1 X122.11 Y117.283 E0.44982
G1 X119.68 Y114.854 E0.60824
G1 X119.397 Y115.33 E0.6338
G1 X122.367 Y118.301 E0.82748
G1 X122.625 Y119.318 E0.87587
G1 X119.114 Y115.807 E1.1048
G1 X118.83 Y116.284 E1.13037
G1 X122.882 Y120.335 E1.39455
G1 X123.093 Y121.169 E1.43421
G1 X122.984 Y121.197 E1.43941
G1 X118.547 Y116.76 E1.72871
G1 X118.264 Y117.237 E1.75428
G1 X122.379 Y121.352 E2.02258
G1 X121.774 Y121.507 E2.05138
G1 X117.981 Y117.714 E2.2987
G1 X117.697 Y118.191 E2.32426
G1 X121.168 Y121.662 E2.55059
G1 X120.563 Y121.816 E2.57939
G1 X117.414 Y118.667 E2.78471
G1 X117.131 Y119.144 E2.81028
G1 X119.958 Y121.971 E2.99461
G1 X119.353 Y122.126 E3.02342
G1 X116.848 Y119.621 E3.18676
G1 X116.564 Y120.097 E3.21232
G1 X118.748 Y122.28 E3.35467
G1 X118.142 Y122.435 E3.38347
G1 X116.281 Y120.574 E3.50483
G1 X115.998 Y121.051 E3.53039
G1 X117.537 Y122.59 E3.63075
G1 X116.932 Y122.745 E3.65955
G1 X115.715 Y121.527 E3.73892
G1 X115.431 Y122.004 E3.76449
G1 X116.327 Y122.899 E3.82286
G1 X115.721 Y123.054 E3.85166
G1 X115.148 Y122.481 E3.88905
G1 X114.865 Y122.958 E3.91461
G1 X115.306 Y123.399 E3.94338
G92 E0
G1 E-5.6 F3000
;WIPE_START
G1 F7200
G1 X114.865 Y122.958 E-5.84702
G1 X115.148 Y122.481 E-6.06652
G1 X115.721 Y123.054 E-6.38745
G1 X116.327 Y122.899 E-6.63472
G1 X115.431 Y122.004 E-7.13588
G1 X115.715 Y121.527 E-7.35537
G1 X116.652 Y122.465 E-7.88
;WIPE_END
G1 E-8 F3000
; acceleration to travel
M204 S1500
G1 X120.704 Y107.69 F9000
; decel to extrusion
M204 S500
G1 X121.2 Y105.885
; end travel
G1 E0 F3000
;TYPE:External perimeter
;WIDTH:0.576
G1 F1200
G1 X117.836 Y106.736 E0.16151
G1 X117.457 Y107.211 E0.18976
G1 X116.916 Y108.054 E0.23638
G1 X109.624 Y120.288 E0.89924
G1 X109.14 Y121.165 E0.94586
G1 X108.948 Y121.616 E0.96868
G1 X108.56 Y122.267 E1.00394
G1 X108.376 Y121.539 E1.03886
G1 X108.322 Y121.054 E1.06158
G1 X108.11 Y120.08 E1.10798
G1 X105.687 Y110.508 E1.56752
G1 X105.713 Y110.502 E1.56877
G1 X105.458 Y109.492 E1.61722
G1 X116.123 Y106.792 E2.12927
G1 X117.093 Y106.511 E2.17625
G1 X117.552 Y106.328 E2.19925
G1 X120.883 Y105.485 E2.35918
G1 X121.528 Y105.369 E2.38965
G1 X121.538 Y105.405 E2.39139
G1 X121.679 Y105.764 E2.40932
G1 X121.65 Y105.771 E2.4107
G1 X125.591 Y121.339 E3.15812
G1 X125.607 Y121.476 E3.16454
G1 X125.195 Y121.59 E3.18443
G1 X125.14 Y121.453 E3.19131
G1 X121.214 Y105.943 E3.93594
;WIPE_START
G1 X121.101 Y105.497 F9000
;WIPE_END
G92 E0
G1 E-5.6 F3000
;WIPE_START
G1 F7200
G1 X121.398 Y105.596 E-5.72367
G1 X121.41 Y105.625 E-5.73629
G1 X121.408 Y105.626 E-5.73715
G1 X122.736 Y110.874 E-7.88
;WIPE_END
G1 E-8 F3000
; acceleration to travel
M204 S1500
G1 X117.506 Y107.543 F9000
; decel to extrusion
M204 S500
G1 X116.867 Y107.136
; end travel
G1 E0 F3000
;TYPE:Internal perimeter
G1 F1200
G1 X116.459 Y107.771 E0.03511
G1 X109.158 Y120.02 E0.69881
G1 X108.791 Y120.685 E0.73413
G1 X108.633 Y119.957 E0.76879
G1 X106.34 Y110.897 E1.20374
G1 X106.366 Y110.891 E1.20498
G1 X106.111 Y109.881 E1.25344
G1 X116.264 Y107.311 E1.74092
G1 X116.809 Y107.153 E1.76731
G1 X116.105 Y108.052 F9000
;TYPE:Solid infill
;WIDTH:0.571172
G1 F1200
G1 X115.853 Y107.8 E1.78375
G1 X115.248 Y107.954 E1.81258
G1 X115.653 Y108.36 E1.83905
G1 X115.37 Y108.837 E1.86464
G1 X114.642 Y108.109 E1.91215
G1 X114.037 Y108.263 E1.94098
G1 X115.087 Y109.313 E2.00952
G1 X114.804 Y109.79 E2.03512
G1 X113.431 Y108.418 E2.12469
G1 X112.826 Y108.572 E2.15353
G1 X114.521 Y110.267 E2.26414
G1 X114.238 Y110.744 E2.28974
G1 X112.22 Y108.727 E2.42139
G1 X111.615 Y108.881 E2.45022
G1 X113.954 Y111.221 E2.60291
G1 X113.671 Y111.698 E2.6285
G1 X111.01 Y109.036 E2.80222
G1 X110.404 Y109.191 E2.83106
G1 X113.388 Y112.174 E3.02582
G1 X113.105 Y112.651 E3.05141
G1 X109.799 Y109.345 E3.26721
G1 X109.193 Y109.5 E3.29605
G1 X112.822 Y113.128 E3.53288
G1 X112.539 Y113.605 E3.55847
G1 X108.588 Y109.654 E3.81634
G1 X107.982 Y109.809 E3.84518
G1 X112.256 Y114.082 E4.12408
G1 X111.973 Y114.559 E4.14968
G1 X107.377 Y109.963 E4.44962
G1 X106.772 Y110.118 E4.47846
G1 X111.689 Y115.035 E4.79943
G1 X111.406 Y115.512 E4.82503
G1 X106.759 Y110.865 E5.12835
G1 X107.01 Y111.876 E5.17641
G1 X111.123 Y115.989 E5.44489
G1 X110.84 Y116.466 E5.47048
G1 X107.261 Y112.886 E5.70411
G1 X107.511 Y113.897 E5.75217
G1 X110.557 Y116.943 E5.95096
G1 X110.274 Y117.42 E5.97655
G1 X107.762 Y114.908 E6.14048
G1 X108.013 Y115.919 E6.18855
G1 X109.991 Y117.896 E6.31763
G1 X109.708 Y118.373 E6.34323
G1 X108.264 Y116.929 E6.43747
G1 X108.514 Y117.94 E6.48553
G1 X109.424 Y118.85 E6.54492
G1 X109.141 Y119.327 E6.57052
G1 X108.449 Y118.634 E6.61573
M106 S84.15
;LAYER_CHANGE
