; generated by SuperSlicer 2.4 on 2022-12-01 at 15:04:18 UTC

; 

; external perimeters extrusion width = 0.43mm
; perimeters extrusion width = 0.48mm
; infill extrusion width = 0.46mm
; solid infill extrusion width = 0.48mm
; top infill extrusion width = 0.46mm
; first layer extrusion width = 0.58mm

; object:{"name":"Kuwait_Towers","id":"Kuwait_Towers.stl id:0 copy 0","object_center":[115.500000,115.500000,0.000000],"boundingbox_center":[115.500000,115.500000,28.454861],"boundingbox_size":[26.561729,18.658427,56.909352]}
; Total objects to print: 1
M486 T1
; plater:{"center":[115.500000,115.500000,0.000000],"boundingbox_center":[115.500000,115.500000,28.454861],"boundingbox_size":[26.561729,18.658427,56.909352]}

;TYPE:Custom
G90 ; use absolute coordinates
M83 ; extruder relative mode
M140 S60 ; set final bed temp
M104 S150 ; set temporary nozzle temp to prevent oozing during homing and auto bed leveling
G4 S10 ; allow partial nozzle warmup
G28 ; home all axis
;G29 ; auto bed levelling
G1 Z10 F240
G1 X2 Y10 F3000
G1 Z0 F240
M104 S210 ; set final nozzle temp
M190 S60 ; wait for bed temp to stabilize
M109 S210 ; wait for nozzle temp to stabilize
G1 Z0.28 F240
G92 E0
G1 Y140 E10 F1500 ; prime the nozzle
G1 X2.3 F5000
G92 E0
G1 Y10 E10 F1200 ; prime the nozzle
G92 E0
;start
M107
G21 ; set units to millimeters
G90 ; use absolute coordinates
M82 ; use absolute distances for extrusion
G92 E0
; Filament gcode
;_TOOLCHANGE 0
M107
;LAYER_CHANGE
;Z:0.2
;HEIGHT:0.2
;BEFORE_LAYER_CHANGE
;0.2


G1 E-8 F3000
G1 Z0.15 F9000
;AFTER_LAYER_CHANGE
;0.2
G92 E0
M204 S500
G1 X107.992 Y104.632
G1 E8 F3000
;TYPE:Skirt
;WIDTH:0.48
G1 F1200
G1 X101.271 Y112.185 E8.38583
G1 X99.666 Y114.525 E8.49412
G1 X99.12 Y115.843 E8.54854
G1 X98.664 Y118.134 E8.63768
G1 X98.664 Y119.561 E8.69215
G1 X99.12 Y121.852 E8.78129
G1 X99.666 Y123.17 E8.83571
G1 X100.963 Y125.11 E8.92479
G1 X101.971 Y126.118 E8.97918
G1 X103.912 Y127.416 E9.06829
G1 X105.229 Y127.962 E9.12271
G1 X107.52 Y128.418 E9.21183
G1 X108.948 Y128.419 E9.26632
G1 X125.901 Y124.83 E9.92758
G1 X127.167 Y124.296 E9.98005
G1 X129.109 Y122.999 E10.06917
G1 X130.119 Y121.989 E10.12366
G1 X131.416 Y120.047 E10.21278
G1 X131.961 Y118.731 E10.26714
G1 X132.417 Y116.441 E10.35624
G1 X132.417 Y115.013 E10.41072
G1 X131.961 Y112.722 E10.49985
G1 X131.416 Y111.406 E10.55422
G1 X130.119 Y109.464 E10.64335
G1 X129.109 Y108.454 E10.69785
G1 X127.167 Y107.156 E10.78699
G1 X126.278 Y106.724 E10.8247
G1 X114.478 Y102.873 E11.29837
G1 X113.41 Y102.66 E11.33994
G1 X111.982 Y102.66 E11.39442
G1 X110.915 Y102.873 E11.43596
G1 X109.6 Y103.417 E11.49024
G1 X108.695 Y104.021 E11.53177
G1 X108.037 Y104.592 E11.56501
G1 X108.322 Y104.92 F9000
G1 F1200
G1 X101.598 Y112.476 E11.951
G1 X100.029 Y114.768 E12.057
G1 X99.549 Y115.928 E12.10491
G1 X99.093 Y118.219 E12.19405
G1 X99.093 Y119.476 E12.24201
G1 X99.549 Y121.767 E12.33115
G1 X100.029 Y122.927 E12.37906
G1 X101.326 Y124.867 E12.46814
G1 X102.213 Y125.755 E12.51603
G1 X104.155 Y127.053 E12.60514
G1 X105.315 Y127.534 E12.65306
G1 X107.605 Y127.99 E12.74217
G1 X108.862 Y127.99 E12.79015
G1 X125.809 Y124.403 E13.45118
G1 X126.924 Y123.932 E13.49737
G1 X128.866 Y122.635 E13.58649
G1 X129.756 Y121.746 E13.63447
G1 X131.052 Y119.804 E13.72359
G1 X131.532 Y118.645 E13.77145
G1 X131.989 Y116.355 E13.86054
G1 X131.989 Y115.098 E13.90852
G1 X131.533 Y112.808 E13.99765
G1 X131.053 Y111.649 E14.04552
G1 X129.756 Y109.706 E14.13464
G1 X128.866 Y108.817 E14.18263
G1 X126.924 Y107.52 E14.27177
G1 X126.142 Y107.139 E14.30497
G1 X114.393 Y103.301 E14.77662
G1 X113.324 Y103.089 E14.81819
G1 X112.067 Y103.089 E14.86615
G1 X111 Y103.301 E14.90769
G1 X109.843 Y103.78 E14.95549
G1 X108.937 Y104.384 E14.99701
G1 X108.367 Y104.88 E15.02585
G92 E0
G1 E-5.6 F3000
;WIPE_START
G1 F7200
G1 X108.319 Y104.922 E-5.62546
G1 X104.533 Y109.178 E-7.88
;WIPE_END
G1 E-8 F3000
; acceleration to travel
M204 S1500
G1 X107.954 Y113.091 F9000
; decel to extrusion
M204 S500
G1 X108.372 Y113.569
; end travel
G1 E0 F3000
;WIDTH:0.576
G1 F1200
G1 X108.418 Y113.569 E0.00216
G1 X110.08 Y113.899 E0.081
G1 X110.319 Y113.985 E0.09285
G1 X111.832 Y114.981 E0.17716
G1 X112.022 Y115.153 E0.18907
G1 X113.038 Y116.652 E0.27334
G1 X113.147 Y116.883 E0.28525
G1 X113.513 Y118.657 E0.36956
G1 X113.525 Y118.913 E0.38147
G1 X113.183 Y120.692 E0.46579
G1 X113.097 Y120.933 E0.4777
G1 X112.101 Y122.445 E0.56196
G1 X111.929 Y122.634 E0.57386
G1 X110.43 Y123.651 E0.65817
G1 X110.198 Y123.76 E0.67008
G1 X108.424 Y124.126 E0.7544
G1 X108.168 Y124.138 E0.76632
G1 X106.39 Y123.796 E0.85061
G1 X106.149 Y123.71 E0.86251
G1 X104.636 Y122.713 E0.94682
G1 X104.447 Y122.541 E0.95872
G1 X103.431 Y121.043 E1.04298
G1 X103.322 Y120.812 E1.05488
G1 X102.956 Y119.037 E1.1392
G1 X102.944 Y118.782 E1.15111
G1 X103.286 Y117.003 E1.23543
G1 X103.372 Y116.762 E1.24733
G1 X104.368 Y115.25 E1.3316
G1 X104.54 Y115.06 E1.34351
G1 X106.04 Y114.044 E1.42781
G1 X106.271 Y113.935 E1.43972
G1 X108.049 Y113.57 E1.52419
G1 X108.312 Y113.569 E1.53642
G1 X108.312 Y114.102 F9000
G1 F1200
G1 X108.339 Y114.102 E1.53771
G1 X109.953 Y114.422 E1.61429
G1 X110.102 Y114.478 E1.62166
G1 X111.517 Y115.416 E1.7007
G1 X111.632 Y115.525 E1.70807
G1 X112.58 Y116.933 E1.78707
G1 X112.645 Y117.077 E1.79444
G1 X112.982 Y118.742 E1.87348
G1 X112.987 Y118.9 E1.88086
G1 X112.66 Y120.567 E1.9599
G1 X112.605 Y120.715 E1.96727
G1 X111.666 Y122.129 E2.04626
G1 X111.558 Y122.245 E2.05363
G1 X110.149 Y123.193 E2.13268
G1 X110.004 Y123.258 E2.14005
G1 X108.34 Y123.595 E2.2191
G1 X108.181 Y123.6 E2.22647
G1 X106.515 Y123.273 E2.30549
G1 X106.367 Y123.218 E2.31286
G1 X104.952 Y122.278 E2.3919
G1 X104.837 Y122.17 E2.39926
G1 X103.889 Y120.762 E2.47825
G1 X103.824 Y120.618 E2.48562
G1 X103.488 Y118.953 E2.56467
G1 X103.482 Y118.794 E2.57204
G1 X103.809 Y117.128 E2.65109
G1 X103.865 Y116.98 E2.65846
G1 X104.803 Y115.566 E2.73745
G1 X104.912 Y115.45 E2.74482
G1 X106.321 Y114.503 E2.82385
G1 X106.465 Y114.437 E2.83123
G1 X108.129 Y114.102 E2.91022
G1 X108.252 Y114.102 E2.91593
G1 X108.252 Y114.634 F9000
G1 F1200
G1 X108.654 Y114.712 E2.93502
G1 X109.823 Y114.944 E2.99047
G1 X109.872 Y114.964 E2.99293
G1 X111.196 Y115.849 E3.06706
G1 X111.234 Y115.886 E3.06952
G1 X112.118 Y117.21 E3.14362
G1 X112.138 Y117.259 E3.14608
G1 X112.449 Y118.821 E3.22022
G1 X112.449 Y118.874 E3.22268
G1 X112.138 Y120.436 E3.29682
G1 X112.118 Y120.485 E3.29929
G1 X111.234 Y121.809 E3.37338
G1 X111.196 Y121.846 E3.37584
G1 X109.872 Y122.731 E3.44999
G1 X109.823 Y122.752 E3.45245
G1 X108.261 Y123.063 E3.52659
G1 X108.208 Y123.063 E3.52906
G1 X106.646 Y122.752 E3.60317
G1 X106.597 Y122.731 E3.60563
G1 X105.273 Y121.846 E3.67977
G1 X105.235 Y121.809 E3.68223
G1 X104.351 Y120.485 E3.75632
G1 X104.331 Y120.436 E3.75878
G1 X104.02 Y118.874 E3.83292
G1 X104.02 Y118.821 E3.83539
G1 X104.331 Y117.259 E3.90953
G1 X104.351 Y117.21 E3.91199
G1 X105.235 Y115.886 E3.98608
G1 X105.273 Y115.849 E3.98855
G1 X106.597 Y114.964 E4.06267
G1 X106.646 Y114.944 E4.06514
G1 X108.192 Y114.637 E4.13848
G92 E0
G1 E-5.6 F3000
;WIPE_START
G1 F7200
G1 X108.261 Y114.634 E-5.62716
G1 X108.654 Y114.712 E-5.78608
G1 X109.823 Y114.944 E-6.25763
G1 X109.872 Y114.964 E-6.27859
G1 X111.196 Y115.849 E-6.90905
G1 X111.234 Y115.886 E-6.93001
G1 X112.118 Y117.21 E-7.56015
G1 X112.138 Y117.259 E-7.5811
G1 X112.286 Y117.999 E-7.88
;WIPE_END
G1 E-8 F3000
; acceleration to travel
M204 S1500
G1 X116.983 Y115.916 F9000
; decel to extrusion
M204 S500
G1 X117.557 Y115.661
; end travel
G1 E0 F3000
G1 F1200
G1 X117.897 Y113.883 E0.08427
G1 X117.983 Y113.641 E0.09621
G1 X118.98 Y112.128 E0.18056
G1 X119.152 Y111.939 E0.19246
G1 X120.652 Y110.922 E0.27676
G1 X120.883 Y110.814 E0.28868
G1 X122.657 Y110.449 E0.37298
G1 X122.973 Y110.442 E0.38767
G1 X124.69 Y110.777 E0.46911
G1 X124.931 Y110.864 E0.48102
G1 X126.444 Y111.859 E0.56532
G1 X126.634 Y112.032 E0.57725
G1 X127.65 Y113.531 E0.66156
G1 X127.759 Y113.763 E0.67345
G1 X128.125 Y115.537 E0.75775
G1 X128.137 Y115.792 E0.76967
G1 X127.795 Y117.571 E0.85395
G1 X127.709 Y117.811 E0.86584
G1 X126.713 Y119.324 E0.95013
G1 X126.541 Y119.513 E0.96206
G1 X125.041 Y120.53 E1.04636
G1 X124.81 Y120.639 E1.05825
G1 X123.037 Y121.004 E1.14252
G1 X122.781 Y121.016 E1.15444
G1 X121.002 Y120.675 E1.23877
G1 X120.761 Y120.588 E1.25066
G1 X119.249 Y119.593 E1.33494
G1 X119.059 Y119.421 E1.34685
G1 X118.042 Y117.921 E1.43118
G1 X117.933 Y117.689 E1.44312
G1 X117.569 Y115.916 E1.52738
G1 X117.56 Y115.721 E1.53644
G1 X118.096 Y115.704 F9000
G1 F1200
G1 X118.095 Y115.674 E1.53783
G1 X118.42 Y114.008 E1.61684
G1 X118.476 Y113.859 E1.62423
G1 X119.415 Y112.444 E1.7033
G1 X119.524 Y112.328 E1.71067
G1 X120.933 Y111.381 E1.7897
G1 X121.077 Y111.316 E1.79707
G1 X122.742 Y110.98 E1.87611
G1 X122.9 Y110.975 E1.88346
G1 X124.565 Y111.3 E1.96245
G1 X124.714 Y111.356 E1.96982
G1 X126.129 Y112.295 E2.04885
G1 X126.244 Y112.403 E2.05623
G1 X127.192 Y113.813 E2.13527
G1 X127.257 Y113.957 E2.14263
G1 X127.594 Y115.621 E2.22167
G1 X127.599 Y115.78 E2.22905
G1 X127.272 Y117.445 E2.30805
G1 X127.217 Y117.593 E2.31541
G1 X126.278 Y119.008 E2.39444
G1 X126.169 Y119.124 E2.40182
G1 X124.76 Y120.071 E2.48085
G1 X124.616 Y120.137 E2.48821
G1 X122.953 Y120.473 E2.56721
G1 X122.794 Y120.478 E2.57459
G1 X121.127 Y120.152 E2.65364
G1 X120.979 Y120.096 E2.661
G1 X119.564 Y119.157 E2.74002
G1 X119.449 Y119.049 E2.74739
G1 X118.501 Y117.64 E2.82645
G1 X118.435 Y117.495 E2.83384
G1 X118.1 Y115.832 E2.91283
G1 X118.098 Y115.764 E2.91599
G1 X118.632 Y115.753 F9000
G1 F1200
G1 X118.632 Y115.7 E2.91844
G1 X118.942 Y114.138 E2.99256
G1 X118.962 Y114.089 E2.99503
G1 X119.847 Y112.764 E3.06918
G1 X119.885 Y112.727 E3.07165
G1 X121.209 Y111.843 E3.14577
G1 X121.258 Y111.822 E3.14824
G1 X122.821 Y111.512 E3.22237
G1 X122.873 Y111.512 E3.22483
G1 X123.267 Y111.59 E3.2435
G1 X124.435 Y111.822 E3.29892
G1 X124.484 Y111.842 E3.30138
G1 X125.808 Y112.727 E3.37551
G1 X125.846 Y112.764 E3.37797
G1 X126.73 Y114.089 E3.4521
G1 X126.75 Y114.138 E3.45456
G1 X127.061 Y115.7 E3.5287
G1 X127.061 Y115.753 E3.53117
G1 X126.75 Y117.314 E3.60526
G1 X126.73 Y117.363 E3.60772
G1 X125.846 Y118.688 E3.68185
G1 X125.808 Y118.725 E3.68432
G1 X124.484 Y119.61 E3.75844
G1 X124.435 Y119.63 E3.7609
G1 X122.873 Y119.941 E3.835
G1 X122.82 Y119.941 E3.83747
G1 X121.258 Y119.63 E3.91162
G1 X121.209 Y119.61 E3.91408
G1 X119.885 Y118.725 E3.98819
G1 X119.847 Y118.688 E3.99066
G1 X118.962 Y117.363 E4.06481
G1 X118.942 Y117.314 E4.06728
G1 X118.644 Y115.812 E4.13857
G92 E0
G1 E-5.6 F3000
;WIPE_START
G1 F7200
G1 X118.632 Y115.7 E-5.64439
G1 X118.942 Y114.138 E-6.27479
G1 X118.962 Y114.089 E-6.2958
G1 X119.847 Y112.764 E-6.92645
G1 X119.885 Y112.727 E-6.9474
G1 X121.209 Y111.843 E-7.57784
G1 X121.258 Y111.822 E-7.59879
G1 X121.955 Y111.684 E-7.88
;WIPE_END
G1 E-8 F3000
; printing object Kuwait_Towers.stl id:0 copy 0
M486 S0
; acceleration to travel
M204 S1500
G1 X112.735 Y116.822 F9000
; decel to extrusion
M204 S500
G1 X111.609 Y117.449
; end travel
G1 E0 F3000
;TYPE:External perimeter
G1 F1200
G1 X111.887 Y118.847 E0.06634
G1 X111.609 Y120.245 E0.13268
G1 X110.817 Y121.43 E0.19898
G1 X109.632 Y122.222 E0.26534
G1 X108.234 Y122.5 E0.33168
G1 X106.837 Y122.222 E0.39798
G1 X105.652 Y121.43 E0.46433
G1 X104.86 Y120.245 E0.53063
G1 X104.582 Y118.847 E0.59697
G1 X104.86 Y117.449 E0.66331
G1 X105.652 Y116.265 E0.72961
G1 X106.837 Y115.474 E0.79594
G1 X108.234 Y115.196 E0.86224
G1 X108.546 Y115.258 E0.87703
G1 X109.632 Y115.474 E0.92858
G1 X110.817 Y116.265 E0.99491
G1 X111.576 Y117.4 E1.05841
;WIPE_START
G1 X111.345 Y117.75 F9000
;WIPE_END
G1 X111.129 Y117.793
;TYPE:Internal perimeter
G1 F1200
G1 X111.339 Y118.847 E1.10844
G1 X111.103 Y120.036 E1.16483
G1 X110.43 Y121.042 E1.22118
G1 X109.422 Y121.716 E1.27759
G1 X108.234 Y121.952 E1.33397
G1 X107.047 Y121.716 E1.39033
G1 X106.039 Y121.042 E1.44673
G1 X105.366 Y120.036 E1.50308
G1 X105.13 Y118.847 E1.55947
G1 X105.366 Y117.659 E1.61586
G1 X106.039 Y116.653 E1.6722
G1 X107.046 Y115.98 E1.72858
G1 X108.234 Y115.744 E1.78494
G1 X108.441 Y115.785 E1.79477
G1 X109.423 Y115.98 E1.84134
G1 X110.43 Y116.653 E1.89771
G1 X111.103 Y117.659 E1.95406
G1 X111.118 Y117.734 E1.95762
G92 E0
G1 E-5.6 F3000
;WIPE_START
G1 F7200
G1 X111.339 Y118.847 E-6.04923
G1 X111.103 Y120.036 E-6.52882
G1 X110.43 Y121.042 E-7.0081
G1 X109.422 Y121.716 E-7.48785
G1 X108.451 Y121.909 E-7.88
;WIPE_END
G1 E-8 F3000
; acceleration to travel
M204 S1500
G1 X109.234 Y116.755 F9000
; decel to extrusion
M204 S500
G1 X109.329 Y116.126
; end travel
G1 E0 F3000
;TYPE:Solid infill
;WIDTH:0.558269
G1 F1200
G1 X110.164 Y116.96 E0.05322
G1 X110.733 Y117.812 E0.09946
G1 X110.852 Y118.408 E0.12686
G1 X108.675 Y116.231 E0.26572
G1 X108.365 Y116.17 E0.27999
G1 X108.234 Y116.144 E0.286
G1 X107.895 Y116.211 E0.3016
G1 X110.872 Y119.188 E0.49148
G1 X110.745 Y119.822 E0.52063
G1 X107.261 Y116.337 E0.74291
G1 X107.199 Y116.349 E0.74574
G1 X106.788 Y116.624 E0.76806
G1 X110.458 Y120.294 E1.00218
G1 X110.154 Y120.75 E1.0269
G1 X106.332 Y116.928 E1.27068
G1 X106.322 Y116.935 E1.27124
G1 X106.024 Y117.381 E1.29539
G1 X109.701 Y121.058 E1.52996
G1 X109.269 Y121.346 E1.55342
G1 X109.237 Y121.353 E1.5549
G1 X105.729 Y117.845 E1.77866
G1 X105.603 Y118.479 E1.80781
G1 X108.603 Y121.479 E1.99919
G1 X108.234 Y121.552 E2.01616
G1 X107.838 Y121.473 E2.0344
G1 X105.609 Y119.245 E2.17657
G1 X105.736 Y119.883 E2.2059
G1 X106.238 Y120.634 E2.24666
G1 X107.183 Y121.579 E2.30692
G92 E0
G1 E-5.6 F3000
;WIPE_START
G1 F7200
G1 X106.238 Y120.634 E-6.1288
G1 X105.736 Y119.883 E-6.48653
G1 X105.609 Y119.245 E-6.74388
G1 X107.639 Y121.274 E-7.88
;WIPE_END
G1 E-8 F3000
; acceleration to travel
M204 S1500
G1 X118.183 Y117.576 F9000
; decel to extrusion
M204 S500
G1 X119.471 Y117.124
; end travel
G1 E0 F3000
;TYPE:External perimeter
;WIDTH:0.576
G1 F1200
G1 X119.195 Y115.727 E0.06629
G1 X119.471 Y114.328 E0.13263
G1 X120.264 Y113.143 E0.19897
G1 X121.449 Y112.352 E0.2653
G1 X122.847 Y112.074 E0.33164
G1 X123.159 Y112.136 E0.34642
G1 X124.244 Y112.352 E0.39794
G1 X125.429 Y113.143 E0.46426
G1 X126.221 Y114.329 E0.53059
G1 X126.499 Y115.727 E0.59694
G1 X126.221 Y117.124 E0.66324
G1 X125.429 Y118.309 E0.72957
G1 X124.244 Y119.1 E0.7959
G1 X122.847 Y119.379 E0.8622
G1 X121.449 Y119.1 E0.92856
G1 X120.264 Y118.309 E0.99488
G1 X119.505 Y117.174 E1.05843
;WIPE_START
G1 X119.735 Y116.823 F9000
;WIPE_END
G1 X119.951 Y116.78
;TYPE:Internal perimeter
G1 F1200
G1 X119.743 Y115.727 E1.10843
G1 X119.978 Y114.538 E1.16482
G1 X120.651 Y113.531 E1.2212
G1 X121.658 Y112.858 E1.27758
G1 X122.847 Y112.622 E1.33398
G1 X123.054 Y112.663 E1.3438
G1 X124.035 Y112.858 E1.39034
G1 X125.042 Y113.531 E1.4467
G1 X125.715 Y114.538 E1.50308
G1 X125.951 Y115.727 E1.55948
G1 X125.715 Y116.914 E1.61583
G1 X125.042 Y117.921 E1.67221
G1 X124.034 Y118.594 E1.72859
G1 X122.847 Y118.831 E1.78495
G1 X121.658 Y118.594 E1.84135
G1 X120.651 Y117.921 E1.89773
G1 X119.978 Y116.914 E1.95411
G1 X119.963 Y116.839 E1.95767
G92 E0
G1 E-5.6 F3000
;WIPE_START
G1 F7200
G1 X119.743 Y115.727 E-6.04901
G1 X119.978 Y114.538 E-6.52861
G1 X120.651 Y113.531 E-7.00809
G1 X121.658 Y112.858 E-7.48757
G1 X122.631 Y112.665 E-7.88
;WIPE_END
G1 E-8 F3000
; acceleration to travel
M204 S1500
G1 X125.249 Y114.417 F9000
; decel to extrusion
M204 S500
G1 X125.569 Y114.632
; end travel
G1 E0 F3000
;TYPE:Solid infill
;WIDTH:0.558285
G1 F1200
G1 X124.735 Y113.797 E0.05322
G1 X123.882 Y113.228 E0.09948
G1 X123.287 Y113.11 E0.12684
G1 X125.464 Y115.286 E0.26569
G1 X125.551 Y115.727 E0.28595
G1 X125.484 Y116.066 E0.30157
G1 X122.507 Y113.09 E0.49146
G1 X121.873 Y113.216 E0.52062
G1 X125.357 Y116.7 E0.74291
G1 X125.345 Y116.761 E0.74572
G1 X125.07 Y117.173 E0.76805
G1 X121.4 Y113.502 E1.0022
G1 X120.944 Y113.807 E1.02692
G1 X124.766 Y117.628 E1.27072
G1 X124.759 Y117.639 E1.27128
G1 X124.314 Y117.936 E1.29544
G1 X120.636 Y114.259 E1.53004
G1 X120.347 Y114.691 E1.55349
G1 X120.341 Y114.723 E1.55498
G1 X123.849 Y118.231 E1.77877
G1 X123.215 Y118.357 E1.80792
G1 X120.215 Y115.358 E1.99929
G1 X120.142 Y115.727 E2.01624
