; generated by SuperSlicer 2.4 on 2022-12-01 at 15:06:05 UTC

; 

; external perimeters extrusion width = 0.43mm
; perimeters extrusion width = 0.48mm
; infill extrusion width = 0.46mm
; solid infill extrusion width = 0.48mm
; top infill extrusion width = 0.46mm
; first layer extrusion width = 0.58mm

; object:{"name":"Stringing_Testingfff","id":"Stringing_Testingfff.stl id:0 copy 0","object_center":[117.043292,116.148369,0.000000],"boundingbox_center":[117.043292,116.148369,12.025085],"boundingbox_size":[31.138409,25.042538,24.050171]}
; Total objects to print: 1
M486 T1
; plater:{"center":[117.043292,116.148369,0.000000],"boundingbox_center":[117.043292,116.148369,12.025085],"boundingbox_size":[31.138409,25.042538,24.050171]}

;TYPE:Custom
G90 ; use absolute coordinates
M83 ; extruder relative mode
M140 S60 ; set final bed temp
M104 S150 ; set temporary nozzle temp to prevent oozing during homing and auto bed leveling
G4 S10 ; allow partial nozzle warmup
G28 ; home all axis
;G29 ; auto bed levelling
G1 Z10 F240
G1 X2 Y10 F3000
G1 Z0 F240
M104 S210 ; set final nozzle temp
M190 S60 ; wait for bed temp to stabilize
M109 S210 ; wait for nozzle temp to stabilize
G1 Z0.28 F240
G92 E0
G1 Y140 E10 F1500 ; prime the nozzle
G1 X2.3 F5000
G92 E0
G1 Y10 E10 F1200 ; prime the nozzle
G92 E0
;start
M107
G21 ; set units to millimeters
G90 ; use absolute coordinates
M82 ; use absolute distances for extrusion
G92 E0
; Filament gcode
;_TOOLCHANGE 0
M107
;LAYER_CHANGE
;Z:0.2
;HEIGHT:0.2
;BEFORE_LAYER_CHANGE
;0.2


G1 E-8 F3000
G1 Z0.15 F9000
;AFTER_LAYER_CHANGE
;0.2
G92 E0
M204 S500
G1 X104.511 Y99.08
G1 E8 F3000
;TYPE:Skirt
;WIDTH:0.48
G1 F1200
G1 X103.732 Y100.469 E8.06076
G1 X97.799 Y122.648 E8.93689
G1 X97.843 Y124.461 E9.00608
G1 X98.688 Y125.81 E9.06683
G1 X100.077 Y126.589 E9.12759
G1 X128.174 Y134.105 E10.2375
G1 X129.987 Y134.062 E10.30669
G1 X131.336 Y133.216 E10.36745
G1 X132.115 Y131.828 E10.4282
G1 X138.048 Y109.649 E11.30433
G1 X138.004 Y107.836 E11.37352
G1 X137.159 Y106.487 E11.43428
G1 X135.771 Y105.708 E11.49503
G1 X107.673 Y98.191 E12.60494
G1 X105.861 Y98.235 E12.67413
G1 X104.562 Y99.049 E12.7326
G92 E0
G1 E-5.6 F3000
;WIPE_START
G1 F7200
G1 X103.732 Y100.469 E-6.25116
G1 X102.669 Y104.444 E-7.88
;WIPE_END
G1 E-8 F3000
; acceleration to travel
M204 S1500
G1 X106.84 Y102.91 F9000
; decel to extrusion
M204 S500
G1 X107.35 Y102.722
; end travel
G1 E0 F3000
;WIDTH:0.576
G1 F1200
G1 X107.819 Y102.451 E0.02524
G1 X107.92 Y102.417 E0.03016
G1 X108.236 Y102.375 E0.04504
G1 X108.342 Y102.382 E0.04997
G1 X133.099 Y109.004 E1.24272
G1 X133.194 Y109.051 E1.24765
G1 X133.448 Y109.246 E1.26253
G1 X133.518 Y109.325 E1.26745
G1 X133.789 Y109.795 E1.29269
G1 X133.823 Y109.895 E1.29761
G1 X133.865 Y110.212 E1.31249
G1 X133.858 Y110.317 E1.31742
G1 X128.818 Y129.156 E2.22505
G1 X128.772 Y129.251 E2.22998
G1 X128.577 Y129.505 E2.24485
G1 X128.498 Y129.575 E2.24978
G1 X128.028 Y129.846 E2.27501
G1 X127.928 Y129.88 E2.27994
G1 X127.611 Y129.922 E2.29482
G1 X127.505 Y129.915 E2.29974
G1 X102.748 Y123.292 E3.4925
G1 X102.653 Y123.246 E3.49743
G1 X102.4 Y123.051 E3.5123
G1 X102.33 Y122.972 E3.51723
G1 X102.059 Y122.502 E3.54247
G1 X102.025 Y122.402 E3.54739
G1 X101.983 Y122.085 E3.56227
G1 X101.99 Y121.979 E3.5672
G1 X107.029 Y103.14 E4.47483
G1 X107.076 Y103.046 E4.47975
G1 X107.27 Y102.792 E4.49463
G1 X107.305 Y102.762 E4.49677
G1 X107.665 Y103.161 F9000
G1 F1200
G1 X108.042 Y102.942 E4.51707
G1 X108.254 Y102.914 E4.52702
G1 X108.848 Y103.073 E4.5556
G1 X132.909 Y109.51 E5.71485
G1 X133.079 Y109.64 E5.7248
G1 X133.297 Y110.018 E5.74511
G1 X133.325 Y110.23 E5.75506
G1 X128.313 Y128.966 E6.65777
G1 X128.183 Y129.136 E6.66772
G1 X127.805 Y129.354 E6.68803
G1 X127.593 Y129.382 E6.69798
G1 X102.938 Y122.787 E7.88581
G1 X102.769 Y122.657 E7.89576
G1 X102.55 Y122.279 E7.91607
G1 X102.522 Y122.067 E7.92602
G1 X107.535 Y103.33 E8.82872
G1 X107.628 Y103.208 E8.83588
G1 X108.026 Y103.573 F9000
G1 F1200
G1 X108.219 Y103.461 E8.84624
G1 X108.709 Y103.592 E8.86984
G1 X132.667 Y110.001 E10.02412
G1 X132.778 Y110.194 E10.03448
G1 X127.821 Y128.724 E10.92723
G1 X127.629 Y128.836 E10.93759
G1 X103.18 Y122.295 E12.11547
G1 X103.069 Y122.103 E12.12583
G1 X108.011 Y103.631 E13.0158
; printing object Stringing_Testingfff.stl id:0 copy 0
M486 S0
G1 X108.461 Y104.102 F9000
;TYPE:External perimeter
G1 F1200
G1 X108.565 Y104.13 E13.02081
G1 X132.137 Y110.436 E14.15651
G1 X127.387 Y128.195 E15.0121
G1 X103.71 Y121.861 E16.15281
G1 X108.445 Y104.16 E17.0056
;WIPE_START
G1 X108.744 Y104.385 F9000
;WIPE_END
G92 E0
G1 E-5.6 F3000
;WIPE_START
G1 F7200
G1 X114.308 Y105.873 E-7.88
;WIPE_END
G1 E-8 F3000
; acceleration to travel
M204 S1500
G1 X113.054 Y108.556 F9000
; decel to extrusion
M204 S500
G1 X112.901 Y108.884
; end travel
G1 E0 F3000
;TYPE:Internal perimeter
G1 F1200
G1 X125.018 Y112.126 E0.58378
G1 X128.815 Y113.141 E0.76673
G1 X128.324 Y114.977 E0.85515
G1 X124.527 Y113.961 E1.0381
G1 X112.41 Y110.719 E1.62188
G1 X112.885 Y108.942 E1.70751
G92 E0
G1 E-5.6 F3000
;WIPE_START
G1 F7200
G1 X118.457 Y110.404 E-7.88
;WIPE_END
G1 E-8 F3000
; acceleration to travel
M204 S1500
G1 X123.869 Y121.104 F9000
; decel to extrusion
M204 S500
G1 X124.53 Y122.412
; end travel
G1 E0 F3000
G1 F1200
G1 X124.681 Y122.299 E0.00878
G1 X124.852 Y122.218 E0.01756
G1 X125.035 Y122.173 E0.02635
G1 X125.223 Y122.166 E0.03513
G1 X125.41 Y122.196 E0.04391
G1 X125.586 Y122.263 E0.05269
G1 X125.746 Y122.364 E0.06148
G1 X125.882 Y122.494 E0.07026
G1 X125.99 Y122.649 E0.07904
G1 X126.065 Y122.822 E0.08782
G1 X126.103 Y123.007 E0.0966
G1 X126.105 Y123.22 E0.10653
G1 X126.092 Y123.297 E0.11014
G1 X126.023 Y123.499 E0.12006
G1 X125.928 Y123.661 E0.12884
G1 X125.803 Y123.802 E0.13762
G1 X125.651 Y123.915 E0.14641
G1 X125.481 Y123.995 E0.15519
G1 X125.297 Y124.04 E0.16397
G1 X125.109 Y124.048 E0.17275
G1 X124.923 Y124.017 E0.18154
G1 X124.746 Y123.951 E0.19032
G1 X124.586 Y123.85 E0.1991
G1 X124.45 Y123.72 E0.20788
G1 X124.342 Y123.565 E0.21666
G1 X124.268 Y123.392 E0.22545
G1 X124.229 Y123.207 E0.23423
G1 X124.228 Y123.018 E0.24301
G1 X124.264 Y122.833 E0.25179
G1 X124.346 Y122.636 E0.26172
G1 X124.388 Y122.571 E0.26533
G1 X124.49 Y122.456 E0.27246
G92 E0
G1 E-5.6 F3000
;WIPE_START
G1 F7200
G1 X124.681 Y122.299 E-5.69808
G1 X124.852 Y122.218 E-5.77277
G1 X125.035 Y122.173 E-5.84746
G1 X125.223 Y122.166 E-5.92216
G1 X125.41 Y122.196 E-5.99684
G1 X125.586 Y122.263 E-6.07154
G1 X125.746 Y122.364 E-6.14623
G1 X125.882 Y122.494 E-6.22092
G1 X125.99 Y122.649 E-6.29561
G1 X126.065 Y122.822 E-6.3703
G1 X126.103 Y123.007 E-6.445
G1 X126.105 Y123.22 E-6.52938
G1 X126.092 Y123.297 E-6.56009
G1 X126.023 Y123.499 E-6.64449
G1 X125.928 Y123.661 E-6.71918
G1 X125.803 Y123.802 E-6.79387
G1 X125.651 Y123.915 E-6.86856
G1 X125.481 Y123.995 E-6.94325
G1 X125.297 Y124.04 E-7.01794
G1 X125.109 Y124.048 E-7.09264
G1 X124.923 Y124.017 E-7.16732
G1 X124.746 Y123.951 E-7.24202
G1 X124.586 Y123.85 E-7.31671
G1 X124.45 Y123.72 E-7.3914
G1 X124.342 Y123.565 E-7.46609
G1 X124.268 Y123.392 E-7.54078
G1 X124.229 Y123.207 E-7.61548
G1 X124.228 Y123.018 E-7.69016
G1 X124.264 Y122.833 E-7.76486
G1 X124.346 Y122.636 E-7.84926
G1 X124.388 Y122.571 E-7.87995
G1 X124.388 Y122.571 E-7.88
;WIPE_END
G1 E-8 F3000
; acceleration to travel
M204 S1500
G1 X111.414 Y119.341 F9000
; decel to extrusion
M204 S500
G1 X109.829 Y118.946
; end travel
G1 E0 F3000
G1 F1200
G1 X109.76 Y119.148 E0.00992
G1 X109.665 Y119.311 E0.01871
G1 X109.539 Y119.452 E0.02749
G1 X109.388 Y119.564 E0.03627
G1 X109.217 Y119.645 E0.04505
G1 X109.034 Y119.69 E0.05383
G1 X108.846 Y119.697 E0.06262
G1 X108.659 Y119.667 E0.0714
G1 X108.483 Y119.6 E0.08018
G1 X108.323 Y119.5 E0.08896
G1 X108.187 Y119.369 E0.09775
G1 X108.079 Y119.214 E0.10653
G1 X108.004 Y119.041 E0.11531
G1 X107.966 Y118.856 E0.12409
G1 X107.964 Y118.668 E0.13287
G1 X108.001 Y118.482 E0.14166
G1 X108.074 Y118.308 E0.15044
G1 X108.193 Y118.132 E0.16036
G1 X108.247 Y118.076 E0.16397
G1 X108.418 Y117.948 E0.17389
G1 X108.588 Y117.868 E0.18268
G1 X108.772 Y117.823 E0.19146
G1 X108.96 Y117.816 E0.20024
G1 X109.146 Y117.846 E0.20902
G1 X109.323 Y117.913 E0.21781
G1 X109.483 Y118.013 E0.22659
G1 X109.619 Y118.143 E0.23537
G1 X109.727 Y118.298 E0.24415
G1 X109.801 Y118.472 E0.25293
G1 X109.84 Y118.656 E0.26172
G1 X109.841 Y118.87 E0.27164
G1 X109.839 Y118.887 E0.27246
G1 X109.674 Y118.777 F9000
;TYPE:Solid infill
;WIDTH:0.721697
G1 F1200
G1 X109.215 Y118.318 E0.3103
G1 X109.043 Y118.232 E0.32152
G1 X108.827 Y118.219 E0.33412
G1 X108.613 Y118.295 E0.34738
G1 X108.514 Y118.377 E0.35487
G1 X109.438 Y119.301 E0.43108
G92 E0
G1 E-5.6 F3000
;WIPE_START
G1 F7200
G1 X108.514 Y118.377 E-6.11727
G1 X108.613 Y118.295 E-6.16812
G1 X108.827 Y118.219 E-6.25811
G1 X109.043 Y118.232 E-6.34363
G1 X109.215 Y118.318 E-6.41979
G1 X109.674 Y118.777 E-6.67669
;WIPE_END
G1 E-8 F3000
; acceleration to travel
M204 S1500
G1 X124.167 Y122.654 F9000
; decel to extrusion
M204 S500
G1 X125.937 Y123.128
; end travel
G1 E0 F3000
;WIDTH:0.72562
G1 F1200
G1 X125.479 Y122.669 E0.03805
G1 X125.306 Y122.583 E0.04933
G1 X125.091 Y122.57 E0.062
G1 X124.888 Y122.642 E0.07459
G1 X124.786 Y122.736 E0.08276
G1 X125.701 Y123.651 E0.15862
G92 E0
G1 E-5.6 F3000
;WIPE_START
G1 F7200
G1 X124.786 Y122.736 E-6.11215
G1 X124.888 Y122.642 E-6.16728
G1 X125.091 Y122.57 E-6.25229
G1 X125.306 Y122.583 E-6.33781
G1 X125.479 Y122.669 E-6.41397
G1 X125.937 Y123.128 E-6.67087
;WIPE_END
G1 E-8 F3000
; acceleration to travel
M204 S1500
G1 X127.002 Y113.976 F9000
; decel to extrusion
M204 S500
G1 X127.132 Y112.858
; end travel
G1 E0 F3000
;WIDTH:0.561142
G1 F1200
G1 X128.2 Y113.925 E0.06843
G1 X128.047 Y114.496 E0.09524
G1 X127.998 Y114.483 E0.09754
G1 X126.422 Y112.907 E0.19861
G1 X125.384 Y112.63 E0.2473
G1 X126.96 Y114.206 E0.34837
G1 X125.923 Y113.928 E0.39707
G1 X124.347 Y112.352 E0.49813
G1 X123.309 Y112.074 E0.54683
G1 X124.885 Y113.651 E0.6479
G1 X123.848 Y113.373 E0.69659
G1 X122.272 Y111.797 E0.79766
G1 X121.234 Y111.519 E0.84636
G1 X122.81 Y113.096 E0.94742
G1 X121.773 Y112.818 E0.99612
G1 X120.197 Y111.242 E1.09719
G1 X119.159 Y110.964 E1.14588
G1 X120.735 Y112.541 E1.24695
G1 X119.698 Y112.263 E1.29565
G1 X118.122 Y110.687 E1.39671
G1 X117.084 Y110.409 E1.44541
G1 X118.66 Y111.985 E1.54648
G1 X117.623 Y111.708 E1.59517
G1 X116.047 Y110.132 E1.69624
G1 X115.009 Y109.854 E1.74494
G1 X116.585 Y111.43 E1.846
G1 X115.548 Y111.153 E1.8947
G1 X113.972 Y109.577 E1.99577
G1 X113.179 Y109.365 E2.03299
G1 X113.141 Y109.506 E2.03962
G1 X114.51 Y110.875 E2.12744
G1 X113.473 Y110.598 E2.17613
G1 X112.792 Y109.917 E2.21981
G92 E0
G1 E-5.6 F3000
;WIPE_START
G1 F7200
G1 X113.473 Y110.598 E-5.9813
G1 X114.51 Y110.875 E-6.40641
G1 X113.141 Y109.506 E-7.17307
G1 X113.179 Y109.365 E-7.23094
G1 X113.972 Y109.577 E-7.55591
G1 X114.551 Y110.156 E-7.88
;WIPE_END
G1 E-8 F3000
; acceleration to travel
M204 S1500
G1 X128.723 Y110.153 F9000
; decel to extrusion
M204 S500
G1 X130.455 Y110.153
; end travel
G1 E0 F3000
;WIDTH:0.572199
G1 F1200
G1 X131.522 Y111.22 E0.06977
G1 X131.361 Y111.819 E0.09847
G1 X129.744 Y110.202 E0.20424
G1 X128.706 Y109.924 E0.2539
G1 X131.201 Y112.419 E0.41702
G1 X131.041 Y113.018 E0.44572
G1 X127.669 Y109.647 E0.66619
G1 X126.631 Y109.369 E0.71585
G1 X130.88 Y113.618 E0.99367
G1 X130.72 Y114.218 E1.02237
G1 X125.594 Y109.091 E1.35754
G1 X124.556 Y108.814 E1.4072
G1 X128.354 Y112.612 E1.65554
G1 X129.296 Y112.864 E1.70059
G1 X129.15 Y113.408 E1.72663
G1 X130.559 Y114.817 E1.81877
G1 X130.399 Y115.417 E1.84747
G1 X128.99 Y114.007 E1.93962
G1 X128.829 Y114.607 E1.96831
G1 X130.239 Y116.016 E2.06046
G1 X130.078 Y116.616 E2.08916
G1 X128.669 Y115.207 E2.18131
G1 X128.602 Y115.457 E2.19329
G1 X127.998 Y115.295 E2.2222
G1 X129.918 Y117.215 E2.34774
G1 X129.757 Y117.815 E2.37644
G1 X126.96 Y115.018 E2.55933
G1 X125.923 Y114.74 E2.60898
G1 X129.597 Y118.415 E2.84922
G1 X129.437 Y119.014 E2.87792
G1 X124.885 Y114.463 E3.17551
G1 X124.426 Y114.34 E3.19751
G1 X123.848 Y114.185 E3.22516
G1 X129.276 Y119.614 E3.5801
G1 X129.116 Y120.213 E3.6088
G1 X122.81 Y113.908 E4.02109
G1 X121.773 Y113.63 E4.07075
G1 X128.955 Y120.813 E4.54039
G1 X128.795 Y121.412 E4.56908
G1 X120.735 Y113.353 E5.09607
G1 X119.698 Y113.075 E5.14573
G1 X128.635 Y122.012 E5.73007
G1 X128.474 Y122.611 E5.75877
G1 X118.66 Y112.798 E6.40046
G1 X117.623 Y112.52 E6.45012
G1 X128.314 Y123.211 E7.14916
G1 X128.154 Y123.811 E7.17786
G1 X116.585 Y112.243 E7.93425
G1 X115.548 Y111.965 E7.9839
G1 X125.376 Y121.794 E8.62655
G1 X125.512 Y121.815 E8.63288
G1 X125.762 Y121.91 E8.64526
G1 X125.988 Y122.053 E8.65763
G1 X126.182 Y122.238 E8.67
G1 X126.335 Y122.457 E8.68238
G1 X126.441 Y122.703 E8.69475
G1 X126.481 Y122.899 E8.70398
G1 X127.993 Y124.41 E8.80282
G1 X127.833 Y125.01 E8.83152
G1 X126.408 Y123.585 E8.92465
G1 X126.382 Y123.662 E8.92841
G1 X126.247 Y123.893 E8.94079
G1 X126.11 Y124.047 E8.95031
G1 X127.672 Y125.609 E9.05247
G1 X127.512 Y126.209 E9.08116
G1 X125.468 Y124.165 E9.21484
G92 E0
G1 E-5.6 F3000
;WIPE_START
G1 F7200
G1 X127.512 Y126.209 E-6.74441
G1 X127.672 Y125.609 E-6.99008
G1 X126.11 Y124.047 E-7.86473
G1 X126.136 Y124.018 E-7.88
;WIPE_END
G1 E-8 F3000
; acceleration to travel
M204 S1500
G1 X125.008 Y122.262 F9000
; decel to extrusion
M204 S500
G1 X124.871 Y122.048
; end travel
G1 E0 F3000
G1 F1200
G1 X114.51 Y111.687 E0.67742
G1 X113.473 Y111.41 E0.72707
G1 X124.39 Y122.327 E1.44087
G92 E0
G1 E-5.6 F3000
;WIPE_START
G1 F7200
G1 X120.317 Y118.254 E-7.88
;WIPE_END
G1 E-8 F3000
; acceleration to travel
M204 S1500
G1 X126.846 Y113.27 F9000
; decel to extrusion
M204 S500
G1 X127.643 Y112.661
; end travel
G1 E0 F3000
G1 F1200
G1 X123.519 Y108.536 E0.2697
G1 X122.481 Y108.259 E0.31935
G1 X126.279 Y112.057 E0.5677
G1 X125.242 Y111.779 E0.61735
G1 X121.444 Y107.981 E0.8657
G1 X120.406 Y107.704 E0.91535
G1 X124.204 Y111.502 E1.1637
G1 X123.167 Y111.224 E1.21335
G1 X119.369 Y107.426 E1.4617
G1 X118.331 Y107.149 E1.51135
G1 X122.129 Y110.947 E1.7597
G1 X121.092 Y110.669 E1.80936
G1 X117.294 Y106.871 E2.0577
G1 X116.256 Y106.594 E2.10736
G1 X120.054 Y110.392 E2.3557
G1 X119.017 Y110.114 E2.40536
G1 X115.219 Y106.316 E2.6537
G1 X114.181 Y106.039 E2.70336
G1 X117.979 Y109.837 E2.9517
G1 X116.942 Y109.559 E3.00136
G1 X113.144 Y105.761 E3.2497
G1 X112.106 Y105.483 E3.29936
G1 X115.904 Y109.282 E3.5477
G1 X114.867 Y109.004 E3.59736
G1 X111.069 Y105.206 E3.84571
G1 X110.031 Y104.928 E3.89536
G1 X113.829 Y108.727 E4.14371
G1 X112.792 Y108.449 E4.19336
G1 X108.994 Y104.651 E4.44171
G1 X108.738 Y104.582 E4.45394
G1 X108.617 Y105.034 E4.47557
G1 X112.489 Y108.906 E4.72872
G1 X112.329 Y109.506 E4.75742
G1 X108.457 Y105.634 E5.01057
G1 X108.297 Y106.234 E5.03927
G1 X112.357 Y110.294 E5.30476
G92 E0
G1 E-5.6 F3000
;WIPE_START
G1 F7200
G1 X108.297 Y106.234 E-7.87299
G1 X108.301 Y106.216 E-7.88
;WIPE_END
G1 E-8 F3000
G1 X107.947 Y106.644 F9000
G1 E0 F3000
G1 F1200
G1 X124.106 Y122.803 E1.05654
G92 E0
G1 E-5.6 F3000
;WIPE_START
G1 F7200
G1 X120.033 Y118.73 E-7.88
;WIPE_END
G1 E-8 F3000
; acceleration to travel
M204 S1500
G1 X126.723 Y126.097 F9000
; decel to extrusion
M204 S500
G1 X127.54 Y126.997
; end travel
G1 E0 F3000
G1 F1200
G1 X124.965 Y124.422 E0.1684
G1 X124.821 Y124.398 E0.17515
G1 X124.57 Y124.304 E0.18753
G1 X124.344 Y124.161 E0.1999
G1 X124.15 Y123.976 E0.21227
G1 X123.998 Y123.756 E0.22465
G1 X123.892 Y123.511 E0.23702
G1 X123.849 Y123.306 E0.2467
G1 X107.976 Y107.433 E1.28457
G1 X107.815 Y108.032 E1.31327
G1 X127.191 Y127.408 E2.58018
G1 X127.109 Y127.714 E2.59483
G1 X126.602 Y127.578 E2.61913
G1 X107.655 Y108.632 E3.85798
G1 X107.495 Y109.231 E3.88667
G1 X125.564 Y127.301 E5.06817
G1 X124.527 Y127.023 E5.11782
G1 X107.334 Y109.831 E6.24197
G1 X107.174 Y110.43 E6.27067
G1 X123.489 Y126.746 E7.33747
G1 X122.452 Y126.468 E7.38712
G1 X107.013 Y111.03 E8.39657
G1 X106.853 Y111.63 E8.42526
G1 X121.414 Y126.191 E9.37736
G1 X120.377 Y125.913 E9.42701
G1 X106.693 Y112.229 E10.32176
G1 X106.532 Y112.829 E10.35046
G1 X119.339 Y125.636 E11.18785
G1 X118.302 Y125.358 E11.23751
G1 X106.372 Y113.428 E12.01755
