; generated by SuperSlicer 2.4 on 2022-12-01 at 15:02:44 UTC

; 

; external perimeters extrusion width = 0.43mm
; perimeters extrusion width = 0.48mm
; infill extrusion width = 0.46mm
; solid infill extrusion width = 0.48mm
; top infill extrusion width = 0.46mm
; first layer extrusion width = 0.58mm

; object:{"name":"Hanoi_Board","id":"Hanoi_Board.stl id:0 copy 0","object_center":[115.500000,115.500000,0.000000],"boundingbox_center":[115.500000,115.500000,7.016336],"boundingbox_size":[57.163802,34.516663,14.032672]}
; Total objects to print: 1
M486 T1
; plater:{"center":[115.500000,115.500000,0.000000],"boundingbox_center":[115.500000,115.500000,7.016336],"boundingbox_size":[57.163802,34.516663,14.032672]}

;TYPE:Custom
G90 ; use absolute coordinates
M83 ; extruder relative mode
M140 S60 ; set final bed temp
M104 S150 ; set temporary nozzle temp to prevent oozing during homing and auto bed leveling
G4 S10 ; allow partial nozzle warmup
G28 ; home all axis
;G29 ; auto bed levelling
G1 Z10 F240
G1 X2 Y10 F3000
G1 Z0 F240
M104 S210 ; set final nozzle temp
M190 S60 ; wait for bed temp to stabilize
M109 S210 ; wait for nozzle temp to stabilize
G1 Z0.28 F240
G92 E0
G1 Y140 E10 F1500 ; prime the nozzle
G1 X2.3 F5000
G92 E0
G1 Y10 E10 F1200 ; prime the nozzle
G92 E0
;start
M107
G21 ; set units to millimeters
G90 ; use absolute coordinates
M82 ; use absolute distances for extrusion
G92 E0
; Filament gcode
;_TOOLCHANGE 0
M107
;LAYER_CHANGE
;Z:0.2
;HEIGHT:0.2
;BEFORE_LAYER_CHANGE
;0.2


G1 E-8 F3000
G1 Z0.15 F9000
;AFTER_LAYER_CHANGE
;0.2
G92 E0
M204 S500
G1 X89.262 Y93.517
G1 E8 F3000
;TYPE:Skirt
;WIDTH:0.48
G1 F1200
G1 X88.415 Y94.865 E8.06076
G1 X81.464 Y116.464 E8.92662
G1 X81.417 Y118.277 E8.99581
G1 X82.194 Y119.666 E9.05657
G1 X83.541 Y120.514 E9.11733
G1 X138.535 Y138.213 E11.32193
G1 X140.348 Y138.26 E11.39112
G1 X141.738 Y137.483 E11.45187
G1 X142.585 Y136.135 E11.51263
G1 X149.536 Y114.536 E12.3785
G1 X149.583 Y112.723 E12.44769
G1 X148.806 Y111.334 E12.50844
G1 X147.459 Y110.486 E12.5692
G1 X92.465 Y92.787 E14.7738
G1 X90.652 Y92.74 E14.84299
G1 X89.315 Y93.488 E14.90146
G92 E0
G1 E-5.6 F3000
;WIPE_START
G1 F7200
G1 X88.415 Y94.865 E-6.25116
G1 X87.154 Y98.782 E-7.88
;WIPE_END
G1 E-8 F3000
; acceleration to travel
M204 S1500
G1 X91.397 Y97.458 F9000
; decel to extrusion
M204 S500
G1 X91.915 Y97.296
; end travel
G1 E0 F3000
;WIDTH:0.576
G1 F1200
G1 X92.398 Y97.048 E0.02524
G1 X92.5 Y97.019 E0.03016
G1 X92.818 Y96.993 E0.04504
G1 X92.923 Y97.006 E0.04997
G1 X144.626 Y113.645 E2.57785
G1 X144.718 Y113.697 E2.58278
G1 X144.962 Y113.904 E2.59766
G1 X145.028 Y113.987 E2.60258
G1 X145.275 Y114.469 E2.62782
G1 X145.304 Y114.571 E2.63274
G1 X145.33 Y114.889 E2.64762
G1 X145.318 Y114.995 E2.65255
G1 X139.426 Y133.302 E3.54766
G1 X139.374 Y133.395 E3.55259
G1 X139.168 Y133.638 E3.56746
G1 X139.085 Y133.704 E3.57239
G1 X138.602 Y133.952 E3.59763
G1 X138.5 Y133.981 E3.60255
G1 X138.182 Y134.007 E3.61743
G1 X138.077 Y133.994 E3.62236
G1 X86.374 Y117.355 E6.15024
G1 X86.282 Y117.303 E6.15517
G1 X86.038 Y117.096 E6.17005
G1 X85.972 Y117.013 E6.17497
G1 X85.725 Y116.531 E6.20021
G1 X85.696 Y116.429 E6.20514
G1 X85.67 Y116.111 E6.22001
G1 X85.682 Y116.005 E6.22494
G1 X91.574 Y97.698 E7.12005
G1 X91.626 Y97.605 E7.12498
G1 X91.832 Y97.362 E7.13986
G1 X91.868 Y97.333 E7.14199
G1 X92.208 Y97.75 F9000
G1 F1200
G1 X92.596 Y97.551 E7.1623
G1 X92.809 Y97.533 E7.17225
G1 X93.397 Y97.723 E7.20101
G1 X144.411 Y114.141 E9.69521
G1 X144.574 Y114.279 E9.70516
G1 X144.773 Y114.667 E9.72547
G1 X144.79 Y114.88 E9.73542
G1 X138.931 Y133.087 E10.62561
G1 X138.792 Y133.25 E10.63556
G1 X138.404 Y133.449 E10.65586
G1 X138.191 Y133.467 E10.66581
G1 X86.589 Y116.859 E13.18877
G1 X86.426 Y116.721 E13.19872
G1 X86.227 Y116.333 E13.21903
G1 X86.21 Y116.12 E13.22898
G1 X92.069 Y97.913 E14.11917
G1 X92.169 Y97.796 E14.12633
G1 X92.548 Y98.179 F9000
G1 F1200
G1 X92.746 Y98.078 E14.13669
G1 X93.233 Y98.234 E14.16047
G1 X144.144 Y114.619 E16.6497
G1 X144.246 Y114.817 E16.66006
G1 X138.452 Y132.821 E17.5403
G1 X138.254 Y132.922 E17.55066
G1 X86.856 Y116.381 E20.06367
G1 X86.754 Y116.183 E20.07403
G1 X92.53 Y98.236 E20.95147
; printing object Hanoi_Board.stl id:0 copy 0
M486 S0
G1 X92.956 Y98.73 F9000
;TYPE:External perimeter
G1 F1200
G1 X93.062 Y98.764 E20.95667
G1 X143.594 Y115.027 E23.42731
G1 X138.044 Y132.27 E24.27038
G1 X87.406 Y115.973 E26.74622
G1 X92.937 Y98.787 E27.5865
;WIPE_START
G1 X93.224 Y99.026 F9000
;WIPE_END
G1 X93.303 Y99.406
;TYPE:Internal perimeter
G1 F1200
G1 X142.918 Y115.374 E30.01232
G1 X137.697 Y131.594 E30.80537
G1 X88.082 Y115.626 E33.23119
G1 X93.284 Y99.463 E34.02145
G92 E0
G1 E-5.6 F3000
;WIPE_START
G1 F7200
G1 X98.769 Y101.221 E-7.88
;WIPE_END
G1 E-8 F3000
; acceleration to travel
M204 S1500
G1 X94.338 Y102.265 F9000
; decel to extrusion
M204 S500
G1 X93.797 Y102.393
; end travel
G1 E0 F3000
;TYPE:External perimeter
G1 F1200
G1 X90.185 Y113.616 E0.54873
G1 X91.159 Y114.257 E0.60302
G1 X101.767 Y104.971 E1.25916
G1 X101.461 Y103.487 E1.32972
G1 X95.441 Y101.549 E1.62405
G1 X94.958 Y101.797 E1.64929
G1 X93.85 Y102.366 E1.70726
;WIPE_START
G1 X93.397 Y102.373 F9000
;WIPE_END
G1 X93.353 Y102.016
;TYPE:Internal perimeter
G1 F1200
G1 X89.548 Y113.84 E2.28537
G1 X91.206 Y114.93 E2.37772
G1 X102.357 Y105.169 E3.06746
G1 X101.923 Y103.071 E3.16718
G1 X95.394 Y100.97 E3.48645
G1 X94.713 Y101.319 E3.52205
G1 X93.407 Y101.989 E3.59038
G92 E0
G1 E-5.6 F3000
;WIPE_START
G1 F7200
G1 X91.623 Y107.466 E-7.88
;WIPE_END
G1 E-8 F3000
; acceleration to travel
M204 S1500
G1 X125.138 Y124.008 F9000
; decel to extrusion
M204 S500
G1 X129.233 Y126.029
; end travel
G1 E0 F3000
;TYPE:External perimeter
G1 F1200
G1 X129.539 Y127.513 E0.07056
G1 X135.559 Y129.451 E0.36488
G1 X137.203 Y128.607 E0.45089
G1 X140.815 Y117.384 E0.99962
G1 X139.841 Y116.743 E1.05391
G1 X139.254 Y117.257 E1.09022
G1 X129.278 Y125.989 E1.70726
;WIPE_START
G1 X128.86 Y126.175 F9000
;WIPE_END
G1 X128.643 Y125.831
;TYPE:Internal perimeter
G1 F1200
G1 X129.077 Y127.929 E1.80698
G1 X135.606 Y130.03 E2.12625
G1 X137.647 Y128.984 E2.23297
G1 X141.452 Y117.16 E2.81109
G1 X139.794 Y116.07 E2.90343
G1 X138.9 Y116.853 E2.95876
G1 X128.688 Y125.791 E3.59038
G92 E0
G1 E-5.6 F3000
;WIPE_START
G1 F7200
G1 X129.077 Y127.929 E-6.46007
G1 X132.491 Y129.028 E-7.88
;WIPE_END
G1 E-8 F3000
; acceleration to travel
M204 S1500
G1 X132.309 Y115.108 F9000
; decel to extrusion
M204 S500
G1 X132.286 Y113.408
; end travel
G1 E0 F3000
;TYPE:External perimeter
G1 F1200
G1 X126.322 Y111.488 E0.2916
G1 X125.762 Y111.604 E0.31822
G1 X124.282 Y111.91 E0.38855
G1 X113.82 Y121.068 E1.03571
G1 X114.126 Y122.553 E1.10627
G1 X120.091 Y124.472 E1.39787
G1 X122.131 Y124.051 E1.49483
G1 X132.593 Y114.892 E2.14199
G1 X132.299 Y113.466 E2.20976
;WIPE_START
G1 X132.342 Y113.012 F9000
;WIPE_END
G1 X132.749 Y112.992
;TYPE:Internal perimeter
G1 F1200
G1 X126.352 Y110.933 E2.52252
G1 X125.654 Y111.078 E2.55573
G1 X124.035 Y111.412 E2.63265
G1 X113.23 Y120.87 E3.30098
G1 X113.664 Y122.968 E3.40071
G1 X120.061 Y125.027 E3.71348
G1 X122.378 Y124.548 E3.8236
G1 X133.183 Y115.09 E4.49193
G1 X132.761 Y113.051 E4.58886
G92 E0
G1 E-5.6 F3000
;WIPE_START
G1 F7200
G1 X127.292 Y111.244 E-7.88
;WIPE_END
G1 E-8 F3000
; acceleration to travel
M204 S1500
G1 X118.281 Y110.075 F9000
; decel to extrusion
M204 S500
G1 X117.18 Y109.932
; end travel
G1 E0 F3000
;TYPE:External perimeter
G1 F1200
G1 X116.874 Y108.447 E0.07056
G1 X110.909 Y106.528 E0.36216
G1 X110.349 Y106.643 E0.38878
G1 X108.869 Y106.949 E0.45911
G1 X98.407 Y116.108 E1.10627
G1 X98.714 Y117.592 E1.17683
G1 X104.678 Y119.512 E1.46843
G1 X106.718 Y119.09 E1.56539
G1 X117.135 Y109.971 E2.20976
;WIPE_START
G1 X117.552 Y109.785 F9000
;WIPE_END
G1 X117.77 Y110.13
;TYPE:Internal perimeter
G1 F1200
G1 X117.336 Y108.032 E2.30948
G1 X110.939 Y105.973 E2.62225
G1 X110.241 Y106.117 E2.65545
G1 X108.622 Y106.452 E2.73237
G1 X97.817 Y115.91 E3.40071
G1 X98.251 Y118.008 E3.50043
G1 X104.648 Y120.067 E3.8132
G1 X106.965 Y119.588 E3.92333
G1 X117.725 Y110.169 E4.58886
G92 E0
G1 E-5.6 F3000
;WIPE_START
G1 F7200
G1 X117.336 Y108.032 E-6.46007
G1 X113.922 Y106.933 E-7.88
;WIPE_END
G1 E-8 F3000
; acceleration to travel
M204 S1500
G1 X135.158 Y126.696 F9000
; decel to extrusion
M204 S500
G1 X137.753 Y129.11
; end travel
G1 E0 F3000
;TYPE:Solid infill
;WIDTH:0.636376
G1 F1200
G1 X138.004 Y129.361 E0.01825
G1 X137.819 Y129.936 E0.0493
G1 X137.422 Y129.54 E0.07814
G1 X136.92 Y129.797 E0.10717
G1 X137.634 Y130.511 E0.15907
G1 X137.449 Y131.086 E0.19013
G1 X136.418 Y130.055 E0.2651
G1 X135.915 Y130.313 E0.29413
G1 X136.709 Y131.107 E0.35187
G92 E0
G1 E-5.6 F3000
;WIPE_START
G1 F7200
G1 X135.915 Y130.313 E-6.04446
G1 X136.418 Y130.055 E-6.26792
G1 X137.449 Y131.086 E-6.84506
G1 X137.634 Y130.511 E-7.08413
G1 X136.92 Y129.797 E-7.48369
G1 X137.422 Y129.54 E-7.70715
G1 X137.731 Y129.848 E-7.88
;WIPE_END
G1 E-8 F3000
; acceleration to travel
M204 S1500
G1 X141.936 Y117.777 F9000
; decel to extrusion
M204 S500
G1 X142.45 Y116.302
; end travel
G1 E0 F3000
G1 F1200
G1 X141.467 Y115.319 E0.07145
G1 X140.346 Y114.959 E0.13198
G1 X142.081 Y116.693 E0.25811
G1 X141.972 Y117.032 E0.27642
G1 X141.061 Y116.433 E0.33247
G1 X139.226 Y114.598 E0.46592
G1 X138.105 Y114.237 E0.52645
G1 X139.593 Y115.725 E0.63463
G1 X139.188 Y116.079 E0.66232
G1 X136.985 Y113.877 E0.82251
G1 X135.864 Y113.516 E0.88305
G1 X138.782 Y116.434 E1.09526
G1 X138.641 Y116.557 E1.10489
G1 X138.377 Y116.789 E1.12296
G1 X134.743 Y113.155 E1.38719
G1 X133.623 Y112.795 E1.44773
G1 X137.972 Y117.144 E1.76398
G1 X137.567 Y117.498 E1.79168
G1 X133.173 Y113.105 E2.11116
G1 X133.371 Y114.063 E2.16146
G1 X137.161 Y117.853 E2.43707
G1 X136.756 Y118.208 E2.46476
G1 X133.569 Y115.021 E2.69651
G1 X133.613 Y115.235 E2.70775
G1 X133.299 Y115.51 E2.72925
G1 X136.351 Y118.562 E2.9512
G1 X135.946 Y118.917 E2.97889
G1 X132.893 Y115.865 E3.20084
G1 X132.488 Y116.22 E3.22853
G1 X135.54 Y119.272 E3.45048
G1 X135.135 Y119.627 E3.47817
G1 X132.083 Y116.575 E3.70012
G1 X131.678 Y116.929 E3.72781
G1 X134.73 Y119.981 E3.94976
G1 X134.325 Y120.336 E3.97745
G1 X131.273 Y117.284 E4.1994
G1 X130.867 Y117.639 E4.22709
G1 X133.919 Y120.691 E4.44904
G1 X133.514 Y121.045 E4.47673
G1 X130.462 Y117.993 E4.69868
G1 X130.057 Y118.348 E4.72637
G1 X133.109 Y121.4 E4.94832
G1 X132.704 Y121.755 E4.97601
G1 X129.652 Y118.703 E5.19796
G1 X129.246 Y119.058 E5.22565
G1 X132.298 Y122.11 E5.4476
G1 X131.893 Y122.464 E5.47529
G1 X128.841 Y119.412 E5.69724
G1 X128.436 Y119.767 E5.72493
G1 X131.488 Y122.819 E5.94688
G1 X131.083 Y123.174 E5.97457
G1 X128.031 Y120.122 E6.19652
G1 X127.625 Y120.476 E6.22421
G1 X130.677 Y123.528 E6.44616
G1 X130.272 Y123.883 E6.47385
G1 X127.22 Y120.831 E6.6958
G1 X126.815 Y121.186 E6.72349
G1 X129.867 Y124.238 E6.94544
G1 X129.462 Y124.593 E6.97313
G1 X126.41 Y121.541 E7.19508
G1 X126.004 Y121.895 E7.22277
G1 X129.056 Y124.947 E7.44472
G1 X128.651 Y125.302 E7.47241
G1 X125.599 Y122.25 E7.69436
G1 X125.194 Y122.605 E7.72205
G1 X128.246 Y125.657 E7.944
G1 X128.213 Y125.686 E7.94629
G1 X128.394 Y126.565 E7.99243
G1 X124.789 Y122.959 E8.25463
G1 X124.383 Y123.314 E8.28232
G1 X128.592 Y127.523 E8.58838
G1 X128.754 Y128.303 E8.62937
G1 X128.546 Y128.237 E8.64058
G1 X123.978 Y123.669 E8.97275
G1 X123.573 Y124.024 E9.00044
G1 X127.425 Y127.876 E9.28059
G1 X126.305 Y127.515 E9.34113
G1 X123.168 Y124.378 E9.56926
G1 X122.762 Y124.733 E9.59695
G1 X125.184 Y127.155 E9.77306
G1 X124.064 Y126.794 E9.83359
G1 X122.246 Y124.976 E9.96579
G1 X121.616 Y125.106 E9.99886
G1 X122.943 Y126.433 E10.09537
G1 X121.822 Y126.073 E10.1559
G1 X120.986 Y125.236 E10.21671
G1 X120.712 Y125.293 E10.23109
G1 X120.69 Y125.701 E10.25208
G1 X121.06 Y126.07 E10.27894
G92 E0
G1 E-5.6 F3000
;WIPE_START
G1 F7200
G1 X120.69 Y125.701 E-5.80673
G1 X120.712 Y125.293 E-5.96835
G1 X120.986 Y125.236 E-6.07899
G1 X121.822 Y126.073 E-6.54714
G1 X122.943 Y126.433 E-7.01312
G1 X121.616 Y125.106 E-7.75603
G1 X121.923 Y125.043 E-7.88
;WIPE_END
G1 E-8 F3000
; acceleration to travel
M204 S1500
G1 X124.087 Y111.253 F9000
; decel to extrusion
M204 S500
G1 X124.352 Y109.568
; end travel
G1 E0 F3000
G1 F1200
G1 X125.494 Y110.71 E0.08305
G1 X124.864 Y110.84 E0.11612
G1 X123.589 Y109.565 E0.20883
G1 X122.469 Y109.205 E0.26936
G1 X124.234 Y110.971 E0.39777
G1 X123.854 Y111.049 E0.41771
G1 X123.694 Y111.19 E0.4287
G1 X121.348 Y108.844 E0.59928
G1 X120.227 Y108.483 E0.65981
G1 X123.288 Y111.545 E0.88241
G1 X122.883 Y111.899 E0.9101
G1 X119.107 Y108.123 E1.18472
G1 X117.986 Y107.762 E1.24525
G1 X122.478 Y112.254 E1.57189
G1 X122.073 Y112.609 E1.59959
G1 X117.8 Y108.336 E1.91031
G1 X117.998 Y109.294 E1.96061
G1 X121.667 Y112.963 E2.22747
G1 X121.262 Y113.318 E2.25517
G1 X118.196 Y110.252 E2.47816
G1 X118.2 Y110.274 E2.47935
G1 X117.805 Y110.621 E2.50639
G1 X120.857 Y113.673 E2.72834
G1 X120.452 Y114.028 E2.75603
G1 X117.4 Y110.975 E2.97798
G1 X116.994 Y111.33 E3.00567
G1 X120.046 Y114.382 E3.22762
G1 X119.641 Y114.737 E3.25531
G1 X116.589 Y111.685 E3.47726
G1 X116.184 Y112.04 E3.50495
G1 X119.236 Y115.092 E3.7269
G1 X118.831 Y115.446 E3.75459
G1 X115.779 Y112.394 E3.97654
G1 X115.373 Y112.749 E4.00423
G1 X118.426 Y115.801 E4.22618
G1 X118.02 Y116.156 E4.25387
G1 X114.968 Y113.104 E4.47582
G1 X114.563 Y113.458 E4.50351
G1 X117.615 Y116.511 E4.72546
G1 X117.21 Y116.865 E4.75315
G1 X114.158 Y113.813 E4.9751
G1 X113.752 Y114.168 E5.00279
G1 X116.805 Y117.22 E5.22474
G1 X116.399 Y117.575 E5.25243
G1 X113.347 Y114.523 E5.47438
G1 X112.942 Y114.877 E5.50207
G1 X115.994 Y117.929 E5.72402
G1 X115.589 Y118.284 E5.75171
G1 X112.537 Y115.232 E5.97366
G1 X112.131 Y115.587 E6.00135
G1 X115.184 Y118.639 E6.2233
G1 X114.778 Y118.994 E6.25099
G1 X111.726 Y115.941 E6.47294
G1 X111.321 Y116.296 E6.50063
G1 X114.373 Y119.348 E6.72258
G1 X113.968 Y119.703 E6.75027
G1 X110.916 Y116.651 E6.97222
G1 X110.511 Y117.006 E6.99991
G1 X113.563 Y120.058 E7.22186
G1 X113.157 Y120.412 E7.24955
G1 X110.105 Y117.36 E7.4715
G1 X109.7 Y117.715 E7.49919
G1 X112.823 Y120.838 E7.72627
G1 X113.021 Y121.796 E7.77657
G1 X109.295 Y118.07 E8.04752
G1 X108.89 Y118.424 E8.07522
G1 X113.219 Y122.754 E8.39003
G1 X113.341 Y123.343 E8.42098
G1 X112.909 Y123.204 E8.44427
G1 X108.484 Y118.779 E8.76606
G1 X108.079 Y119.134 E8.79375
G1 X111.789 Y122.844 E9.06352
G1 X110.668 Y122.483 E9.12405
G1 X107.674 Y119.489 E9.3418
G1 X107.269 Y119.843 E9.36949
G1 X109.548 Y122.122 E9.53522
G1 X108.427 Y121.762 E9.59575
G1 X106.707 Y120.042 E9.72083
G1 X106.077 Y120.172 E9.7539
G1 X107.306 Y121.401 E9.84328
G1 X106.186 Y121.04 E9.90382
G1 X105.252 Y120.106 E9.97173
G92 E0
G1 E-5.6 F3000
;WIPE_START
G1 F7200
G1 X106.186 Y121.04 E-6.12277
G1 X107.306 Y121.401 E-6.58876
G1 X106.077 Y120.172 E-7.27683
G1 X106.707 Y120.042 E-7.53139
G1 X107.33 Y120.664 E-7.88
;WIPE_END
G1 E-8 F3000
; acceleration to travel
M204 S1500
G1 X108.764 Y106.356 F9000
; decel to extrusion
M204 S500
G1 X108.939 Y104.608
; end travel
G1 E0 F3000
G1 F1200
G1 X110.081 Y105.75 E0.08305
G1 X109.451 Y105.88 E0.11612
G1 X108.176 Y104.605 E0.20883
G1 X107.056 Y104.244 E0.26936
G1 X108.821 Y106.01 E0.39777
G1 X108.441 Y106.089 E0.41771
G1 X108.281 Y106.229 E0.4287
G1 X105.935 Y103.884 E0.59928
G1 X104.814 Y103.523 E0.65981
G1 X107.875 Y106.584 E0.88241
G1 X107.47 Y106.939 E0.9101
G1 X103.694 Y103.162 E1.18472
G1 X102.573 Y102.802 E1.24525
G1 X107.065 Y107.293 E1.57189
G1 X106.66 Y107.648 E1.59959
G1 X102.387 Y103.375 E1.91031
G1 X102.585 Y104.333 E1.96061
G1 X106.254 Y108.003 E2.22747
G1 X105.849 Y108.358 E2.25517
G1 X102.783 Y105.291 E2.47816
G1 X102.787 Y105.314 E2.47935
G1 X102.392 Y105.66 E2.50639
G1 X105.444 Y108.712 E2.72833
G1 X105.039 Y109.067 E2.75603
G1 X101.987 Y106.015 E2.97797
G1 X101.581 Y106.37 E3.00567
G1 X104.633 Y109.422 E3.22762
G1 X104.228 Y109.776 E3.25531
G1 X101.176 Y106.724 E3.47726
G1 X100.771 Y107.079 E3.50495
G1 X103.823 Y110.131 E3.7269
G1 X103.418 Y110.486 E3.75459
G1 X100.366 Y107.434 E3.97654
G1 X99.96 Y107.789 E4.00423
G1 X103.013 Y110.841 E4.22618
G1 X102.607 Y111.195 E4.25387
