; generated by SuperSlicer 2.4 on 2022-12-01 at 15:08:05 UTC

; 

; external perimeters extrusion width = 0.43mm
; perimeters extrusion width = 0.48mm
; infill extrusion width = 0.46mm
; solid infill extrusion width = 0.48mm
; top infill extrusion width = 0.46mm
; first layer extrusion width = 0.58mm

; object:{"name":"variable_size_ooze_test","id":"variable_size_ooze_test.stl id:0 copy 0","object_center":[115.500000,115.500000,0.000000],"boundingbox_center":[115.500000,115.500000,13.071463],"boundingbox_size":[55.669912,55.669912,26.142926]}
; Total objects to print: 1
M486 T1
; plater:{"center":[115.500000,115.500000,0.000000],"boundingbox_center":[115.500000,115.500000,13.071463],"boundingbox_size":[55.669912,55.669912,26.142926]}

;TYPE:Custom
G90 ; use absolute coordinates
M83 ; extruder relative mode
M140 S60 ; set final bed temp
M104 S150 ; set temporary nozzle temp to prevent oozing during homing and auto bed leveling
G4 S10 ; allow partial nozzle warmup
G28 ; home all axis
;G29 ; auto bed levelling
G1 Z10 F240
G1 X2 Y10 F3000
G1 Z0 F240
M104 S210 ; set final nozzle temp
M190 S60 ; wait for bed temp to stabilize
M109 S210 ; wait for nozzle temp to stabilize
G1 Z0.28 F240
G92 E0
G1 Y140 E10 F1500 ; prime the nozzle
G1 X2.3 F5000
G92 E0
G1 Y10 E10 F1200 ; prime the nozzle
G92 E0
;start
M107
G21 ; set units to millimeters
G90 ; use absolute coordinates
M82 ; use absolute distances for extrusion
G92 E0
; Filament gcode
;_TOOLCHANGE 0
M107
;LAYER_CHANGE
;Z:0.2
;HEIGHT:0.2
;BEFORE_LAYER_CHANGE
;0.2


G1 E-8 F3000
G1 Z0.15 F9000
;AFTER_LAYER_CHANGE
;0.2
G92 E0
M204 S500
G1 X83.384 Y105.314
G1 E8 F3000
;TYPE:Skirt
;WIDTH:0.48
G1 F1200
G1 X82.162 Y106.653 E8.06919
G1 X81.84 Y108.213 E8.12995
G1 X82.304 Y109.735 E8.1907
G1 X105.314 Y147.616 E9.88203
G1 X106.653 Y148.838 E9.95123
G1 X108.213 Y149.16 E10.01198
G1 X109.735 Y148.696 E10.07274
G1 X147.616 Y125.686 E11.76407
G1 X148.838 Y124.347 E11.83326
G1 X149.16 Y122.787 E11.89402
G1 X148.696 Y121.265 E11.95477
G1 X125.686 Y83.384 E13.6461
G1 X124.347 Y82.162 E13.7153
G1 X122.787 Y81.84 E13.77605
G1 X121.265 Y82.304 E13.83681
G1 X83.435 Y105.283 E15.52585
G92 E0
G1 E-5.6 F3000
;WIPE_START
G1 F7200
G1 X82.162 Y106.653 E-6.34053
G1 X81.84 Y108.213 E-6.97074
G1 X82.304 Y109.735 E-7.60095
G1 X82.67 Y110.338 E-7.88
;WIPE_END
G1 E-8 F3000
; acceleration to travel
M204 S1500
G1 X86.346 Y108.076 F9000
; decel to extrusion
M204 S500
G1 X86.795 Y107.8
; end travel
G1 E0 F3000
;WIDTH:0.576
G1 F1200
G1 X86.873 Y107.728 E0.00493
G1 X121.799 Y86.513 E1.90681
G1 X121.898 Y86.477 E1.91174
G1 X122.214 Y86.428 E1.92661
G1 X122.32 Y86.433 E1.93154
G1 X122.847 Y86.562 E1.95678
G1 X122.942 Y86.606 E1.9617
G1 X123.2 Y86.795 E1.97658
G1 X123.272 Y86.873 E1.98151
G1 X144.487 Y121.799 E3.88339
G1 X144.523 Y121.898 E3.88832
G1 X144.572 Y122.214 E3.90319
G1 X144.567 Y122.32 E3.90812
G1 X144.438 Y122.847 E3.93335
G1 X144.394 Y122.942 E3.93828
G1 X144.205 Y123.2 E3.95316
G1 X144.127 Y123.272 E3.95808
G1 X109.201 Y144.487 E5.85997
G1 X109.102 Y144.523 E5.86489
G1 X108.786 Y144.572 E5.87977
G1 X108.68 Y144.567 E5.8847
G1 X108.153 Y144.438 E5.90993
G1 X108.058 Y144.394 E5.91486
G1 X107.8 Y144.205 E5.92974
G1 X107.728 Y144.127 E5.93466
G1 X86.513 Y109.201 E7.83655
G1 X86.477 Y109.102 E7.84147
G1 X86.428 Y108.786 E7.85635
G1 X86.433 Y108.68 E7.86128
G1 X86.562 Y108.153 E7.88651
G1 X86.606 Y108.058 E7.89144
G1 X86.76 Y107.848 E7.90352
G1 X87.193 Y108.166 F9000
G1 F1200
G1 X122.032 Y87 E9.80078
G1 X122.244 Y86.968 E9.81073
G1 X122.668 Y87.071 E9.83104
G1 X122.84 Y87.197 E9.84099
G1 X144 Y122.032 E11.73795
G1 X144.032 Y122.244 E11.7479
G1 X143.929 Y122.668 E11.76821
G1 X143.803 Y122.84 E11.77816
G1 X108.968 Y144 E13.67512
G1 X108.756 Y144.032 E13.68507
G1 X108.332 Y143.929 E13.70537
G1 X108.16 Y143.803 E13.71532
G1 X87 Y108.968 E15.61228
G1 X86.968 Y108.756 E15.62223
G1 X87.071 Y108.332 E15.64254
G1 X87.158 Y108.214 E15.64937
G1 X87.568 Y108.564 F9000
G1 F1200
G1 X122.22 Y87.515 E17.53638
G1 X122.436 Y87.568 E17.54674
G1 X122.955 Y88.422 E17.59326
G1 X143.485 Y122.22 E19.43374
G1 X143.432 Y122.436 E19.4441
G1 X108.78 Y143.485 E21.33111
G1 X108.564 Y143.432 E21.34147
G1 X87.515 Y108.78 E23.22848
G1 X87.554 Y108.622 E23.23604
; printing object variable_size_ooze_test.stl id:0 copy 0
M486 S0
G1 X88.198 Y108.832 F9000
;TYPE:External perimeter
G1 F1200
G1 X122.168 Y88.198 E25.08588
G1 X122.479 Y88.711 E25.11382
G1 X142.802 Y122.168 E26.93572
G1 X108.832 Y142.802 E28.78556
G1 X88.229 Y108.883 E30.6326
;WIPE_START
G1 X88.598 Y108.823 F9000
;WIPE_END
G1 X88.936 Y109.012
;TYPE:Internal perimeter
G1 F1200
G1 X121.988 Y88.936 E32.43242
G1 X142.064 Y121.988 E34.23224
G1 X109.012 Y142.064 E36.03206
G1 X88.968 Y109.064 E37.82908
G92 E0
G1 E-5.6 F3000
;WIPE_START
G1 F7200
G1 X93.886 Y106.066 E-7.88
;WIPE_END
G1 E-8 F3000
; acceleration to travel
M204 S1500
G1 X120.388 Y93.482 F9000
; decel to extrusion
M204 S500
G1 X123.626 Y91.945
; end travel
G1 E0 F3000
;TYPE:Solid infill
;WIDTH:0.578541
G1 F1200
G1 X121.421 Y89.739 E0.14579
G1 X120.948 Y90.027 E0.17165
G1 X124.113 Y93.192 E0.38091
G1 X125.289 Y95.128 E0.48679
G1 X120.475 Y90.314 E0.80505
G1 X120.003 Y90.601 E0.83091
G1 X126.465 Y97.064 E1.25815
G1 X127.641 Y98.999 E1.36404
G1 X119.53 Y90.888 E1.90028
G1 X119.057 Y91.175 E1.92614
G1 X128.817 Y100.935 E2.57137
G1 X129.993 Y102.871 E2.67725
G1 X118.584 Y91.463 E3.43148
G1 X118.112 Y91.75 E3.45734
G1 X131.169 Y104.807 E4.32056
G1 X132.345 Y106.743 E4.42645
G1 X117.639 Y92.037 E5.39866
G1 X117.166 Y92.324 E5.42452
G1 X133.52 Y108.679 E6.50573
G1 X134.696 Y110.614 E6.61161
G1 X116.693 Y92.611 E7.80182
G1 X116.22 Y92.898 E7.82768
G1 X135.872 Y112.55 E9.12688
G1 X137.048 Y114.486 E9.23276
G1 X115.748 Y93.186 E10.64095
G1 X115.275 Y93.473 E10.66681
G1 X138.224 Y116.422 E12.184
G1 X139.4 Y118.358 E12.28988
G1 X114.802 Y93.76 E13.91606
G1 X114.329 Y94.047 E13.94192
G1 X140.576 Y120.294 E15.67709
G1 X141.525 Y121.856 E15.76254
G1 X141.434 Y121.911 E15.76753
G1 X113.857 Y94.334 E17.59067
G1 X113.384 Y94.621 E17.61653
G1 X140.961 Y122.198 E19.43967
G1 X140.488 Y122.486 E19.46552
G1 X112.911 Y94.909 E21.28866
G1 X112.438 Y95.196 E21.31452
G1 X140.015 Y122.773 E23.13766
G1 X139.542 Y123.06 E23.16352
G1 X111.965 Y95.483 E24.98665
G1 X111.493 Y95.77 E25.01251
G1 X139.07 Y123.347 E26.83565
G1 X138.597 Y123.634 E26.86151
G1 X111.02 Y96.057 E28.68465
G1 X110.547 Y96.345 E28.7105
G1 X138.124 Y123.922 E30.53364
G1 X137.651 Y124.209 E30.5595
G1 X110.074 Y96.632 E32.38264
G1 X109.602 Y96.919 E32.4085
G1 X137.179 Y124.496 E34.23163
G1 X136.706 Y124.783 E34.25749
G1 X109.129 Y97.206 E36.08063
G1 X108.656 Y97.493 E36.10649
G1 X136.233 Y125.07 E37.92963
G1 X135.76 Y125.357 E37.95549
G1 X108.183 Y97.78 E39.77862
G1 X107.71 Y98.068 E39.80448
G1 X135.287 Y125.645 E41.62762
G1 X134.815 Y125.932 E41.65348
G1 X107.238 Y98.355 E43.47661
G1 X106.765 Y98.642 E43.50247
G1 X134.342 Y126.219 E45.32561
G1 X133.869 Y126.506 E45.35147
G1 X106.292 Y98.929 E47.17461
G1 X105.819 Y99.216 E47.20047
G1 X133.396 Y126.793 E49.0236
G1 X132.924 Y127.081 E49.04946
G1 X105.346 Y99.503 E50.8726
G1 X104.874 Y99.791 E50.89846
G1 X132.451 Y127.368 E52.7216
G1 X131.978 Y127.655 E52.74745
G1 X104.401 Y100.078 E54.57059
G1 X103.928 Y100.365 E54.59645
G1 X131.505 Y127.942 E56.41959
G1 X131.032 Y128.229 E56.44545
G1 X103.455 Y100.652 E58.26858
G1 X102.983 Y100.939 E58.29444
G1 X130.56 Y128.516 E60.11758
G1 X130.087 Y128.804 E60.14344
G1 X102.51 Y101.227 E61.96658
G1 X102.037 Y101.514 E61.99244
G1 X129.614 Y129.091 E63.81557
G1 X129.141 Y129.378 E63.84143
G1 X101.564 Y101.801 E65.66457
G1 X101.091 Y102.088 E65.69043
G1 X128.668 Y129.665 E67.51356
G1 X128.196 Y129.952 E67.53942
G1 X100.619 Y102.375 E69.36256
G1 X100.146 Y102.662 E69.38842
G1 X127.723 Y130.239 E71.21156
G1 X127.25 Y130.527 E71.23742
G1 X99.673 Y102.95 E73.06055
G1 X99.2 Y103.237 E73.08641
G1 X126.777 Y130.814 E74.90955
G1 X126.305 Y131.101 E74.93541
G1 X98.728 Y103.524 E76.75855
G1 X98.255 Y103.811 E76.7844
G1 X125.832 Y131.388 E78.60754
G1 X125.359 Y131.675 E78.6334
G1 X97.782 Y104.098 E80.45654
G1 X97.309 Y104.386 E80.4824
G1 X124.886 Y131.963 E82.30553
G1 X124.413 Y132.25 E82.33139
G1 X96.836 Y104.673 E84.15453
G1 X96.364 Y104.96 E84.18039
G1 X123.941 Y132.537 E86.00353
G1 X123.468 Y132.824 E86.02939
G1 X95.891 Y105.247 E87.85252
G1 X95.418 Y105.534 E87.87838
G1 X122.995 Y133.111 E89.70152
G1 X122.522 Y133.398 E89.72738
G1 X94.945 Y105.821 E91.55051
G1 X94.473 Y106.109 E91.57637
G1 X122.05 Y133.686 E93.39951
G1 X121.577 Y133.973 E93.42537
G1 X94 Y106.396 E95.24851
G1 X93.527 Y106.683 E95.27437
G1 X121.104 Y134.26 E97.0975
G1 X120.631 Y134.547 E97.12336
G1 X93.054 Y106.97 E98.9465
G1 X92.581 Y107.257 E98.97236
G1 X120.158 Y134.834 E100.7955
G1 X119.686 Y135.122 E100.82135
G1 X92.109 Y107.544 E102.64449
G1 X91.636 Y107.832 E102.67035
G1 X119.213 Y135.409 E104.49349
G1 X118.74 Y135.696 E104.51935
G1 X91.163 Y108.119 E106.34248
G1 X90.69 Y108.406 E106.36834
G1 X118.267 Y135.983 E108.19148
G1 X117.795 Y136.27 E108.21734
G1 X90.218 Y108.693 E110.04048
G1 X89.745 Y108.98 E110.06633
G1 X117.322 Y136.557 E111.88947
G1 X116.849 Y136.845 E111.91533
G1 X89.981 Y109.976 E113.69161
G1 X91.157 Y111.912 E113.79749
G1 X116.376 Y137.132 E115.46478
G1 X115.903 Y137.419 E115.49064
G1 X92.333 Y113.848 E117.04893
G1 X93.508 Y115.784 E117.15482
G1 X115.431 Y137.706 E118.60412
G1 X114.958 Y137.993 E118.62997
G1 X94.684 Y117.72 E119.97028
G1 X95.86 Y119.655 E120.07616
G1 X114.485 Y138.28 E121.30747
G1 X114.012 Y138.568 E121.33333
G1 X97.036 Y121.591 E122.45565
G1 X98.212 Y123.527 E122.56153
G1 X113.54 Y138.855 E123.57486
G1 X113.067 Y139.142 E123.60071
G1 X99.388 Y125.463 E124.50504
G1 X100.564 Y127.399 E124.61093
G1 X112.594 Y139.429 E125.40626
G1 X112.121 Y139.716 E125.43212
G1 X101.74 Y129.335 E126.11846
G1 X102.915 Y131.27 E126.22435
G1 X111.648 Y140.004 E126.80169
G1 X111.176 Y140.291 E126.82755
G1 X104.091 Y133.206 E127.29591
G1 X105.267 Y135.142 E127.40179
G1 X110.703 Y140.578 E127.76115
G1 X110.23 Y140.865 E127.78701
G1 X106.443 Y137.078 E128.03738
G1 X107.619 Y139.014 E128.14326
G1 X109.757 Y141.152 E128.28463
G1 X109.285 Y141.439 E128.31049
G1 X108.106 Y140.261 E128.3884
M106 S84.15
;LAYER_CHANGE
;Z:0.52
;HEIGHT:0.32
;BEFORE_LAYER_CHANGE
;0.52


G92 E0
G1 E-5.6 F3000
;WIPE_START
G1 F7200
G1 X109.285 Y141.439 E-6.25969
G1 X109.757 Y141.152 E-6.47865
G1 X107.619 Y139.014 E-7.67572
G1 X107.351 Y138.573 E-7.88
;WIPE_END
G1 E-8 F3000
; stop printing object variable_size_ooze_test.stl id:0 copy 0
M486 S-1
G1 Z0.47 F9000
;AFTER_LAYER_CHANGE
;0.52
G92 E0
; acceleration to travel
M204 S1500
G1 X102.449 Y141.55
; decel to extrusion
M204 S500
G1 X101.85 Y141.914
; end travel
G1 E8 F3000
;TYPE:Skirt
;WIDTH:0.48
G1 F1200
G1 X105.314 Y147.616 E8.38334
G1 X106.653 Y148.838 E8.48753
G1 X108.213 Y149.16 E8.57901
G1 X109.735 Y148.696 E8.67049
G1 X147.616 Y125.686 E11.21718
G1 X148.838 Y124.347 E11.32136
G1 X149.16 Y122.787 E11.41284
G1 X148.696 Y121.265 E11.50433
G1 X125.686 Y83.384 E14.05101
G1 X124.347 Y82.162 E14.1552
G1 X122.787 Y81.84 E14.24668
G1 X121.265 Y82.304 E14.33816
G1 X83.384 Y105.314 E16.88485
G1 X82.162 Y106.653 E16.98903
G1 X81.84 Y108.213 E17.08051
G1 X82.304 Y109.735 E17.172
G1 X101.819 Y141.863 E19.33189
G92 E0
G1 E-5.6 F3000
;WIPE_START
G1 F7200
G1 X104.809 Y146.786 E-7.88
;WIPE_END
G1 E-8 F3000
; printing object variable_size_ooze_test.stl id:0 copy 0
M486 S0
; acceleration to travel
M204 S1500
G1 X108.436 Y142.995 F9000
; decel to extrusion
M204 S500
G1 X108.905 Y142.505
; end travel
G1 E0 F3000
;TYPE:Internal perimeter
;WIDTH:0.476
G1 F2400
G1 X88.495 Y108.905 E2.23694
G1 X122.095 Y88.495 E4.47388
G1 X142.505 Y122.095 E6.71083
G1 X108.956 Y142.474 E8.94436
G1 X108.774 Y143.041 F9000
;TYPE:External perimeter
;WIDTH:0.428
G1 F1500
G1 X87.959 Y108.774 E10.95687
G1 X122.226 Y87.959 E12.96938
G1 X143.041 Y122.226 E14.98188
G1 X108.825 Y143.01 E16.99138
;WIPE_START
G1 X108.765 Y142.641 F9000
;WIPE_END
G92 E0
G1 E-5.6 F3000
;WIPE_START
G1 F7200
G1 X105.775 Y137.718 E-7.88
;WIPE_END
G1 E-8 F3000
; acceleration to travel
M204 S1500
G1 X136.249 Y125.001 F9000
; decel to extrusion
M204 S500
G1 X140.186 Y123.358
; end travel
G1 E0 F3000
;TYPE:Solid infill
;WIDTH:0.483878
G1 F2400
G1 X141.886 Y121.659 E0.13905
G1 X141.665 Y121.294 E0.16371
G1 X139.225 Y123.734 E0.36329
G1 X137.733 Y124.64 E0.46427
G1 X141.443 Y120.93 E0.76779
G1 X141.222 Y120.565 E0.79246
G1 X136.241 Y125.547 E1.19993
G1 X134.748 Y126.453 E1.30091
G1 X141 Y120.201 E1.81234
G1 X140.779 Y119.837 E1.837
G1 X133.256 Y127.359 E2.45237
G1 X131.764 Y128.266 E2.55335
G1 X140.558 Y119.472 E3.27267
G1 X140.336 Y119.108 E3.29734
G1 X130.272 Y129.172 E4.12061
G1 X128.78 Y130.078 E4.22159
G1 X140.115 Y118.743 E5.14881
G1 X139.894 Y118.379 E5.17347
G1 X127.288 Y130.985 E6.20464
G1 X125.796 Y131.891 E6.30562
G1 X139.672 Y118.015 E7.44074
G1 X139.451 Y117.65 E7.4654
G1 X124.304 Y132.797 E8.70447
G1 X122.812 Y133.704 E8.80545
G1 X139.23 Y117.286 E10.14847
G1 X139.008 Y116.921 E10.17313
G1 X121.32 Y134.61 E11.62009
G1 X119.827 Y135.516 E11.72107
G1 X138.787 Y116.557 E13.27199
G1 X138.566 Y116.192 E13.29665
G1 X118.335 Y136.423 E14.95151
G1 X116.843 Y137.329 E15.05249
G1 X138.344 Y115.828 E16.81131
G1 X138.123 Y115.464 E16.83597
G1 X115.351 Y138.235 E18.69873
G1 X113.859 Y139.142 E18.79971
G1 X137.902 Y115.099 E20.76642
G1 X137.68 Y114.735 E20.79108
G1 X112.367 Y140.048 E22.86174
G1 X110.875 Y140.954 E22.96273
G1 X137.459 Y114.37 E25.13733
G1 X137.238 Y114.006 E25.162
G1 X109.383 Y141.861 E27.44055
G1 X109.006 Y142.09 E27.46604
G1 X108.841 Y141.817 E27.48448
G1 X137.016 Y113.642 E29.78927
G1 X136.795 Y113.277 E29.81393
G1 X108.619 Y141.453 E32.11872
G1 X108.398 Y141.088 E32.14339
G1 X136.573 Y112.913 E34.44818
G1 X136.352 Y112.548 E34.47284
G1 X108.177 Y140.724 E36.77763
G1 X107.955 Y140.359 E36.80229
G1 X136.131 Y112.184 E39.10709
G1 X135.909 Y111.82 E39.13175
G1 X107.734 Y139.995 E41.43654
G1 X107.513 Y139.631 E41.4612
G1 X135.688 Y111.455 E43.76599
G1 X135.467 Y111.091 E43.79066
G1 X107.291 Y139.266 E46.09545
G1 X107.07 Y138.902 E46.12011
G1 X135.245 Y110.726 E48.4249
G1 X135.024 Y110.362 E48.44957
G1 X106.849 Y138.537 E50.75436
G1 X106.627 Y138.173 E50.77902
G1 X134.803 Y109.998 E53.08381
G1 X134.581 Y109.633 E53.10847
G1 X106.406 Y137.809 E55.41327
G1 X106.184 Y137.444 E55.43793
G1 X134.36 Y109.269 E57.74272
G1 X134.139 Y108.904 E57.76738
G1 X105.963 Y137.08 E60.07217
G1 X105.742 Y136.715 E60.09684
G1 X133.917 Y108.54 E62.40163
G1 X133.696 Y108.175 E62.42629
G1 X105.52 Y136.351 E64.73108
G1 X105.299 Y135.987 E64.75574
G1 X133.475 Y107.811 E67.06054
G1 X133.253 Y107.447 E67.0852
G1 X105.078 Y135.622 E69.38999
G1 X104.856 Y135.258 E69.41465
G1 X133.032 Y107.082 E71.71945
G1 X132.81 Y106.718 E71.74411
G1 X104.635 Y134.893 E74.0489
G1 X104.414 Y134.529 E74.07356
G1 X132.589 Y106.353 E76.37835
G1 X132.368 Y105.989 E76.40302
G1 X104.192 Y134.165 E78.70781
G1 X103.971 Y133.8 E78.73247
G1 X132.146 Y105.625 E81.03726
G1 X131.925 Y105.26 E81.06192
G1 X103.75 Y133.436 E83.36672
G1 X103.528 Y133.071 E83.39138
G1 X131.704 Y104.896 E85.69617
G1 X131.482 Y104.531 E85.72083
G1 X103.307 Y132.707 E88.02562
G1 X103.086 Y132.342 E88.05029
G1 X131.261 Y104.167 E90.35508
G1 X131.04 Y103.803 E90.37974
G1 X102.864 Y131.978 E92.68453
G1 X102.643 Y131.614 E92.7092
G1 X130.818 Y103.438 E95.01399
G1 X130.597 Y103.074 E95.03865
G1 X102.422 Y131.249 E97.34344
G1 X102.2 Y130.885 E97.3681
G1 X130.376 Y102.709 E99.6729
G1 X130.154 Y102.345 E99.69756
G1 X101.979 Y130.52 E102.00235
G1 X101.757 Y130.156 E102.02701
G1 X129.933 Y101.981 E104.3318
G1 X129.712 Y101.616 E104.35647
G1 X101.536 Y129.792 E106.66126
G1 X101.315 Y129.427 E106.68592
G1 X129.49 Y101.252 E108.99071
G1 X129.269 Y100.887 E109.01537
G1 X101.093 Y129.063 E111.32017
G1 X100.872 Y128.698 E111.34483
G1 X129.048 Y100.523 E113.64962
G1 X128.826 Y100.159 E113.67428
G1 X100.651 Y128.334 E115.97908
G1 X100.429 Y127.97 E116.00374
G1 X128.605 Y99.794 E118.30853
G1 X128.383 Y99.43 E118.33319
G1 X100.208 Y127.605 E120.63798
