; generated by SuperSlicer 2.4 on 2022-12-01 at 15:00:12 UTC

; 

; external perimeters extrusion width = 0.43mm
; perimeters extrusion width = 0.48mm
; infill extrusion width = 0.46mm
; solid infill extrusion width = 0.48mm
; top infill extrusion width = 0.46mm
; first layer extrusion width = 0.58mm

; object:{"name":"4_tofwer_ver","id":"4_tofwer_ver.stl id:0 copy 0","object_center":[115.482854,115.485987,0.000000],"boundingbox_center":[115.482854,115.485987,12.401718],"boundingbox_size":[28.154470,28.087102,24.803437]}
; Total objects to print: 1
M486 T1
; plater:{"center":[115.482854,115.485987,0.000000],"boundingbox_center":[115.482854,115.485987,12.401718],"boundingbox_size":[28.154470,28.087102,24.803437]}

;TYPE:Custom
G90 ; use absolute coordinates
M83 ; extruder relative mode
M140 S60 ; set final bed temp
M104 S150 ; set temporary nozzle temp to prevent oozing during homing and auto bed leveling
G4 S10 ; allow partial nozzle warmup
G28 ; home all axis
;G29 ; auto bed levelling
G1 Z10 F240
G1 X2 Y10 F3000
G1 Z0 F240
M104 S210 ; set final nozzle temp
M190 S60 ; wait for bed temp to stabilize
M109 S210 ; wait for nozzle temp to stabilize
G1 Z0.28 F240
G92 E0
G1 Y140 E10 F1500 ; prime the nozzle
G1 X2.3 F5000
G92 E0
G1 Y10 E10 F1200 ; prime the nozzle
G92 E0
;start
M107
G21 ; set units to millimeters
G90 ; use absolute coordinates
M82 ; use absolute distances for extrusion
G92 E0
; Filament gcode
;_TOOLCHANGE 0
M107
;LAYER_CHANGE
;Z:0.2
;HEIGHT:0.2
;BEFORE_LAYER_CHANGE
;0.2


G1 E-8 F3000
G1 Z0.15 F9000
;AFTER_LAYER_CHANGE
;0.2
G92 E0
M204 S500
G1 X102.926 Y99.46
G1 E8 F3000
;TYPE:Skirt
;WIDTH:0.48
G1 F1200
G1 X102.082 Y100.462 E8.05
G1 X101.205 Y101.879 E8.1136
G1 X100.797 Y102.784 E8.15146
G1 X100.449 Y103.831 E8.19357
G1 X96.447 Y118.904 E8.78869
G1 X96.297 Y120.206 E8.83871
G1 X96.351 Y121.867 E8.90212
G1 X96.517 Y122.865 E8.94073
G1 X96.867 Y124.092 E8.98943
G1 X97.259 Y125.046 E9.02878
G1 X97.731 Y125.927 E9.06693
G1 X98.286 Y126.755 E9.10496
G1 X99.392 Y128.011 E9.16882
G1 X100.36 Y128.833 E9.21729
G1 X101.186 Y129.387 E9.25524
G1 X102.063 Y129.86 E9.29327
G1 X102.983 Y130.243 E9.33131
G1 X118.805 Y134.484 E9.95639
G1 X120.123 Y134.635 E10.007
G1 X121.134 Y134.637 E10.0456
G1 X122.826 Y134.414 E10.1107
G1 X124.1 Y134.051 E10.16126
G1 X125.64 Y133.354 E10.22576
G1 X126.522 Y132.805 E10.26542
G1 X127.328 Y132.184 E10.30423
G1 X128.062 Y131.493 E10.34272
G1 X128.726 Y130.733 E10.38121
G1 X129.476 Y129.647 E10.43161
G1 X129.937 Y128.787 E10.46883
G1 X130.339 Y127.827 E10.50856
G1 X134.516 Y112.239 E11.12438
G1 X134.667 Y110.899 E11.17583
G1 X134.611 Y109.22 E11.23993
G1 X134.438 Y108.191 E11.27976
G1 X134.083 Y106.952 E11.32894
G1 X133.699 Y106.019 E11.36745
G1 X133.224 Y105.127 E11.406
G1 X132.665 Y104.286 E11.44454
G1 X132.026 Y103.504 E11.48307
G1 X131.31 Y102.785 E11.52179
G1 X130.51 Y102.128 E11.56131
G1 X129.671 Y101.568 E11.59979
G1 X128.783 Y101.093 E11.63821
G1 X127.087 Y100.466 E11.70722
G1 X112.802 Y96.638 E12.27157
G1 X111.666 Y96.416 E12.31575
G1 X110.677 Y96.33 E12.35365
G1 X109.019 Y96.401 E12.41698
G1 X107.725 Y96.648 E12.46725
G1 X106.158 Y97.194 E12.53055
G1 X105.003 Y97.796 E12.58025
G1 X104.176 Y98.354 E12.61834
G1 X102.971 Y99.42 E12.67974
G92 E0
G1 E-5.6 F3000
;WIPE_START
G1 F7200
G1 X102.082 Y100.462 E-6.14211
G1 X101.205 Y101.879 E-6.80184
G1 X100.797 Y102.784 E-7.19456
G1 X100.449 Y103.831 E-7.63142
G1 X100.288 Y104.438 E-7.88
;WIPE_END
G1 E-8 F3000
; acceleration to travel
M204 S1500
G1 X105.097 Y102.429 F9000
; decel to extrusion
M204 S500
G1 X105.685 Y102.184
; end travel
G1 E0 F3000
;WIDTH:0.576
G1 F1200
G1 X106.061 Y101.815 E0.02451
G1 X106.611 Y101.373 E0.05735
G1 X107.117 Y101.047 E0.08537
G1 X107.638 Y100.777 E0.11271
G1 X108.175 Y100.559 E0.13968
G1 X108.752 Y100.385 E0.16771
G1 X109.445 Y100.253 E0.20055
G1 X110.01 Y100.203 E0.22694
G1 X110.584 Y100.204 E0.25366
G1 X111.209 Y100.265 E0.28288
G1 X111.843 Y100.392 E0.31298
G1 X126.05 Y104.199 E0.99755
G1 X126.663 Y104.398 E1.02755
G1 X127.239 Y104.65 E1.05679
G1 X127.787 Y104.957 E1.08602
G1 X128.303 Y105.317 E1.11532
G1 X128.798 Y105.74 E1.1456
G1 X129.232 Y106.194 E1.17487
G1 X129.622 Y106.69 E1.2042
G1 X129.96 Y107.221 E1.23353
G1 X130.245 Y107.783 E1.26282
G1 X130.457 Y108.319 E1.28966
G1 X130.622 Y108.888 E1.31726
G1 X130.754 Y109.596 E1.35073
G1 X130.801 Y110.172 E1.37765
G1 X130.794 Y110.765 E1.40527
G1 X130.712 Y111.494 E1.43938
G1 X130.589 Y112.061 E1.4664
G1 X126.837 Y126.058 E2.14082
G1 X126.648 Y126.636 E2.16917
G1 X126.38 Y127.241 E2.19997
G1 X126.103 Y127.736 E2.22637
G1 X125.77 Y128.221 E2.25371
G1 X125.368 Y128.702 E2.28293
G1 X124.909 Y129.153 E2.31285
G1 X124.395 Y129.563 E2.34345
G1 X123.846 Y129.918 E2.37387
G1 X123.261 Y130.215 E2.40442
G1 X122.708 Y130.432 E2.43206
G1 X122.14 Y130.596 E2.45957
G1 X121.454 Y130.722 E2.49207
G1 X120.852 Y130.77 E2.52017
G1 X120.26 Y130.762 E2.54771
G1 X119.553 Y130.681 E2.58083
G1 X118.987 Y130.557 E2.60779
G1 X104.749 Y126.741 E3.29386
G1 X104.179 Y126.554 E3.32177
G1 X103.604 Y126.299 E3.35105
G1 X103.07 Y125.997 E3.37963
G1 X102.6 Y125.668 E3.40628
G1 X102.179 Y125.314 E3.4319
G1 X101.74 Y124.867 E3.46105
G1 X101.338 Y124.365 E3.491
G1 X100.99 Y123.824 E3.52094
G1 X100.709 Y123.273 E3.5497
G1 X100.495 Y122.729 E3.57694
G1 X100.334 Y122.175 E3.60377
G1 X100.21 Y121.501 E3.63565
G1 X100.164 Y120.918 E3.6629
G1 X100.171 Y120.342 E3.6897
G1 X100.25 Y119.651 E3.72209
G1 X100.37 Y119.099 E3.74838
G1 X104.183 Y104.868 E4.43407
G1 X104.383 Y104.255 E4.46406
G1 X104.612 Y103.729 E4.4908
G1 X104.885 Y103.232 E4.51718
G1 X105.275 Y102.662 E4.54934
G1 X105.643 Y102.227 E4.57583
G1 X106.041 Y102.587 F9000
G1 F1200
G1 X106.427 Y102.208 E4.60101
G1 X106.914 Y101.817 E4.63007
G1 X107.376 Y101.518 E4.65568
G1 X107.852 Y101.27 E4.68067
G1 X108.365 Y101.061 E4.70645
G1 X108.892 Y100.904 E4.73204
G1 X109.506 Y100.787 E4.7611
G1 X110.045 Y100.739 E4.78629
G1 X110.569 Y100.742 E4.81067
G1 X111.142 Y100.799 E4.83749
G1 X111.712 Y100.914 E4.86454
G1 X125.905 Y104.717 E5.5484
G1 X126.461 Y104.896 E5.57561
G1 X126.989 Y105.126 E5.6024
G1 X127.491 Y105.406 E5.62919
G1 X127.965 Y105.735 E5.65601
G1 X128.419 Y106.122 E5.6838
G1 X128.819 Y106.537 E5.71061
G1 X129.176 Y106.991 E5.73749
G1 X129.488 Y107.477 E5.76437
G1 X129.75 Y107.992 E5.79125
G1 X129.952 Y108.504 E5.8169
G1 X130.102 Y109.025 E5.84212
G1 X130.219 Y109.653 E5.87185
G1 X130.264 Y110.203 E5.89754
G1 X130.257 Y110.745 E5.92276
G1 X130.184 Y111.393 E5.95312
G1 X130.068 Y111.928 E5.97859
G1 X126.324 Y125.898 E6.65174
G1 X126.151 Y126.432 E6.67786
G1 X125.905 Y126.99 E6.70625
G1 X125.64 Y127.463 E6.73147
G1 X125.335 Y127.905 E6.75646
G1 X124.964 Y128.347 E6.7833
G1 X124.543 Y128.759 E6.81076
G1 X124.092 Y129.12 E6.83762
G1 X123.589 Y129.445 E6.86551
G1 X123.052 Y129.72 E6.89359
G1 X122.547 Y129.92 E6.91885
G1 X122.004 Y130.076 E6.94515
G1 X121.396 Y130.188 E6.9739
G1 X120.846 Y130.233 E6.9996
G1 X120.281 Y130.225 E7.02591
G1 X119.654 Y130.153 E7.05527
G1 X119.12 Y130.037 E7.08071
G1 X104.909 Y126.228 E7.76548
G1 X104.383 Y126.057 E7.79119
G1 X103.856 Y125.825 E7.818
G1 X103.366 Y125.548 E7.84419
G1 X102.937 Y125.25 E7.86851
G1 X102.536 Y124.911 E7.89296
G1 X102.134 Y124.501 E7.9197
G1 X101.782 Y124.061 E7.94589
G1 X101.462 Y123.567 E7.97331
G1 X101.204 Y123.064 E7.99958
G1 X101 Y122.544 E8.02562
G1 X100.854 Y122.039 E8.05008
G1 X100.745 Y121.445 E8.07817
G1 X100.701 Y120.888 E8.10419
G1 X100.708 Y120.363 E8.12863
G1 X100.778 Y119.752 E8.15727
G1 X100.891 Y119.231 E8.18204
G1 X104.7 Y105.014 E8.8671
G1 X104.881 Y104.457 E8.89434
G1 X105.089 Y103.976 E8.91872
G1 X105.35 Y103.502 E8.94391
G1 X105.695 Y102.998 E8.97235
G1 X106.003 Y102.633 E8.99456
G1 X106.413 Y102.979 F9000
G1 F1200
G1 X106.448 Y102.939 E8.99705
G1 X106.798 Y102.597 E9.01981
G1 X107.213 Y102.264 E9.0446
G1 X107.642 Y101.985 E9.06838
G1 X108.083 Y101.755 E9.09155
G1 X108.548 Y101.567 E9.11491
G1 X109.051 Y101.418 E9.1393
G1 X109.561 Y101.322 E9.16347
G1 X110.061 Y101.276 E9.18684
G1 X110.559 Y101.279 E9.21001
G1 X111.08 Y101.333 E9.23439
G1 X111.577 Y101.434 E9.25796
G1 X125.762 Y105.235 E9.94149
G1 X126.253 Y105.392 E9.96549
G1 X126.734 Y105.6 E9.98983
G1 X127.191 Y105.853 E10.01418
G1 X127.633 Y106.157 E10.03914
G1 X128.047 Y106.509 E10.06444
G1 X128.41 Y106.886 E10.08879
G1 X128.735 Y107.298 E10.11321
G1 X129.019 Y107.74 E10.13764
G1 X129.257 Y108.207 E10.16207
G1 X129.445 Y108.683 E10.18589
G1 X129.584 Y109.166 E10.20929
G1 X129.684 Y109.704 E10.23471
G1 X129.727 Y110.227 E10.25917
G1 X129.719 Y110.743 E10.28316
G1 X129.66 Y111.273 E10.30799
G1 X129.55 Y111.786 E10.33241
G1 X125.813 Y125.731 E11.00434
G1 X125.655 Y126.223 E11.02839
G1 X125.432 Y126.735 E11.05438
G1 X125.187 Y127.174 E11.07778
G1 X124.889 Y127.605 E11.10217
G1 X124.55 Y128.004 E11.12656
G1 X124.183 Y128.36 E11.15034
G1 X123.762 Y128.695 E11.17536
G1 X123.315 Y128.983 E11.20013
G1 X122.848 Y129.223 E11.22453
G1 X122.356 Y129.417 E11.24919
G1 X121.85 Y129.561 E11.27365
G1 X121.333 Y129.654 E11.29812
G1 X120.809 Y129.696 E11.32258
G1 X120.283 Y129.687 E11.34705
G1 X119.774 Y129.628 E11.3709
G1 X119.262 Y129.518 E11.39526
G1 X105.07 Y125.716 E12.07908
G1 X104.592 Y125.561 E12.10248
G1 X104.112 Y125.352 E12.12683
G1 X103.679 Y125.11 E12.14994
G1 X103.26 Y124.82 E12.17367
G1 X102.888 Y124.505 E12.19632
G1 X102.533 Y124.14 E12.22004
G1 X102.207 Y123.731 E12.24439
G1 X101.93 Y123.303 E12.26812
G1 X101.702 Y122.861 E12.29124
G1 X101.507 Y122.365 E12.31606
G1 X101.37 Y121.885 E12.33932
G1 X101.278 Y121.383 E12.36308
G1 X101.238 Y120.865 E12.38726
G1 X101.246 Y120.365 E12.41051
G1 X101.305 Y119.858 E12.43425
G1 X101.411 Y119.367 E12.45763
G1 X105.22 Y105.15 E13.14269
G1 X105.377 Y104.664 E13.16643
G1 X105.58 Y104.196 E13.1902
G1 X105.824 Y103.757 E13.21357
G1 X106.11 Y103.339 E13.23714
G1 X106.375 Y103.025 E13.25625
; printing object 4_tofwer_ver.stl id:0 copy 0
M486 S0
G1 X106.8 Y103.384 F9000
;TYPE:External perimeter
G1 F1200
G1 X106.852 Y103.323 E13.25997
G1 X107.172 Y103.01 E13.28082
G1 X107.535 Y102.718 E13.30247
G1 X107.917 Y102.469 E13.32371
G1 X108.322 Y102.258 E13.34497
G1 X108.738 Y102.09 E13.36583
G1 X109.176 Y101.961 E13.38707
G1 X109.633 Y101.874 E13.40872
G1 X110.079 Y101.833 E13.42957
G1 X110.535 Y101.835 E13.45083
G1 X110.99 Y101.882 E13.47208
G1 X111.445 Y101.975 E13.4937
G1 X125.608 Y105.77 E14.17614
G1 X126.063 Y105.916 E14.1984
G1 X126.494 Y106.102 E14.22021
G1 X126.903 Y106.329 E14.24202
G1 X127.289 Y106.595 E14.26381
G1 X127.661 Y106.911 E14.28653
G1 X127.986 Y107.248 E14.30832
G1 X128.278 Y107.617 E14.33021
G1 X128.533 Y108.012 E14.3521
G1 X128.747 Y108.431 E14.37398
G1 X128.92 Y108.868 E14.39588
G1 X129.043 Y109.3 E14.41677
G1 X129.133 Y109.784 E14.43967
G1 X129.171 Y110.252 E14.46153
G1 X129.163 Y110.701 E14.48243
G1 X129.109 Y111.19 E14.50533
G1 X129.008 Y111.658 E14.52763
G1 X125.278 Y125.577 E15.19829
G1 X125.132 Y126.032 E15.22055
G1 X124.935 Y126.482 E15.24338
G1 X124.717 Y126.874 E15.26428
G1 X124.45 Y127.261 E15.28614
G1 X124.147 Y127.619 E15.308
G1 X123.81 Y127.946 E15.32985
G1 X123.443 Y128.238 E15.35169
G1 X123.031 Y128.504 E15.37449
G1 X122.613 Y128.718 E15.39634
G1 X122.183 Y128.887 E15.41786
G1 X121.73 Y129.017 E15.43979
G1 X121.267 Y129.101 E15.4617
G1 X120.797 Y129.139 E15.48362
G1 X120.326 Y129.131 E15.50554
G1 X119.859 Y129.078 E15.52747
G1 X119.39 Y128.976 E15.54977
G1 X105.225 Y125.181 E16.23231
G1 X104.783 Y125.038 E16.25392
G1 X104.366 Y124.856 E16.2751
G1 X103.968 Y124.634 E16.29629
G1 X103.594 Y124.374 E16.31749
G1 X103.264 Y124.094 E16.33765
G1 X102.946 Y123.767 E16.35886
G1 X102.663 Y123.411 E16.38004
G1 X102.415 Y123.029 E16.40123
G1 X102.207 Y122.625 E16.42238
G1 X102.032 Y122.181 E16.44461
G1 X101.913 Y121.764 E16.46476
G1 X101.832 Y121.317 E16.48592
G1 X101.794 Y120.841 E16.50816
G1 X101.801 Y120.408 E16.52831
G1 X101.853 Y119.956 E16.5495
G1 X101.951 Y119.501 E16.57113
G1 X105.754 Y105.31 E17.25492
G1 X105.896 Y104.866 E17.27661
G1 X106.077 Y104.447 E17.29787
G1 X106.294 Y104.055 E17.31872
G1 X106.557 Y103.672 E17.34037
G1 X106.761 Y103.43 E17.3551
;WIPE_START
G1 X107.194 Y103.454 F9000
;WIPE_END
G1 X107.337 Y103.6
;TYPE:Internal perimeter
G1 F1200
G1 X107.529 Y103.412 E17.36762
G1 X107.851 Y103.154 E17.38682
G1 X108.189 Y102.934 E17.4056
G1 X108.548 Y102.747 E17.42443
G1 X108.915 Y102.598 E17.44288
G1 X109.302 Y102.484 E17.46168
G1 X109.708 Y102.407 E17.48088
G1 X110.102 Y102.371 E17.49931
G1 X110.506 Y102.373 E17.51813
G1 X110.908 Y102.414 E17.53693
G1 X111.322 Y102.498 E17.55657
G1 X125.456 Y106.286 E18.23763
G1 X125.874 Y106.42 E18.25805
G1 X126.256 Y106.585 E18.27741
G1 X126.62 Y106.787 E18.29678
G1 X126.962 Y107.023 E18.31611
G1 X127.293 Y107.304 E18.33633
G1 X127.581 Y107.602 E18.35565
G1 X127.841 Y107.93 E18.37509
G1 X128.066 Y108.281 E18.39452
G1 X128.257 Y108.652 E18.41395
G1 X128.41 Y109.041 E18.4334
G1 X128.519 Y109.423 E18.45188
G1 X128.599 Y109.855 E18.47232
G1 X128.633 Y110.269 E18.49168
G1 X128.626 Y110.667 E18.51017
G1 X128.578 Y111.103 E18.53062
G1 X128.485 Y111.532 E18.55103
G1 X124.763 Y125.425 E19.22046
G1 X124.629 Y125.842 E19.24084
G1 X124.453 Y126.243 E19.26122
G1 X124.26 Y126.59 E19.27971
G1 X124.023 Y126.934 E19.29912
G1 X123.754 Y127.252 E19.31853
G1 X123.455 Y127.542 E19.33793
G1 X123.129 Y127.801 E19.35729
G1 X122.763 Y128.038 E19.37759
G1 X122.392 Y128.227 E19.39698
G1 X122.01 Y128.378 E19.41606
G1 X121.608 Y128.493 E19.43554
G1 X121.197 Y128.567 E19.455
G1 X120.78 Y128.602 E19.47446
G1 X120.362 Y128.595 E19.49392
G1 X119.946 Y128.547 E19.51339
G1 X119.516 Y128.454 E19.53385
G1 X105.377 Y124.665 E20.21514
G1 X104.973 Y124.535 E20.23489
G1 X104.604 Y124.374 E20.25361
G1 X104.253 Y124.178 E20.27233
G1 X103.922 Y123.948 E20.2911
G1 X103.631 Y123.701 E20.30886
G1 X103.35 Y123.412 E20.32764
G1 X103.099 Y123.097 E20.34636
G1 X102.881 Y122.76 E20.36508
G1 X102.697 Y122.403 E20.38373
G1 X102.542 Y122.008 E20.40348
G1 X102.437 Y121.642 E20.42121
G1 X102.365 Y121.248 E20.43987
G1 X102.332 Y120.824 E20.45964
G1 X102.338 Y120.443 E20.47738
G1 X102.384 Y120.043 E20.49612
G1 X102.474 Y119.628 E20.5159
G1 X106.269 Y105.462 E21.19847
G1 X106.4 Y105.055 E21.21833
G1 X106.56 Y104.684 E21.23714
G1 X106.752 Y104.338 E21.25558
G1 X106.985 Y103.998 E21.27478
G1 X107.246 Y103.689 E21.29357
G1 X107.294 Y103.642 E21.29669
G92 E0
G1 E-5.6 F3000
;WIPE_START
G1 F7200
G1 X107.529 Y103.412 E-5.73025
G1 X107.851 Y103.154 E-5.89353
G1 X108.189 Y102.934 E-6.05329
G1 X108.548 Y102.747 E-6.21342
G1 X108.915 Y102.598 E-6.37028
G1 X109.302 Y102.484 E-6.5302
G1 X109.708 Y102.407 E-6.69349
G1 X110.102 Y102.371 E-6.85021
G1 X110.506 Y102.373 E-7.01029
G1 X110.908 Y102.414 E-7.17023
G1 X111.322 Y102.498 E-7.33726
G1 X112.646 Y102.853 E-7.88
;WIPE_END
G1 E-8 F3000
; acceleration to travel
M204 S1500
G1 X126.392 Y108.021 F9000
; decel to extrusion
M204 S500
G1 X128.071 Y108.652
; end travel
G1 E0 F3000
;TYPE:Solid infill
;WIDTH:0.576858
G1 F1200
G1 X126.964 Y107.546 E0.07294
G1 X126.412 Y107.121 E0.10542
G1 X125.735 Y106.789 E0.14057
G1 X125.341 Y106.682 E0.1596
G1 X128.117 Y109.458 E0.34259
G1 X128.139 Y109.522 E0.34574
G1 X128.208 Y109.897 E0.36351
G1 X128.222 Y110.324 E0.38341
G1 X124.301 Y106.402 E0.64193
G1 X123.26 Y106.122 E0.69215
G1 X128.187 Y111.048 E1.01689
G1 X128.027 Y111.648 E1.04583
G1 X122.22 Y105.841 E1.4286
G1 X121.18 Y105.561 E1.47882
G1 X127.867 Y112.248 E1.91963
G1 X127.707 Y112.848 E1.94858
G1 X120.139 Y105.281 E2.44742
G1 X119.099 Y105 E2.49764
G1 X127.547 Y113.448 E3.05452
G1 X127.387 Y114.048 E3.08347
G1 X118.059 Y104.72 E3.69838
G1 X117.019 Y104.44 E3.7486
G1 X127.227 Y114.648 E4.42155
G1 X127.068 Y115.249 E4.4505
G1 X115.978 Y104.159 E5.18149
G1 X114.938 Y103.879 E5.23171
G1 X126.908 Y115.849 E6.02073
G1 X126.748 Y116.449 E6.04968
G1 X113.898 Y103.599 E6.89674
G1 X112.857 Y103.318 E6.94696
G1 X126.588 Y117.049 E7.85206
G1 X126.428 Y117.649 E7.88101
G1 X111.817 Y103.038 E8.84414
G1 X111.241 Y102.883 E8.87197
G1 X110.84 Y102.821 E8.89086
G1 X126.268 Y118.249 E9.90785
G1 X126.108 Y118.849 E9.9368
G1 X110.044 Y102.785 E10.99572
