; generated by SuperSlicer 2.4 on 2022-12-06 at 15:24:16 UTC

; 

; external perimeters extrusion width = 0.43mm
; perimeters extrusion width = 0.48mm
; infill extrusion width = 0.46mm
; solid infill extrusion width = 0.48mm
; top infill extrusion width = 0.46mm
; first layer extrusion width = 0.58mm

; object:{"name":"Christmas_Tree_Twist_1","id":"Christmas_Tree_Twist_1.stl id:0 copy 0","object_center":[115.500000,115.500000,0.000000],"boundingbox_center":[115.500000,115.500000,17.155379],"boundingbox_size":[23.448668,23.448665,34.310757]}
; Total objects to print: 1
M486 T1
; plater:{"center":[115.500000,115.500000,0.000000],"boundingbox_center":[115.500000,115.500000,17.155379],"boundingbox_size":[23.448668,23.448665,34.310757]}

;TYPE:Custom
G90 ; use absolute coordinates
M83 ; extruder relative mode
M140 S60 ; set final bed temp
M104 S150 ; set temporary nozzle temp to prevent oozing during homing and auto bed leveling
G4 S10 ; allow partial nozzle warmup
G28 ; home all axis
;G29 ; auto bed levelling
G1 Z10 F240
G1 X2 Y10 F3000
G1 Z0 F240
M104 S210 ; set final nozzle temp
M190 S60 ; wait for bed temp to stabilize
M109 S210 ; wait for nozzle temp to stabilize
G1 Z0.28 F240
G92 E0
G1 Y140 E10 F1500 ; prime the nozzle
G1 X2.3 F5000
G92 E0
G1 Y10 E10 F1200 ; prime the nozzle
G92 E0
;start
M107
G21 ; set units to millimeters
G90 ; use absolute coordinates
M82 ; use absolute distances for extrusion
G92 E0
; Filament gcode
;_TOOLCHANGE 0
M107
;LAYER_CHANGE
;Z:0.2
;HEIGHT:0.2
;BEFORE_LAYER_CHANGE
;0.2


G1 E-8.5 F3000
G1 Z0.15 F9000
;AFTER_LAYER_CHANGE
;0.2
G92 E0
M204 S500
G1 X106.347 Y104.045
G1 E8.5 F3000
;TYPE:Skirt
;WIDTH:0.48
G1 F1200
G1 X103.055 Y107.41 E8.67622
G1 X102.127 Y109.059 E8.74706
G1 X100.677 Y114.716 E8.96568
G1 X100.698 Y116.608 E9.03651
G1 X102.271 Y122.232 E9.25513
G1 X103.235 Y123.861 E9.32596
G1 X107.41 Y127.945 E9.54458
G1 X109.059 Y128.873 E9.61542
G1 X114.716 Y130.323 E9.83403
G1 X116.608 Y130.302 E9.90487
G1 X122.232 Y128.729 E10.12349
G1 X123.861 Y127.765 E10.19432
G1 X127.945 Y123.59 E10.41294
G1 X128.873 Y121.941 E10.48378
G1 X130.323 Y116.284 E10.70239
G1 X130.302 Y114.392 E10.77323
G1 X128.729 Y108.768 E10.99185
G1 X127.765 Y107.139 E11.06268
G1 X123.59 Y103.055 E11.2813
G1 X121.942 Y102.127 E11.35212
G1 X116.285 Y100.677 E11.57073
G1 X114.392 Y100.698 E11.64159
G1 X108.767 Y102.271 E11.86022
G1 X107.139 Y103.235 E11.93105
G1 X106.389 Y104.002 E11.9712
G1 X106.702 Y104.307 F9000
G1 F1200
G1 X103.367 Y107.715 E12.14967
G1 X102.55 Y109.167 E12.21203
G1 X101.101 Y114.825 E12.43065
G1 X101.119 Y116.49 E12.49302
G1 X102.692 Y122.115 E12.71163
G1 X103.541 Y123.548 E12.774
G1 X107.715 Y127.633 E12.99262
G1 X109.167 Y128.45 E13.05498
G1 X114.825 Y129.899 E13.2736
G1 X116.49 Y129.881 E13.33597
G1 X122.115 Y128.308 E13.55459
G1 X123.548 Y127.459 E13.61695
G1 X127.633 Y123.285 E13.83557
G1 X128.45 Y121.833 E13.89794
G1 X129.899 Y116.175 E14.11655
G1 X129.881 Y114.51 E14.17892
G1 X128.308 Y108.885 E14.39754
G1 X127.459 Y107.452 E14.4599
G1 X123.285 Y103.367 E14.67852
G1 X121.833 Y102.55 E14.74088
G1 X116.176 Y101.1 E14.95949
G1 X114.51 Y101.118 E15.02187
G1 X108.885 Y102.692 E15.2405
G1 X107.452 Y103.541 E15.30286
G1 X106.744 Y104.265 E15.34077
G92 E0
G1 E-5.95 F3000
;WIPE_START
G1 F7200
G1 X103.367 Y107.715 E-7.86092
G1 X102.734 Y108.842 E-8.3725
;WIPE_END
G1 E-8.5 F3000
; acceleration to travel
M204 S1500
G1 X109.445 Y107.617 F9000
; decel to extrusion
M204 S500
G1 X110.265 Y107.467
; end travel
G1 E0 F3000
;WIDTH:0.576
G1 F1200
G1 X110.349 Y107.389 E0.00522
G1 X110.857 Y107.092 E0.03208
G1 X110.965 Y107.056 E0.0373
G1 X111.309 Y107.019 E0.05308
G1 X111.423 Y107.031 E0.05831
G1 X113.274 Y107.639 E0.14728
G1 X114.578 Y106.139 E0.238
G1 X114.669 Y106.07 E0.24322
G1 X114.983 Y105.925 E0.25901
G1 X115.095 Y105.901 E0.26423
G1 X115.683 Y105.896 E0.29109
G1 X115.795 Y105.92 E0.29631
G1 X116.111 Y106.059 E0.3121
G1 X116.204 Y106.127 E0.31732
G1 X117.503 Y107.579 E0.40629
G1 X119.382 Y106.932 E0.49699
G1 X119.495 Y106.918 E0.50222
G1 X119.84 Y106.95 E0.518
G1 X119.949 Y106.984 E0.52322
G1 X120.46 Y107.275 E0.55008
G1 X120.546 Y107.351 E0.5553
G1 X120.749 Y107.63 E0.57108
G1 X120.796 Y107.734 E0.5763
G1 X121.195 Y109.642 E0.66528
G1 X123.146 Y110.021 E0.75599
G1 X123.251 Y110.065 E0.76121
G1 X123.533 Y110.265 E0.77699
G1 X123.611 Y110.349 E0.78221
G1 X123.908 Y110.857 E0.80907
G1 X123.944 Y110.965 E0.81429
G1 X123.981 Y111.309 E0.83008
G1 X123.969 Y111.423 E0.8353
G1 X123.361 Y113.274 E0.92427
G1 X124.861 Y114.578 E1.01498
G1 X124.93 Y114.669 E1.0202
G1 X125.074 Y114.983 E1.03599
G1 X125.099 Y115.095 E1.04121
G1 X125.104 Y115.683 E1.06807
G1 X125.08 Y115.795 E1.07329
G1 X124.94 Y116.111 E1.08907
G1 X124.873 Y116.204 E1.09429
G1 X123.421 Y117.503 E1.18326
G1 X124.068 Y119.382 E1.27398
G1 X124.082 Y119.495 E1.2792
G1 X124.05 Y119.84 E1.29498
G1 X124.016 Y119.949 E1.3002
G1 X123.725 Y120.46 E1.32706
G1 X123.649 Y120.546 E1.33228
G1 X123.37 Y120.749 E1.34806
G1 X123.266 Y120.796 E1.35329
G1 X121.358 Y121.195 E1.44226
G1 X120.979 Y123.146 E1.53297
G1 X120.935 Y123.251 E1.53819
G1 X120.735 Y123.533 E1.55397
G1 X120.651 Y123.611 E1.55919
G1 X120.143 Y123.908 E1.58605
G1 X120.035 Y123.944 E1.59127
G1 X119.691 Y123.981 E1.60706
G1 X119.577 Y123.969 E1.61228
G1 X117.726 Y123.361 E1.70125
G1 X116.422 Y124.861 E1.79196
G1 X116.331 Y124.93 E1.79718
G1 X116.017 Y125.074 E1.81297
G1 X115.905 Y125.099 E1.81819
G1 X115.317 Y125.104 E1.84505
G1 X115.205 Y125.08 E1.85027
G1 X114.889 Y124.94 E1.86605
G1 X114.796 Y124.873 E1.87127
G1 X113.497 Y123.421 E1.96025
G1 X111.618 Y124.068 E2.05096
G1 X111.505 Y124.082 E2.05618
G1 X111.16 Y124.05 E2.07196
G1 X111.051 Y124.016 E2.07718
G1 X110.54 Y123.725 E2.10404
G1 X110.454 Y123.649 E2.10926
G1 X110.251 Y123.37 E2.12504
G1 X110.204 Y123.266 E2.13027
G1 X109.805 Y121.358 E2.21924
G1 X107.854 Y120.979 E2.30995
G1 X107.749 Y120.935 E2.31517
G1 X107.467 Y120.735 E2.33095
G1 X107.389 Y120.651 E2.33618
G1 X107.092 Y120.143 E2.36303
G1 X107.056 Y120.035 E2.36826
G1 X107.019 Y119.691 E2.38404
G1 X107.031 Y119.577 E2.38926
G1 X107.639 Y117.726 E2.47823
G1 X106.139 Y116.422 E2.56894
G1 X106.07 Y116.331 E2.57416
G1 X105.926 Y116.017 E2.58995
G1 X105.901 Y115.905 E2.59517
G1 X105.896 Y115.317 E2.62203
G1 X105.92 Y115.205 E2.62725
G1 X106.06 Y114.889 E2.64303
G1 X106.127 Y114.796 E2.64825
G1 X107.579 Y113.497 E2.73723
G1 X106.932 Y111.618 E2.82794
G1 X106.918 Y111.505 E2.83316
G1 X106.95 Y111.16 E2.84894
G1 X106.984 Y111.051 E2.85416
G1 X107.275 Y110.54 E2.88102
G1 X107.351 Y110.454 E2.88624
G1 X107.63 Y110.251 E2.90203
G1 X107.734 Y110.204 E2.90725
G1 X109.642 Y109.805 E2.99622
G1 X110.021 Y107.854 E3.08693
G1 X110.065 Y107.749 E3.09215
G1 X110.231 Y107.516 E3.1052
G1 X110.669 Y107.826 F9000
G1 F1200
G1 X111.079 Y107.584 E3.12695
G1 X111.31 Y107.559 E3.13751
G1 X113.446 Y108.26 E3.24017
G1 X114.946 Y106.534 E3.34458
G1 X115.156 Y106.438 E3.35514
G1 X115.63 Y106.434 E3.37678
G1 X115.842 Y106.528 E3.38734
G1 X117.341 Y108.203 E3.49
G1 X119.503 Y107.458 E3.59439
G1 X119.733 Y107.48 E3.60495
G1 X120.145 Y107.714 E3.62659
G1 X120.282 Y107.901 E3.63715
G1 X120.743 Y110.101 E3.73981
G1 X122.987 Y110.537 E3.8442
G1 X123.176 Y110.671 E3.85477
G1 X123.416 Y111.079 E3.8764
G1 X123.441 Y111.31 E3.88697
G1 X122.74 Y113.446 E3.98962
G1 X124.466 Y114.946 E4.09402
G1 X124.562 Y115.156 E4.10458
G1 X124.566 Y115.63 E4.12622
G1 X124.472 Y115.841 E4.13678
G1 X122.797 Y117.341 E4.23944
G1 X123.542 Y119.503 E4.34383
G1 X123.52 Y119.733 E4.35439
G1 X123.286 Y120.145 E4.37603
G1 X123.099 Y120.282 E4.38659
G1 X120.899 Y120.743 E4.48925
G1 X120.463 Y122.987 E4.59364
G1 X120.329 Y123.176 E4.60421
G1 X119.921 Y123.416 E4.62584
G1 X119.69 Y123.441 E4.63641
G1 X117.554 Y122.74 E4.73906
G1 X116.054 Y124.466 E4.84346
G1 X115.844 Y124.562 E4.85402
G1 X115.37 Y124.566 E4.87566
G1 X115.159 Y124.472 E4.88622
G1 X113.659 Y122.797 E4.98888
G1 X111.497 Y123.542 E5.09327
G1 X111.267 Y123.52 E5.10383
G1 X110.855 Y123.286 E5.12547
G1 X110.718 Y123.099 E5.13603
G1 X110.257 Y120.899 E5.23869
G1 X108.013 Y120.463 E5.34308
G1 X107.824 Y120.329 E5.35365
G1 X107.584 Y119.921 E5.37528
G1 X107.559 Y119.69 E5.38585
G1 X108.26 Y117.554 E5.4885
G1 X106.534 Y116.054 E5.5929
G1 X106.438 Y115.844 E5.60346
G1 X106.434 Y115.37 E5.6251
G1 X106.528 Y115.159 E5.63566
G1 X108.203 Y113.659 E5.73832
G1 X107.458 Y111.497 E5.84271
G1 X107.48 Y111.267 E5.85327
G1 X107.714 Y110.855 E5.87491
G1 X107.901 Y110.718 E5.88547
G1 X110.101 Y110.257 E5.98813
G1 X110.537 Y108.013 E6.09252
G1 X110.635 Y107.875 E6.10022
G1 X111.043 Y108.229 F9000
G1 F1200
G1 X111.252 Y108.106 E6.11129
G1 X113.617 Y108.882 E6.22496
G1 X115.276 Y106.974 E6.34039
G1 X115.518 Y106.972 E6.35146
G1 X115.839 Y107.331 E6.37343
G1 X117.178 Y108.828 E6.46513
G1 X119.568 Y108.004 E6.58054
G1 X119.779 Y108.124 E6.59162
G1 X120.29 Y110.561 E6.70529
G1 X122.771 Y111.043 E6.8207
G1 X122.894 Y111.252 E6.83177
G1 X122.118 Y113.617 E6.94544
G1 X124.026 Y115.275 E7.06085
G1 X124.028 Y115.518 E7.07193
G1 X122.172 Y117.178 E7.1856
G1 X122.996 Y119.568 E7.30101
G1 X122.876 Y119.779 E7.31208
G1 X120.439 Y120.29 E7.42575
G1 X119.957 Y122.771 E7.54116
G1 X119.748 Y122.894 E7.55224
G1 X117.383 Y122.118 E7.66591
G1 X115.725 Y124.026 E7.78132
G1 X115.482 Y124.028 E7.79239
G1 X113.822 Y122.172 E7.90606
G1 X111.432 Y122.996 E8.02147
G1 X111.221 Y122.876 E8.03255
G1 X110.71 Y120.439 E8.14622
G1 X108.229 Y119.957 E8.26163
G1 X108.106 Y119.748 E8.2727
G1 X108.882 Y117.383 E8.38637
G1 X106.974 Y115.725 E8.50178
G1 X106.972 Y115.482 E8.51286
G1 X108.828 Y113.822 E8.62653
G1 X108.004 Y111.432 E8.74194
G1 X108.124 Y111.221 E8.75301
G1 X110.561 Y110.71 E8.86668
G1 X111.031 Y108.288 E8.97935
; printing object Christmas_Tree_Twist_1.stl id:0 copy 0
M486 S0
G1 X111.504 Y108.775 F9000
;TYPE:External perimeter
G1 F1200
G1 X113.795 Y109.527 E9.08945
G1 X115.402 Y107.677 E9.20131
G1 X115.424 Y107.702 E9.20282
G1 X117.01 Y109.474 E9.31141
G1 X119.326 Y108.676 E9.42326
G1 X119.821 Y111.037 E9.53336
G1 X122.225 Y111.504 E9.6452
G1 X121.473 Y113.795 E9.7553
G1 X123.323 Y115.402 E9.86715
G1 X121.526 Y117.01 E9.97725
G1 X122.324 Y119.326 E10.08909
G1 X119.963 Y119.821 E10.1992
G1 X119.496 Y122.225 E10.31104
G1 X117.205 Y121.473 E10.42114
G1 X115.598 Y123.323 E10.53298
G1 X113.99 Y121.526 E10.64309
G1 X111.674 Y122.324 E10.75493
G1 X111.179 Y119.963 E10.86503
G1 X108.775 Y119.496 E10.97687
G1 X109.527 Y117.205 E11.08698
G1 X107.677 Y115.598 E11.19882
G1 X109.474 Y113.99 E11.30892
G1 X108.676 Y111.674 E11.42077
G1 X111.037 Y111.179 E11.53087
G1 X111.492 Y108.833 E11.63997
;WIPE_START
G1 X111.783 Y109.061 F9000
;WIPE_END
G1 X111.915 Y109.475
;TYPE:Internal perimeter
G1 F1200
G1 X113.967 Y110.148 E11.73855
G1 X115.408 Y108.49 E11.83888
G1 X116.848 Y110.099 E11.93745
G1 X118.925 Y109.383 E12.03777
G1 X119.368 Y111.496 E12.13635
G1 X121.525 Y111.915 E12.23667
G1 X120.852 Y113.967 E12.33525
G1 X122.51 Y115.408 E12.43557
G1 X120.901 Y116.848 E12.53415
G1 X121.617 Y118.925 E12.63446
G1 X119.504 Y119.368 E12.73304
G1 X119.085 Y121.525 E12.83336
G1 X117.033 Y120.852 E12.93194
G1 X115.592 Y122.51 E13.03226
G1 X114.152 Y120.901 E13.13083
G1 X112.075 Y121.617 E13.23115
G1 X111.632 Y119.504 E13.32973
G1 X109.475 Y119.085 E13.43005
G1 X110.148 Y117.033 E13.52863
G1 X108.49 Y115.592 E13.62894
G1 X110.099 Y114.152 E13.72752
G1 X109.383 Y112.075 E13.82784
G1 X111.496 Y111.632 E13.92642
G1 X111.904 Y109.534 E14.024
G92 E0
G1 E-5.95 F3000
;WIPE_START
G1 F7200
G1 X113.967 Y110.148 E-6.80203
G1 X115.408 Y108.49 E-7.67185
G1 X116.588 Y109.809 E-8.3725
;WIPE_END
G1 E-8.5 F3000
G1 X118.048 Y109.856 F9000
G1 E0 F3000
;TYPE:Solid infill
;WIDTH:0.569656
G1 F1200
G1 X119.075 Y110.883 E0.06559
G1 X119.969 Y111.777 F9000
G1 F1200
G1 X120.864 Y112.672 E0.12271
G1 X120.676 Y113.244 E0.14991
G1 X117.664 Y110.232 E0.34222
G1 X117.099 Y110.427 E0.36921
G1 X120.488 Y113.816 E0.58562
G1 X120.398 Y114.092 E0.59872
G1 X121.917 Y115.412 E0.68962
G1 X121.604 Y115.692 E0.70858
G1 X115.218 Y109.306 E1.11636
G1 X114.865 Y109.713 E1.14069
G1 X121.203 Y116.051 E1.54542
G1 X120.802 Y116.41 E1.56973
G1 X114.511 Y110.119 E1.97142
G1 X114.158 Y110.526 E1.99574
G1 X120.49 Y116.858 E2.40005
G1 X120.889 Y118.017 E2.45542
G1 X113.173 Y110.301 E2.94816
G1 X112.215 Y109.987 E2.99366
G1 X112.196 Y110.084 E2.99815
G1 X120.806 Y118.694 E3.54795
G1 X120.178 Y118.826 E3.57694
G1 X112.073 Y110.721 E4.0945
G1 X111.949 Y111.357 E4.12377
G1 X119.55 Y118.957 E4.6091
G1 X119.168 Y119.037 E4.6267
G1 X119.12 Y119.287 E4.6382
G1 X111.801 Y111.969 E5.10552
G1 X111.173 Y112.101 E5.13451
G1 X118.996 Y119.924 E5.63407
G1 X118.873 Y120.56 E5.66334
G1 X110.545 Y112.232 E6.19513
G1 X109.916 Y112.364 E6.22412
G1 X118.459 Y120.907 E6.76963
G1 X117.328 Y120.535 E6.82339
G1 X110.287 Y113.495 E7.27297
G1 X110.554 Y114.271 E7.31003
G1 X110.422 Y114.389 E7.31807
G1 X116.686 Y120.653 E7.71806
G1 X116.333 Y121.06 E7.74238
G1 X110.021 Y114.748 E8.14542
G1 X109.62 Y115.107 E8.16972
G1 X115.979 Y121.467 E8.57581
G1 X115.626 Y121.873 E8.60013
G1 X109.219 Y115.466 E9.00926
G1 X109.083 Y115.588 E9.01749
G1 X110.602 Y116.908 E9.10839
G1 X110.429 Y117.436 E9.13349
G1 X113.652 Y120.659 E9.33926
G1 X113.086 Y120.854 E9.36626
G1 X112.111 Y119.879 E9.42851
G1 X111.963 Y119.168 E9.46128
G1 X111.266 Y119.033 E9.49334
G1 X110.241 Y118.009 E9.55875
G1 X110.053 Y118.581 E9.58594
G1 X110.615 Y119.142 E9.62178
G1 X112.014 Y120.541 F9000
G1 F1200
G1 X112.703 Y121.23 E9.66576
M106 S84.15
;LAYER_CHANGE
;Z:0.52
;HEIGHT:0.32
;BEFORE_LAYER_CHANGE
;0.52


G92 E0
G1 E-5.95 F3000
;WIPE_START
G1 F7200
G1 X112.014 Y120.541 E-6.33554
;WIPE_END
G1 E-8.5 F3000
; stop printing object Christmas_Tree_Twist_1.stl id:0 copy 0
M486 S-1
G1 Z0.47 F9000
;AFTER_LAYER_CHANGE
;0.52
G92 E0
; acceleration to travel
M204 S1500
G1 X106.709 Y125.963
; decel to extrusion
M204 S500
G1 X106.061 Y126.626
; end travel
G1 E8.5 F3000
;TYPE:Skirt
;WIDTH:0.48
G1 F1200
G1 X107.41 Y127.945 E8.60632
G1 X109.059 Y128.873 E8.71298
G1 X114.716 Y130.323 E9.04216
G1 X116.608 Y130.302 E9.14881
G1 X122.232 Y128.729 E9.47799
G1 X123.861 Y127.765 E9.58465
G1 X127.945 Y123.59 E9.91383
G1 X128.873 Y121.941 E10.02049
G1 X130.323 Y116.284 E10.34967
G1 X130.302 Y114.392 E10.45633
G1 X128.729 Y108.768 E10.78551
G1 X127.765 Y107.139 E10.89217
G1 X123.59 Y103.055 E11.22134
G1 X121.942 Y102.127 E11.32799
G1 X116.285 Y100.677 E11.65715
G1 X114.392 Y100.698 E11.76384
G1 X108.767 Y102.271 E12.09304
G1 X107.139 Y103.235 E12.19969
G1 X103.055 Y107.41 E12.52887
G1 X102.127 Y109.059 E12.63553
G1 X100.677 Y114.716 E12.96471
G1 X100.698 Y116.608 E13.07137
G1 X102.271 Y122.232 E13.40055
G1 X103.235 Y123.861 E13.50721
G1 X106.018 Y126.584 E13.72669
G1 X106.324 Y126.271 F9000
G1 F1200
G1 X107.715 Y127.633 E13.83639
G1 X109.167 Y128.45 E13.93029
G1 X114.825 Y129.899 E14.25947
G1 X116.49 Y129.881 E14.35338
G1 X122.115 Y128.308 E14.68256
G1 X123.548 Y127.459 E14.77646
G1 X127.633 Y123.285 E15.10564
G1 X128.45 Y121.833 E15.19955
G1 X129.899 Y116.175 E15.52873
G1 X129.881 Y114.51 E15.62263
G1 X128.308 Y108.885 E15.95181
G1 X127.459 Y107.452 E16.04572
G1 X123.285 Y103.367 E16.3749
G1 X121.833 Y102.55 E16.46879
G1 X116.176 Y101.1 E16.79796
G1 X114.51 Y101.118 E16.89189
G1 X108.885 Y102.692 E17.22109
G1 X107.452 Y103.541 E17.31499
G1 X103.367 Y107.715 E17.64417
G1 X102.55 Y109.167 E17.73807
G1 X101.101 Y114.825 E18.06725
G1 X101.119 Y116.49 E18.16116
G1 X102.692 Y122.115 E18.49034
G1 X103.541 Y123.548 E18.58425
G1 X106.281 Y126.23 E18.80034
G92 E0
G1 E-5.95 F3000
;WIPE_START
G1 F7200
G1 X107.715 Y127.633 E-6.74413
G1 X109.167 Y128.45 E-7.4036
G1 X111.538 Y129.057 E-8.3725
;WIPE_END
G1 E-8.5 F3000
; printing object Christmas_Tree_Twist_1.stl id:0 copy 0
M486 S0
; acceleration to travel
M204 S1500
G1 X111.916 Y123.066 F9000
; decel to extrusion
M204 S500
G1 X111.964 Y122.292
; end travel
G1 E0 F3000
;TYPE:Internal perimeter
;WIDTH:0.476
G1 F2400
G1 X111.41 Y119.998 E0.1317
G1 X109.042 Y119.614 E0.26558
G1 X109.708 Y117.35 E0.39728
G1 X107.85 Y115.834 E0.53115
G1 X109.559 Y114.207 E0.66285
