; generated by SuperSlicer 2.4 on 2022-12-06 at 15:28:57 UTC

; 

; external perimeters extrusion width = 0.43mm
; perimeters extrusion width = 0.48mm
; infill extrusion width = 0.46mm
; solid infill extrusion width = 0.48mm
; top infill extrusion width = 0.46mm
; first layer extrusion width = 0.58mm

; object:{"name":"PART_16A","id":"PART_16A.stl id:0 copy 0","object_center":[115.500000,115.500000,0.000000],"boundingbox_center":[115.500000,115.500000,13.967123],"boundingbox_size":[20.320000,12.700000,27.934246]}
; Total objects to print: 1
M486 T1
; plater:{"center":[115.500000,115.500000,0.000000],"boundingbox_center":[115.500000,115.500000,13.967123],"boundingbox_size":[20.320000,12.700000,27.934246]}

;TYPE:Custom
G90 ; use absolute coordinates
M83 ; extruder relative mode
M140 S60 ; set final bed temp
M104 S150 ; set temporary nozzle temp to prevent oozing during homing and auto bed leveling
G4 S10 ; allow partial nozzle warmup
G28 ; home all axis
;G29 ; auto bed levelling
G1 Z10 F240
G1 X2 Y10 F3000
G1 Z0 F240
M104 S210 ; set final nozzle temp
M190 S60 ; wait for bed temp to stabilize
M109 S210 ; wait for nozzle temp to stabilize
G1 Z0.28 F240
G92 E0
G1 Y140 E10 F1500 ; prime the nozzle
G1 X2.3 F5000
G92 E0
G1 Y10 E10 F1200 ; prime the nozzle
G92 E0
;start
M107
G21 ; set units to millimeters
G90 ; use absolute coordinates
M82 ; use absolute distances for extrusion
G92 E0
; Filament gcode
;_TOOLCHANGE 0
M107
;LAYER_CHANGE
;Z:0.2
;HEIGHT:0.2
;BEFORE_LAYER_CHANGE
;0.2


G1 E-8.5 F3000
G1 Z0.15 F9000
;AFTER_LAYER_CHANGE
;0.2
G92 E0
M204 S500
G1 X102.32 Y106.553
G1 E8.5 F3000
;TYPE:Skirt
;WIDTH:0.48
G1 F1200
G1 X101.687 Y107.302 E8.53669
G1 X101.137 Y108.113 E8.57339
G1 X100.518 Y109.326 E8.62438
G1 X100.031 Y110.826 E8.68341
G1 X99.818 Y112.172 E8.7344
G1 X99.784 Y123.75 E9.16783
G1 X100.493 Y125.913 E9.25301
G1 X101.788 Y127.011 E9.31659
G1 X103.44 Y127.406 E9.38017
G1 X127.56 Y127.406 E10.28307
G1 X129.723 Y126.697 E10.36825
G1 X130.821 Y125.402 E10.43183
G1 X131.216 Y123.75 E10.49541
G1 X131.211 Y112.719 E10.90834
G1 X131.048 Y111.2 E10.96551
G1 X130.696 Y109.885 E11.0165
G1 X130.054 Y108.444 E11.07553
G1 X129.313 Y107.302 E11.12652
G1 X128.257 Y106.13 E11.18555
G1 X127.508 Y105.497 E11.22224
G1 X126.366 Y104.756 E11.27324
G1 X124.925 Y104.114 E11.33226
G1 X123.61 Y103.762 E11.38326
G1 X122.091 Y103.599 E11.44042
G1 X109.1 Y103.594 E11.92672
G1 X107.981 Y103.668 E11.9687
G1 X107.016 Y103.841 E12.0054
G1 X106.075 Y104.114 E12.04209
G1 X104.634 Y104.756 E12.10112
G1 X103.492 Y105.497 E12.15211
G1 X102.364 Y106.512 E12.2089
G1 X102.656 Y106.837 F9000
G1 F1200
G1 X102.629 Y106.862 E12.21029
G1 X101.829 Y107.849 E12.25786
G1 X101.064 Y109.175 E12.31517
G1 X100.608 Y110.362 E12.36275
G1 X100.383 Y111.269 E12.39773
G1 X100.255 Y112.194 E12.43271
G1 X100.221 Y123.75 E12.86528
G1 X100.732 Y125.49 E12.93315
G1 X101.897 Y126.575 E12.99275
G1 X103.44 Y126.969 E13.05235
G1 X127.56 Y126.969 E13.95525
G1 X129.3 Y126.458 E14.02312
G1 X130.385 Y125.293 E14.08272
G1 X130.779 Y123.75 E14.14232
G1 X130.774 Y112.742 E14.5544
G1 X130.617 Y111.269 E14.60985
G1 X130.392 Y110.362 E14.64484
G1 X129.936 Y109.175 E14.69241
G1 X129.171 Y107.849 E14.74972
G1 X128.371 Y106.862 E14.79729
G1 X127.233 Y105.837 E14.85461
G1 X126.167 Y105.145 E14.90218
G1 X124.769 Y104.522 E14.9595
G1 X123.541 Y104.193 E15.00707
G1 X122.068 Y104.036 E15.06252
G1 X109.1 Y104.031 E15.54796
G1 X108.049 Y104.1 E15.58738
G1 X107.129 Y104.263 E15.62236
G1 X106.231 Y104.522 E15.65735
G1 X104.833 Y105.145 E15.71466
G1 X103.767 Y105.837 E15.76224
G1 X102.701 Y106.797 E15.81592
G92 E0
G1 E-5.95 F3000
;WIPE_START
G1 F7200
G1 X102.629 Y106.862 E-5.98844
G1 X101.829 Y107.849 E-6.49146
G1 X101.064 Y109.175 E-7.09755
G1 X100.608 Y110.362 E-7.60058
G1 X100.383 Y111.269 E-7.9705
G1 X100.255 Y112.194 E-8.34042
G1 X100.254 Y112.275 E-8.3725
;WIPE_END
G1 E-8.5 F3000
; acceleration to travel
M204 S1500
G1 X104.875 Y109.832 F9000
; decel to extrusion
M204 S500
G1 X105.44 Y109.533
; end travel
G1 E0 F3000
;WIDTH:0.576
G1 F1200
G1 X105.767 Y109.206 E0.02114
G1 X106.168 Y108.881 E0.04471
G1 X106.636 Y108.577 E0.07017
G1 X107.093 Y108.344 E0.09361
G1 X107.574 Y108.159 E0.11712
G1 X108.099 Y108.017 E0.14196
G1 X108.665 Y107.93 E0.16811
G1 X109.139 Y107.907 E0.18975
G1 X121.869 Y107.907 E0.77094
G1 X122.35 Y107.931 E0.79293
G1 X122.857 Y108.008 E0.81638
G1 X123.438 Y108.163 E0.84381
G1 X123.904 Y108.343 E0.86661
G1 X124.338 Y108.562 E0.88883
G1 X124.843 Y108.888 E0.91626
G1 X125.23 Y109.204 E0.93906
G1 X125.576 Y109.546 E0.96127
G1 X125.955 Y110.012 E0.9887
G1 X126.225 Y110.432 E1.0115
G1 X126.448 Y110.865 E1.03373
G1 X126.669 Y111.44 E1.06187
G1 X126.793 Y111.911 E1.08409
G1 X126.871 Y112.389 E1.1062
G1 X126.903 Y112.941 E1.13145
G1 X126.903 Y122.021 E1.54601
G1 X126.883 Y122.125 E1.55084
G1 X126.76 Y122.42 E1.56544
G1 X126.702 Y122.508 E1.57027
G1 X126.318 Y122.892 E1.59503
G1 X126.23 Y122.95 E1.59986
G1 X125.935 Y123.073 E1.61445
G1 X125.831 Y123.093 E1.61928
G1 X105.169 Y123.093 E2.56263
G1 X105.065 Y123.073 E2.56746
G1 X104.77 Y122.95 E2.58206
G1 X104.682 Y122.892 E2.58689
G1 X104.298 Y122.508 E2.61164
G1 X104.24 Y122.42 E2.61648
G1 X104.117 Y122.125 E2.63107
G1 X104.097 Y122.021 E2.6359
G1 X104.097 Y112.948 E3.05014
G1 X104.129 Y112.388 E3.07577
G1 X104.213 Y111.88 E3.09925
G1 X104.353 Y111.37 E3.1234
G1 X104.534 Y110.903 E3.14626
G1 X104.775 Y110.432 E3.17041
G1 X105.079 Y109.967 E3.19579
G1 X105.397 Y109.576 E3.21881
G1 X105.785 Y109.949 F9000
G1 F1200
G1 X106.118 Y109.613 E3.2404
G1 X106.473 Y109.323 E3.26133
G1 X106.917 Y109.035 E3.28548
G1 X107.3 Y108.84 E3.30514
G1 X107.728 Y108.674 E3.32607
G1 X108.225 Y108.54 E3.34958
G1 X108.706 Y108.466 E3.3718
G1 X109.146 Y108.444 E3.3919
G1 X121.861 Y108.444 E3.97245
G1 X122.308 Y108.467 E3.99286
G1 X122.761 Y108.537 E4.0138
G1 X123.259 Y108.669 E4.03731
G1 X123.674 Y108.829 E4.0576
G1 X124.083 Y109.035 E4.07854
G1 X124.516 Y109.315 E4.10205
G1 X124.861 Y109.595 E4.12235
G1 X125.187 Y109.918 E4.14329
G1 X125.512 Y110.317 E4.16679
G1 X125.754 Y110.69 E4.18709
G1 X125.964 Y111.098 E4.20803
G1 X126.153 Y111.591 E4.23217
G1 X126.27 Y112.035 E4.25311
G1 X126.338 Y112.46 E4.27277
G1 X126.366 Y112.949 E4.29511
G1 X126.366 Y121.968 E4.7069
G1 X126.284 Y122.166 E4.71666
G1 X125.976 Y122.474 E4.73659
G1 X125.778 Y122.556 E4.74635
G1 X105.222 Y122.556 E5.68486
G1 X105.024 Y122.474 E5.69462
G1 X104.716 Y122.166 E5.71454
G1 X104.634 Y121.968 E5.7243
G1 X104.634 Y112.956 E6.13578
G1 X104.662 Y112.46 E6.15844
G1 X104.736 Y112.007 E6.17938
G1 X104.859 Y111.551 E6.20096
G1 X105.03 Y111.11 E6.22254
G1 X105.246 Y110.69 E6.24412
G1 X105.505 Y110.294 E6.2657
G1 X105.747 Y109.995 E6.28326
G1 X106.164 Y110.333 F9000
G1 F1200
G1 X106.198 Y110.293 E6.28568
G1 X106.483 Y110.008 E6.30405
G1 X106.806 Y109.745 E6.32306
G1 X107.155 Y109.518 E6.34208
G1 X107.525 Y109.328 E6.36109
G1 X107.914 Y109.178 E6.3801
G1 X108.316 Y109.07 E6.39912
G1 X108.727 Y109.004 E6.41813
G1 X109.142 Y108.981 E6.4371
G1 X121.858 Y108.981 E7.01765
G1 X122.273 Y109.004 E7.03662
G1 X122.67 Y109.067 E7.05499
G1 X123.073 Y109.174 E7.07401
G1 X123.462 Y109.323 E7.09302
G1 X123.845 Y109.518 E7.11267
G1 X124.194 Y109.745 E7.13169
G1 X124.517 Y110.008 E7.1507
G1 X124.811 Y110.303 E7.16971
G1 X125.073 Y110.627 E7.18873
G1 X125.299 Y110.977 E7.20774
G1 X125.487 Y111.348 E7.22675
G1 X125.636 Y111.737 E7.24576
G1 X125.743 Y112.14 E7.26478
G1 X125.807 Y112.551 E7.28379
G1 X125.829 Y112.959 E7.30244
G1 X125.829 Y121.861 E7.70888
G1 X125.671 Y122.019 E7.71904
G1 X105.329 Y122.019 E8.64779
G1 X105.171 Y121.861 E8.65795
G1 X105.171 Y112.959 E9.06439
G1 X105.193 Y112.551 E9.08304
G1 X105.26 Y112.126 E9.10269
G1 X105.368 Y111.724 E9.12171
G1 X105.513 Y111.348 E9.14008
G1 X105.708 Y110.965 E9.15973
G1 X105.927 Y110.627 E9.17811
G1 X106.126 Y110.38 E9.1926
G92 E0
G1 E-5.95 F3000
;WIPE_START
G1 F7200
G1 X106.189 Y110.303 E-5.98915
G1 X106.198 Y110.293 E-5.99472
G1 X106.483 Y110.008 E-6.15401
G1 X106.493 Y109.999 E-6.15958
G1 X106.806 Y109.745 E-6.31885
G1 X106.817 Y109.737 E-6.32442
G1 X107.155 Y109.518 E-6.4837
G1 X107.167 Y109.511 E-6.48927
G1 X107.525 Y109.328 E-6.64855
G1 X107.538 Y109.323 E-6.65412
G1 X107.914 Y109.178 E-6.8134
G1 X107.927 Y109.174 E-6.81897
G1 X108.316 Y109.07 E-6.97825
G1 X108.33 Y109.067 E-6.98382
G1 X108.727 Y109.004 E-7.1431
G1 X108.741 Y109.003 E-7.14867
G1 X109.142 Y108.981 E-7.3076
G1 X109.149 Y108.981 E-7.31038
G1 X111.832 Y108.981 E-8.3725
;WIPE_END
G1 E-8.5 F3000
; printing object PART_16A.stl id:0 copy 0
M486 S0
; acceleration to travel
M204 S1500
G1 X106.393 Y120.103 F9000
; decel to extrusion
M204 S500
G1 X105.728 Y121.462
; end travel
G1 E0 F3000
;TYPE:External perimeter
G1 F1200
G1 X105.728 Y112.97 E0.3877
G1 X105.747 Y112.602 E0.40451
G1 X105.803 Y112.249 E0.42087
G1 X105.896 Y111.903 E0.43722
G1 X106.024 Y111.568 E0.45357
G1 X106.187 Y111.249 E0.46992
G1 X106.382 Y110.949 E0.48627
G1 X106.607 Y110.671 E0.50262
G1 X106.861 Y110.417 E0.51897
G1 X107.139 Y110.192 E0.53532
G1 X107.439 Y109.997 E0.55167
G1 X107.758 Y109.834 E0.56802
G1 X108.093 Y109.706 E0.58437
G1 X108.439 Y109.613 E0.60072
G1 X108.792 Y109.557 E0.61707
G1 X109.16 Y109.538 E0.63389
G1 X121.84 Y109.538 E1.21279
G1 X122.208 Y109.557 E1.2296
G1 X122.561 Y109.613 E1.24595
G1 X122.907 Y109.706 E1.2623
G1 X123.242 Y109.834 E1.27865
G1 X123.561 Y109.997 E1.295
G1 X123.861 Y110.192 E1.31136
G1 X124.139 Y110.417 E1.3277
G1 X124.393 Y110.671 E1.34406
G1 X124.618 Y110.949 E1.36041
G1 X124.813 Y111.249 E1.37676
G1 X124.976 Y111.568 E1.39311
G1 X125.104 Y111.903 E1.40946
G1 X125.197 Y112.249 E1.42581
G1 X125.253 Y112.602 E1.44216
G1 X125.272 Y112.97 E1.45898
G1 X125.272 Y121.462 E1.84667
G1 X105.788 Y121.462 E2.73623
;WIPE_START
G1 X105.928 Y121.116 F9000
;WIPE_END
G1 X106.265 Y120.925
;TYPE:Internal perimeter
G1 F1200
G1 X106.265 Y112.984 E3.09875
G1 X106.282 Y112.659 E3.11364
G1 X106.33 Y112.361 E3.12742
G1 X106.408 Y112.069 E3.1412
G1 X106.516 Y111.787 E3.15497
G1 X106.653 Y111.518 E3.16875
G1 X106.817 Y111.265 E3.18253
G1 X107.007 Y111.031 E3.19631
G1 X107.221 Y110.817 E3.21009
G1 X107.455 Y110.627 E3.22387
G1 X107.708 Y110.463 E3.23765
G1 X107.977 Y110.326 E3.25143
G1 X108.259 Y110.218 E3.26521
G1 X108.551 Y110.14 E3.27899
G1 X108.849 Y110.092 E3.29277
G1 X109.174 Y110.075 E3.30765
G1 X121.826 Y110.075 E3.88527
G1 X122.151 Y110.092 E3.90015
G1 X122.449 Y110.14 E3.91393
G1 X122.741 Y110.218 E3.92771
G1 X123.023 Y110.326 E3.94149
G1 X123.292 Y110.463 E3.95527
G1 X123.545 Y110.627 E3.96905
G1 X123.779 Y110.817 E3.98283
G1 X123.993 Y111.031 E3.99661
G1 X124.183 Y111.265 E4.01039
G1 X124.347 Y111.518 E4.02417
G1 X124.484 Y111.787 E4.03794
G1 X124.592 Y112.069 E4.05172
G1 X124.67 Y112.361 E4.0655
G1 X124.718 Y112.659 E4.07928
G1 X124.735 Y112.984 E4.09417
G1 X124.735 Y120.925 E4.45669
G1 X106.325 Y120.925 E5.29718
G92 E0
G1 E-5.95 F3000
;WIPE_START
G1 F7200
G1 X106.279 Y114.805 E-8.3725
;WIPE_END
G1 E-8.5 F3000
; acceleration to travel
M204 S1500
G1 X108.354 Y114.559 F9000
; decel to extrusion
M204 S500
G1 X108.607 Y114.528
; end travel
G1 E0 F3000
;TYPE:External perimeter
G1 F1200
G1 X108.914 Y114.603 E0.01441
G1 X109.229 Y114.618 E0.02881
G1 X109.541 Y114.573 E0.04322
G1 X109.839 Y114.47 E0.05762
G1 X110.113 Y114.312 E0.07203
G1 X110.351 Y114.105 E0.08644
G1 X110.546 Y113.857 E0.10084
G1 X110.691 Y113.577 E0.11525
G1 X110.78 Y113.274 E0.12966
G1 X110.81 Y112.96 E0.14406
G1 X110.78 Y112.646 E0.15847
G1 X110.691 Y112.343 E0.17287
G1 X110.546 Y112.063 E0.18728
G1 X110.351 Y111.815 E0.20169
G1 X110.113 Y111.608 E0.21609
G1 X109.839 Y111.45 E0.2305
G1 X109.541 Y111.347 E0.24491
G1 X109.229 Y111.302 E0.25931
G1 X108.914 Y111.317 E0.27372
G1 X108.607 Y111.392 E0.28812
G1 X108.32 Y111.523 E0.30253
G1 X108.063 Y111.706 E0.31694
G1 X107.845 Y111.934 E0.33134
G1 X107.675 Y112.199 E0.34575
G1 X107.557 Y112.492 E0.36016
G1 X107.498 Y112.802 E0.37456
G1 X107.498 Y113.118 E0.38897
G1 X107.557 Y113.428 E0.40337
G1 X107.675 Y113.721 E0.41778
G1 X107.845 Y113.986 E0.43219
G1 X108.063 Y114.214 E0.44659
G1 X108.32 Y114.397 E0.461
G1 X108.553 Y114.504 E0.47267
;WIPE_START
G1 X108.695 Y114.919 F9000
;WIPE_END
G1 X108.653 Y115.093
;TYPE:Internal perimeter
G1 F1200
G1 X108.837 Y115.137 E0.4813
G1 X109.255 Y115.157 E0.5004
G1 X109.669 Y115.098 E0.51949
G1 X110.064 Y114.961 E0.53858
G1 X110.426 Y114.752 E0.55767
G1 X110.742 Y114.478 E0.57676
G1 X111 Y114.149 E0.59585
G1 X111.192 Y113.777 E0.61495
G1 X111.31 Y113.376 E0.63404
G1 X111.35 Y112.96 E0.65313
G1 X111.31 Y112.544 E0.67222
G1 X111.192 Y112.143 E0.69131
G1 X111 Y111.771 E0.7104
G1 X110.742 Y111.442 E0.7295
G1 X110.426 Y111.168 E0.74859
G1 X110.064 Y110.959 E0.76768
G1 X109.669 Y110.822 E0.78677
G1 X109.255 Y110.763 E0.80586
G1 X108.837 Y110.783 E0.82495
G1 X108.431 Y110.881 E0.84405
G1 X108.05 Y111.055 E0.86314
G1 X107.71 Y111.298 E0.88223
G1 X107.421 Y111.6 E0.90132
G1 X107.195 Y111.952 E0.92041
G1 X107.04 Y112.34 E0.9395
G1 X106.96 Y112.751 E0.9586
G1 X106.96 Y113.169 E0.97769
G1 X107.04 Y113.58 E0.99678
G1 X107.195 Y113.968 E1.01587
G1 X107.421 Y114.32 E1.03496
G1 X107.71 Y114.622 E1.05405
G1 X108.05 Y114.865 E1.07314
G1 X108.431 Y115.039 E1.09224
G1 X108.595 Y115.078 E1.09995
G92 E0
G1 E-5.95 F3000
;WIPE_START
G1 F7200
G1 X108.837 Y115.137 E-6.04865
G1 X109.255 Y115.157 E-6.21418
G1 X109.669 Y115.098 E-6.3797
G1 X110.064 Y114.961 E-6.54523
G1 X110.426 Y114.752 E-6.71075
G1 X110.742 Y114.478 E-6.87627
G1 X111 Y114.149 E-7.0418
G1 X111.192 Y113.777 E-7.20732
G1 X111.31 Y113.376 E-7.37285
G1 X111.35 Y112.96 E-7.53837
G1 X111.31 Y112.544 E-7.7039
G1 X111.192 Y112.143 E-7.86942
G1 X111 Y111.771 E-8.03494
G1 X110.742 Y111.442 E-8.20047
G1 X110.426 Y111.168 E-8.36599
G1 X110.412 Y111.16 E-8.3725
;WIPE_END
G1 E-8.5 F3000
; acceleration to travel
M204 S1500
G1 X119.132 Y112.905 F9000
; decel to extrusion
M204 S500
G1 X120.198 Y113.118
; end travel
G1 E0 F3000
;TYPE:External perimeter
G1 F1200
G1 X120.257 Y113.428 E0.01441
G1 X120.375 Y113.721 E0.02881
G1 X120.545 Y113.986 E0.04322
G1 X120.763 Y114.214 E0.05762
G1 X121.02 Y114.397 E0.07203
G1 X121.307 Y114.528 E0.08644
G1 X121.614 Y114.603 E0.10084
G1 X121.929 Y114.618 E0.11525
G1 X122.241 Y114.573 E0.12966
G1 X122.539 Y114.47 E0.14406
G1 X122.813 Y114.312 E0.15847
G1 X123.051 Y114.105 E0.17287
G1 X123.246 Y113.857 E0.18728
G1 X123.391 Y113.577 E0.20169
G1 X123.48 Y113.274 E0.21609
G1 X123.51 Y112.96 E0.2305
G1 X123.48 Y112.646 E0.24491
G1 X123.391 Y112.343 E0.25931
G1 X123.246 Y112.063 E0.27372
G1 X123.051 Y111.815 E0.28812
G1 X122.813 Y111.608 E0.30253
G1 X122.539 Y111.45 E0.31694
G1 X122.241 Y111.347 E0.33134
G1 X121.929 Y111.302 E0.34575
G1 X121.614 Y111.317 E0.36016
G1 X121.307 Y111.392 E0.37456
G1 X121.02 Y111.523 E0.38897
G1 X120.763 Y111.706 E0.40337
G1 X120.545 Y111.934 E0.41778
G1 X120.375 Y112.199 E0.43219
G1 X120.257 Y112.492 E0.44659
G1 X120.198 Y112.802 E0.461
G1 X120.198 Y113.058 E0.47267
;WIPE_START
G1 X119.879 Y113.36 F9000
;WIPE_END
G1 X119.704 Y113.394
;TYPE:Internal perimeter
G1 F1200
G1 X119.74 Y113.58 E0.4813
G1 X119.895 Y113.968 E0.5004
G1 X120.121 Y114.32 E0.51949
G1 X120.41 Y114.622 E0.53858
G1 X120.75 Y114.865 E0.55767
G1 X121.131 Y115.039 E0.57676
G1 X121.537 Y115.137 E0.59585
G1 X121.955 Y115.157 E0.61495
G1 X122.369 Y115.098 E0.63404
G1 X122.764 Y114.961 E0.65313
G1 X123.126 Y114.752 E0.67222
G1 X123.442 Y114.478 E0.69131
G1 X123.7 Y114.149 E0.7104
G1 X123.892 Y113.777 E0.7295
G1 X124.01 Y113.376 E0.74859
G1 X124.05 Y112.96 E0.76768
G1 X124.01 Y112.544 E0.78677
G1 X123.892 Y112.143 E0.80586
G1 X123.7 Y111.771 E0.82495
G1 X123.442 Y111.442 E0.84405
G1 X123.126 Y111.168 E0.86314
G1 X122.764 Y110.959 E0.88223
G1 X122.369 Y110.822 E0.90132
G1 X121.955 Y110.763 E0.92041
G1 X121.537 Y110.783 E0.9395
G1 X121.131 Y110.881 E0.9586
G1 X120.75 Y111.055 E0.97769
G1 X120.41 Y111.298 E0.99678
G1 X120.121 Y111.6 E1.01587
G1 X119.895 Y111.952 E1.03496
G1 X119.74 Y112.34 E1.05405
G1 X119.66 Y112.751 E1.07315
G1 X119.66 Y113.169 E1.09224
G1 X119.692 Y113.335 E1.09995
G92 E0
G1 E-5.95 F3000
;WIPE_START
G1 F7200
