; generated by SuperSlicer 2.4 on 2022-12-06 at 15:25:44 UTC

; 

; external perimeters extrusion width = 0.43mm
; perimeters extrusion width = 0.48mm
; infill extrusion width = 0.46mm
; solid infill extrusion width = 0.48mm
; top infill extrusion width = 0.46mm
; first layer extrusion width = 0.58mm

; object:{"name":"PART_2","id":"PART_2.stl id:0 copy 0","object_center":[113.741839,114.093471,0.000000],"boundingbox_center":[113.741839,114.093471,6.350000],"boundingbox_size":[20.436418,19.014235,12.700000]}
; Total objects to print: 1
M486 T1
; plater:{"center":[113.741839,114.093471,0.000000],"boundingbox_center":[113.741839,114.093471,6.350000],"boundingbox_size":[20.436418,19.014235,12.700000]}

;TYPE:Custom
G90 ; use absolute coordinates
M83 ; extruder relative mode
M140 S60 ; set final bed temp
M104 S150 ; set temporary nozzle temp to prevent oozing during homing and auto bed leveling
G4 S10 ; allow partial nozzle warmup
G28 ; home all axis
;G29 ; auto bed levelling
G1 Z10 F240
G1 X2 Y10 F3000
G1 Z0 F240
M104 S210 ; set final nozzle temp
M190 S60 ; wait for bed temp to stabilize
M109 S210 ; wait for nozzle temp to stabilize
G1 Z0.28 F240
G92 E0
G1 Y140 E10 F1500 ; prime the nozzle
G1 X2.3 F5000
G92 E0
G1 Y10 E10 F1200 ; prime the nozzle
G92 E0
;start
M107
G21 ; set units to millimeters
G90 ; use absolute coordinates
M82 ; use absolute distances for extrusion
G92 E0
; Filament gcode
;_TOOLCHANGE 0
M107
;LAYER_CHANGE
;Z:0.2
;HEIGHT:0.2
;BEFORE_LAYER_CHANGE
;0.2


G1 E-8.5 F3000
G1 Z0.15 F9000
;AFTER_LAYER_CHANGE
;0.2
G92 E0
M204 S500
G1 X98.865 Y112.265
G1 E8.5 F3000
;TYPE:Skirt
;WIDTH:0.48
G1 F1200
G1 X97.457 Y114.052 E8.58519
G1 X97.259 Y115.739 E8.64876
G1 X97.845 Y117.333 E8.71234
G1 X103.466 Y125.785 E9.09229
G1 X105.398 Y127.243 E9.18288
G1 X113.144 Y129.717 E9.48729
G1 X114.687 Y129.865 E9.54531
G1 X116.281 Y129.279 E9.60888
G1 X127.905 Y121.548 E10.13146
G1 X128.984 Y120.436 E10.18947
G1 X129.522 Y118.825 E10.25305
G1 X130.236 Y110.725 E10.55745
G1 X129.638 Y108.38 E10.64805
G1 X124.018 Y99.928 E11.028
G1 X122.23 Y98.519 E11.11319
G1 X120.543 Y98.322 E11.17676
G1 X118.949 Y98.908 E11.24034
G1 X98.915 Y112.231 E12.14099
G1 X99.157 Y112.595 F9000
G1 F1200
G1 X99.107 Y112.629 E12.14324
G1 X97.941 Y114.017 E12.21111
G1 X97.683 Y115.588 E12.27071
G1 X98.209 Y117.091 E12.33031
G1 X103.83 Y125.543 E12.71026
G1 X105.531 Y126.826 E12.79002
G1 X113.277 Y129.301 E13.09443
G1 X114.536 Y129.441 E13.14185
G1 X116.039 Y128.915 E13.20145
G1 X127.663 Y121.184 E13.72402
G1 X128.559 Y120.289 E13.77145
G1 X129.087 Y118.787 E13.83105
G1 X129.8 Y110.686 E14.13546
G1 X129.274 Y108.622 E14.21522
G1 X123.654 Y100.17 E14.59517
G1 X122.265 Y99.004 E14.66304
G1 X120.694 Y98.746 E14.72264
G1 X119.191 Y99.272 E14.78224
G1 X99.207 Y112.562 E15.68065
G92 E0
G1 E-5.95 F3000
;WIPE_START
G1 F7200
G1 X99.107 Y112.629 E-5.9975
G1 X97.941 Y114.017 E-6.71521
G1 X97.683 Y115.588 E-7.34542
G1 X98.209 Y117.091 E-7.97564
G1 X98.765 Y117.926 E-8.3725
;WIPE_END
G1 E-8.5 F3000
; acceleration to travel
M204 S1500
G1 X102.198 Y115.294 F9000
; decel to extrusion
M204 S500
G1 X102.618 Y114.973
; end travel
G1 E0 F3000
;WIDTH:0.576
G1 F1200
G1 X102.693 Y114.898 E0.00483
G1 X105.093 Y113.302 E0.13642
G1 X105.19 Y113.262 E0.14126
G1 X105.504 Y113.2 E0.15585
G1 X105.61 Y113.2 E0.16068
G1 X106.142 Y113.307 E0.18544
G1 X106.239 Y113.348 E0.19027
G1 X106.505 Y113.526 E0.20486
G1 X106.579 Y113.601 E0.2097
G1 X107.392 Y114.823 E0.2767
G1 X118.011 Y107.761 E0.85895
G1 X117.199 Y106.539 E0.92596
G1 X117.158 Y106.441 E0.93079
G1 X117.097 Y106.127 E0.94539
G1 X117.097 Y106.022 E0.95022
G1 X117.204 Y105.49 E0.97498
G1 X117.244 Y105.392 E0.97981
G1 X117.423 Y105.127 E0.9944
G1 X117.498 Y105.052 E0.99923
G1 X119.898 Y103.456 E1.13082
G1 X119.996 Y103.416 E1.13566
G1 X120.309 Y103.354 E1.15025
G1 X120.415 Y103.354 E1.15508
G1 X120.947 Y103.461 E1.17984
G1 X121.044 Y103.502 E1.18467
G1 X121.31 Y103.68 E1.19926
G1 X121.384 Y103.755 E1.2041
G1 X125.09 Y109.328 E1.50963
G1 X125.13 Y109.426 E1.51447
G1 X125.192 Y109.739 E1.52906
G1 X125.192 Y109.845 E1.53389
G1 X125.085 Y110.377 E1.55865
G1 X125.044 Y110.474 E1.56348
G1 X124.866 Y110.74 E1.57807
G1 X124.791 Y110.815 E1.58291
G1 X121.454 Y113.034 E1.76588
G1 X124.376 Y117.428 E2.00683
G1 X124.417 Y117.526 E2.01167
G1 X124.478 Y117.84 E2.02626
G1 X124.478 Y117.946 E2.03109
G1 X124.371 Y118.477 E2.05585
G1 X124.331 Y118.575 E2.06068
G1 X124.152 Y118.84 E2.07527
G1 X124.077 Y118.915 E2.08011
G1 X115.332 Y124.731 E2.55959
G1 X115.234 Y124.771 E2.56442
G1 X114.921 Y124.833 E2.57902
G1 X114.815 Y124.832 E2.58385
G1 X114.283 Y124.726 E2.60861
G1 X114.186 Y124.685 E2.61344
G1 X113.92 Y124.507 E2.62803
G1 X113.846 Y124.432 E2.63286
G1 X110.923 Y120.037 E2.87382
G1 X107.586 Y122.256 E3.05679
G1 X107.488 Y122.297 E3.06163
G1 X107.175 Y122.358 E3.07622
G1 X107.069 Y122.358 E3.08105
G1 X106.537 Y122.251 E3.10581
G1 X106.439 Y122.21 E3.11064
G1 X106.174 Y122.032 E3.12523
G1 X106.099 Y121.957 E3.13006
G1 X102.393 Y116.385 E3.4356
G1 X102.353 Y116.287 E3.44044
G1 X102.292 Y115.973 E3.45503
G1 X102.292 Y115.867 E3.45986
G1 X102.399 Y115.336 E3.48462
G1 X102.439 Y115.238 E3.48945
G1 X102.584 Y115.022 E3.5013
G1 X103.03 Y115.322 F9000
G1 F1200
G1 X105.346 Y113.779 E3.62836
G1 X105.556 Y113.737 E3.63812
G1 X105.984 Y113.823 E3.65804
G1 X106.161 Y113.943 E3.6678
G1 X107.242 Y115.568 E3.75693
G1 X118.756 Y107.911 E4.38825
G1 X117.675 Y106.285 E4.47737
G1 X117.634 Y106.076 E4.48713
G1 X117.72 Y105.648 E4.50705
G1 X117.839 Y105.47 E4.51681
G1 X120.151 Y103.933 E4.64357
G1 X120.361 Y103.892 E4.65333
G1 X120.789 Y103.978 E4.67325
G1 X120.966 Y104.097 E4.68301
G1 X124.613 Y109.581 E4.98372
G1 X124.655 Y109.791 E4.99348
G1 X124.569 Y110.219 E5.0134
G1 X124.449 Y110.396 E5.02316
G1 X120.709 Y112.884 E5.22825
G1 X123.9 Y117.682 E5.49133
G1 X123.941 Y117.892 E5.50109
G1 X123.855 Y118.319 E5.52101
G1 X123.736 Y118.497 E5.53077
G1 X115.079 Y124.254 E6.00542
G1 X114.869 Y124.295 E6.01518
G1 X114.441 Y124.209 E6.0351
G1 X114.264 Y124.09 E6.04486
G1 X111.073 Y119.292 E6.30794
G1 X107.333 Y121.779 E6.51303
G1 X107.123 Y121.821 E6.52279
G1 X106.695 Y121.735 E6.54271
G1 X106.517 Y121.616 E6.55247
G1 X102.87 Y116.131 E6.85317
G1 X102.829 Y115.921 E6.86293
G1 X102.915 Y115.494 E6.88286
G1 X102.997 Y115.372 E6.88956
G1 X103.421 Y115.704 F9000
G1 F1200
G1 X105.555 Y114.285 E7.00655
G1 X105.773 Y114.329 E7.01671
G1 X107.092 Y116.313 E7.12549
G1 X119.501 Y108.061 E7.80588
G1 X118.182 Y106.077 E7.91466
G1 X118.226 Y105.859 E7.92482
G1 X120.36 Y104.44 E8.04182
G1 X120.578 Y104.484 E8.05198
G1 X120.855 Y104.9 E8.0748
G1 X124.107 Y109.79 E8.34293
G1 X124.063 Y110.008 E8.35309
G1 X119.964 Y112.734 E8.57783
G1 X123.393 Y117.89 E8.86056
G1 X123.349 Y118.109 E8.87072
G1 X114.87 Y123.747 E9.33561
G1 X114.652 Y123.703 E9.34578
G1 X111.223 Y118.547 E9.6285
G1 X107.124 Y121.273 E9.85325
G1 X106.906 Y121.229 E9.86341
G1 X103.377 Y115.923 E10.15435
G1 X103.409 Y115.763 E10.16178
; printing object PART_2.stl id:0 copy 0
M486 S0
G1 X104.062 Y115.947 F9000
;TYPE:External perimeter
G1 F1200
G1 X105.53 Y114.97 E10.24231
G1 X106.937 Y117.085 E10.35828
G1 X120.273 Y108.216 E11.0895
G1 X118.867 Y106.101 E11.20546
G1 X120.335 Y105.124 E11.286
G1 X120.391 Y105.208 E11.29059
G1 X123.422 Y109.766 E11.54048
G1 X119.192 Y112.579 E11.77241
G1 X122.708 Y117.866 E12.06233
G1 X114.895 Y123.063 E12.49076
G1 X111.378 Y117.775 E12.78067
G1 X107.148 Y120.588 E13.0126
G1 X104.095 Y115.997 E13.26434
;WIPE_START
G1 X104.461 Y115.922 F9000
;WIPE_END
G1 X104.807 Y116.097
;TYPE:Internal perimeter
G1 F1200
G1 X105.381 Y115.715 E13.29581
G1 X106.787 Y117.83 E13.41178
G1 X121.018 Y108.366 E14.19207
G1 X119.612 Y106.251 E14.30803
G1 X120.186 Y105.869 E14.3395
G1 X122.677 Y109.616 E14.54492
G1 X118.447 Y112.429 E14.77685
G1 X121.963 Y117.716 E15.06676
G1 X115.044 Y122.318 E15.44612
G1 X111.528 Y117.03 E15.73603
G1 X107.298 Y119.843 E15.96796
G1 X104.84 Y116.147 E16.17064
G92 E0
G1 E-5.95 F3000
;WIPE_START
G1 F7200
G1 X105.381 Y115.715 E-6.22386
G1 X106.787 Y117.83 E-7.22928
G1 X109.192 Y116.231 E-8.3725
;WIPE_END
G1 E-8.5 F3000
; acceleration to travel
M204 S1500
G1 X120.668 Y110.523 F9000
; decel to extrusion
M204 S500
G1 X122.07 Y109.826
; end travel
G1 E0 F3000
;TYPE:Solid infill
;WIDTH:0.591656
G1 F1200
G1 X121.056 Y108.812 E0.06725
G1 X120.6 Y109.115 E0.09295
G1 X121.447 Y109.963 E0.14915
G1 X120.99 Y110.266 E0.17486
G1 X120.143 Y109.419 E0.23105
G1 X119.687 Y109.723 E0.25676
G1 X120.534 Y110.57 E0.31295
G1 X120.078 Y110.873 E0.33866
G1 X119.23 Y110.026 E0.39485
G1 X118.774 Y110.33 E0.42056
G1 X119.621 Y111.177 E0.47675
G1 X119.165 Y111.48 E0.50246
G1 X118.317 Y110.633 E0.55865
G1 X117.861 Y110.937 E0.58436
G1 X118.708 Y111.784 E0.64055
G1 X118.252 Y112.087 E0.66626
G1 X117.405 Y111.24 E0.72245
G1 X116.948 Y111.544 E0.74816
G1 X118.259 Y112.855 E0.83511
G1 X119.768 Y115.123 E0.96288
G1 X116.492 Y111.847 E1.18016
G1 X116.035 Y112.151 E1.20586
G1 X121.277 Y117.392 E1.55347
G1 X121.42 Y117.607 E1.56557
G1 X121.006 Y117.882 E1.58884
G1 X115.579 Y112.454 E1.9488
G1 X115.123 Y112.758 E1.97451
G1 X120.55 Y118.185 E2.33446
G1 X120.093 Y118.489 E2.36017
G1 X114.666 Y113.061 E2.72012
G1 X114.21 Y113.365 E2.74583
G1 X119.637 Y118.792 E3.10578
G1 X119.181 Y119.096 E3.13149
G1 X113.753 Y113.668 E3.49144
G1 X113.297 Y113.972 E3.51715
G1 X118.724 Y119.399 E3.8771
G1 X118.268 Y119.703 E3.90281
G1 X112.84 Y114.276 E4.26276
G1 X112.384 Y114.579 E4.28847
G1 X117.811 Y120.006 E4.64842
G1 X117.355 Y120.31 E4.67413
G1 X111.928 Y114.883 E5.03408
G1 X111.471 Y115.186 E5.05979
G1 X116.899 Y120.614 E5.41974
G1 X116.442 Y120.917 E5.44545
G1 X111.015 Y115.49 E5.8054
G1 X110.558 Y115.793 E5.83111
G1 X111.406 Y116.64 E5.8873
G1 X111.638 Y116.486 E5.90037
G1 X112.404 Y117.639 E5.96529
G1 X115.986 Y121.221 E6.20282
G1 X115.529 Y121.524 E6.22853
G1 X113.084 Y119.079 E6.39067
G92 E0
G1 E-5.95 F3000
;WIPE_START
G1 F7200
G1 X115.529 Y121.524 E-7.31859
G1 X115.986 Y121.221 E-7.53556
G1 X114.491 Y119.725 E-8.3725
;WIPE_END
G1 E-8.5 F3000
; acceleration to travel
M204 S1500
G1 X111.483 Y117.395 F9000
; decel to extrusion
M204 S500
G1 X111.116 Y117.111
; end travel
G1 E0 F3000
G1 F1200
G1 X110.102 Y116.097 E0.06725
G1 X109.645 Y116.4 E0.09295
G1 X110.493 Y117.248 E0.14915
G1 X110.036 Y117.551 E0.17486
G1 X109.189 Y116.704 E0.23105
G1 X108.733 Y117.007 E0.25676
G1 X109.58 Y117.855 E0.31295
G1 X109.123 Y118.158 E0.33866
G1 X108.276 Y117.311 E0.39485
G1 X107.82 Y117.614 E0.42056
G1 X108.667 Y118.462 E0.47675
G1 X108.211 Y118.765 E0.50246
G1 X107.363 Y117.918 E0.55865
G1 X106.907 Y118.221 E0.58436
G1 X107.921 Y119.235 E0.65161
G1 X106.628 Y118.249 F9000
;TYPE:Gap fill
;WIDTH:0.15812
G1 F1200
G1 X106.597 Y118.184 E0.65232
;WIDTH:0.19481
G1 X106.565 Y118.119 E0.65327
G1 X105.284 Y116.193 E0.68335
G1 X105.242 Y116.13 E0.68434
G92 E0
G1 E-5.95 F3000
;WIPE_START
G1 F7200
G1 X105.284 Y116.193 E-5.98006
G1 X106.565 Y118.119 E-6.8955
G1 X106.597 Y118.184 E-6.92428
;WIPE_END
G1 E-8.5 F3000
; acceleration to travel
M204 S1500
G1 X118.583 Y107.579 F9000
; decel to extrusion
M204 S500
G1 X120.047 Y106.284
; end travel
G1 E0 F3000
;WIDTH:0.194811
G1 F1200
G1 X120.089 Y106.347 E0.00099
G1 X120.772 Y107.373 E0.01701
G1 X121.454 Y108.399 E0.03304
G1 X121.464 Y108.483 E0.03415
;WIDTH:0.321384
G1 X121.475 Y108.567 E0.03617
;WIDTH:0.366331
G1 X121.469 Y108.595 E0.03694
G1 X121.622 Y108.781 E0.04361
;WIDTH:0.329002
G1 X121.774 Y108.967 E0.04951
;WIDTH:0.272041
G1 X121.927 Y109.154 E0.05424
;WIDTH:0.215081
G1 X122.08 Y109.34 E0.05779
;WIDTH:0.15812
G1 X122.232 Y109.526 E0.06016
M106 S84.15
;LAYER_CHANGE
;Z:0.52
;HEIGHT:0.32
;BEFORE_LAYER_CHANGE
;0.52


G92 E0
G1 E-5.95 F3000
;WIPE_START
G1 F7200
G1 X122.08 Y109.34 E-6.04533
;WIPE_END
G1 E-8.5 F3000
; stop printing object PART_2.stl id:0 copy 0
M486 S-1
G1 Z0.47 F9000
;AFTER_LAYER_CHANGE
;0.52
G92 E0
; acceleration to travel
M204 S1500
G1 X127.145 Y105.972
; decel to extrusion
M204 S500
G1 X127.763 Y105.56
; end travel
G1 E8.5 F3000
;TYPE:Skirt
;WIDTH:0.48
G1 F1200
G1 X124.018 Y99.928 E8.88126
G1 X122.23 Y98.519 E9.00953
G1 X120.543 Y98.322 E9.10526
G1 X118.949 Y98.908 E9.20099
G1 X98.865 Y112.265 E10.56051
G1 X97.457 Y114.052 E10.68878
G1 X97.259 Y115.739 E10.78451
G1 X97.845 Y117.333 E10.88024
G1 X103.466 Y125.785 E11.45234
G1 X105.398 Y127.243 E11.58875
G1 X113.144 Y129.717 E12.04711
G1 X114.687 Y129.865 E12.13446
G1 X116.281 Y129.279 E12.23019
G1 X127.905 Y121.548 E13.01704
G1 X128.984 Y120.436 E13.10439
G1 X129.522 Y118.825 E13.20012
G1 X130.236 Y110.725 E13.65848
G1 X129.638 Y108.38 E13.79489
G1 X127.797 Y105.61 E13.98235
G1 X127.433 Y105.852 F9000
G1 F1200
G1 X123.654 Y100.17 E14.36699
G1 X122.265 Y99.004 E14.46919
G1 X120.694 Y98.746 E14.55893
G1 X119.191 Y99.272 E14.64867
G1 X99.107 Y112.629 E16.00819
G1 X97.941 Y114.017 E16.11039
G1 X97.683 Y115.588 E16.20013
G1 X98.209 Y117.091 E16.28987
G1 X103.83 Y125.543 E16.86197
G1 X105.531 Y126.826 E16.98207
G1 X113.277 Y129.301 E17.44043
G1 X114.536 Y129.441 E17.51184
G1 X116.039 Y128.915 E17.60157
G1 X127.663 Y121.184 E18.38843
G1 X128.559 Y120.289 E18.45983
G1 X129.087 Y118.787 E18.54957
G1 X129.8 Y110.686 E19.00793
G1 X129.274 Y108.622 E19.12803
G1 X127.466 Y105.902 E19.31211
G92 E0
G1 E-5.95 F3000
;WIPE_START
G1 F7200
G1 X124.077 Y100.806 E-8.3725
;WIPE_END
G1 E-8.5 F3000
; printing object PART_2.stl id:0 copy 0
M486 S0
; acceleration to travel
M204 S1500
G1 X123.232 Y108.687 F9000
; decel to extrusion
M204 S500
G1 X123.122 Y109.705
; end travel
G1 E0 F3000
;TYPE:Internal perimeter
;WIDTH:0.476
G1 F2400
G1 X118.892 Y112.518 E0.28355
G1 X122.409 Y117.806 E0.63799
G1 X114.955 Y122.763 E1.13764
G1 X111.439 Y117.475 E1.49207
G1 X107.208 Y120.288 E1.77562
G1 X104.361 Y116.007 E2.06261
G1 X105.47 Y115.27 E2.13694
G1 X106.877 Y117.385 E2.27871
G1 X120.573 Y108.276 E3.19681
G1 X119.166 Y106.161 E3.33858
G1 X120.275 Y105.424 E3.41291
G1 X123.089 Y109.655 E3.69655
G1 X123.663 Y109.814 F9000
;TYPE:External perimeter
;WIDTH:0.428
G1 F1500
G1 X119.433 Y112.627 E3.94668
G1 X122.95 Y117.915 E4.25935
G1 X114.846 Y123.304 E4.73855
G1 X111.33 Y118.016 E5.05122
G1 X107.1 Y120.829 E5.30135
G1 X103.82 Y115.898 E5.59295
G1 X105.579 Y114.729 E5.69694
G1 X106.985 Y116.844 E5.82201
G1 X120.032 Y108.168 E6.59349
G1 X118.625 Y106.053 E6.71856
G1 X120.384 Y104.883 E6.82255
G1 X123.63 Y109.764 E7.11119
;WIPE_START
G1 X123.264 Y109.839 F9000
;WIPE_END
G1 X121.498 Y110.636
;TYPE:Solid infill
;WIDTH:0.488387
G1 F2400
G1 X122.627 Y109.507 E7.20266
G1 X122.393 Y109.155 E7.22686
G1 X119.749 Y111.799 E7.44101
G92 E0
G1 E-5.95 F3000
;WIPE_START
G1 F7200
G1 X122.393 Y109.155 E-7.43014
G1 X122.627 Y109.507 E-7.59738
G1 X121.498 Y110.636 E-8.22961
;WIPE_END
G1 E-8.5 F3000
; acceleration to travel
M204 S1500
G1 X120.677 Y108.345 F9000
; decel to extrusion
M204 S500
G1 X120.571 Y108.049
; end travel
G1 E0 F3000
G1 F2400
G1 X121.224 Y107.396 E0.05287
G1 X120.99 Y107.044 E0.07706
G1 X120.465 Y107.569 E0.11953
G1 X120.231 Y107.217 E0.14372
G1 X120.756 Y106.693 E0.18619
G1 X120.522 Y106.341 E0.21038
G1 X119.997 Y106.865 E0.25285
G1 X119.763 Y106.513 E0.27704
G1 X120.416 Y105.861 E0.32991
G92 E0
G1 E-5.95 F3000
;WIPE_START
G1 F7200
G1 X119.763 Y106.513 E-6.31541
G1 X119.997 Y106.865 E-6.48265
G1 X120.522 Y106.341 E-6.77615
G1 X120.756 Y106.693 E-6.94339
G1 X120.231 Y107.217 E-7.23689
G1 X120.465 Y107.569 E-7.40412
G1 X120.99 Y107.044 E-7.69762
G1 X121.224 Y107.396 E-7.86486
G1 X120.571 Y108.049 E-8.23027
;WIPE_END
G1 E-8.5 F3000
; acceleration to travel
M204 S1500
G1 X119.814 Y118.143 F9000
; decel to extrusion
M204 S500
G1 X119.716 Y119.447
; end travel
G1 E0 F3000
G1 F2400
G1 X121.771 Y117.393 E0.1664
G1 X121.537 Y117.041 E0.1906
G1 X118.606 Y119.972 E0.42796
G1 X116.857 Y121.135 E0.54823
G1 X121.303 Y116.689 E0.90827
G1 X121.069 Y116.337 E0.93247
G1 X115.109 Y122.297 E1.41518
G1 X115.039 Y122.344 E1.41997
G1 X114.815 Y122.006 E1.4432
G1 X120.835 Y115.986 E1.9308
G1 X120.601 Y115.634 E1.955
G1 X114.581 Y121.654 E2.4426
G1 X114.347 Y121.302 E2.46679
G1 X120.367 Y115.282 E2.95439
