; generated by SuperSlicer 2.4 on 2022-12-06 at 15:29:44 UTC

; 

; external perimeters extrusion width = 0.43mm
; perimeters extrusion width = 0.48mm
; infill extrusion width = 0.46mm
; solid infill extrusion width = 0.48mm
; top infill extrusion width = 0.46mm
; first layer extrusion width = 0.58mm

; object:{"name":"PART_18A","id":"PART_18A.stl id:0 copy 0","object_center":[115.607064,115.607064,0.000000],"boundingbox_center":[115.607064,115.607064,12.700000],"boundingbox_size":[21.135426,14.208550,25.400001]}
; Total objects to print: 1
M486 T1
; plater:{"center":[115.607064,115.607064,0.000000],"boundingbox_center":[115.607064,115.607064,12.700000],"boundingbox_size":[21.135426,14.208550,25.400001]}

;TYPE:Custom
G90 ; use absolute coordinates
M83 ; extruder relative mode
M140 S60 ; set final bed temp
M104 S150 ; set temporary nozzle temp to prevent oozing during homing and auto bed leveling
G4 S10 ; allow partial nozzle warmup
G28 ; home all axis
;G29 ; auto bed levelling
G1 Z10 F240
G1 X2 Y10 F3000
G1 Z0 F240
M104 S210 ; set final nozzle temp
M190 S60 ; wait for bed temp to stabilize
M109 S210 ; wait for nozzle temp to stabilize
G1 Z0.28 F240
G92 E0
G1 Y140 E10 F1500 ; prime the nozzle
G1 X2.3 F5000
G92 E0
G1 Y10 E10 F1200 ; prime the nozzle
G92 E0
;start
M107
G21 ; set units to millimeters
G90 ; use absolute coordinates
M82 ; use absolute distances for extrusion
G92 E0
; Filament gcode
;_TOOLCHANGE 0
M107
;LAYER_CHANGE
;Z:0.2
;HEIGHT:0.2
;BEFORE_LAYER_CHANGE
;0.2


G1 E-8.5 F3000
G1 Z0.15 F9000
;AFTER_LAYER_CHANGE
;0.2
G92 E0
M204 S500
G1 X101.532 Y106.984
G1 E8.5 F3000
;TYPE:Skirt
;WIDTH:0.48
G1 F1200
G1 X100.881 Y107.819 E8.53964
G1 X100.142 Y109.166 E8.59712
G1 X99.65 Y110.728 E8.65845
G1 X99.482 Y112.255 E8.71594
G1 X100.563 Y125.088 E9.19805
G1 X101.457 Y127.181 E9.28324
G1 X102.844 Y128.162 E9.34682
G1 X104.524 Y128.411 E9.41039
G1 X128.552 Y126.309 E10.31329
G1 X130.644 Y125.415 E10.39848
G1 X131.626 Y124.029 E10.46206
G1 X131.875 Y122.349 E10.52563
G1 X130.818 Y110.273 E10.97941
G1 X130.711 Y109.522 E11.00779
G1 X130.445 Y108.497 E11.04743
G1 X130.047 Y107.516 E11.08707
G1 X129.525 Y106.595 E11.12671
G1 X128.886 Y105.75 E11.16635
G1 X127.777 Y104.688 E11.22383
G1 X126.905 Y104.087 E11.26347
G1 X125.962 Y103.606 E11.30311
G1 X124.4 Y103.113 E11.36444
G1 X123.351 Y102.967 E11.40408
G1 X122.115 Y102.97 E11.45032
G1 X106.059 Y104.417 E12.05381
G1 X104.585 Y104.847 E12.11129
G1 X103.628 Y105.301 E12.15093
G1 X102.74 Y105.877 E12.19057
G1 X101.576 Y106.944 E12.24965
G1 X101.871 Y107.265 F9000
G1 F1200
G1 X101.848 Y107.286 E12.25083
G1 X101.233 Y108.078 E12.28833
G1 X100.55 Y109.324 E12.34154
G1 X100.074 Y110.832 E12.40073
G1 X99.919 Y112.245 E12.45394
G1 X100.999 Y125.05 E12.93499
G1 X101.659 Y126.739 E13.00286
G1 X102.914 Y127.718 E13.06246
G1 X104.485 Y127.976 E13.12206
G1 X128.514 Y125.874 E14.02496
G1 X130.202 Y125.213 E14.09283
G1 X131.182 Y123.958 E14.15243
G1 X131.439 Y122.387 E14.21203
G1 X130.383 Y110.311 E14.66581
G1 X130.025 Y108.62 E14.73052
G1 X129.647 Y107.692 E14.76802
G1 X128.909 Y106.477 E14.82123
G1 X128.261 Y105.713 E14.85873
G1 X127.519 Y105.04 E14.89623
G1 X126.695 Y104.471 E14.93373
G1 X125.804 Y104.013 E14.97123
G1 X124.296 Y103.538 E15.03042
G1 X123.303 Y103.401 E15.06792
G1 X122.153 Y103.406 E15.11096
G1 X106.125 Y104.849 E15.71337
G1 X105.156 Y105.103 E15.75087
G1 X103.855 Y105.675 E15.80409
G1 X103.013 Y106.218 E15.84159
G1 X101.915 Y107.225 E15.89735
G92 E0
G1 E-5.95 F3000
;WIPE_START
G1 F7200
G1 X101.848 Y107.286 E-5.98619
G1 X101.233 Y108.078 E-6.38274
G1 X100.55 Y109.324 E-6.94543
G1 X100.074 Y110.832 E-7.57128
G1 X99.919 Y112.245 E-8.13398
G1 X99.97 Y112.845 E-8.3725
;WIPE_END
G1 E-8.5 F3000
; acceleration to travel
M204 S1500
G1 X104.207 Y110.216 F9000
; decel to extrusion
M204 S500
G1 X104.725 Y109.895
; end travel
G1 E0 F3000
;WIDTH:0.576
G1 F1200
G1 X105.047 Y109.556 E0.02134
G1 X105.405 Y109.271 E0.04226
G1 X105.827 Y109.014 E0.06482
G1 X106.28 Y108.814 E0.08741
G1 X106.721 Y108.683 E0.10841
G1 X107.232 Y108.601 E0.13206
G1 X109.948 Y108.363 E0.25651
G1 X110.053 Y108.375 E0.26135
G1 X110.358 Y108.471 E0.27594
G1 X110.451 Y108.522 E0.28077
G1 X110.866 Y108.87 E0.30553
G1 X110.932 Y108.953 E0.31036
G1 X111.08 Y109.236 E0.32495
G1 X111.11 Y109.338 E0.32979
G1 X111.238 Y110.8 E0.39679
G1 X118.882 Y110.131 E0.74711
G1 X118.754 Y108.669 E0.81412
G1 X118.765 Y108.564 E0.81895
G1 X118.861 Y108.259 E0.83355
G1 X118.912 Y108.166 E0.83838
G1 X119.261 Y107.751 E0.86314
G1 X119.343 Y107.685 E0.86797
G1 X119.627 Y107.537 E0.88256
G1 X119.728 Y107.508 E0.88739
G1 X122.443 Y107.27 E1.01182
G1 X122.924 Y107.261 E1.03376
G1 X123.454 Y107.321 E1.05813
G1 X123.948 Y107.449 E1.08144
G1 X124.355 Y107.61 E1.10143
G1 X124.743 Y107.82 E1.12155
G1 X125.161 Y108.117 E1.14496
G1 X125.549 Y108.485 E1.16938
G1 X125.891 Y108.919 E1.19458
G1 X126.139 Y109.342 E1.21701
G1 X126.313 Y109.744 E1.23698
G1 X126.44 Y110.166 E1.25711
G1 X126.527 Y110.695 E1.28159
G1 X127.428 Y121.002 E1.75396
G1 X127.417 Y121.108 E1.75879
G1 X127.321 Y121.412 E1.77339
G1 X127.27 Y121.505 E1.77822
G1 X126.921 Y121.921 E1.80297
G1 X126.839 Y121.987 E1.80781
G1 X126.555 Y122.135 E1.8224
G1 X126.454 Y122.164 E1.82723
G1 X105.87 Y123.965 E2.77058
G1 X105.765 Y123.953 E2.77541
G1 X105.46 Y123.857 E2.79
G1 X105.367 Y123.806 E2.79484
G1 X104.952 Y123.458 E2.81959
G1 X104.886 Y123.375 E2.82442
G1 X104.738 Y123.092 E2.83902
G1 X104.708 Y122.99 E2.84385
G1 X103.807 Y112.685 E3.31616
G1 X103.796 Y112.258 E3.33566
G1 X103.861 Y111.657 E3.36324
G1 X103.98 Y111.197 E3.38495
G1 X104.147 Y110.772 E3.40579
G1 X104.366 Y110.368 E3.42674
G1 X104.643 Y109.98 E3.44852
G1 X104.683 Y109.938 E3.45117
G1 X105.071 Y110.307 F9000
G1 F1200
G1 X105.397 Y109.964 E3.47278
G1 X105.701 Y109.72 E3.49056
G1 X106.063 Y109.498 E3.50995
G1 X106.45 Y109.325 E3.52933
G1 X106.857 Y109.204 E3.54872
G1 X107.289 Y109.135 E3.56865
G1 X109.942 Y108.903 E3.69026
G1 X110.146 Y108.968 E3.70002
G1 X110.48 Y109.248 E3.71995
G1 X110.579 Y109.438 E3.72971
G1 X110.749 Y111.382 E3.81883
G1 X119.464 Y110.62 E4.21822
G1 X119.294 Y108.675 E4.30735
G1 X119.358 Y108.471 E4.31711
G1 X119.638 Y108.137 E4.33703
G1 X119.828 Y108.038 E4.34679
G1 X122.482 Y107.806 E4.4684
G1 X122.883 Y107.797 E4.48673
G1 X123.34 Y107.847 E4.50772
G1 X123.768 Y107.956 E4.52791
G1 X124.115 Y108.091 E4.54488
G1 X124.473 Y108.284 E4.56347
G1 X124.832 Y108.543 E4.58365
G1 X125.164 Y108.86 E4.60464
G1 X125.437 Y109.208 E4.62482
G1 X125.654 Y109.573 E4.6442
G1 X125.803 Y109.914 E4.66118
G1 X125.92 Y110.304 E4.67977
G1 X125.992 Y110.752 E4.7005
G1 X126.888 Y120.997 E5.17001
G1 X126.824 Y121.2 E5.17977
G1 X126.544 Y121.535 E5.19969
G1 X126.354 Y121.633 E5.20945
G1 X105.876 Y123.425 E6.14796
G1 X105.672 Y123.361 E6.15772
G1 X105.338 Y123.08 E6.17765
G1 X105.239 Y122.891 E6.18741
G1 X104.343 Y112.646 E6.65692
G1 X104.333 Y112.262 E6.67444
G1 X104.387 Y111.77 E6.69703
G1 X104.487 Y111.376 E6.71561
G1 X104.628 Y111.013 E6.73339
G1 X104.83 Y110.639 E6.75278
G1 X105.035 Y110.355 E6.7688
G1 X105.468 Y110.673 F9000
G1 F1200
G1 X105.508 Y110.621 E6.77176
G1 X105.741 Y110.378 E6.78714
G1 X105.754 Y110.366 E6.78794
G1 X106.016 Y110.155 E6.80331
G1 X106.031 Y110.145 E6.80411
G1 X106.318 Y109.97 E6.81949
G1 X106.334 Y109.962 E6.82029
G1 X106.642 Y109.826 E6.83567
G1 X106.659 Y109.82 E6.83647
G1 X106.982 Y109.726 E6.85184
G1 X106.999 Y109.722 E6.85265
G1 X107.34 Y109.67 E6.86837
G1 X109.882 Y109.448 E6.9849
G1 X110.053 Y109.591 E6.99506
G1 X110.261 Y111.964 E7.10384
G1 X120.046 Y111.108 E7.5523
G1 X119.838 Y108.735 E7.66108
G1 X119.981 Y108.564 E7.67124
G1 X122.524 Y108.342 E7.78777
G1 X122.868 Y108.334 E7.8035
G1 X122.886 Y108.335 E7.8043
G1 X123.221 Y108.372 E7.81967
G1 X123.238 Y108.375 E7.82048
G1 X123.565 Y108.455 E7.83585
G1 X123.582 Y108.46 E7.83665
G1 X123.896 Y108.582 E7.85203
G1 X123.912 Y108.589 E7.85283
G1 X124.207 Y108.751 E7.8682
G1 X124.222 Y108.761 E7.86901
G1 X124.493 Y108.96 E7.88438
G1 X124.507 Y108.971 E7.88518
G1 X124.75 Y109.204 E7.90056
G1 X124.762 Y109.217 E7.90136
G1 X124.973 Y109.48 E7.91674
G1 X124.983 Y109.494 E7.91754
G1 X125.157 Y109.782 E7.93291
G1 X125.165 Y109.798 E7.93372
G1 X125.301 Y110.106 E7.94909
G1 X125.307 Y110.122 E7.94989
G1 X125.401 Y110.446 E7.96527
G1 X125.405 Y110.463 E7.96607
G1 X125.457 Y110.803 E7.98179
G1 X126.344 Y120.937 E8.44622
G1 X126.201 Y121.107 E8.45638
G1 X105.936 Y122.88 E9.38513
G1 X105.765 Y122.737 E9.3953
G1 X104.878 Y112.595 E9.86013
G1 X104.871 Y112.259 E9.87545
G1 X104.871 Y112.242 E9.87625
G1 X104.908 Y111.907 E9.89163
G1 X104.911 Y111.89 E9.89243
G1 X104.991 Y111.563 E9.9078
G1 X104.996 Y111.546 E9.90861
G1 X105.118 Y111.232 E9.92398
G1 X105.126 Y111.216 E9.92478
G1 X105.288 Y110.921 E9.94016
G1 X105.297 Y110.906 E9.94096
G1 X105.433 Y110.721 E9.95143
G92 E0
G1 E-5.95 F3000
;WIPE_START
G1 F7200
G1 X105.496 Y110.634 E-5.99251
G1 X105.508 Y110.621 E-5.99947
G1 X105.741 Y110.378 E-6.13276
G1 X105.754 Y110.366 E-6.13973
G1 X106.016 Y110.155 E-6.27301
G1 X106.031 Y110.145 E-6.27998
G1 X106.318 Y109.97 E-6.41327
G1 X106.334 Y109.962 E-6.42023
G1 X106.642 Y109.826 E-6.55352
G1 X106.659 Y109.82 E-6.56048
G1 X106.982 Y109.726 E-6.69377
G1 X106.999 Y109.722 E-6.70074
G1 X107.331 Y109.671 E-6.83358
G1 X107.34 Y109.67 E-6.83707
G1 X109.882 Y109.448 E-7.8474
G1 X110.053 Y109.591 E-7.93551
G1 X110.149 Y110.691 E-8.3725
;WIPE_END
G1 E-8.5 F3000
; printing object PART_18A.stl id:0 copy 0
M486 S0
G1 X109.755 Y112.568 F9000
G1 E0 F3000
;TYPE:External perimeter
G1 F1200
G1 X120.649 Y111.614 E0.49929
G1 X120.428 Y109.084 E0.61525
G1 X122.559 Y108.898 E0.71293
G1 X122.853 Y108.891 E0.72635
G1 X123.132 Y108.922 E0.7392
G1 X123.406 Y108.989 E0.75205
G1 X123.668 Y109.091 E0.76489
G1 X123.915 Y109.226 E0.77774
G1 X124.142 Y109.392 E0.79059
G1 X124.345 Y109.587 E0.80343
G1 X124.521 Y109.807 E0.81628
G1 X124.667 Y110.047 E0.82913
G1 X124.78 Y110.305 E0.84197
G1 X124.859 Y110.575 E0.85482
G1 X124.904 Y110.865 E0.86825
G1 X125.754 Y120.588 E1.31381
G1 X106.285 Y122.291 E2.20611
G1 X105.434 Y112.569 E2.65167
G1 X105.428 Y112.275 E2.6651
G1 X105.458 Y111.995 E2.67795
G1 X105.525 Y111.722 E2.69079
G1 X105.627 Y111.46 E2.70364
G1 X105.763 Y111.213 E2.71649
G1 X105.929 Y110.986 E2.72933
G1 X106.124 Y110.783 E2.74218
G1 X106.343 Y110.606 E2.75503
G1 X106.584 Y110.461 E2.76788
G1 X106.841 Y110.347 E2.78072
G1 X107.111 Y110.268 E2.79357
G1 X107.402 Y110.224 E2.807
G1 X109.533 Y110.037 E2.90467
G1 X109.749 Y112.508 E3.01789
;WIPE_START
G1 X109.789 Y112.966 F9000
;WIPE_END
G1 X109.266 Y113.15
;TYPE:Internal perimeter
G1 F1200
G1 X121.231 Y112.103 E3.56625
G1 X121.01 Y109.573 E3.68221
G1 X122.588 Y109.435 E3.75455
G1 X122.829 Y109.429 E3.76556
G1 X123.039 Y109.452 E3.7752
G1 X123.244 Y109.502 E3.78483
G1 X123.44 Y109.579 E3.79446
G1 X123.625 Y109.68 E3.80409
G1 X123.796 Y109.805 E3.81372
G1 X123.948 Y109.951 E3.82335
G1 X124.08 Y110.115 E3.83298
G1 X124.189 Y110.296 E3.84261
G1 X124.274 Y110.489 E3.85224
G1 X124.333 Y110.691 E3.86187
G1 X124.37 Y110.93 E3.87289
G1 X125.172 Y120.099 E4.29312
G1 X106.773 Y121.709 E5.13634
G1 X105.971 Y112.54 E5.55657
G1 X105.966 Y112.298 E5.56759
G1 X105.989 Y112.089 E5.57722
G1 X106.039 Y111.884 E5.58685
G1 X106.115 Y111.687 E5.59648
G1 X106.217 Y111.502 E5.60611
G1 X106.342 Y111.332 E5.61574
G1 X106.487 Y111.18 E5.62537
G1 X106.652 Y111.048 E5.635
G1 X106.832 Y110.938 E5.64463
G1 X107.025 Y110.853 E5.65426
G1 X107.228 Y110.794 E5.6639
G1 X107.466 Y110.757 E5.67491
G1 X109.045 Y110.619 E5.74725
G1 X109.261 Y113.09 E5.86047
G92 E0
G1 E-5.95 F3000
;WIPE_START
G1 F7200
G1 X115.36 Y112.587 E-8.3725
;WIPE_END
G1 E-8.5 F3000
; acceleration to travel
M204 S1500
G1 X123.217 Y110.951 F9000
; decel to extrusion
M204 S500
G1 X124.177 Y110.751
; end travel
G1 E0 F3000
;TYPE:Solid infill
;WIDTH:0.571741
G1 F1200
G1 X123.579 Y110.153 E0.03834
G1 X123.403 Y110.006 E0.04874
G1 X123.286 Y109.941 E0.0548
G1 X122.971 Y109.842 E0.06974
G1 X122.597 Y109.827 E0.08669
G1 X122.501 Y109.836 E0.09106
G1 X123.997 Y111.331 E0.18688
G1 X124.071 Y112.165 E0.22484
G1 X121.803 Y109.897 E0.37022
G1 X121.435 Y109.929 E0.38695
G1 X121.469 Y110.324 E0.40489
G1 X124.145 Y113 E0.57641
G1 X124.22 Y113.834 E0.61437
G1 X121.542 Y111.156 E0.78598
G1 X121.615 Y111.989 E0.82387
G1 X124.294 Y114.668 E0.99558
G1 X124.369 Y115.503 E1.03354
G1 X121.352 Y112.486 E1.22688
G1 X120.653 Y112.547 E1.25867
G1 X124.443 Y116.337 E1.50156
G1 X124.517 Y117.171 E1.53952
G1 X119.954 Y112.608 E1.83196
G1 X119.255 Y112.67 E1.86375
G1 X124.592 Y118.006 E2.20575
G1 X124.666 Y118.84 E2.24371
G1 X118.557 Y112.731 E2.63527
G1 X117.858 Y112.792 E2.66706
G1 X124.741 Y119.675 E3.10817
G1 X124.747 Y119.743 E3.11126
G1 X124.105 Y119.799 E3.14046
G1 X117.159 Y112.853 E3.58561
G1 X116.46 Y112.914 E3.6174
G1 X123.406 Y119.86 E4.06255
G1 X122.707 Y119.921 E4.09434
G1 X115.761 Y112.975 E4.53949
G1 X115.063 Y113.036 E4.57128
G1 X122.008 Y119.982 E5.01644
G1 X121.31 Y120.043 E5.04823
G1 X114.364 Y113.098 E5.49338
G1 X113.665 Y113.159 E5.52517
G1 X120.611 Y120.104 E5.97032
G1 X119.912 Y120.166 E6.00211
G1 X112.966 Y113.22 E6.44726
G1 X112.267 Y113.281 E6.47905
G1 X119.213 Y120.227 E6.9242
G1 X118.514 Y120.288 E6.95599
G1 X111.568 Y113.342 E7.40114
G1 X110.87 Y113.403 E7.43293
G1 X117.815 Y120.349 E7.87808
G1 X117.117 Y120.41 E7.90987
G1 X109.958 Y113.251 E8.36869
G92 E0
G1 E-5.95 F3000
;WIPE_START
G1 F7200
G1 X114.285 Y117.579 E-8.3725
;WIPE_END
G1 E-8.5 F3000
; acceleration to travel
M204 S1500
G1 X109.539 Y112.155 F9000
; decel to extrusion
M204 S500
G1 X108.959 Y111.493
; end travel
G1 E0 F3000
G1 F1200
G1 X108.53 Y111.063 E0.02755
G1 X107.836 Y111.13 E0.05911
G1 X109.032 Y112.326 E0.13575
G92 E0
G1 E-5.95 F3000
;WIPE_START
G1 F7200
G1 X107.836 Y111.13 E-6.61947
G1 X108.53 Y111.063 E-6.89515
G1 X108.959 Y111.493 E-7.13575
;WIPE_END
G1 E-8.5 F3000
G1 X106.996 Y111.05 F9000
G1 E0 F3000
G1 F1200
G1 X108.851 Y112.904 E0.11884
G1 X108.909 Y113.575 E0.14934
G1 X109.472 Y113.525 E0.17493
G1 X116.418 Y120.471 E0.62008
G1 X115.719 Y120.532 E0.65187
G1 X106.712 Y111.525 E1.22915
G1 X106.635 Y111.595 E1.23385
G1 X106.556 Y111.703 E1.23991
G1 X106.42 Y111.994 E1.25445
G1 X115.02 Y120.594 E1.80561
G1 X114.321 Y120.655 E1.8374
G1 X106.397 Y112.73 E2.34529
G1 X106.468 Y113.561 E2.3831
G1 X113.623 Y120.716 E2.84164
G1 X112.924 Y120.777 E2.87343
G1 X106.539 Y114.392 E3.28261
G1 X106.611 Y115.224 E3.32042
G1 X112.225 Y120.838 E3.68024
G1 X111.526 Y120.899 E3.71203
G1 X106.682 Y116.055 E4.02249
G1 X106.753 Y116.886 E4.0603
G1 X110.827 Y120.96 E4.32141
G1 X110.128 Y121.022 E4.3532
G1 X106.825 Y117.718 E4.56494
G1 X106.896 Y118.549 E4.60275
G1 X109.43 Y121.083 E4.76514
G1 X108.731 Y121.144 E4.79693
G1 X106.967 Y119.38 E4.90996
G1 X107.039 Y120.211 E4.94777
G1 X108.032 Y121.205 E5.01144
G1 X107.333 Y121.266 E5.04323
G1 X106.856 Y120.789 E5.0738
M106 S84.15
;LAYER_CHANGE
;Z:0.52
;HEIGHT:0.32
;BEFORE_LAYER_CHANGE
;0.52


G92 E0
G1 E-5.95 F3000
;WIPE_START
G1 F7200
G1 X107.333 Y121.266 E-6.21703
G1 X108.032 Y121.205 E-6.49471
G1 X107.039 Y120.211 E-7.05085
G1 X106.967 Y119.38 E-7.38111
G1 X108.731 Y121.144 E-8.36838
G1 X108.741 Y121.143 E-8.3725
;WIPE_END
G1 E-8.5 F3000
; stop printing object PART_18A.stl id:0 copy 0
M486 S-1
G1 Z0.47 F9000
;AFTER_LAYER_CHANGE
;0.52
G92 E0
; acceleration to travel
M204 S1500
G1 X109.275 Y127.245
; decel to extrusion
M204 S500
G1 X109.34 Y127.99
; end travel
G1 E8.5 F3000
;TYPE:Skirt
;WIDTH:0.48
G1 F1200
G1 X128.552 Y126.309 E9.58699
G1 X130.644 Y125.415 E9.71526
G1 X131.626 Y124.029 E9.81099
G1 X131.875 Y122.349 E9.90672
G1 X130.818 Y110.273 E10.58999
G1 X130.711 Y109.522 E10.63272
G1 X130.445 Y108.497 E10.6924
G1 X130.047 Y107.516 E10.75209
G1 X129.525 Y106.595 E10.81178
G1 X128.886 Y105.75 E10.87146
G1 X127.777 Y104.688 E10.95802
G1 X126.905 Y104.087 E11.0177
G1 X125.962 Y103.606 E11.07739
G1 X124.4 Y103.113 E11.16973
G1 X123.351 Y102.967 E11.22942
G1 X122.115 Y102.97 E11.29906
G1 X106.059 Y104.417 E12.20774
G1 X104.585 Y104.847 E12.29429
G1 X103.628 Y105.301 E12.35398
G1 X102.74 Y105.877 E12.41367
