; generated by SuperSlicer 2.4 on 2022-12-06 at 15:28:19 UTC

; 

; external perimeters extrusion width = 0.43mm
; perimeters extrusion width = 0.48mm
; infill extrusion width = 0.46mm
; solid infill extrusion width = 0.48mm
; top infill extrusion width = 0.46mm
; first layer extrusion width = 0.58mm

; object:{"name":"PART_7A","id":"PART_7A.stl id:0 copy 0","object_center":[115.500000,115.500000,0.000000],"boundingbox_center":[115.500000,115.500000,6.350000],"boundingbox_size":[25.400001,10.160000,12.700000]}
; Total objects to print: 1
M486 T1
; plater:{"center":[115.500000,115.500000,0.000000],"boundingbox_center":[115.500000,115.500000,6.350000],"boundingbox_size":[25.400001,10.160000,12.700000]}

;TYPE:Custom
G90 ; use absolute coordinates
M83 ; extruder relative mode
M140 S60 ; set final bed temp
M104 S150 ; set temporary nozzle temp to prevent oozing during homing and auto bed leveling
G4 S10 ; allow partial nozzle warmup
G28 ; home all axis
;G29 ; auto bed levelling
G1 Z10 F240
G1 X2 Y10 F3000
G1 Z0 F240
M104 S210 ; set final nozzle temp
M190 S60 ; wait for bed temp to stabilize
M109 S210 ; wait for nozzle temp to stabilize
G1 Z0.28 F240
G92 E0
G1 Y140 E10 F1500 ; prime the nozzle
G1 X2.3 F5000
G92 E0
G1 Y10 E10 F1200 ; prime the nozzle
G92 E0
;start
M107
G21 ; set units to millimeters
G90 ; use absolute coordinates
M82 ; use absolute distances for extrusion
G92 E0
; Filament gcode
;_TOOLCHANGE 0
M107
;LAYER_CHANGE
;Z:0.2
;HEIGHT:0.2
;BEFORE_LAYER_CHANGE
;0.2


G1 E-8.5 F3000
G1 Z0.15 F9000
;AFTER_LAYER_CHANGE
;0.2
G92 E0
M204 S500
G1 X98.737 Y105.573
G1 E8.5 F3000
;TYPE:Skirt
;WIDTH:0.48
G1 F1200
G1 X97.639 Y106.868 E8.56358
G1 X97.244 Y108.52 E8.62715
G1 X97.244 Y122.48 E9.14973
G1 X97.953 Y124.643 E9.23491
G1 X99.248 Y125.741 E9.29849
G1 X100.9 Y126.136 E9.36207
G1 X130.1 Y126.136 E10.45513
G1 X132.263 Y125.427 E10.54032
G1 X133.361 Y124.132 E10.60389
G1 X133.756 Y122.48 E10.66747
G1 X133.756 Y108.52 E11.19004
G1 X133.047 Y106.357 E11.27523
G1 X131.752 Y105.259 E11.33881
G1 X130.1 Y104.864 E11.40238
G1 X100.9 Y104.864 E12.49545
G1 X98.794 Y105.554 E12.57839
G1 X99.119 Y105.856 F9000
G1 F1200
G1 X98.075 Y106.977 E12.63572
G1 X97.681 Y108.52 E12.69532
G1 X97.681 Y122.48 E13.2179
G1 X98.192 Y124.22 E13.28577
G1 X99.357 Y125.305 E13.34537
G1 X100.9 Y125.699 E13.40497
G1 X130.1 Y125.699 E14.49803
G1 X131.84 Y125.188 E14.5659
G1 X132.925 Y124.023 E14.6255
G1 X133.319 Y122.48 E14.6851
G1 X133.319 Y108.52 E15.20767
G1 X132.808 Y106.78 E15.27555
G1 X131.643 Y105.695 E15.33515
G1 X130.1 Y105.301 E15.39474
G1 X100.9 Y105.301 E16.48781
G1 X99.16 Y105.813 E16.55569
G92 E0
G1 E-5.95 F3000
;WIPE_START
G1 F7200
G1 X98.075 Y106.977 E-6.58004
G1 X97.681 Y108.52 E-7.21025
G1 X97.681 Y111.456 E-8.3725
;WIPE_END
G1 E-8.5 F3000
; acceleration to travel
M204 S1500
G1 X101.656 Y109.605 F9000
; decel to extrusion
M204 S500
G1 X102.142 Y109.378
; end travel
G1 E0 F3000
;WIDTH:0.576
G1 F1200
G1 X102.23 Y109.32 E0.00483
G1 X102.525 Y109.197 E0.01943
G1 X102.629 Y109.177 E0.02426
G1 X128.371 Y109.177 E1.19953
G1 X128.475 Y109.197 E1.20437
G1 X128.77 Y109.32 E1.21896
G1 X128.858 Y109.378 E1.22379
G1 X129.242 Y109.762 E1.24855
G1 X129.3 Y109.85 E1.25338
G1 X129.423 Y110.145 E1.26797
G1 X129.443 Y110.249 E1.27281
G1 X129.443 Y120.751 E1.75229
G1 X129.423 Y120.855 E1.75712
G1 X129.3 Y121.15 E1.77172
G1 X129.242 Y121.238 E1.77655
G1 X128.858 Y121.622 E1.80131
G1 X128.77 Y121.68 E1.80614
G1 X128.475 Y121.803 E1.82073
G1 X128.371 Y121.823 E1.82556
G1 X102.629 Y121.823 E3.00084
G1 X102.525 Y121.803 E3.00567
G1 X102.23 Y121.68 E3.02027
G1 X102.142 Y121.622 E3.0251
G1 X101.758 Y121.238 E3.04985
G1 X101.7 Y121.15 E3.05469
G1 X101.577 Y120.855 E3.06928
G1 X101.557 Y120.751 E3.07411
G1 X101.557 Y110.249 E3.5536
G1 X101.577 Y110.145 E3.55843
G1 X101.7 Y109.85 E3.57302
G1 X101.758 Y109.762 E3.57786
G1 X102.099 Y109.421 E3.59987
G1 X102.479 Y109.801 F9000
G1 F1200
G1 X102.682 Y109.714 E3.60993
G1 X128.318 Y109.714 E4.78037
G1 X128.516 Y109.796 E4.79013
G1 X128.824 Y110.104 E4.81006
G1 X128.906 Y110.302 E4.81982
G1 X128.906 Y120.698 E5.29447
G1 X128.824 Y120.896 E5.30423
G1 X128.516 Y121.204 E5.32415
G1 X128.318 Y121.286 E5.33391
G1 X102.682 Y121.286 E6.50436
G1 X102.484 Y121.204 E6.51412
G1 X102.176 Y120.896 E6.53404
G1 X102.094 Y120.698 E6.5438
G1 X102.094 Y110.302 E7.01845
G1 X102.176 Y110.104 E7.02821
G1 X102.437 Y109.843 E7.04507
G1 X102.789 Y110.251 F9000
G1 F1200
G1 X128.211 Y110.251 E8.20575
G1 X128.369 Y110.409 E8.21592
G1 X128.369 Y120.591 E8.68081
G1 X128.211 Y120.749 E8.69097
G1 X102.789 Y120.749 E9.85165
G1 X102.631 Y120.591 E9.86182
G1 X102.631 Y110.409 E10.32671
G1 X102.746 Y110.294 E10.33413
; printing object PART_7A.stl id:0 copy 0
M486 S0
G1 X103.188 Y110.808 F9000
;TYPE:External perimeter
G1 F1200
G1 X127.812 Y110.808 E11.45835
G1 X127.812 Y120.192 E11.88678
G1 X103.188 Y120.192 E13.01101
G1 X103.188 Y110.868 E13.4367
;WIPE_START
G1 X103.534 Y111.008 F9000
;WIPE_END
G1 X103.725 Y111.345
;TYPE:Internal perimeter
G1 F1200
G1 X127.275 Y111.345 E14.51185
G1 X127.275 Y119.655 E14.89122
G1 X103.725 Y119.655 E15.96637
G1 X103.725 Y111.405 E16.34299
G92 E0
G1 E-5.95 F3000
;WIPE_START
G1 F7200
G1 X109.845 Y111.39 E-8.3725
;WIPE_END
G1 E-8.5 F3000
; acceleration to travel
M204 S1500
G1 X124.265 Y111.494 F9000
; decel to extrusion
M204 S500
G1 X126.027 Y111.507
; end travel
G1 E0 F3000
;TYPE:Solid infill
;WIDTH:0.574068
G1 F1200
G1 X126.882 Y112.362 E0.05503
G1 X126.882 Y113.122 E0.08961
G1 X125.498 Y111.738 E0.17868
G1 X124.738 Y111.738 E0.21326
G1 X126.882 Y113.882 E0.35123
G1 X126.882 Y114.642 E0.38581
G1 X123.978 Y111.738 E0.57268
G1 X123.218 Y111.738 E0.60726
G1 X126.882 Y115.402 E0.84304
G1 X126.882 Y116.162 E0.87762
G1 X122.458 Y111.738 E1.1623
G1 X121.698 Y111.738 E1.19688
G1 X126.882 Y116.922 E1.53046
G1 X126.882 Y117.681 E1.56504
G1 X120.939 Y111.738 E1.94752
G1 X120.179 Y111.738 E1.9821
G1 X126.882 Y118.441 E2.41349
G1 X126.882 Y119.201 E2.44807
G1 X119.419 Y111.738 E2.92837
G1 X118.659 Y111.738 E2.96295
G1 X126.183 Y119.262 E3.44717
G1 X125.423 Y119.262 E3.48175
G1 X117.899 Y111.738 E3.96596
G1 X117.139 Y111.738 E4.00054
G1 X124.663 Y119.262 E4.48476
G1 X123.904 Y119.262 E4.51934
G1 X116.379 Y111.738 E5.00356
G1 X115.619 Y111.738 E5.03814
G1 X123.144 Y119.262 E5.52236
G1 X122.384 Y119.262 E5.55694
G1 X114.859 Y111.738 E6.04115
G1 X114.099 Y111.738 E6.07573
G1 X121.624 Y119.262 E6.55995
G1 X120.864 Y119.262 E6.59453
G1 X113.339 Y111.738 E7.07875
G1 X112.579 Y111.738 E7.11333
G1 X120.104 Y119.262 E7.59755
G1 X119.344 Y119.262 E7.63213
G1 X111.819 Y111.738 E8.11634
G1 X111.059 Y111.738 E8.15092
G1 X118.584 Y119.262 E8.63514
G1 X117.824 Y119.262 E8.66972
G1 X110.299 Y111.738 E9.15394
G1 X109.539 Y111.738 E9.18852
G1 X117.064 Y119.262 E9.67274
G1 X116.304 Y119.262 E9.70732
G1 X108.779 Y111.738 E10.19154
G1 X108.019 Y111.738 E10.22612
G1 X115.544 Y119.262 E10.71033
G1 X114.784 Y119.262 E10.74491
G1 X107.259 Y111.738 E11.22913
G1 X106.499 Y111.738 E11.26371
G1 X114.024 Y119.262 E11.74793
G1 X113.264 Y119.262 E11.78251
G1 X105.739 Y111.738 E12.26673
G1 X104.979 Y111.738 E12.30131
G1 X112.504 Y119.262 E12.78552
G1 X111.744 Y119.262 E12.8201
G1 X104.219 Y111.738 E13.30432
G1 X104.118 Y111.738 E13.30896
G1 X104.118 Y112.396 E13.3389
G1 X110.984 Y119.262 E13.78077
G1 X110.224 Y119.262 E13.81535
G1 X104.118 Y113.156 E14.20831
G1 X104.118 Y113.916 E14.24289
G1 X109.464 Y119.262 E14.58696
G1 X108.704 Y119.262 E14.62154
G1 X104.118 Y114.676 E14.91669
G1 X104.118 Y115.436 E14.95127
G1 X107.944 Y119.262 E15.19753
G1 X107.184 Y119.262 E15.23211
G1 X104.118 Y116.196 E15.42946
G1 X104.118 Y116.955 E15.46404
G1 X106.425 Y119.262 E15.61249
G1 X105.665 Y119.262 E15.64707
G1 X104.118 Y117.715 E15.74661
G1 X104.118 Y118.475 E15.78119
G1 X104.905 Y119.262 E15.83183
G1 X104.145 Y119.262 E15.86641
G1 X103.887 Y119.004 E15.88302
M106 S84.15
;LAYER_CHANGE
;Z:0.52
;HEIGHT:0.32
;BEFORE_LAYER_CHANGE
;0.52


G92 E0
G1 E-5.95 F3000
;WIPE_START
G1 F7200
G1 X104.145 Y119.262 E-6.09447
G1 X104.905 Y119.262 E-6.39529
G1 X104.118 Y118.475 E-6.83582
G1 X104.118 Y117.715 E-7.13664
G1 X105.665 Y119.262 E-8.0026
G1 X106.425 Y119.262 E-8.30341
G1 X106.301 Y119.139 E-8.3725
;WIPE_END
G1 E-8.5 F3000
; stop printing object PART_7A.stl id:0 copy 0
M486 S-1
G1 Z0.47 F9000
;AFTER_LAYER_CHANGE
;0.52
G92 E0
; acceleration to travel
M204 S1500
G1 X106.301 Y125.374
; decel to extrusion
M204 S500
G1 X106.301 Y126.136
; end travel
G1 E8.5 F3000
;TYPE:Skirt
;WIDTH:0.48
G1 F1200
G1 X130.1 Y126.136 E9.84142
G1 X132.263 Y125.427 E9.96969
G1 X133.361 Y124.132 E10.06542
G1 X133.756 Y122.48 E10.16115
G1 X133.756 Y108.52 E10.94801
G1 X133.047 Y106.357 E11.07628
G1 X131.752 Y105.259 E11.172
G1 X130.1 Y104.864 E11.26773
G1 X100.9 Y104.864 E12.91359
G1 X98.737 Y105.573 E13.04186
G1 X97.639 Y106.868 E13.13759
G1 X97.244 Y108.52 E13.23332
G1 X97.244 Y122.48 E14.02017
G1 X97.953 Y124.643 E14.14844
G1 X99.248 Y125.741 E14.24417
G1 X100.9 Y126.136 E14.3399
G1 X106.241 Y126.136 E14.64095
G1 X106.241 Y125.699 F9000
G1 F1200
G1 X130.1 Y125.699 E15.98576
G1 X131.84 Y125.188 E16.08795
G1 X132.925 Y124.023 E16.17769
G1 X133.319 Y122.48 E16.26743
G1 X133.319 Y108.52 E17.05429
G1 X132.808 Y106.78 E17.15649
G1 X131.643 Y105.695 E17.24623
G1 X130.1 Y105.301 E17.33597
G1 X100.9 Y105.301 E18.98182
G1 X99.16 Y105.812 E19.08402
G1 X98.075 Y106.977 E19.17376
G1 X97.681 Y108.52 E19.2635
G1 X97.681 Y122.48 E20.05035
G1 X98.192 Y124.22 E20.15255
G1 X99.357 Y125.305 E20.24229
G1 X100.9 Y125.699 E20.33203
G1 X106.181 Y125.699 E20.6297
G92 E0
G1 E-5.95 F3000
;WIPE_START
G1 F7200
G1 X112.301 Y125.699 E-8.3725
;WIPE_END
G1 E-8.5 F3000
; printing object PART_7A.stl id:0 copy 0
M486 S0
; acceleration to travel
M204 S1500
G1 X104.422 Y120.631 F9000
; decel to extrusion
M204 S500
G1 X103.404 Y119.976
; end travel
G1 E0 F3000
;TYPE:Internal perimeter
;WIDTH:0.476
G1 F2400
G1 X103.404 Y111.024 E0.49965
G1 X127.596 Y111.024 E1.84995
G1 X127.596 Y119.976 E2.3496
G1 X103.464 Y119.976 E3.69655
G1 X103.014 Y120.366 F9000
;TYPE:External perimeter
;WIDTH:0.428
G1 F1500
G1 X103.014 Y110.634 E4.17574
G1 X127.986 Y110.634 E5.40535
G1 X127.986 Y120.366 E5.88454
G1 X103.074 Y120.366 E7.11119
;WIPE_START
G1 X103.214 Y120.02 F9000
;WIPE_END
G92 E0
G1 E-5.95 F3000
;WIPE_START
G1 F7200
G1 X103.214 Y113.9 E-8.3725
;WIPE_END
G1 E-8.5 F3000
G1 X103.528 Y111.912 F9000
G1 E0 F3000
;TYPE:Solid infill
;WIDTH:0.484048
G1 F2400
G1 X104.114 Y111.327 E0.04701
G1 X104.7 Y111.327 E0.08026
G1 X103.707 Y112.32 E0.15999
G1 X103.707 Y112.906 E0.19324
G1 X105.286 Y111.327 E0.31999
G1 X105.871 Y111.327 E0.35324
G1 X103.707 Y113.491 E0.52701
G1 X103.707 Y114.077 E0.56026
G1 X106.457 Y111.327 E0.78105
G1 X107.043 Y111.327 E0.81429
G1 X103.707 Y114.663 E1.0821
G1 X103.707 Y115.249 E1.11535
G1 X107.629 Y111.327 E1.43018
G1 X108.214 Y111.327 E1.46343
G1 X103.707 Y115.834 E1.82528
G1 X103.707 Y116.42 E1.85853
G1 X108.8 Y111.327 E2.2674
G1 X109.386 Y111.327 E2.30065
G1 X103.707 Y117.006 E2.75654
G1 X103.707 Y117.592 E2.78978
G1 X109.972 Y111.327 E3.29269
G1 X110.557 Y111.327 E3.32594
G1 X103.707 Y118.177 E3.87587
G1 X103.707 Y118.763 E3.90912
G1 X111.143 Y111.327 E4.50607
G1 X111.729 Y111.327 E4.53932
G1 X103.707 Y119.349 E5.18328
G1 X103.707 Y119.673 E5.2017
G1 X103.968 Y119.673 E5.21653
G1 X112.315 Y111.327 E5.88655
G1 X112.9 Y111.327 E5.9198
G1 X104.554 Y119.673 E6.58982
G1 X105.139 Y119.673 E6.62307
G1 X113.486 Y111.327 E7.29309
G1 X114.072 Y111.327 E7.32633
G1 X105.725 Y119.673 E7.99635
G1 X106.311 Y119.673 E8.0296
G1 X114.658 Y111.327 E8.69962
G1 X115.243 Y111.327 E8.73287
G1 X106.897 Y119.673 E9.40289
G1 X107.482 Y119.673 E9.43613
G1 X115.829 Y111.327 E10.10615
G1 X116.415 Y111.327 E10.1394
G1 X108.068 Y119.673 E10.80942
G1 X108.654 Y119.673 E10.84267
G1 X117.001 Y111.327 E11.51269
G1 X117.587 Y111.327 E11.54593
G1 X109.24 Y119.673 E12.21595
G1 X109.825 Y119.673 E12.2492
G1 X118.172 Y111.327 E12.91922
G1 X118.758 Y111.327 E12.95247
G1 X110.411 Y119.673 E13.62249
G1 X110.997 Y119.673 E13.65574
G1 X119.344 Y111.327 E14.32575
G1 X119.93 Y111.327 E14.359
G1 X111.583 Y119.673 E15.02902
G1 X112.168 Y119.673 E15.06227
G1 X120.515 Y111.327 E15.73229
G1 X121.101 Y111.327 E15.76554
G1 X112.754 Y119.673 E16.43556
G1 X113.34 Y119.673 E16.4688
G1 X121.687 Y111.327 E17.13882
G1 X122.273 Y111.327 E17.17207
G1 X113.926 Y119.673 E17.84209
G1 X114.511 Y119.673 E17.87534
G1 X122.858 Y111.327 E18.54536
G1 X123.444 Y111.327 E18.5786
G1 X115.097 Y119.673 E19.24862
G1 X115.683 Y119.673 E19.28187
G1 X124.03 Y111.327 E19.95189
G1 X124.616 Y111.327 E19.98514
G1 X116.269 Y119.673 E20.65516
G1 X116.854 Y119.673 E20.68841
G1 X125.201 Y111.327 E21.35842
G1 X125.787 Y111.327 E21.39167
G1 X117.44 Y119.673 E22.06169
G1 X118.026 Y119.673 E22.09494
G1 X126.373 Y111.327 E22.76496
G1 X126.959 Y111.327 E22.79821
G1 X118.612 Y119.673 E23.46823
G1 X119.198 Y119.673 E23.50147
G1 X127.293 Y111.578 E24.15135
G1 X127.293 Y112.163 E24.18459
G1 X119.783 Y119.673 E24.78745
G1 X120.369 Y119.673 E24.8207
G1 X127.293 Y112.749 E25.37653
G1 X127.293 Y113.335 E25.40978
G1 X120.955 Y119.673 E25.91859
G1 X121.541 Y119.673 E25.95184
G1 X127.293 Y113.921 E26.41364
G1 X127.293 Y114.506 E26.44688
G1 X122.126 Y119.673 E26.86166
G1 X122.712 Y119.673 E26.89491
G1 X127.293 Y115.092 E27.26266
G1 X127.293 Y115.678 E27.29591
G1 X123.298 Y119.673 E27.61665
G1 X123.884 Y119.673 E27.64989
G1 X127.293 Y116.264 E27.92361
G1 X127.293 Y116.849 E27.95686
G1 X124.469 Y119.673 E28.18355
G1 X125.055 Y119.673 E28.2168
G1 X127.293 Y117.435 E28.39648
G1 X127.293 Y118.021 E28.42973
G1 X125.641 Y119.673 E28.56238
G1 X126.227 Y119.673 E28.59563
G1 X127.293 Y118.607 E28.68127
G1 X127.293 Y119.192 E28.71452
G1 X126.634 Y119.852 E28.76743
M106 S170.85
;LAYER_CHANGE
;Z:0.84
;HEIGHT:0.32
;BEFORE_LAYER_CHANGE
;0.84


G92 E0
G1 E-5.95 F3000
;WIPE_START
G1 F7200
G1 X127.293 Y119.192 E-6.31901
G1 X127.293 Y118.607 E-6.55087
G1 X126.227 Y119.673 E-7.14808
G1 X125.641 Y119.673 E-7.37994
G1 X127.293 Y118.021 E-8.30506
G1 X127.293 Y117.85 E-8.3725
;WIPE_END
G1 E-8.5 F3000
; stop printing object PART_7A.stl id:0 copy 0
M486 S-1
G1 Z0.79 F9000
;AFTER_LAYER_CHANGE
;0.84
G92 E0
; printing object PART_7A.stl id:0 copy 0
M486 S0
; acceleration to travel
M204 S1500
G1 X127.561 Y119.733
; decel to extrusion
M204 S500
G1 X127.596 Y119.976
; end travel
G1 E8.5 F3000
;TYPE:Internal perimeter
;WIDTH:0.476
G1 F2400
G1 X103.404 Y119.976 E9.8503
G1 X103.404 Y111.024 E10.34995
G1 X127.596 Y111.024 E11.70025
G1 X127.596 Y119.916 E12.19655
G1 X127.986 Y120.366 F9000
;TYPE:External perimeter
;WIDTH:0.428
G1 F1500
G1 X103.014 Y120.366 E13.42615
G1 X103.014 Y110.634 E13.90535
G1 X127.986 Y110.634 E15.13495
G1 X127.986 Y120.306 E15.61119
;WIPE_START
G1 X127.64 Y120.166 F9000
;WIPE_END
G92 E0
G1 E-5.95 F3000
;WIPE_START
G1 F7200
G1 X121.52 Y120.166 E-8.3725
;WIPE_END
G1 E-8.5 F3000
; acceleration to travel
M204 S1500
G1 X126.791 Y112.922 F9000
; decel to extrusion
M204 S500
G1 X127.472 Y111.986
; end travel
G1 E0 F3000
;TYPE:Solid infill
;WIDTH:0.484048
G1 F2400
G1 X126.812 Y111.327 E0.05291
G1 X126.227 Y111.327 E0.08616
G1 X127.293 Y112.393 E0.1718
G1 X127.293 Y112.979 E0.20505
G1 X125.641 Y111.327 E0.3377
G1 X125.055 Y111.327 E0.37095
G1 X127.293 Y113.565 E0.55063
G1 X127.293 Y114.151 E0.58388
G1 X124.469 Y111.327 E0.81057
G1 X123.884 Y111.327 E0.84382
G1 X127.293 Y114.736 E1.11754
G1 X127.293 Y115.322 E1.15078
G1 X123.298 Y111.327 E1.47152
G1 X122.712 Y111.327 E1.50477
G1 X127.293 Y115.908 E1.87252
G1 X127.293 Y116.494 E1.90577
G1 X122.126 Y111.327 E2.32055
G1 X121.541 Y111.327 E2.35379
G1 X127.293 Y117.079 E2.81559
G1 X127.293 Y117.665 E2.84884
G1 X120.955 Y111.327 E3.35765
G1 X120.369 Y111.327 E3.3909
G1 X127.293 Y118.251 E3.94673
G1 X127.293 Y118.837 E3.97998
G1 X119.783 Y111.327 E4.58284
G1 X119.198 Y111.327 E4.61608
G1 X127.293 Y119.422 E5.26596
G1 X127.293 Y119.673 E5.2802
G1 X126.959 Y119.673 E5.29921
G1 X118.612 Y111.327 E5.96922
G1 X118.026 Y111.327 E6.00247
G1 X126.373 Y119.673 E6.67249
G1 X125.787 Y119.673 E6.70574
G1 X117.44 Y111.327 E7.37576
