; generated by SuperSlicer 2.4 on 2022-12-06 at 15:27:40 UTC

; 

; external perimeters extrusion width = 0.43mm
; perimeters extrusion width = 0.48mm
; infill extrusion width = 0.46mm
; solid infill extrusion width = 0.48mm
; top infill extrusion width = 0.46mm
; first layer extrusion width = 0.58mm

; object:{"name":"PART_6A","id":"PART_6A.stl id:0 copy 0","object_center":[115.500000,115.994407,0.000000],"boundingbox_center":[115.500000,115.994407,6.350000],"boundingbox_size":[23.779419,13.452498,12.700000]}
; Total objects to print: 1
M486 T1
; plater:{"center":[115.500000,115.994407,0.000000],"boundingbox_center":[115.500000,115.994407,6.350000],"boundingbox_size":[23.779419,13.452498,12.700000]}

;TYPE:Custom
G90 ; use absolute coordinates
M83 ; extruder relative mode
M140 S60 ; set final bed temp
M104 S150 ; set temporary nozzle temp to prevent oozing during homing and auto bed leveling
G4 S10 ; allow partial nozzle warmup
G28 ; home all axis
;G29 ; auto bed levelling
G1 Z10 F240
G1 X2 Y10 F3000
G1 Z0 F240
M104 S210 ; set final nozzle temp
M190 S60 ; wait for bed temp to stabilize
M109 S210 ; wait for nozzle temp to stabilize
G1 Z0.28 F240
G92 E0
G1 Y140 E10 F1500 ; prime the nozzle
G1 X2.3 F5000
G92 E0
G1 Y10 E10 F1200 ; prime the nozzle
G92 E0
;start
M107
G21 ; set units to millimeters
G90 ; use absolute coordinates
M82 ; use absolute distances for extrusion
G92 E0
; Filament gcode
;_TOOLCHANGE 0
M107
;LAYER_CHANGE
;Z:0.2
;HEIGHT:0.2
;BEFORE_LAYER_CHANGE
;0.2


G1 E-8.5 F3000
G1 Z0.15 F9000
;AFTER_LAYER_CHANGE
;0.2
G92 E0
M204 S500
G1 X100.262 Y116.363
G1 E8.5 F3000
;TYPE:Skirt
;WIDTH:0.48
G1 F1200
G1 X96.851 Y119.698 E8.67856
G1 X96.123 Y120.712 E8.72529
G1 X95.757 Y122.37 E8.78887
G1 X96.18 Y124.015 E8.85244
G1 X97.301 Y125.291 E8.91602
G1 X98.877 Y125.923 E8.97959
G1 X103.346 Y126.584 E9.14871
G1 X127.878 Y128.409 E10.06956
G1 X130.074 Y127.87 E10.15419
G1 X131.27 Y126.664 E10.21777
G1 X131.792 Y125.047 E10.28134
G1 X133.076 Y108.598 E10.899
G1 X132.539 Y106.386 E10.98419
G1 X131.333 Y105.19 E11.04776
G1 X129.717 Y104.668 E11.11134
G1 X116.908 Y103.668 E11.59225
G1 X115.781 Y103.756 E11.63459
G1 X114.264 Y104.52 E11.69817
G1 X100.307 Y116.324 E12.38241
G1 X100.59 Y116.658 F9000
G1 F1200
G1 X100.546 Y116.695 E12.38457
G1 X97.158 Y120.01 E12.56201
G1 X96.203 Y122.064 E12.64679
G1 X96.479 Y123.632 E12.70639
G1 X97.473 Y124.876 E12.76599
G1 X98.941 Y125.491 E12.82559
G1 X103.41 Y126.152 E12.9947
G1 X127.91 Y127.973 E13.91436
G1 X129.671 Y127.598 E13.98173
G1 X130.843 Y126.521 E14.04133
G1 X131.356 Y125.013 E14.10093
G1 X132.641 Y108.564 E14.71859
G1 X132.267 Y106.789 E14.78646
G1 X131.19 Y105.617 E14.84606
G1 X129.682 Y105.104 E14.90566
G1 X116.874 Y104.104 E15.38657
G1 X115.979 Y104.159 E15.42016
G1 X114.546 Y104.854 E15.47975
G1 X100.636 Y116.619 E16.16175
G92 E0
G1 E-5.95 F3000
;WIPE_START
G1 F7200
G1 X100.546 Y116.695 E-5.99656
G1 X97.158 Y120.01 E-7.87287
G1 X96.626 Y121.155 E-8.3725
;WIPE_END
G1 E-8.5 F3000
; acceleration to travel
M204 S1500
G1 X102.441 Y119.738 F9000
; decel to extrusion
M204 S500
G1 X103.152 Y119.565
; end travel
G1 E0 F3000
;WIDTH:0.576
G1 F1200
G1 X103.916 Y118.913 E0.04585
G1 X104.396 Y118.596 E0.07212
G1 X105.082 Y118.046 E0.11229
G1 X116.522 Y108.264 E0.79948
G1 X116.752 Y108.135 E0.81152
G1 X117.056 Y108.041 E0.82604
G1 X117.266 Y108.021 E0.83569
G1 X117.84 Y108.066 E0.86195
G1 X127.657 Y108.833 E1.31153
G1 X127.759 Y108.862 E1.31636
G1 X128.044 Y109.006 E1.33096
G1 X128.127 Y109.072 E1.33579
G1 X128.479 Y109.484 E1.36055
G1 X128.531 Y109.576 E1.36538
G1 X128.63 Y109.88 E1.37997
G1 X128.643 Y109.985 E1.3848
G1 X127.627 Y122.988 E1.98025
G1 X127.599 Y123.09 E1.98509
G1 X127.454 Y123.375 E1.99968
G1 X127.388 Y123.458 E2.00451
G1 X126.976 Y123.81 E2.02927
G1 X126.884 Y123.862 E2.0341
G1 X126.58 Y123.961 E2.04869
G1 X126.475 Y123.974 E2.05353
G1 X106.493 Y122.413 E2.96858
G1 X105.618 Y122.373 E3.00855
G1 X105.045 Y122.4 E3.03475
G1 X103.983 Y122.317 E3.08338
G1 X103.097 Y122.188 E3.12426
G1 X102.96 Y122.127 E3.13112
G1 X102.612 Y121.832 E3.15195
G1 X102.528 Y121.708 E3.1588
G1 X102.284 Y120.958 E3.19481
G1 X102.278 Y120.808 E3.20166
G1 X102.387 Y120.365 E3.22249
G1 X102.461 Y120.234 E3.22936
G1 X103.106 Y119.604 E3.27052
G1 X103.459 Y120.01 F9000
G1 F1200
G1 X104.252 Y119.333 E3.31813
G1 X104.706 Y119.035 E3.34295
G1 X105.064 Y118.762 E3.3635
G1 X105.429 Y118.456 E3.38525
G1 X116.851 Y108.689 E4.07136
G1 X116.943 Y108.638 E4.0762
G1 X117.146 Y108.572 E4.08591
G1 X117.251 Y108.559 E4.09074
G1 X117.798 Y108.602 E4.11579
G1 X127.563 Y109.364 E4.56296
G1 X127.753 Y109.461 E4.57272
G1 X128.037 Y109.793 E4.59264
G1 X128.103 Y109.996 E4.6024
G1 X127.096 Y122.893 E5.19302
G1 X126.999 Y123.084 E5.20278
G1 X126.667 Y123.368 E5.2227
G1 X126.464 Y123.434 E5.23246
G1 X106.532 Y121.878 E6.14522
G1 X106.059 Y121.845 E6.16689
G1 X105.611 Y121.836 E6.18734
G1 X105.07 Y121.863 E6.21208
G1 X104.034 Y121.782 E6.25952
G1 X103.249 Y121.668 E6.29571
G1 X103.016 Y121.47 E6.30967
G1 X102.818 Y120.863 E6.33884
G1 X102.891 Y120.566 E6.35281
G1 X103.416 Y120.052 E6.38634
G1 X103.791 Y120.435 F9000
G1 F1200
G1 X103.811 Y120.415 E6.38761
G1 X104.58 Y119.758 E6.43378
G1 X104.594 Y119.747 E6.4346
G1 X105.016 Y119.475 E6.45751
G1 X105.4 Y119.182 E6.47957
G1 X105.777 Y118.866 E6.50201
G1 X117.16 Y109.132 E7.18583
G1 X117.262 Y109.099 E7.19071
G1 X117.756 Y109.138 E7.21335
G1 X127.414 Y109.892 E7.65563
G1 X127.559 Y110.061 E7.6658
G1 X126.568 Y122.745 E8.24665
G1 X126.399 Y122.89 E8.25682
G1 X106.571 Y121.342 E9.16482
G1 X106.083 Y121.308 E9.18717
G1 X105.602 Y121.298 E9.20914
G1 X105.103 Y121.326 E9.23196
G1 X105.085 Y121.325 E9.23278
G1 X104.08 Y121.247 E9.27878
G1 X103.479 Y121.158 E9.30651
G1 X103.376 Y120.842 E9.32171
G1 X103.748 Y120.477 E9.34552
; printing object PART_6A.stl id:0 copy 0
M486 S0
G1 X104.326 Y120.708 F9000
;TYPE:External perimeter
G1 F1200
G1 X104.92 Y120.199 E9.38123
G1 X105.339 Y119.929 E9.40399
G1 X106.134 Y119.293 E9.45045
G1 X117.391 Y109.667 E10.12666
G1 X117.713 Y109.693 E10.14141
G1 X126.973 Y110.416 E10.56547
G1 X126.044 Y122.304 E11.10986
G1 X106.608 Y120.786 E11.99992
G1 X105.596 Y120.741 E12.0462
G1 X105.1 Y120.768 E12.06888
G1 X104.386 Y120.712 E12.10158
;WIPE_START
G1 X104.687 Y120.535 F9000
;WIPE_END
G1 X105.843 Y120.214
;TYPE:Internal perimeter
G1 F1200
G1 X106.476 Y119.707 E12.13861
G1 X117.571 Y110.221 E12.80506
G1 X117.671 Y110.228 E12.80965
G1 X126.395 Y110.91 E13.20917
G1 X125.55 Y121.726 E13.7045
G1 X106.641 Y120.25 E14.57043
G1 X105.903 Y120.216 E14.60419
G92 E0
G1 E-5.95 F3000
;WIPE_START
G1 F7200
G1 X106.476 Y119.707 E-6.25359
G1 X110.545 Y116.228 E-8.3725
;WIPE_END
G1 E-8.5 F3000
; acceleration to travel
M204 S1500
G1 X123.465 Y111.539 F9000
; decel to extrusion
M204 S500
G1 X125.043 Y110.966
; end travel
G1 E0 F3000
;TYPE:Solid infill
;WIDTH:0.574924
G1 F1200
G1 X125.928 Y111.851 E0.05702
G1 X125.873 Y112.556 E0.08924
G1 X124.47 Y111.153 E0.17964
G1 X123.646 Y111.088 E0.21732
G1 X125.818 Y113.26 E0.35729
G1 X125.763 Y113.965 E0.38951
G1 X122.822 Y111.024 E0.57906
G1 X121.997 Y110.96 E0.61674
G1 X125.708 Y114.67 E0.85587
G1 X125.653 Y115.375 E0.88809
G1 X121.173 Y110.895 E1.17679
G1 X120.349 Y110.831 E1.21447
G1 X125.598 Y116.08 E1.55276
G1 X125.543 Y116.785 E1.58498
G1 X119.524 Y110.767 E1.97284
G1 X118.7 Y110.702 E2.01052
G1 X125.488 Y117.49 E2.44795
G1 X125.433 Y118.195 E2.48017
G1 X117.876 Y110.638 E2.96719
G1 X117.702 Y110.624 E2.97513
G1 X117.379 Y110.901 E2.99452
G1 X125.378 Y118.9 E3.51002
G1 X125.323 Y119.605 E3.54224
G1 X116.969 Y111.251 E4.08059
G1 X116.559 Y111.601 E4.10515
G1 X125.268 Y120.31 E4.66636
G1 X125.213 Y121.014 E4.69858
G1 X116.15 Y111.952 E5.28264
G1 X115.74 Y112.302 E5.3072
G1 X124.705 Y121.267 E5.88494
G1 X123.88 Y121.202 E5.92261
G1 X115.33 Y112.652 E6.47363
G1 X114.921 Y113.003 E6.49819
G1 X123.056 Y121.138 E7.02248
G1 X122.232 Y121.073 E7.06016
G1 X114.511 Y113.353 E7.55772
G1 X114.101 Y113.703 E7.58229
G1 X121.407 Y121.009 E8.05313
G1 X120.583 Y120.945 E8.09081
G1 X113.692 Y114.053 E8.53493
G1 X113.282 Y114.404 E8.55949
G1 X119.759 Y120.88 E8.97689
G1 X118.934 Y120.816 E9.01457
G1 X112.872 Y114.754 E9.40524
G1 X112.463 Y115.104 E9.4298
G1 X118.11 Y120.752 E9.79376
G1 X117.286 Y120.687 E9.83143
G1 X112.053 Y115.455 E10.16866
G1 X111.643 Y115.805 E10.19323
G1 X116.462 Y120.623 E10.50373
G1 X115.637 Y120.559 E10.54141
G1 X111.234 Y116.155 E10.82519
G1 X110.824 Y116.505 E10.84975
G1 X114.813 Y120.494 E11.10681
G1 X113.989 Y120.43 E11.14449
G1 X110.414 Y116.856 E11.37483
G1 X110.005 Y117.206 E11.39939
G1 X113.164 Y120.366 E11.603
G1 X112.34 Y120.301 E11.64068
G1 X109.595 Y117.556 E11.81757
G1 X109.185 Y117.907 E11.84213
G1 X111.516 Y120.237 E11.9923
G1 X110.691 Y120.172 E12.02998
G1 X108.776 Y118.257 E12.15342
G1 X108.366 Y118.607 E12.17799
G1 X109.867 Y120.108 E12.27471
G1 X109.043 Y120.044 E12.31239
G1 X107.956 Y118.958 E12.38238
G1 X107.547 Y119.308 E12.40695
G1 X108.218 Y119.979 E12.45022
G1 X107.394 Y119.915 E12.4879
G1 X106.973 Y119.494 E12.51501
M106 S84.15
;LAYER_CHANGE
;Z:0.52
;HEIGHT:0.32
;BEFORE_LAYER_CHANGE
;0.52


G92 E0
G1 E-5.95 F3000
;WIPE_START
G1 F7200
G1 X107.394 Y119.915 E-6.18551
G1 X108.218 Y119.979 E-6.5128
G1 X107.547 Y119.308 E-6.88869
G1 X107.956 Y118.958 E-7.10205
G1 X109.043 Y120.044 E-7.71007
G1 X109.867 Y120.108 E-8.03735
G1 X109.268 Y119.509 E-8.3725
;WIPE_END
G1 E-8.5 F3000
; stop printing object PART_6A.stl id:0 copy 0
M486 S-1
G1 Z0.47 F9000
;AFTER_LAYER_CHANGE
;0.52
G92 E0
; acceleration to travel
M204 S1500
G1 X108.773 Y126.17
; decel to extrusion
M204 S500
G1 X108.712 Y126.983
; end travel
G1 E8.5 F3000
;TYPE:Skirt
;WIDTH:0.48
G1 F1200
G1 X127.878 Y128.409 E9.58326
G1 X130.074 Y127.87 E9.71069
G1 X131.27 Y126.664 E9.80642
G1 X131.792 Y125.047 E9.90215
G1 X133.076 Y108.598 E10.83217
G1 X132.539 Y106.386 E10.96044
G1 X131.333 Y105.19 E11.05617
G1 X129.717 Y104.668 E11.15189
G1 X116.908 Y103.668 E11.87601
G1 X115.781 Y103.756 E11.93977
G1 X114.264 Y104.52 E12.0355
G1 X100.262 Y116.363 E13.06917
G1 X96.851 Y119.698 E13.33804
G1 X96.123 Y120.712 E13.4084
G1 X95.757 Y122.37 E13.50413
G1 X96.18 Y124.015 E13.59986
G1 X97.301 Y125.291 E13.69558
G1 X98.877 Y125.923 E13.79131
G1 X103.346 Y126.584 E14.04595
G1 X108.653 Y126.979 E14.34587
G1 X108.685 Y126.544 F9000
G1 F1200
G1 X127.91 Y127.973 E15.4325
G1 X129.671 Y127.598 E15.53394
G1 X130.843 Y126.521 E15.62368
G1 X131.356 Y125.013 E15.71342
G1 X132.641 Y108.564 E16.64344
G1 X132.267 Y106.789 E16.74564
G1 X131.19 Y105.617 E16.83538
G1 X129.682 Y105.104 E16.92512
G1 X116.874 Y104.104 E17.64924
G1 X115.979 Y104.159 E17.69982
G1 X114.546 Y104.854 E17.78956
G1 X100.546 Y116.695 E18.82309
G1 X97.158 Y120.01 E19.09027
G1 X96.203 Y122.064 E19.21792
G1 X96.479 Y123.632 E19.30766
G1 X97.473 Y124.876 E19.3974
G1 X98.941 Y125.491 E19.48714
G1 X103.41 Y126.152 E19.74178
G1 X108.625 Y126.539 E20.03652
G92 E0
G1 E-5.95 F3000
;WIPE_START
G1 F7200
G1 X114.728 Y126.993 E-8.3725
;WIPE_END
G1 E-8.5 F3000
; printing object PART_6A.stl id:0 copy 0
M486 S0
; acceleration to travel
M204 S1500
G1 X106.212 Y121.2 F9000
; decel to extrusion
M204 S500
G1 X105.112 Y120.452
; end travel
G1 E0 F3000
;TYPE:Internal perimeter
;WIDTH:0.476
G1 F2400
G1 X117.463 Y109.89 E0.90711
G1 X126.74 Y110.615 E1.42652
G1 X125.846 Y122.071 E2.06794
G1 X105.171 Y120.457 E3.22542
G1 X104.142 Y120.768 F9000
;TYPE:External perimeter
;WIDTH:0.428
G1 F1500
G1 X117.332 Y109.488 E4.07998
G1 X127.16 Y110.256 E4.56535
G1 X126.204 Y122.491 E5.16962
G1 X104.202 Y120.772 E6.2563
;WIPE_START
G1 X104.503 Y120.595 F9000
;WIPE_END
G1 X105.938 Y120.392
;TYPE:Solid infill
;WIDTH:0.484018
G1 F2400
G1 X107.657 Y118.673 E6.39423
G1 X111.7 Y115.216 E6.69617
G1 X106.647 Y120.269 E7.10172
G1 X107.191 Y120.311 E7.13265
G1 X115.743 Y111.759 E7.81912
G1 X117.564 Y110.201 E7.95514
G1 X117.863 Y110.225 E7.97214
G1 X107.734 Y120.354 E8.78516
G1 X108.277 Y120.396 E8.81609
G1 X118.406 Y110.267 E9.62911
G1 X118.95 Y110.309 E9.66004
G1 X108.821 Y120.438 E10.47306
G1 X109.364 Y120.481 E10.504
G1 X119.493 Y110.352 E11.31702
G1 X120.036 Y110.394 E11.34795
G1 X109.907 Y120.523 E12.16097
G1 X110.451 Y120.566 E12.1919
G1 X120.58 Y110.437 E13.00492
G1 X121.123 Y110.479 E13.03585
G1 X110.994 Y120.608 E13.84887
G1 X111.537 Y120.651 E13.87981
G1 X121.666 Y110.522 E14.69283
G1 X122.21 Y110.564 E14.72376
G1 X112.08 Y120.693 E15.53678
G1 X112.624 Y120.735 E15.56771
G1 X122.753 Y110.606 E16.38073
G1 X123.296 Y110.649 E16.41166
G1 X113.167 Y120.778 E17.22469
G1 X113.71 Y120.82 E17.25562
G1 X123.839 Y110.691 E18.06864
G1 X124.383 Y110.734 E18.09957
G1 X114.254 Y120.863 E18.91259
G1 X114.797 Y120.905 E18.94352
G1 X124.926 Y110.776 E19.75654
G1 X125.469 Y110.819 E19.78748
G1 X115.34 Y120.948 E20.6005
G1 X115.884 Y120.99 E20.63143
G1 X126.013 Y110.861 E21.44445
G1 X126.415 Y110.892 E21.46737
G1 X126.402 Y111.057 E21.47674
G1 X116.427 Y121.032 E22.27743
G1 X116.97 Y121.075 E22.30836
G1 X126.353 Y111.692 E23.06145
G1 X126.303 Y112.328 E23.09763
G1 X117.514 Y121.117 E23.80313
G1 X118.057 Y121.16 E23.83406
G1 X126.254 Y112.963 E24.49197
G1 X126.204 Y113.599 E24.52814
G1 X118.6 Y121.202 E25.13845
G1 X119.144 Y121.245 E25.16938
G1 X126.154 Y114.234 E25.7321
G1 X126.105 Y114.869 E25.76827
G1 X119.687 Y121.287 E26.2834
G1 X120.23 Y121.329 E26.31433
G1 X126.055 Y115.505 E26.78186
G1 X126.006 Y116.14 E26.81803
G1 X120.774 Y121.372 E27.23797
G1 X121.317 Y121.414 E27.2689
G1 X125.956 Y116.775 E27.64125
G1 X125.906 Y117.411 E27.67742
G1 X121.86 Y121.457 E28.00217
G1 X122.404 Y121.499 E28.0331
G1 X125.857 Y118.046 E28.31026
G1 X125.807 Y118.682 E28.34643
G1 X122.947 Y121.542 E28.57599
G1 X123.49 Y121.584 E28.60692
G1 X125.757 Y119.317 E28.78889
G1 X125.708 Y119.952 E28.82506
G1 X124.034 Y121.626 E28.95944
G1 X124.577 Y121.669 E28.99037
G1 X125.658 Y120.588 E29.07715
G1 X125.609 Y121.223 E29.11332
G1 X124.955 Y121.877 E29.16581
G92 E0
G1 E-5.95 F3000
;WIPE_START
G1 F7200
G1 X125.609 Y121.223 E-6.31606
G1 X125.658 Y120.588 E-6.56833
G1 X124.577 Y121.669 E-7.17355
G1 X124.034 Y121.626 E-7.38927
G1 X125.708 Y119.952 E-8.32642
G1 X125.717 Y119.836 E-8.3725
;WIPE_END
G1 E-8.5 F3000
; acceleration to travel
M204 S1500
G1 X115.045 Y114.143 F9000
; decel to extrusion
M204 S500
G1 X113.711 Y113.431
; end travel
G1 E0 F3000
;TYPE:Gap fill
;WIDTH:0.164674
G1 F1800
G1 X113.676 Y113.464 E0.00063
G1 X113.339 Y113.776 E0.00667
;WIDTH:0.209392
G1 X113.002 Y114.087 E0.01553
;WIDTH:0.254111
G1 X112.665 Y114.399 E0.02719
;WIDTH:0.29883
G1 X112.328 Y114.711 E0.04167
;WIDTH:0.354471
G1 X111.991 Y115.023 E0.05965
G1 X111.94 Y115.069 E0.06235
G1 X111.89 Y115.116 E0.06504
M106 S170.85
;LAYER_CHANGE
;Z:0.84
;HEIGHT:0.32
;BEFORE_LAYER_CHANGE
;0.84


G92 E0
G1 E-5.95 F3000
;WIPE_START
G1 F7200
G1 X111.94 Y115.069 E-5.9772
G1 X111.991 Y115.023 E-6.0044
G1 X112.328 Y114.711 E-6.18614
;WIPE_END
G1 E-8.5 F3000
; stop printing object PART_6A.stl id:0 copy 0
M486 S-1
G1 Z0.79 F9000
;AFTER_LAYER_CHANGE
;0.84
G92 E0
; printing object PART_6A.stl id:0 copy 0
M486 S0
; acceleration to travel
M204 S1500
G1 X125.091 Y111.083
; decel to extrusion
M204 S500
G1 X126.74 Y110.615
; end travel
G1 E8.5 F3000
;TYPE:Internal perimeter
;WIDTH:0.476
G1 F2400
G1 X125.846 Y122.071 E9.14142
G1 X105.112 Y120.452 E10.30226
G1 X117.463 Y109.89 E11.20937
G1 X126.68 Y110.61 E11.72542
G1 X127.16 Y110.256 F9000
;TYPE:External perimeter
;WIDTH:0.428
G1 F1500
G1 X126.204 Y122.491 E12.32969
G1 X104.142 Y120.768 E13.41932
G1 X117.332 Y109.488 E14.27388
G1 X127.1 Y110.251 E14.7563
;WIPE_START
G1 X126.933 Y110.586 F9000
;WIPE_END
G1 X126.546 Y111.505
;TYPE:Solid infill
;WIDTH:0.483723
G1 F2400
G1 X125.892 Y110.852 E14.80875
G1 X125.257 Y110.802 E14.8449
G1 X126.338 Y111.883 E14.93163
G1 X126.296 Y112.426 E14.96254
G1 X124.621 Y110.752 E15.09683
G1 X123.986 Y110.703 E15.13298
G1 X126.253 Y112.97 E15.31484
G1 X126.211 Y113.513 E15.34575
G1 X123.351 Y110.653 E15.57518
G1 X122.715 Y110.603 E15.61133
G1 X126.168 Y114.056 E15.88831
G1 X126.126 Y114.6 E15.91923
G1 X122.08 Y110.554 E16.24378
G1 X121.445 Y110.504 E16.27993
