; generated by SuperSlicer 2.4 on 2022-12-06 at 15:26:50 UTC

; 

; external perimeters extrusion width = 0.43mm
; perimeters extrusion width = 0.48mm
; infill extrusion width = 0.46mm
; solid infill extrusion width = 0.48mm
; top infill extrusion width = 0.46mm
; first layer extrusion width = 0.58mm

; object:{"name":"PART_3","id":"PART_3.stl id:0 copy 0","object_center":[115.500000,115.500000,0.000000],"boundingbox_center":[115.500000,115.500000,5.080000],"boundingbox_size":[23.011883,15.468784,10.160000]}
; Total objects to print: 1
M486 T1
; plater:{"center":[115.500000,115.500000,0.000000],"boundingbox_center":[115.500000,115.500000,5.080000],"boundingbox_size":[23.011883,15.468784,10.160000]}

;TYPE:Custom
G90 ; use absolute coordinates
M83 ; extruder relative mode
M140 S60 ; set final bed temp
M104 S150 ; set temporary nozzle temp to prevent oozing during homing and auto bed leveling
G4 S10 ; allow partial nozzle warmup
G28 ; home all axis
;G29 ; auto bed levelling
G1 Z10 F240
G1 X2 Y10 F3000
G1 Z0 F240
M104 S210 ; set final nozzle temp
M190 S60 ; wait for bed temp to stabilize
M109 S210 ; wait for nozzle temp to stabilize
G1 Z0.28 F240
G92 E0
G1 Y140 E10 F1500 ; prime the nozzle
G1 X2.3 F5000
G92 E0
G1 Y10 E10 F1200 ; prime the nozzle
G92 E0
;start
M107
G21 ; set units to millimeters
G90 ; use absolute coordinates
M82 ; use absolute distances for extrusion
G92 E0
; Filament gcode
;_TOOLCHANGE 0
M107
;LAYER_CHANGE
;Z:0.2
;HEIGHT:0.2
;BEFORE_LAYER_CHANGE
;0.2


G1 E-8.5 F3000
G1 Z0.15 F9000
;AFTER_LAYER_CHANGE
;0.2
G92 E0
M204 S500
G1 X100.554 Y103.121
G1 E8.5 F3000
;TYPE:Skirt
;WIDTH:0.48
G1 F1200
G1 X99.457 Y104.276 E8.5596
G1 X99.048 Y105.814 E8.6192
G1 X98.857 Y124.853 E9.33193
G1 X99.35 Y126.598 E9.39981
G1 X100.504 Y127.695 E9.45941
G1 X102.043 Y128.104 E9.519
G1 X128.701 Y128.372 E10.51698
G1 X130.446 Y127.879 E10.58486
G1 X131.543 Y126.724 E10.64446
G1 X131.952 Y125.186 E10.70406
G1 X132.143 Y106.147 E11.41679
G1 X131.65 Y104.402 E11.48467
G1 X130.496 Y103.305 E11.54426
G1 X128.957 Y102.896 E11.60386
G1 X102.299 Y102.628 E12.60184
G1 X100.612 Y103.105 E12.66747
G92 E0
G1 E-5.95 F3000
;WIPE_START
G1 F7200
G1 X99.457 Y104.276 E-6.60075
G1 X99.048 Y105.814 E-7.23096
G1 X99.019 Y108.698 E-8.3725
;WIPE_END
G1 E-8.5 F3000
; acceleration to travel
M204 S1500
G1 X103.012 Y106.933 F9000
; decel to extrusion
M204 S500
G1 X103.499 Y106.717
; end travel
G1 E0 F3000
;WIDTH:0.576
G1 F1200
G1 X103.588 Y106.659 E0.00483
G1 X103.884 Y106.54 E0.01943
G1 X103.988 Y106.521 E0.02426
G1 X104.657 Y106.527 E0.05476
G1 X127.19 Y106.754 E1.08357
G1 X127.293 Y106.775 E1.0884
G1 X127.587 Y106.9 E1.10299
G1 X127.675 Y106.96 E1.10783
G1 X128.054 Y107.347 E1.13258
G1 X128.112 Y107.436 E1.13742
G1 X128.231 Y107.733 E1.15201
G1 X128.251 Y107.837 E1.15684
G1 X128.095 Y123.418 E1.86826
G1 X128.073 Y123.522 E1.87309
G1 X127.948 Y123.816 E1.88768
G1 X127.888 Y123.903 E1.89251
G1 X127.501 Y124.283 E1.91727
G1 X127.412 Y124.341 E1.9221
G1 X127.116 Y124.46 E1.9367
G1 X127.012 Y124.479 E1.94153
G1 X103.81 Y124.246 E3.00084
G1 X103.707 Y124.225 E3.00567
G1 X103.413 Y124.1 E3.02027
G1 X103.325 Y124.04 E3.0251
G1 X102.946 Y123.653 E3.04985
G1 X102.888 Y123.564 E3.05469
G1 X102.769 Y123.267 E3.06928
G1 X102.749 Y123.163 E3.07411
G1 X102.905 Y107.582 E3.78553
G1 X102.927 Y107.478 E3.79036
G1 X103.052 Y107.184 E3.80495
G1 X103.112 Y107.097 E3.80979
G1 X103.456 Y106.759 E3.8318
G1 X103.833 Y107.143 F9000
G1 F1200
G1 X104.036 Y107.058 E3.84186
G1 X104.651 Y107.065 E3.86995
G1 X127.131 Y107.29 E4.89634
G1 X127.328 Y107.374 E4.9061
G1 X127.633 Y107.686 E4.92602
G1 X127.713 Y107.884 E4.93578
G1 X127.558 Y123.36 E5.64236
G1 X127.474 Y123.556 E5.65212
G1 X127.162 Y123.862 E5.67205
G1 X126.964 Y123.942 E5.68181
G1 X103.869 Y123.71 E6.73628
G1 X103.672 Y123.626 E6.74604
G1 X103.367 Y123.314 E6.76597
G1 X103.287 Y123.116 E6.77573
G1 X103.442 Y107.64 E7.48231
G1 X103.526 Y107.444 E7.49207
G1 X103.79 Y107.185 E7.50893
G1 X104.137 Y107.597 F9000
G1 F1200
G1 X104.646 Y107.602 E7.53214
G1 X127.019 Y107.827 E8.55365
G1 X127.175 Y107.986 E8.56381
G1 X127.021 Y123.247 E9.26063
G1 X126.863 Y123.403 E9.27079
G1 X103.981 Y123.173 E10.31551
G1 X103.825 Y123.014 E10.32567
G1 X103.979 Y107.753 E11.0225
G1 X104.095 Y107.639 E11.02992
; printing object PART_3.stl id:0 copy 0
M486 S0
G1 X104.531 Y108.157 F9000
;TYPE:External perimeter
G1 F1200
G1 X104.64 Y108.159 E11.03489
G1 X126.614 Y108.379 E12.03818
G1 X126.469 Y122.843 E12.69854
G1 X104.386 Y122.621 E13.7068
G1 X104.531 Y108.217 E14.36442
;WIPE_START
G1 X104.876 Y108.361 F9000
;WIPE_END
G1 X105.063 Y108.7
;TYPE:Internal perimeter
G1 F1200
G1 X126.071 Y108.911 E15.32361
G1 X125.937 Y122.3 E15.9349
G1 X104.929 Y122.089 E16.89409
G1 X105.063 Y108.76 E17.50264
G92 E0
G1 E-5.95 F3000
;WIPE_START
G1 F7200
G1 X111.182 Y108.804 E-8.3725
;WIPE_END
G1 E-8.5 F3000
; acceleration to travel
M204 S1500
G1 X123.327 Y109.032 F9000
; decel to extrusion
M204 S500
G1 X124.811 Y109.06
; end travel
G1 E0 F3000
;TYPE:Solid infill
;WIDTH:0.575886
G1 F1200
G1 X125.669 Y109.917 E0.05537
G1 X125.661 Y110.67 E0.08971
G1 X124.277 Y109.285 E0.17908
G1 X123.509 Y109.278 E0.21413
G1 X125.654 Y111.422 E0.35256
G1 X125.646 Y112.175 E0.38691
G1 X122.742 Y109.27 E0.57441
G1 X121.974 Y109.262 E0.60946
G1 X125.639 Y112.927 E0.84603
G1 X125.631 Y113.679 E0.88037
G1 X121.206 Y109.255 E1.16601
G1 X120.439 Y109.247 E1.20106
G1 X125.624 Y114.432 E1.53577
G1 X125.616 Y115.184 E1.57011
G1 X119.671 Y109.239 E1.95389
G1 X118.903 Y109.231 E1.98893
G1 X125.608 Y115.937 E2.42178
G1 X125.601 Y116.689 E2.45612
G1 X118.136 Y109.224 E2.93804
G1 X117.368 Y109.216 E2.97308
G1 X125.593 Y117.441 E3.50406
G1 X125.586 Y118.194 E3.53841
G1 X116.6 Y109.208 E4.11846
G1 X115.833 Y109.201 E4.1535
G1 X125.578 Y118.946 E4.78262
G1 X125.571 Y119.699 E4.81696
G1 X115.065 Y109.193 E5.49515
G1 X114.297 Y109.185 E5.53019
G1 X125.563 Y120.451 E6.25744
G1 X125.556 Y121.203 E6.29179
G1 X113.53 Y109.178 E7.06811
G1 X112.762 Y109.17 E7.10316
G1 X125.495 Y121.903 E7.92514
G1 X124.728 Y121.895 E7.96018
G1 X111.994 Y109.162 E8.78216
G1 X111.227 Y109.154 E8.8172
G1 X123.96 Y121.888 E9.63918
G1 X123.192 Y121.88 E9.67423
G1 X110.459 Y109.147 E10.49621
G1 X109.691 Y109.139 E10.53125
G1 X122.425 Y121.872 E11.35323
G1 X121.657 Y121.865 E11.38827
G1 X108.924 Y109.131 E12.21026
G1 X108.156 Y109.124 E12.2453
G1 X120.889 Y121.857 E13.06728
G1 X120.122 Y121.849 E13.10232
G1 X107.388 Y109.116 E13.9243
G1 X106.621 Y109.108 E13.95935
G1 X119.354 Y121.841 E14.78133
G1 X118.586 Y121.834 E14.81637
G1 X105.853 Y109.1 E15.63835
G1 X105.451 Y109.096 E15.65668
G1 X105.448 Y109.455 E15.67306
G1 X117.819 Y121.826 E16.47164
G1 X117.051 Y121.818 E16.50669
G1 X105.44 Y110.208 E17.2562
G1 X105.433 Y110.96 E17.29054
G1 X116.283 Y121.811 E17.99099
G1 X115.516 Y121.803 E18.02603
G1 X105.425 Y111.712 E18.67741
G1 X105.418 Y112.465 E18.71175
G1 X114.748 Y121.795 E19.31406
G1 X113.98 Y121.787 E19.34911
G1 X105.41 Y113.217 E19.90235
G1 X105.402 Y113.97 E19.93669
G1 X113.213 Y121.78 E20.44086
G1 X112.445 Y121.772 E20.47591
G1 X105.395 Y114.722 E20.93101
G1 X105.387 Y115.474 E20.96536
G1 X111.677 Y121.764 E21.37139
G1 X110.91 Y121.757 E21.40643
G1 X105.38 Y116.227 E21.7634
G1 X105.372 Y116.979 E21.79775
G1 X110.142 Y121.749 E22.10565
G1 X109.374 Y121.741 E22.14069
G1 X105.365 Y117.732 E22.39952
G1 X105.357 Y118.484 E22.43387
G1 X108.607 Y121.733 E22.64363
G1 X107.839 Y121.726 E22.67867
G1 X105.35 Y119.236 E22.83937
G1 X105.342 Y119.989 E22.87372
G1 X107.071 Y121.718 E22.98534
G1 X106.304 Y121.71 E23.02039
G1 X105.334 Y120.741 E23.08294
G1 X105.327 Y121.494 E23.11729
G1 X105.769 Y121.936 E23.14585
M106 S84.15
;LAYER_CHANGE
;Z:0.52
;HEIGHT:0.32
;BEFORE_LAYER_CHANGE
;0.52


G92 E0
G1 E-5.95 F3000
;WIPE_START
G1 F7200
G1 X105.327 Y121.494 E-6.19766
G1 X105.334 Y120.741 E-6.4955
G1 X106.304 Y121.71 E-7.03799
G1 X107.071 Y121.718 E-7.34187
G1 X105.342 Y119.989 E-8.30987
G1 X105.344 Y119.831 E-8.3725
;WIPE_END
G1 E-8.5 F3000
; stop printing object PART_3.stl id:0 copy 0
M486 S-1
G1 Z0.47 F9000
;AFTER_LAYER_CHANGE
;0.52
G92 E0
; acceleration to travel
M204 S1500
G1 X99.608 Y119.773
; decel to extrusion
M204 S500
G1 X98.908 Y119.766
; end travel
G1 E8.5 F3000
;TYPE:Skirt
;WIDTH:0.48
G1 F1200
G1 X98.857 Y124.853 E8.78676
G1 X99.35 Y126.598 E8.88896
G1 X100.504 Y127.695 E8.9787
G1 X102.043 Y128.104 E9.06844
G1 X128.701 Y128.372 E10.57113
G1 X130.446 Y127.879 E10.67333
G1 X131.543 Y126.724 E10.76307
G1 X131.952 Y125.186 E10.85281
G1 X132.143 Y106.147 E11.926
G1 X131.65 Y104.402 E12.0282
G1 X130.496 Y103.305 E12.11793
G1 X128.957 Y102.896 E12.20767
G1 X102.299 Y102.628 E13.71036
G1 X100.554 Y103.121 E13.81256
G1 X99.457 Y104.276 E13.9023
G1 X99.048 Y105.814 E13.99204
G1 X98.908 Y119.706 E14.77508
G92 E0
G1 E-5.95 F3000
;WIPE_START
G1 F7200
G1 X98.857 Y124.853 E-7.9876
G1 X99.121 Y125.789 E-8.3725
;WIPE_END
G1 E-8.5 F3000
; printing object PART_3.stl id:0 copy 0
M486 S0
; acceleration to travel
M204 S1500
G1 X103.977 Y122.794 F9000
; decel to extrusion
M204 S500
G1 X104.604 Y122.407
; end travel
G1 E0 F3000
;TYPE:Internal perimeter
;WIDTH:0.476
G1 F2400
G1 X104.745 Y108.376 E0.7832
G1 X126.396 Y108.593 E1.99172
G1 X126.255 Y122.624 E2.77492
G1 X104.664 Y122.407 E3.9801
G1 X104.21 Y122.793 F9000
;TYPE:External perimeter
;WIDTH:0.428
G1 F1500
G1 X104.359 Y107.982 E4.70943
G1 X126.79 Y108.207 E5.81396
G1 X126.641 Y123.018 E6.5433
G1 X104.27 Y122.794 E7.64488
;WIPE_START
G1 X104.414 Y122.449 F9000
;WIPE_END
G92 E0
G1 E-5.95 F3000
;WIPE_START
G1 F7200
G1 X104.475 Y116.329 E-8.3725
;WIPE_END
G1 E-8.5 F3000
; acceleration to travel
M204 S1500
G1 X105.217 Y109.401 F9000
; decel to extrusion
M204 S500
G1 X105.313 Y108.506
; end travel
G1 E0 F3000
;TYPE:Solid infill
;WIDTH:0.483778
G1 F2400
G1 X105.044 Y108.776 E0.02165
G1 X105.038 Y109.367 E0.05522
G1 X105.717 Y108.688 E0.10972
G1 X106.297 Y108.694 E0.14262
G1 X105.032 Y109.959 E0.24413
G1 X105.026 Y110.551 E0.2777
G1 X106.877 Y108.7 E0.42621
G1 X107.457 Y108.705 E0.45911
G1 X105.02 Y111.142 E0.65462
G1 X105.014 Y111.734 E0.68819
G1 X108.037 Y108.711 E0.9307
G1 X108.617 Y108.717 E0.96361
G1 X105.008 Y112.326 E1.25312
G1 X105.002 Y112.918 E1.28669
G1 X109.197 Y108.723 E1.62321
G1 X109.777 Y108.729 E1.65611
G1 X104.996 Y113.509 E2.03964
G1 X104.99 Y114.101 E2.07321
G1 X110.356 Y108.735 E2.50374
G1 X110.936 Y108.74 E2.53664
G1 X104.984 Y114.693 E3.01417
G1 X104.978 Y115.284 E3.04774
G1 X111.516 Y108.746 E3.57227
G1 X112.096 Y108.752 E3.60517
G1 X104.972 Y115.876 E4.17671
G1 X104.966 Y116.468 E4.21027
G1 X112.676 Y108.758 E4.82881
G1 X113.256 Y108.764 E4.86171
G1 X104.96 Y117.059 E5.52726
G1 X104.954 Y117.651 E5.56083
G1 X113.836 Y108.769 E6.27337
G1 X114.416 Y108.775 E6.30627
G1 X104.948 Y118.243 E7.06582
G1 X104.943 Y118.835 E7.09939
G1 X114.996 Y108.781 E7.90594
G1 X115.576 Y108.787 E7.93884
G1 X104.937 Y119.426 E8.79239
G1 X104.931 Y120.018 E8.82596
G1 X116.156 Y108.793 E9.72652
G1 X116.736 Y108.799 E9.75942
G1 X104.925 Y120.61 E10.70698
G1 X104.919 Y121.201 E10.74055
G1 X117.316 Y108.804 E11.73511
G1 X117.896 Y108.81 E11.76801
G1 X104.913 Y121.793 E12.80958
G1 X104.91 Y122.107 E12.82741
G1 X105.181 Y122.11 E12.84283
G1 X118.476 Y108.816 E13.90937
G1 X119.055 Y108.822 E13.94227
G1 X105.761 Y122.116 E15.00881
G1 X106.341 Y122.122 E15.04172
G1 X119.635 Y108.828 E16.10826
G1 X120.215 Y108.834 E16.14116
G1 X106.921 Y122.128 E17.2077
G1 X107.501 Y122.133 E17.2406
G1 X120.795 Y108.839 E18.30714
G1 X121.375 Y108.845 E18.34004
G1 X108.081 Y122.139 E19.40658
G1 X108.661 Y122.145 E19.43948
G1 X121.955 Y108.851 E20.50602
G1 X122.535 Y108.857 E20.53892
G1 X109.241 Y122.151 E21.60546
G1 X109.821 Y122.157 E21.63836
G1 X123.115 Y108.863 E22.7049
G1 X123.695 Y108.869 E22.7378
G1 X110.401 Y122.163 E23.80434
G1 X110.981 Y122.168 E23.83724
G1 X124.275 Y108.874 E24.90378
G1 X124.855 Y108.88 E24.93668
G1 X111.561 Y122.174 E26.00322
G1 X112.141 Y122.18 E26.03612
G1 X125.435 Y108.886 E27.10266
G1 X126.015 Y108.892 E27.13556
G1 X112.721 Y122.186 E28.2021
G1 X113.301 Y122.192 E28.235
G1 X126.085 Y109.407 E29.26067
G1 X126.079 Y109.999 E29.29424
G1 X113.88 Y122.198 E30.2729
G1 X114.46 Y122.203 E30.3058
G1 X126.073 Y110.59 E31.23746
G1 X126.067 Y111.182 E31.27103
G1 X115.04 Y122.209 E32.15569
G1 X115.62 Y122.215 E32.18859
G1 X126.061 Y111.774 E33.02625
G1 X126.055 Y112.366 E33.05981
G1 X116.2 Y122.221 E33.85047
G1 X116.78 Y122.227 E33.88337
G1 X126.05 Y112.957 E34.62702
G1 X126.044 Y113.549 E34.66058
G1 X117.36 Y122.232 E35.35723
G1 X117.94 Y122.238 E35.39013
G1 X126.038 Y114.141 E36.03977
G1 X126.032 Y114.732 E36.07334
G1 X118.52 Y122.244 E36.67598
G1 X119.1 Y122.25 E36.70888
G1 X126.026 Y115.324 E37.26452
G1 X126.02 Y115.916 E37.29809
G1 X119.68 Y122.256 E37.80672
G1 X120.26 Y122.262 E37.83962
G1 X126.014 Y116.508 E38.30125
G1 X126.008 Y117.099 E38.33482
G1 X120.84 Y122.267 E38.74945
G1 X121.42 Y122.273 E38.78235
G1 X126.002 Y117.691 E39.14998
G1 X125.996 Y118.283 E39.18355
G1 X122 Y122.279 E39.50417
G1 X122.58 Y122.285 E39.53707
G1 X125.99 Y118.874 E39.81069
G1 X125.984 Y119.466 E39.84426
G1 X123.159 Y122.291 E40.07087
G1 X123.739 Y122.297 E40.10377
G1 X125.978 Y120.058 E40.28339
G1 X125.972 Y120.649 E40.31696
G1 X124.319 Y122.302 E40.44957
G1 X124.899 Y122.308 E40.48247
G1 X125.966 Y121.241 E40.56808
G1 X125.96 Y121.833 E40.60164
G1 X125.303 Y122.49 E40.6544
M106 S170.85
;LAYER_CHANGE
;Z:0.84
;HEIGHT:0.32
;BEFORE_LAYER_CHANGE
;0.84


G92 E0
G1 E-5.95 F3000
;WIPE_START
G1 F7200
G1 X125.96 Y121.833 E-6.31809
G1 X125.966 Y121.241 E-6.55231
G1 X124.899 Y122.308 E-7.14965
G1 X124.319 Y122.302 E-7.37922
G1 X125.972 Y120.649 E-8.30453
G1 X125.974 Y120.478 E-8.3725
;WIPE_END
G1 E-8.5 F3000
; stop printing object PART_3.stl id:0 copy 0
M486 S-1
G1 Z0.79 F9000
;AFTER_LAYER_CHANGE
;0.84
G92 E0
; printing object PART_3.stl id:0 copy 0
M486 S0
; acceleration to travel
M204 S1500
G1 X126.223 Y122.379
; decel to extrusion
M204 S500
G1 X126.255 Y122.624
; end travel
G1 E8.5 F3000
;TYPE:Internal perimeter
;WIDTH:0.476
G1 F2400
G1 X104.604 Y122.407 E9.70852
G1 X104.745 Y108.376 E10.49172
G1 X126.396 Y108.593 E11.70025
G1 X126.255 Y122.564 E12.4801
G1 X126.641 Y123.018 F9000
;TYPE:External perimeter
;WIDTH:0.428
G1 F1500
G1 X104.21 Y122.793 E13.58463
G1 X104.359 Y107.982 E14.31396
G1 X126.79 Y108.207 E15.4185
G1 X126.642 Y122.958 E16.14488
;WIPE_START
G1 X126.297 Y122.815 F9000
;WIPE_END
G92 E0
G1 E-5.95 F3000
;WIPE_START
G1 F7200
G1 X120.177 Y122.753 E-8.3725
;WIPE_END
G1 E-8.5 F3000
; acceleration to travel
M204 S1500
G1 X125.566 Y111.056 F9000
; decel to extrusion
M204 S500
G1 X126.262 Y109.545
; end travel
G1 E0 F3000
;TYPE:Solid infill
;WIDTH:0.484094
G1 F2400
G1 X125.604 Y108.888 E0.05279
G1 X125.013 Y108.882 E0.08638
G1 X126.08 Y109.949 E0.17204
G1 X126.074 Y110.529 E0.20496
G1 X124.421 Y108.876 E0.33766
G1 X123.829 Y108.87 E0.37125
G1 X126.068 Y111.109 E0.55098
G1 X126.062 Y111.689 E0.5839
G1 X123.238 Y108.864 E0.81067
G1 X122.646 Y108.858 E0.84426
G1 X126.056 Y112.269 E1.11806
G1 X126.051 Y112.848 E1.15098
G1 X122.054 Y108.852 E1.47181
G1 X121.462 Y108.846 E1.5054
G1 X126.045 Y113.428 E1.87327
G1 X126.039 Y114.008 E1.90619
G1 X120.871 Y108.84 E2.32109
G1 X120.279 Y108.834 E2.35468
G1 X126.033 Y114.588 E2.81662
G1 X126.027 Y115.168 E2.84954
G1 X119.687 Y108.828 E3.35851
G1 X119.096 Y108.822 E3.3921
G1 X126.021 Y115.748 E3.9481
G1 X126.016 Y116.328 E3.98102
G1 X118.504 Y108.816 E4.58405
G1 X117.912 Y108.81 E4.61764
G1 X126.01 Y116.908 E5.26771
G1 X126.004 Y117.488 E5.30063
G1 X117.321 Y108.804 E5.99774
G1 X116.729 Y108.799 E6.03133
G1 X125.998 Y118.068 E6.77546
G1 X125.992 Y118.648 E6.80839
G1 X116.137 Y108.793 E7.59955
G1 X115.545 Y108.787 E7.63315
G1 X125.987 Y119.228 E8.47135
G1 X125.981 Y119.808 E8.50427
G1 X114.954 Y108.781 E9.38951
G1 X114.362 Y108.775 E9.4231
G1 X125.975 Y120.388 E10.35537
G1 X125.969 Y120.968 E10.38829
G1 X113.77 Y108.769 E11.3676
G1 X113.179 Y108.763 E11.40119
G1 X125.963 Y121.548 E12.42752
G1 X125.957 Y122.127 E12.46045
G1 X112.587 Y108.757 E13.53382
G1 X111.995 Y108.751 E13.56741
