; generated by SuperSlicer 2.4 on 2022-12-06 at 15:31:47 UTC

; 

; external perimeters extrusion width = 0.43mm
; perimeters extrusion width = 0.48mm
; infill extrusion width = 0.46mm
; solid infill extrusion width = 0.48mm
; top infill extrusion width = 0.46mm
; first layer extrusion width = 0.58mm

; object:{"name":"Pea6","id":"Pea6.STL id:0 copy 0","object_center":[115.500000,115.500000,0.000000],"boundingbox_center":[115.500000,115.500000,7.676333],"boundingbox_size":[30.705333,10.235111,15.352667]}
; Total objects to print: 1
M486 T1
; plater:{"center":[115.500000,115.500000,0.000000],"boundingbox_center":[115.500000,115.500000,7.676333],"boundingbox_size":[30.705333,10.235111,15.352667]}

;TYPE:Custom
G90 ; use absolute coordinates
M83 ; extruder relative mode
M140 S60 ; set final bed temp
M104 S150 ; set temporary nozzle temp to prevent oozing during homing and auto bed leveling
G4 S10 ; allow partial nozzle warmup
G28 ; home all axis
;G29 ; auto bed levelling
G1 Z10 F240
G1 X2 Y10 F3000
G1 Z0 F240
M104 S210 ; set final nozzle temp
M190 S60 ; wait for bed temp to stabilize
M109 S210 ; wait for nozzle temp to stabilize
G1 Z0.28 F240
G92 E0
G1 Y140 E10 F1500 ; prime the nozzle
G1 X2.3 F5000
G92 E0
G1 Y10 E10 F1200 ; prime the nozzle
G92 E0
;start
M107
G21 ; set units to millimeters
G90 ; use absolute coordinates
M82 ; use absolute distances for extrusion
G92 E0
; Filament gcode
;_TOOLCHANGE 0
M107
;LAYER_CHANGE
;Z:0.2
;HEIGHT:0.2
;BEFORE_LAYER_CHANGE
;0.2


G1 E-8.5 F3000
G1 Z0.15 F9000
;AFTER_LAYER_CHANGE
;0.2
G92 E0
M204 S500
G1 X96.508 Y105.775
G1 E8.5 F3000
;TYPE:Skirt
;WIDTH:0.48
G1 F1200
G1 X95.423 Y106.94 E8.5596
G1 X95.029 Y108.482 E8.6192
G1 X95.029 Y122.518 E9.14458
G1 X95.54 Y124.257 E9.21246
G1 X96.705 Y125.342 E9.27205
G1 X98.247 Y125.736 E9.33165
G1 X132.753 Y125.736 E10.62331
G1 X134.492 Y125.225 E10.69119
G1 X135.577 Y124.06 E10.75078
G1 X135.971 Y122.518 E10.81038
G1 X135.971 Y108.482 E11.33577
G1 X135.46 Y106.743 E11.40364
G1 X134.295 Y105.658 E11.46324
G1 X132.753 Y105.264 E11.52284
G1 X98.247 Y105.264 E12.8145
G1 X96.565 Y105.758 E12.88013
G92 E0
G1 E-5.95 F3000
;WIPE_START
G1 F7200
G1 X95.423 Y106.94 E-6.60075
G1 X95.029 Y108.482 E-7.23096
G1 X95.029 Y111.366 E-8.3725
;WIPE_END
G1 E-8.5 F3000
; acceleration to travel
M204 S1500
G1 X99.003 Y109.561 F9000
; decel to extrusion
M204 S500
G1 X99.489 Y109.341
; end travel
G1 E0 F3000
;WIDTH:0.576
G1 F1200
G1 X99.577 Y109.282 E0.00483
G1 X99.872 Y109.16 E0.01943
G1 X99.976 Y109.139 E0.02426
G1 X131.024 Y109.139 E1.44175
G1 X131.128 Y109.16 E1.44658
G1 X131.423 Y109.282 E1.46118
G1 X131.511 Y109.341 E1.46601
G1 X131.894 Y109.724 E1.49077
G1 X131.953 Y109.812 E1.4956
G1 X132.075 Y110.108 E1.51019
G1 X132.096 Y110.211 E1.51502
G1 X132.096 Y120.789 E1.99794
G1 X132.075 Y120.892 E2.00277
G1 X131.953 Y121.188 E2.01736
G1 X131.894 Y121.276 E2.0222
G1 X131.511 Y121.659 E2.04695
G1 X131.423 Y121.718 E2.05179
G1 X131.128 Y121.84 E2.06638
G1 X131.024 Y121.861 E2.07121
G1 X99.976 Y121.861 E3.4887
G1 X99.872 Y121.84 E3.49354
G1 X99.577 Y121.718 E3.50813
G1 X99.489 Y121.659 E3.51296
G1 X99.106 Y121.276 E3.53772
G1 X99.047 Y121.188 E3.54255
G1 X98.925 Y120.892 E3.55714
G1 X98.904 Y120.789 E3.56198
G1 X98.904 Y110.211 E4.04489
G1 X98.925 Y110.108 E4.04972
G1 X99.047 Y109.812 E4.06432
G1 X99.106 Y109.724 E4.06915
G1 X99.447 Y109.383 E4.09117
G1 X99.827 Y109.763 F9000
G1 F1200
G1 X100.029 Y109.676 E4.10123
G1 X130.971 Y109.676 E5.51389
G1 X131.168 Y109.758 E5.52365
G1 X131.477 Y110.067 E5.54357
G1 X131.559 Y110.264 E5.55333
G1 X131.559 Y120.736 E6.03141
G1 X131.477 Y120.933 E6.04117
G1 X131.168 Y121.242 E6.06109
G1 X130.971 Y121.324 E6.07085
G1 X100.029 Y121.324 E7.48351
G1 X99.832 Y121.242 E7.49327
G1 X99.523 Y120.933 E7.5132
G1 X99.441 Y120.736 E7.52296
G1 X99.441 Y110.264 E8.00104
G1 X99.523 Y110.067 E8.0108
G1 X99.784 Y109.806 E8.02766
G1 X100.136 Y110.214 F9000
G1 F1200
G1 X130.864 Y110.214 E9.43056
G1 X131.021 Y110.371 E9.44072
G1 X131.021 Y120.629 E9.90904
G1 X130.864 Y120.786 E9.91921
G1 X100.136 Y120.786 E11.32211
G1 X99.979 Y120.629 E11.33227
G1 X99.979 Y110.371 E11.80059
G1 X100.094 Y110.256 E11.80801
; printing object Pea6.STL id:0 copy 0
M486 S0
G1 X100.535 Y110.77 F9000
;TYPE:External perimeter
G1 F1200
G1 X130.465 Y110.77 E13.17445
G1 X130.465 Y120.23 E13.60631
G1 X100.535 Y120.23 E14.97275
G1 X100.535 Y110.83 E15.40187
;WIPE_START
G1 X100.882 Y110.97 F9000
;WIPE_END
G1 X101.073 Y111.308
;TYPE:Internal perimeter
G1 F1200
G1 X129.927 Y111.308 E16.71925
G1 X129.927 Y119.692 E17.10204
G1 X101.073 Y119.692 E18.41941
G1 X101.073 Y111.368 E18.79946
G92 E0
G1 E-5.95 F3000
;WIPE_START
G1 F7200
G1 X107.193 Y111.355 E-8.3725
;WIPE_END
G1 E-8.5 F3000
; acceleration to travel
M204 S1500
G1 X126.341 Y111.457 F9000
; decel to extrusion
M204 S500
G1 X128.68 Y111.469
; end travel
G1 E0 F3000
;TYPE:Solid infill
;WIDTH:0.574396
G1 F1200
G1 X129.535 Y112.324 E0.05506
G1 X129.535 Y113.084 E0.08966
G1 X128.151 Y111.7 E0.17878
G1 X127.391 Y111.7 E0.21338
G1 X129.535 Y113.844 E0.35143
G1 X129.535 Y114.604 E0.38603
G1 X126.631 Y111.7 E0.57301
G1 X125.871 Y111.7 E0.60761
G1 X129.535 Y115.364 E0.84352
G1 X129.535 Y116.124 E0.87812
G1 X125.111 Y111.7 E1.16296
G1 X124.351 Y111.7 E1.19756
G1 X129.535 Y116.884 E1.53133
G1 X129.535 Y117.644 E1.56593
G1 X123.591 Y111.7 E1.94864
G1 X122.831 Y111.7 E1.98323
G1 X129.535 Y118.404 E2.41487
G1 X129.535 Y119.164 E2.44947
G1 X122.071 Y111.7 E2.93004
G1 X121.311 Y111.7 E2.96464
G1 X128.911 Y119.3 E3.45397
G1 X128.151 Y119.3 E3.48857
G1 X120.551 Y111.7 E3.9779
G1 X119.791 Y111.7 E4.0125
G1 X127.391 Y119.3 E4.50183
G1 X126.631 Y119.3 E4.53643
G1 X119.031 Y111.7 E5.02576
G1 X118.272 Y111.7 E5.06036
G1 X125.871 Y119.3 E5.54969
G1 X125.111 Y119.3 E5.58429
G1 X117.512 Y111.7 E6.07362
G1 X116.752 Y111.7 E6.10821
G1 X124.351 Y119.3 E6.59754
G1 X123.591 Y119.3 E6.63214
G1 X115.992 Y111.7 E7.12147
G1 X115.232 Y111.7 E7.15607
G1 X122.832 Y119.3 E7.6454
G1 X122.072 Y119.3 E7.68
G1 X114.472 Y111.7 E8.16933
G1 X113.712 Y111.7 E8.20393
G1 X121.312 Y119.3 E8.69326
G1 X120.552 Y119.3 E8.72786
G1 X112.952 Y111.7 E9.21719
G1 X112.192 Y111.7 E9.25179
G1 X119.792 Y119.3 E9.74112
G1 X119.032 Y119.3 E9.77572
G1 X111.432 Y111.7 E10.26505
G1 X110.672 Y111.7 E10.29965
G1 X118.272 Y119.3 E10.78898
G1 X117.512 Y119.3 E10.82358
G1 X109.912 Y111.7 E11.31291
G1 X109.152 Y111.7 E11.34751
G1 X116.752 Y119.3 E11.83684
G1 X115.992 Y119.3 E11.87144
G1 X108.392 Y111.7 E12.36077
G1 X107.632 Y111.7 E12.39537
G1 X115.232 Y119.3 E12.8847
G1 X114.472 Y119.3 E12.9193
G1 X106.872 Y111.7 E13.40863
G1 X106.112 Y111.7 E13.44323
G1 X113.712 Y119.3 E13.93256
G1 X112.952 Y119.3 E13.96716
G1 X105.352 Y111.7 E14.45649
G1 X104.592 Y111.7 E14.49109
G1 X112.192 Y119.3 E14.98042
G1 X111.432 Y119.3 E15.01502
G1 X103.832 Y111.7 E15.50435
G1 X103.072 Y111.7 E15.53895
G1 X110.672 Y119.3 E16.02828
G1 X109.912 Y119.3 E16.06288
G1 X102.312 Y111.7 E16.55221
G1 X101.552 Y111.7 E16.58681
G1 X109.152 Y119.3 E17.07614
G1 X108.392 Y119.3 E17.11074
G1 X101.465 Y112.373 E17.55677
G1 X101.465 Y113.133 E17.59137
G1 X107.632 Y119.3 E17.98847
G1 X106.872 Y119.3 E18.02307
G1 X101.465 Y113.892 E18.37124
G1 X101.465 Y114.652 E18.40584
G1 X106.112 Y119.3 E18.70508
G1 X105.353 Y119.3 E18.73967
G1 X101.465 Y115.412 E18.98998
G1 X101.465 Y116.172 E19.02458
G1 X104.593 Y119.3 E19.22596
G1 X103.833 Y119.3 E19.26056
G1 X101.465 Y116.932 E19.413
G1 X101.465 Y117.692 E19.4476
G1 X103.073 Y119.3 E19.55111
G1 X102.313 Y119.3 E19.58571
G1 X101.465 Y118.452 E19.64029
G1 X101.465 Y119.212 E19.67489
G1 X101.784 Y119.531 E19.69542
M106 S84.15
;LAYER_CHANGE
;Z:0.52
;HEIGHT:0.32
;BEFORE_LAYER_CHANGE
;0.52


G92 E0
G1 E-5.95 F3000
;WIPE_START
G1 F7200
G1 X101.465 Y119.212 E-6.12847
G1 X101.465 Y118.452 E-6.42929
G1 X102.313 Y119.3 E-6.90383
G1 X103.073 Y119.3 E-7.20465
G1 X101.465 Y117.692 E-8.10461
G1 X101.465 Y117.015 E-8.3725
;WIPE_END
G1 E-8.5 F3000
; stop printing object Pea6.STL id:0 copy 0
M486 S-1
G1 Z0.47 F9000
;AFTER_LAYER_CHANGE
;0.52
G92 E0
; acceleration to travel
M204 S1500
G1 X95.73 Y117.015
; decel to extrusion
M204 S500
G1 X95.029 Y117.015
; end travel
G1 E8.5 F3000
;TYPE:Skirt
;WIDTH:0.48
G1 F1200
G1 X95.029 Y122.518 E8.81012
G1 X95.54 Y124.257 E8.91232
G1 X96.705 Y125.342 E9.00206
G1 X98.247 Y125.736 E9.0918
G1 X132.753 Y125.736 E11.03669
G1 X134.492 Y125.225 E11.13889
G1 X135.577 Y124.06 E11.22863
G1 X135.971 Y122.518 E11.31837
G1 X135.971 Y108.482 E12.10946
G1 X135.46 Y106.743 E12.21166
G1 X134.295 Y105.658 E12.3014
G1 X132.753 Y105.264 E12.39114
G1 X98.247 Y105.264 E14.33603
G1 X96.508 Y105.775 E14.43823
G1 X95.423 Y106.94 E14.52797
G1 X95.029 Y108.482 E14.6177
G1 X95.029 Y116.955 E15.09529
G92 E0
G1 E-5.95 F3000
;WIPE_START
G1 F7200
G1 X95.029 Y122.518 E-8.15165
G1 X95.186 Y123.053 E-8.3725
;WIPE_END
G1 E-8.5 F3000
; printing object Pea6.STL id:0 copy 0
M486 S0
; acceleration to travel
M204 S1500
G1 X100.115 Y120.361 F9000
; decel to extrusion
M204 S500
G1 X100.752 Y120.013
; end travel
G1 E0 F3000
;TYPE:Internal perimeter
;WIDTH:0.476
G1 F2400
G1 X100.752 Y110.987 E0.50384
G1 X130.248 Y110.987 E2.15027
G1 X130.248 Y120.013 E2.65411
G1 X100.812 Y120.013 E4.29719
G1 X100.361 Y120.404 F9000
;TYPE:External perimeter
;WIDTH:0.428
G1 F1500
G1 X100.361 Y110.596 E4.78008
G1 X130.639 Y110.596 E6.27092
G1 X130.639 Y120.404 E6.75381
G1 X100.421 Y120.404 E8.24169
;WIPE_START
G1 X100.561 Y120.057 F9000
;WIPE_END
G92 E0
G1 E-5.95 F3000
;WIPE_START
G1 F7200
G1 X100.561 Y113.937 E-8.3725
;WIPE_END
G1 E-8.5 F3000
; acceleration to travel
M204 S1500
G1 X101.612 Y111.434 F9000
; decel to extrusion
M204 S500
G1 X101.748 Y111.111
; end travel
G1 E0 F3000
;TYPE:Solid infill
;WIDTH:0.484072
G1 F2400
G1 X101.054 Y111.805 E0.05573
G1 X101.054 Y112.391 E0.08898
G1 X102.156 Y111.289 E0.17743
G1 X102.742 Y111.289 E0.21068
G1 X101.054 Y112.977 E0.34616
G1 X101.054 Y113.562 E0.37941
G1 X103.327 Y111.289 E0.56191
G1 X103.913 Y111.289 E0.59516
G1 X101.054 Y114.148 E0.82468
G1 X101.054 Y114.734 E0.85793
G1 X104.499 Y111.289 E1.13447
G1 X105.085 Y111.289 E1.16772
G1 X101.054 Y115.32 E1.49129
G1 X101.054 Y115.905 E1.52454
G1 X105.67 Y111.289 E1.89512
G1 X106.256 Y111.289 E1.92837
G1 X101.054 Y116.491 E2.34598
G1 X101.054 Y117.077 E2.37923
G1 X106.842 Y111.289 E2.84386
G1 X107.428 Y111.289 E2.87711
G1 X101.054 Y117.663 E3.38877
G1 X101.054 Y118.248 E3.42202
G1 X108.013 Y111.289 E3.98069
G1 X108.599 Y111.289 E4.01394
G1 X101.054 Y118.834 E4.61964
G1 X101.054 Y119.42 E4.65289
G1 X109.185 Y111.289 E5.30561
G1 X109.771 Y111.289 E5.33886
G1 X101.349 Y119.711 E6.01494
G1 X101.934 Y119.711 E6.04819
G1 X110.356 Y111.289 E6.72427
G1 X110.942 Y111.289 E6.75752
G1 X102.52 Y119.711 E7.4336
G1 X103.106 Y119.711 E7.46685
G1 X111.528 Y111.289 E8.14294
G1 X112.114 Y111.289 E8.17619
G1 X103.692 Y119.711 E8.85227
G1 X104.277 Y119.711 E8.88552
G1 X112.699 Y111.289 E9.5616
G1 X113.285 Y111.289 E9.59485
G1 X104.863 Y119.711 E10.27093
G1 X105.449 Y119.711 E10.30418
G1 X113.871 Y111.289 E10.98026
G1 X114.457 Y111.289 E11.01351
G1 X106.035 Y119.711 E11.68959
G1 X106.62 Y119.711 E11.72284
G1 X115.042 Y111.289 E12.39893
G1 X115.628 Y111.289 E12.43218
G1 X107.206 Y119.711 E13.10826
G1 X107.792 Y119.711 E13.14151
G1 X116.214 Y111.289 E13.81759
G1 X116.8 Y111.289 E13.85084
G1 X108.378 Y119.711 E14.52692
G1 X108.963 Y119.711 E14.56017
G1 X117.385 Y111.289 E15.23625
G1 X117.971 Y111.289 E15.2695
G1 X109.549 Y119.711 E15.94558
G1 X110.135 Y119.711 E15.97883
G1 X118.557 Y111.289 E16.65492
G1 X119.143 Y111.289 E16.68817
G1 X110.721 Y119.711 E17.36425
G1 X111.307 Y119.711 E17.3975
G1 X119.729 Y111.289 E18.07358
G1 X120.314 Y111.289 E18.10683
G1 X111.892 Y119.711 E18.78291
G1 X112.478 Y119.711 E18.81616
G1 X120.9 Y111.289 E19.49224
G1 X121.486 Y111.289 E19.52549
G1 X113.064 Y119.711 E20.20157
G1 X113.65 Y119.711 E20.23482
G1 X122.072 Y111.289 E20.91091
G1 X122.657 Y111.289 E20.94416
G1 X114.235 Y119.711 E21.62024
G1 X114.821 Y119.711 E21.65349
G1 X123.243 Y111.289 E22.32957
G1 X123.829 Y111.289 E22.36282
G1 X115.407 Y119.711 E23.0389
G1 X115.993 Y119.711 E23.07215
G1 X124.415 Y111.289 E23.74823
G1 X125 Y111.289 E23.78148
G1 X116.578 Y119.711 E24.45756
G1 X117.164 Y119.711 E24.49081
G1 X125.586 Y111.289 E25.1669
G1 X126.172 Y111.289 E25.20015
G1 X117.75 Y119.711 E25.87623
G1 X118.336 Y119.711 E25.90948
G1 X126.758 Y111.289 E26.58556
G1 X127.343 Y111.289 E26.61881
G1 X118.921 Y119.711 E27.29489
G1 X119.507 Y119.711 E27.32814
G1 X127.929 Y111.289 E28.00422
G1 X128.515 Y111.289 E28.03747
G1 X120.093 Y119.711 E28.71355
G1 X120.679 Y119.711 E28.7468
G1 X129.101 Y111.289 E29.42288
G1 X129.686 Y111.289 E29.45613
G1 X121.264 Y119.711 E30.13222
G1 X121.85 Y119.711 E30.16547
G1 X129.946 Y111.615 E30.81537
G1 X129.946 Y112.201 E30.84862
G1 X122.436 Y119.711 E31.45151
G1 X123.022 Y119.711 E31.48476
G1 X129.946 Y112.787 E32.04062
G1 X129.946 Y113.372 E32.07387
G1 X123.607 Y119.711 E32.58271
G1 X124.193 Y119.711 E32.61596
G1 X129.946 Y113.958 E33.07778
G1 X129.946 Y114.544 E33.11102
G1 X124.779 Y119.711 E33.52582
G1 X125.365 Y119.711 E33.55907
G1 X129.946 Y115.13 E33.92684
G1 X129.946 Y115.715 E33.96009
G1 X125.95 Y119.711 E34.28085
G1 X126.536 Y119.711 E34.31409
G1 X129.946 Y116.301 E34.58782
G1 X129.946 Y116.887 E34.62107
G1 X127.122 Y119.711 E34.84778
G1 X127.708 Y119.711 E34.88103
G1 X129.946 Y117.473 E35.06072
G1 X129.946 Y118.058 E35.09397
G1 X128.294 Y119.711 E35.22663
G1 X128.879 Y119.711 E35.25988
G1 X129.946 Y118.644 E35.34552
G1 X129.946 Y119.23 E35.37877
G1 X129.287 Y119.889 E35.43169
M106 S170.85
;LAYER_CHANGE
;Z:0.84
;HEIGHT:0.32
;BEFORE_LAYER_CHANGE
;0.84


G92 E0
G1 E-5.95 F3000
;WIPE_START
G1 F7200
G1 X129.946 Y119.23 E-6.31901
G1 X129.946 Y118.644 E-6.55087
G1 X128.879 Y119.711 E-7.14808
G1 X128.294 Y119.711 E-7.37995
G1 X129.946 Y118.058 E-8.30506
G1 X129.946 Y117.888 E-8.3725
;WIPE_END
G1 E-8.5 F3000
; stop printing object Pea6.STL id:0 copy 0
M486 S-1
G1 Z0.79 F9000
;AFTER_LAYER_CHANGE
;0.84
G92 E0
; printing object Pea6.STL id:0 copy 0
M486 S0
; acceleration to travel
M204 S1500
G1 X130.214 Y119.77
; decel to extrusion
M204 S500
G1 X130.248 Y120.013
; end travel
G1 E8.5 F3000
;TYPE:Internal perimeter
;WIDTH:0.476
G1 F2400
G1 X100.752 Y120.013 E10.14642
G1 X100.752 Y110.987 E10.65027
G1 X130.248 Y110.987 E12.29669
G1 X130.248 Y119.953 E12.79719
G1 X130.639 Y120.404 F9000
;TYPE:External perimeter
;WIDTH:0.428
G1 F1500
G1 X100.361 Y120.404 E14.28802
G1 X100.361 Y110.596 E14.77092
G1 X130.639 Y110.596 E16.26175
G1 X130.639 Y120.344 E16.74169
;WIPE_START
G1 X130.292 Y120.204 F9000
;WIPE_END
G92 E0
G1 E-5.95 F3000
;WIPE_START
G1 F7200
G1 X124.172 Y120.204 E-8.3725
;WIPE_END
G1 E-8.5 F3000
; acceleration to travel
M204 S1500
G1 X129.443 Y112.893 F9000
; decel to extrusion
M204 S500
G1 X130.124 Y111.948
; end travel
G1 E0 F3000
;TYPE:Solid infill
;WIDTH:0.484072
G1 F2400
G1 X129.465 Y111.289 E0.05292
G1 X128.879 Y111.289 E0.08617
G1 X129.946 Y112.356 E0.17181
G1 X129.946 Y112.942 E0.20506
G1 X128.294 Y111.289 E0.33772
G1 X127.708 Y111.289 E0.37097
G1 X129.946 Y113.527 E0.55066
G1 X129.946 Y114.113 E0.58391
G1 X127.122 Y111.289 E0.81061
G1 X126.536 Y111.289 E0.84386
G1 X129.946 Y114.699 E1.11759
G1 X129.946 Y115.285 E1.15084
G1 X125.95 Y111.289 E1.47159
G1 X125.365 Y111.289 E1.50484
G1 X129.946 Y115.87 E1.87262
G1 X129.946 Y116.456 E1.90587
G1 X124.779 Y111.289 E2.32066
G1 X124.193 Y111.289 E2.35391
G1 X129.946 Y117.042 E2.81573
G1 X129.946 Y117.628 E2.84898
G1 X123.607 Y111.289 E3.35782
G1 X123.022 Y111.289 E3.39107
G1 X129.946 Y118.213 E3.94693
G1 X129.946 Y118.799 E3.98018
G1 X122.436 Y111.289 E4.58307
G1 X121.85 Y111.289 E4.61631
G1 X129.946 Y119.385 E5.26622
G1 X129.946 Y119.711 E5.28473
G1 X129.686 Y119.711 E5.29947
G1 X121.264 Y111.289 E5.97555
G1 X120.679 Y111.289 E6.0088
G1 X129.101 Y119.711 E6.68488
G1 X128.515 Y119.711 E6.71813
G1 X120.093 Y111.289 E7.39422
G1 X119.507 Y111.289 E7.42747
G1 X127.929 Y119.711 E8.10355
G1 X127.343 Y119.711 E8.1368
G1 X118.921 Y111.289 E8.81288
G1 X118.336 Y111.289 E8.84613
G1 X126.758 Y119.711 E9.52221
