; generated by SuperSlicer 2.4 on 2023-03-21 at 14:24:25 UTC

; 

; external perimeters extrusion width = 0.43mm
; perimeters extrusion width = 0.48mm
; infill extrusion width = 0.46mm
; solid infill extrusion width = 0.48mm
; top infill extrusion width = 0.46mm
; first layer extrusion width = 0.58mm

; object:{"name":"Stringing_Testingfff","id":"Stringing_Testingfff.stl id:0 copy 0","object_center":[115.503257,115.493204,0.000000],"boundingbox_center":[115.503257,115.493204,15.953566],"boundingbox_size":[40.248284,25.486624,31.907131]}
; Total objects to print: 1
M486 T1
; plater:{"center":[115.503257,115.493204,0.000000],"boundingbox_center":[115.503257,115.493204,15.953566],"boundingbox_size":[40.248284,25.486624,31.907131]}

;TYPE:Custom
G90 ; use absolute coordinates
M83 ; extruder relative mode
M140 S60 ; set final bed temp
M104 S150 ; set temporary nozzle temp to prevent oozing during homing and auto bed leveling
G4 S10 ; allow partial nozzle warmup
G28 ; home all axis
;G29 ; auto bed levelling
G1 Z10 F240
G1 X2 Y10 F3000
G1 Z0 F240
M104 S215 ; set final nozzle temp
M190 S60 ; wait for bed temp to stabilize
M109 S215 ; wait for nozzle temp to stabilize
G1 Z0.28 F240
G92 E0
G1 Y100 E7.1 F1500 ; prime the nozzle
G1 X2.3 F5000
G92 E0
G1 Y10 E10 F1200 ; prime the nozzle
G92 E0
;start
M107
G21 ; set units to millimeters
G90 ; use absolute coordinates
M82 ; use absolute distances for extrusion
G92 E0
; Filament gcode
;_TOOLCHANGE 0
M107
;LAYER_CHANGE
;Z:0.2
;HEIGHT:0.2
;BEFORE_LAYER_CHANGE
;0.2


G1 E-6.5 F3000
G1 Z0.15 F9000
;AFTER_LAYER_CHANGE
;0.2
G92 E0
M204 S500
G1 X100.385 Y100.214
G1 E6.5 F3000
;TYPE:Skirt
;WIDTH:0.48
G1 F1200
G1 X99.302 Y101.381 E6.55786
G1 X98.912 Y102.925 E6.61573
G1 X98.963 Y128.143 E7.53224
G1 X99.477 Y129.882 E7.59813
G1 X100.645 Y130.964 E7.656
G1 X102.188 Y131.355 E7.71386
G1 X135.534 Y131.287 E8.92576
G1 X137.272 Y130.772 E8.99165
G1 X138.355 Y129.605 E9.04951
G1 X138.746 Y128.062 E9.10738
G1 X138.694 Y102.844 E10.02389
G1 X138.18 Y101.105 E10.08979
G1 X137.013 Y100.022 E10.14765
G1 X135.469 Y99.632 E10.20551
G1 X102.123 Y99.7 E11.41741
G1 X100.442 Y100.197 E11.48112
G92 E0
G1 E-4.55 F3000
;WIPE_START
G1 F7200
G1 X99.302 Y101.381 E-5.20075
G1 X98.912 Y102.925 E-5.83096
G1 X98.914 Y104.369 E-6.4025
;WIPE_END
G1 E-6.5 F3000
; printing object Stringing_Testingfff.stl id:0 copy 0
M486 S0
; acceleration to travel
M204 S1500
G1 X102.517 Y103.81 F9000
; decel to extrusion
M204 S500
G1 X102.957 Y103.742
; end travel
G1 E0 F3000
;TYPE:Internal perimeter
;WIDTH:0.576
G1 F1200
G1 X134.652 Y103.677 E1.4049
G1 X134.7 Y127.245 E2.44955
G1 X103.005 Y127.309 E3.85445
G1 X102.957 Y103.802 E4.89644
G1 X102.419 Y103.206 F9000
;TYPE:External perimeter
G1 F1200
G1 X135.188 Y103.139 E6.34898
G1 X135.189 Y103.249 E6.35388
G1 X135.239 Y127.781 E7.44127
G1 X102.469 Y127.848 E8.89381
G1 X102.419 Y103.266 E9.98343
;WIPE_START
G1 X102.765 Y103.405 F9000
;WIPE_END
G92 E0
G1 E-4.55 F3000
;WIPE_START
G1 F7200
G1 X107.445 Y103.395 E-6.4025
;WIPE_END
G1 E-6.5 F3000
; acceleration to travel
M204 S1500
G1 X130.581 Y103.792 F9000
; decel to extrusion
M204 S500
G1 X133.407 Y103.841
; end travel
G1 E0 F3000
;TYPE:Solid infill
;WIDTH:0.577787
G1 F1200
G1 X134.262 Y104.696 E0.05375
G1 X134.263 Y105.457 E0.08761
G1 X132.879 Y104.073 E0.17464
G1 X132.121 Y104.075 E0.20836
G1 X134.265 Y106.219 E0.34318
G1 X134.267 Y106.98 E0.37704
G1 X131.362 Y104.076 E0.55965
G1 X130.604 Y104.078 E0.59337
G1 X134.268 Y107.742 E0.82376
G1 X134.27 Y108.503 E0.85762
G1 X129.846 Y104.079 E1.1358
G1 X129.087 Y104.081 E1.16952
G1 X134.271 Y109.265 E1.49549
G1 X134.273 Y110.026 E1.52935
G1 X128.329 Y104.082 E1.90311
G1 X127.57 Y104.084 E1.93683
G1 X134.274 Y110.788 E2.35837
G1 X134.276 Y111.549 E2.39223
G1 X126.812 Y104.085 E2.86156
G1 X126.054 Y104.087 E2.89528
G1 X134.277 Y112.311 E3.4124
G1 X134.279 Y113.072 E3.44625
G1 X125.295 Y104.089 E4.01116
G1 X124.537 Y104.09 E4.04488
G1 X134.281 Y113.834 E4.65757
G1 X134.282 Y114.595 E4.69143
G1 X123.778 Y104.092 E5.3519
G1 X123.02 Y104.093 E5.38563
G1 X134.284 Y115.357 E6.09389
G1 X134.285 Y116.118 E6.12775
G1 X122.262 Y104.095 E6.8838
G1 X121.503 Y104.096 E6.91752
G1 X134.287 Y116.88 E7.72136
G1 X134.288 Y117.641 E7.75522
G1 X120.745 Y104.098 E8.60684
G1 X119.986 Y104.099 E8.64056
G1 X134.29 Y118.403 E9.53998
G1 X134.291 Y119.164 E9.57384
G1 X119.228 Y104.101 E10.52103
G1 X118.47 Y104.102 E10.55476
G1 X134.293 Y119.926 E11.54974
G1 X134.294 Y120.687 E11.5836
G1 X117.711 Y104.104 E12.62637
G1 X116.953 Y104.106 E12.66009
G1 X134.296 Y121.449 E13.75065
G1 X134.298 Y122.21 E13.78451
G1 X116.194 Y104.107 E14.92286
G1 X115.436 Y104.109 E14.95658
G1 X134.299 Y122.972 E16.14272
G1 X134.301 Y123.733 E16.17657
G1 X114.677 Y104.11 E17.4105
G1 X113.919 Y104.112 E17.44422
G1 X134.302 Y124.495 E18.72592
G1 X134.304 Y125.256 E18.75978
G1 X113.161 Y104.113 E20.08928
G1 X112.402 Y104.115 E20.123
G1 X134.305 Y126.018 E21.50028
G1 X134.307 Y126.779 E21.53414
G1 X111.644 Y104.116 E22.95921
G1 X110.885 Y104.118 E22.99293
G1 X133.622 Y126.854 E24.42262
G1 X132.864 Y126.856 E24.45634
G1 X110.127 Y104.119 E25.88603
G1 X109.369 Y104.121 E25.91975
G1 X132.105 Y126.858 E27.34944
G1 X131.347 Y126.859 E27.38316
G1 X108.61 Y104.123 E28.81285
G1 X107.852 Y104.124 E28.84657
G1 X130.588 Y126.861 E30.27626
G1 X129.83 Y126.862 E30.30998
G1 X107.093 Y104.126 E31.73967
G1 X106.335 Y104.127 E31.77339
G1 X129.072 Y126.864 E33.20308
G1 X128.313 Y126.865 E33.2368
G1 X105.577 Y104.129 E34.66649
G1 X104.818 Y104.13 E34.70021
G1 X127.555 Y126.867 E36.12989
G1 X126.796 Y126.868 E36.16362
G1 X104.06 Y104.132 E37.5933
G1 X103.35 Y104.133 E37.62486
G1 X103.35 Y104.182 E37.62703
G1 X126.038 Y126.87 E39.05365
G1 X125.279 Y126.872 E39.08737
G1 X103.352 Y104.944 E40.4662
G1 X103.353 Y105.705 E40.50005
G1 X124.521 Y126.873 E41.83109
G1 X123.763 Y126.875 E41.86482
G1 X103.355 Y106.467 E43.14807
G1 X103.356 Y107.228 E43.18193
G1 X123.004 Y126.876 E44.41739
G1 X122.246 Y126.878 E44.45111
G1 X103.358 Y107.99 E45.63879
G1 X103.36 Y108.751 E45.67265
G1 X121.487 Y126.879 E46.81254
G1 X120.729 Y126.881 E46.84626
G1 X103.361 Y109.513 E47.93837
G1 X103.363 Y110.274 E47.97223
G1 X119.971 Y126.882 E49.01654
G1 X119.212 Y126.884 E49.05027
G1 X103.364 Y111.036 E50.0468
G1 X103.366 Y111.797 E50.08066
G1 X118.454 Y126.885 E51.0294
G1 X117.695 Y126.887 E51.06312
G1 X103.367 Y112.559 E51.96408
G1 X103.369 Y113.32 E51.99794
G1 X116.937 Y126.889 E52.85111
G1 X116.179 Y126.89 E52.88483
G1 X103.37 Y114.082 E53.69021
G1 X103.372 Y114.843 E53.72407
G1 X115.42 Y126.892 E54.48166
G1 X114.662 Y126.893 E54.51539
G1 X103.374 Y115.605 E55.22519
G1 X103.375 Y116.367 E55.25905
G1 X113.903 Y126.895 E55.92108
G1 X113.145 Y126.896 E55.9548
G1 X103.377 Y117.128 E56.56903
G1 X103.378 Y117.89 E56.60289
G1 X112.387 Y126.898 E57.16934
G1 X111.628 Y126.899 E57.20306
G1 X103.38 Y118.651 E57.72172
G1 X103.381 Y119.413 E57.75558
G1 X110.87 Y126.901 E58.22645
G1 X110.111 Y126.902 E58.26017
G1 X103.383 Y120.174 E58.68326
G1 X103.384 Y120.936 E58.71712
G1 X109.353 Y126.904 E59.09242
G1 X108.595 Y126.906 E59.12614
G1 X103.386 Y121.697 E59.45365
G1 X103.388 Y122.459 E59.48751
G1 X107.836 Y126.907 E59.76724
G1 X107.078 Y126.909 E59.80096
G1 X103.389 Y123.22 E60.0329
G1 X103.391 Y123.982 E60.06676
G1 X106.319 Y126.91 E60.25091
G1 X105.561 Y126.912 E60.28463
G1 X103.392 Y124.743 E60.421
G1 X103.394 Y125.505 E60.45486
G1 X104.802 Y126.913 E60.54343
G1 X104.044 Y126.915 E60.57715
G1 X103.164 Y126.035 E60.6325
M106 S84.15
;LAYER_CHANGE
;Z:0.52
;HEIGHT:0.32
;BEFORE_LAYER_CHANGE
;0.52


G92 E0
G1 E-4.55 F3000
;WIPE_START
G1 F7200
G1 X104.044 Y126.915 E-5.04275
G1 X104.802 Y126.913 E-5.34296
G1 X103.394 Y125.505 E-6.13152
G1 X103.392 Y124.82 E-6.4025
;WIPE_END
G1 E-6.5 F3000
; stop printing object Stringing_Testingfff.stl id:0 copy 0
M486 S-1
G1 Z0.47 F9000
;AFTER_LAYER_CHANGE
;0.52
G92 E0
; printing object Stringing_Testingfff.stl id:0 copy 0
M486 S0
; acceleration to travel
M204 S1500
G1 X106.408 Y123.663
; decel to extrusion
M204 S500
G1 X106.788 Y123.517
; end travel
G1 E6.5 F3000
;TYPE:Internal perimeter
;WIDTH:0.476
G1 F1958.5992
G1 X106.581 Y123.303 E6.51613
G1 X106.415 Y123.079 E6.53127
G1 X106.271 Y122.818 E6.5474
G1 X106.231 Y122.723 E6.55298
G1 X106.136 Y122.421 E6.57011
G1 X106.116 Y122.32 E6.5757
G1 X106.083 Y122.006 E6.59283
G1 X106.083 Y121.903 E6.59842
G1 X106.114 Y121.588 E6.61555
G1 X106.134 Y121.487 E6.62113
G1 X106.227 Y121.185 E6.63826
G1 X106.268 Y121.09 E6.64385
G1 X106.419 Y120.813 E6.66098
G1 X106.487 Y120.712 E6.66756
G1 X106.562 Y120.617 E6.67414
G1 X106.769 Y120.402 E6.69027
G1 X107.002 Y120.218 E6.7064
G1 X107.089 Y120.162 E6.71199
G1 X107.371 Y120.019 E6.72912
G1 X107.467 Y119.981 E6.73471
G1 X107.772 Y119.897 E6.75184
G1 X107.873 Y119.88 E6.75742
G1 X108.189 Y119.858 E6.77455
G1 X108.292 Y119.861 E6.78014
G1 X108.605 Y119.903 E6.79727
G1 X108.705 Y119.927 E6.80286
G1 X109.004 Y120.03 E6.81998
G1 X109.098 Y120.073 E6.82557
G1 X109.37 Y120.233 E6.8427
G1 X109.468 Y120.305 E6.84928
G1 X109.561 Y120.384 E6.85587
G1 X109.768 Y120.597 E6.872
G1 X109.934 Y120.822 E6.88713
G1 X110.078 Y121.082 E6.90326
G1 X110.118 Y121.177 E6.90885
G1 X110.213 Y121.479 E6.92598
G1 X110.233 Y121.58 E6.93157
G1 X110.266 Y121.894 E6.9487
G1 X110.266 Y121.997 E6.95428
G1 X110.235 Y122.312 E6.97141
G1 X110.215 Y122.413 E6.977
G1 X110.122 Y122.715 E6.99413
G1 X110.082 Y122.81 E6.99971
G1 X109.93 Y123.088 E7.01684
G1 X109.862 Y123.188 E7.02343
G1 X109.787 Y123.283 E7.03001
G1 X109.58 Y123.498 E7.04614
G1 X109.347 Y123.683 E7.06227
G1 X109.26 Y123.738 E7.06786
G1 X108.978 Y123.882 E7.08499
G1 X108.882 Y123.919 E7.09057
G1 X108.577 Y124.003 E7.1077
G1 X108.476 Y124.02 E7.11329
G1 X108.16 Y124.042 E7.13042
G1 X108.057 Y124.039 E7.13601
G1 X107.744 Y123.997 E7.15314
G1 X107.644 Y123.974 E7.15872
G1 X107.345 Y123.871 E7.17585
G1 X107.251 Y123.827 E7.18144
G1 X106.979 Y123.667 E7.19857
G1 X106.881 Y123.595 E7.20515
G1 X106.834 Y123.555 E7.20848
G92 E0
G1 E-4.55 F3000
;WIPE_START
G1 F7200
G1 X106.581 Y123.303 E-4.69148
G1 X106.415 Y123.079 E-4.80203
G1 X106.271 Y122.818 E-4.91986
G1 X106.231 Y122.723 E-4.96067
G1 X106.136 Y122.421 E-5.08579
G1 X106.116 Y122.32 E-5.12659
G1 X106.083 Y122.006 E-5.25171
G1 X106.083 Y121.903 E-5.29252
G1 X106.114 Y121.588 E-5.41764
G1 X106.134 Y121.487 E-5.45845
G1 X106.227 Y121.185 E-5.58356
G1 X106.268 Y121.09 E-5.62438
G1 X106.419 Y120.813 E-5.74949
G1 X106.487 Y120.712 E-5.79757
G1 X106.562 Y120.617 E-5.84565
G1 X106.769 Y120.402 E-5.96348
G1 X107.002 Y120.218 E-6.08131
G1 X107.089 Y120.162 E-6.12212
G1 X107.371 Y120.019 E-6.24725
G1 X107.467 Y119.981 E-6.28805
G1 X107.746 Y119.905 E-6.4025
;WIPE_END
G1 E-6.5 F3000
; acceleration to travel
M204 S1500
G1 X126.106 Y121.73 F9000
; decel to extrusion
M204 S500
G1 X128.418 Y121.96
; end travel
G1 E0 F3000
G1 F1958.5952
G1 X128.418 Y121.857 E0.00559
G1 X128.449 Y121.543 E0.02272
G1 X128.469 Y121.442 E0.0283
G1 X128.562 Y121.14 E0.04543
G1 X128.602 Y121.045 E0.05102
G1 X128.754 Y120.767 E0.06815
G1 X128.822 Y120.667 E0.07473
G1 X128.897 Y120.571 E0.08131
G1 X129.104 Y120.357 E0.09744
G1 X129.337 Y120.172 E0.11357
G1 X129.424 Y120.116 E0.11916
G1 X129.706 Y119.973 E0.13629
G1 X129.802 Y119.936 E0.14188
G1 X130.107 Y119.852 E0.15901
G1 X130.208 Y119.834 E0.16459
G1 X130.524 Y119.813 E0.18172
G1 X130.627 Y119.816 E0.18731
G1 X130.94 Y119.857 E0.20444
G1 X131.04 Y119.881 E0.21003
G1 X131.339 Y119.984 E0.22716
G1 X131.433 Y120.027 E0.23274
G1 X131.705 Y120.188 E0.24987
G1 X131.803 Y120.26 E0.25646
G1 X131.896 Y120.338 E0.26304
G1 X132.103 Y120.552 E0.27917
G1 X132.28 Y120.791 E0.2953
G1 X132.333 Y120.879 E0.30089
G1 X132.467 Y121.166 E0.31802
G1 X132.501 Y121.263 E0.3236
G1 X132.575 Y121.57 E0.34073
G1 X132.591 Y121.691 E0.34731
G1 X132.599 Y121.812 E0.3539
G1 X132.59 Y122.11 E0.37003
G1 X132.544 Y122.385 E0.38516
G1 X132.457 Y122.67 E0.4013
G1 X132.416 Y122.765 E0.40688
G1 X132.265 Y123.042 E0.42401
G1 X132.197 Y123.142 E0.43059
G1 X132.121 Y123.238 E0.43718
G1 X131.915 Y123.452 E0.45331
G1 X131.682 Y123.637 E0.46944
G1 X131.595 Y123.693 E0.47503
G1 X131.313 Y123.836 E0.49216
G1 X131.217 Y123.873 E0.49774
G1 X130.912 Y123.957 E0.51487
G1 X130.811 Y123.975 E0.52046
G1 X130.495 Y123.996 E0.53759
G1 X130.392 Y123.993 E0.54317
G1 X130.079 Y123.952 E0.5603
G1 X129.979 Y123.928 E0.56589
G1 X129.68 Y123.825 E0.58302
G1 X129.586 Y123.782 E0.5886
G1 X129.314 Y123.621 E0.60573
G1 X129.216 Y123.549 E0.61232
G1 X129.123 Y123.471 E0.6189
G1 X128.916 Y123.258 E0.63503
G1 X128.75 Y123.033 E0.65017
G1 X128.606 Y122.772 E0.6663
G1 X128.566 Y122.677 E0.67188
G1 X128.471 Y122.376 E0.68901
G1 X128.451 Y122.275 E0.6946
G1 X128.424 Y122.02 E0.70848
G92 E0
G1 E-4.55 F3000
;WIPE_START
G1 F7200
G1 X128.418 Y121.857 E-4.61448
G1 X128.449 Y121.543 E-4.7396
G1 X128.469 Y121.442 E-4.78041
G1 X128.562 Y121.14 E-4.90553
G1 X128.602 Y121.045 E-4.94634
G1 X128.754 Y120.767 E-5.07145
G1 X128.822 Y120.667 E-5.11953
G1 X128.897 Y120.571 E-5.16762
G1 X129.104 Y120.357 E-5.28545
G1 X129.337 Y120.172 E-5.40327
G1 X129.424 Y120.116 E-5.44409
G1 X129.706 Y119.973 E-5.5692
G1 X129.802 Y119.936 E-5.61001
G1 X130.107 Y119.852 E-5.73513
G1 X130.208 Y119.834 E-5.77594
G1 X130.524 Y119.813 E-5.90106
G1 X130.627 Y119.816 E-5.94187
G1 X130.94 Y119.857 E-6.06699
G1 X131.04 Y119.881 E-6.10779
G1 X131.339 Y119.984 E-6.23291
G1 X131.433 Y120.027 E-6.27372
G1 X131.705 Y120.188 E-6.39883
G1 X131.712 Y120.193 E-6.4025
;WIPE_END
G1 E-6.5 F3000
; acceleration to travel
M204 S1500
G1 X128.781 Y112.264 F9000
; decel to extrusion
M204 S500
G1 X128.402 Y111.239
; end travel
G1 E0 F3000
G1 F2400
G1 X126.821 Y111.242 E0.0857
G1 X108.978 Y111.279 E1.05261
G1 X108.97 Y107.093 E1.27947
G1 X126.812 Y107.056 E2.24638
G1 X132.572 Y107.044 E2.55851
G1 X132.581 Y111.231 E2.78536
G1 X128.462 Y111.239 E3.00854
G92 E0
G1 E-4.55 F3000
;WIPE_START
G1 F7200
G1 X126.821 Y111.242 E-5.19973
G1 X123.782 Y111.249 E-6.4025
;WIPE_END
G1 E-6.5 F3000
; acceleration to travel
M204 S1500
G1 X134.09 Y103.874 F9000
; decel to extrusion
M204 S500
G1 X135.362 Y102.964
; end travel
G1 E0 F3000
;TYPE:External perimeter
;WIDTH:0.428
G1 F1500
G1 X135.413 Y127.954 E1.19466
G1 X102.295 Y128.022 E2.77786
G1 X102.244 Y103.032 E3.97251
G1 X135.302 Y102.964 E5.55284
;WIPE_START
G1 X135.163 Y103.311 F9000
;WIPE_END
G92 E0
G1 E-4.55 F3000
;WIPE_START
G1 F7200
G1 X135.172 Y107.991 E-6.4025
;WIPE_END
G1 E-6.5 F3000
; acceleration to travel
M204 S1500
G1 X130.155 Y107.323 F9000
; decel to extrusion
M204 S500
G1 X129.507 Y107.237
; end travel
G1 E0 F3000
;TYPE:Solid infill
;WIDTH:0.531218
G1 F2400
G1 X128.752 Y107.991 E0.06452
G1 X128.754 Y108.576 E0.09987
G1 X129.915 Y107.414 E0.19922
G1 X130.502 Y107.413 E0.23472
G1 X128.755 Y109.16 E0.38417
G1 X128.756 Y109.745 E0.41953
G1 X131.089 Y107.412 E0.61908
G1 X131.676 Y107.411 E0.65458
G1 X128.757 Y110.33 E0.90423
G1 X128.758 Y110.874 E0.93714
G1 X128.799 Y110.874 E0.93959
G1 X132.209 Y107.464 E1.23123
G1 X132.21 Y108.048 E1.26658
G1 X129.386 Y110.873 E1.50813
G1 X129.973 Y110.871 E1.54363
G1 X132.211 Y108.633 E1.73507
G1 X132.212 Y109.218 E1.77042
G1 X130.56 Y110.87 E1.91177
G1 X131.147 Y110.869 E1.94727
G1 X132.213 Y109.802 E2.03851
G1 X132.215 Y110.387 E2.07386
G1 X131.555 Y111.046 E2.13027
G92 E0
G1 E-4.55 F3000
;WIPE_START
G1 F7200
G1 X132.215 Y110.387 E-4.91921
G1 X132.213 Y109.802 E-5.15061
G1 X131.147 Y110.869 E-5.74782
G1 X130.56 Y110.87 E-5.98016
G1 X131.314 Y110.116 E-6.4025
;WIPE_END
G1 E-6.5 F3000
; acceleration to travel
M204 S1500
G1 X128.145 Y111.006 F9000
; decel to extrusion
M204 S500
G1 X127.748 Y111.117
; end travel
G1 E0 F3000
;TYPE:Top solid infill
;WIDTH:0.501282
G1 F1800
G1 X128.37 Y110.496 E0.04975
G1 X128.368 Y109.94 E0.08127
G1 X127.36 Y110.948 E0.16207
G1 X127.296 Y110.949 E0.16566
G1 X127.212 Y110.949 E0.17042
G1 X126.801 Y110.95 E0.19372
G1 X128.367 Y109.383 E0.31918
G1 X128.366 Y108.827 E0.3507
G1 X126.242 Y110.951 E0.52082
G1 X125.684 Y110.952 E0.55247
G1 X128.365 Y108.271 E0.76726
G1 X128.364 Y107.714 E0.79877
G1 X125.609 Y110.469 E1.01944
