; generated by SuperSlicer 2.4 on 2023-03-21 at 14:21:33 UTC

; 

; external perimeters extrusion width = 0.43mm
; perimeters extrusion width = 0.48mm
; infill extrusion width = 0.46mm
; solid infill extrusion width = 0.48mm
; top infill extrusion width = 0.46mm
; first layer extrusion width = 0.58mm

; object:{"name":"Kuwait_Towers","id":"Kuwait_Towers.stl id:0 copy 0","object_center":[115.500000,115.500000,0.000000],"boundingbox_center":[115.500000,115.500000,29.256804],"boundingbox_size":[27.310319,19.184277,58.513229]}
; Total objects to print: 1
M486 T1
; plater:{"center":[115.500000,115.500000,0.000000],"boundingbox_center":[115.500000,115.500000,29.256804],"boundingbox_size":[27.310319,19.184277,58.513229]}

;TYPE:Custom
G90 ; use absolute coordinates
M83 ; extruder relative mode
M140 S60 ; set final bed temp
M104 S150 ; set temporary nozzle temp to prevent oozing during homing and auto bed leveling
G4 S10 ; allow partial nozzle warmup
G28 ; home all axis
;G29 ; auto bed levelling
G1 Z10 F240
G1 X2 Y10 F3000
G1 Z0 F240
M104 S215 ; set final nozzle temp
M190 S60 ; wait for bed temp to stabilize
M109 S215 ; wait for nozzle temp to stabilize
G1 Z0.28 F240
G92 E0
G1 Y100 E7.1 F1500 ; prime the nozzle
G1 X2.3 F5000
G92 E0
G1 Y10 E10 F1200 ; prime the nozzle
G92 E0
;start
M107
G21 ; set units to millimeters
G90 ; use absolute coordinates
M82 ; use absolute distances for extrusion
G92 E0
; Filament gcode
;_TOOLCHANGE 0
M107
;LAYER_CHANGE
;Z:0.2
;HEIGHT:0.2
;BEFORE_LAYER_CHANGE
;0.2


G1 E-6.5 F3000
G1 Z0.15 F9000
;AFTER_LAYER_CHANGE
;0.2
G92 E0
M204 S500
G1 X103.127 Y113.03
G1 E6.5 F3000
;TYPE:Skirt
;WIDTH:0.48
G1 F1200
G1 X102.118 Y114.039 E6.55186
G1 X101.238 Y115.356 E6.60943
G1 X100.692 Y116.673 E6.66126
G1 X100.383 Y118.228 E6.71887
G1 X100.383 Y119.655 E6.77075
G1 X100.692 Y121.21 E6.82836
G1 X101.238 Y122.528 E6.88019
G1 X102.118 Y123.845 E6.93777
G1 X103.126 Y124.853 E6.98957
G1 X104.444 Y125.734 E7.04718
G1 X105.761 Y126.28 E7.09901
G1 X107.315 Y126.589 E7.1566
G1 X108.743 Y126.589 E7.20849
G1 X125.372 Y123.06 E7.82629
G1 X126.638 Y122.525 E7.87626
G1 X127.956 Y121.645 E7.93386
G1 X128.966 Y120.635 E7.98576
G1 X129.846 Y119.317 E8.04336
G1 X130.391 Y118.001 E8.09513
G1 X130.701 Y116.447 E8.15271
G1 X130.701 Y115.019 E8.20461
G1 X130.391 Y113.465 E8.26222
G1 X129.846 Y112.148 E8.314
G1 X128.966 Y110.83 E8.3716
G1 X127.956 Y109.82 E8.42351
G1 X126.638 Y108.94 E8.48111
G1 X125.32 Y108.394 E8.53296
G1 X123.766 Y108.086 E8.59053
G1 X122.342 Y108.086 E8.64228
G1 X105.712 Y111.615 E9.26014
G1 X104.445 Y112.15 E9.31011
G1 X103.177 Y112.997 E9.36553
G1 X103.42 Y113.36 F9000
G1 F1200
G1 X103.37 Y113.393 E9.36771
G1 X102.481 Y114.282 E9.41337
G1 X101.601 Y115.599 E9.47095
G1 X101.121 Y116.759 E9.51658
G1 X100.811 Y118.313 E9.57419
G1 X100.811 Y119.57 E9.61986
G1 X101.121 Y121.125 E9.67747
G1 X101.601 Y122.285 E9.72311
G1 X102.482 Y123.602 E9.78068
G1 X103.369 Y124.489 E9.82629
G1 X104.687 Y125.37 E9.8839
G1 X105.847 Y125.851 E9.92954
G1 X107.401 Y126.161 E9.98712
G1 X108.658 Y126.161 E10.03281
G1 X125.28 Y122.633 E10.65039
G1 X126.395 Y122.162 E10.69438
G1 X127.713 Y121.281 E10.75198
G1 X128.602 Y120.392 E10.79768
G1 X129.483 Y119.074 E10.85528
G1 X129.963 Y117.916 E10.90087
G1 X130.272 Y116.362 E10.95844
G1 X130.272 Y115.105 E11.00413
G1 X129.963 Y113.55 E11.06175
G1 X129.483 Y112.391 E11.10734
G1 X128.602 Y111.073 E11.16494
G1 X127.713 Y110.184 E11.21064
G1 X126.395 Y109.303 E11.26824
G1 X125.235 Y108.823 E11.31388
G1 X123.681 Y108.515 E11.37146
G1 X122.427 Y108.514 E11.41702
G1 X120.827 Y108.832 E11.47633
G1 X105.803 Y112.042 E12.03466
G1 X104.688 Y112.513 E12.07865
G1 X103.47 Y113.327 E12.1319
G92 E0
G1 E-4.55 F3000
;WIPE_START
G1 F7200
G1 X103.37 Y113.393 E-4.5975
G1 X102.481 Y114.282 E-5.09479
G1 X101.601 Y115.599 E-5.72186
G1 X101.121 Y116.759 E-6.21886
G1 X101.03 Y117.214 E-6.4025
;WIPE_END
G1 E-6.5 F3000
; printing object Kuwait_Towers.stl id:0 copy 0
M486 S0
; acceleration to travel
M204 S1500
G1 X105.238 Y116.725 F9000
; decel to extrusion
M204 S500
G1 X105.752 Y116.665
; end travel
G1 E0 F3000
;TYPE:Internal perimeter
;WIDTH:0.576
G1 F1200
G1 X106.797 Y115.967 E0.05569
G1 X108.029 Y115.723 E0.11137
G1 X108.248 Y115.766 E0.12123
G1 X109.262 Y115.967 E0.16709
G1 X110.307 Y116.665 E0.22278
G1 X111.005 Y117.709 E0.27845
G1 X111.25 Y118.942 E0.33415
G1 X111.005 Y120.174 E0.38986
G1 X110.307 Y121.219 E0.44553
G1 X109.262 Y121.917 E0.50126
G1 X108.029 Y122.163 E0.55696
G1 X106.798 Y121.917 E0.61264
G1 X105.753 Y121.219 E0.66836
G1 X105.055 Y120.174 E0.72403
G1 X104.809 Y118.942 E0.77974
G1 X105.055 Y117.709 E0.83545
G1 X105.719 Y116.715 E0.88845
G1 X105.417 Y116.243 F9000
;TYPE:External perimeter
G1 F1200
G1 X106.588 Y115.461 E0.95084
G1 X108.029 Y115.175 E1.01599
G1 X108.352 Y115.239 E1.03058
G1 X109.472 Y115.461 E1.08118
G1 X110.695 Y116.278 E1.14635
G1 X111.511 Y117.499 E1.21149
G1 X111.798 Y118.942 E1.27668
G1 X111.511 Y120.384 E1.34186
G1 X110.695 Y121.606 E1.40701
G1 X109.472 Y122.423 E1.47221
G1 X108.029 Y122.711 E1.53739
G1 X106.588 Y122.423 E1.60255
G1 X105.365 Y121.606 E1.66774
G1 X104.549 Y120.384 E1.73288
G1 X104.261 Y118.942 E1.79807
G1 X104.549 Y117.499 E1.86325
G1 X105.367 Y116.276 E1.9285
;WIPE_START
G1 X105.776 Y116.42 F9000
;WIPE_END
G92 E0
G1 E-4.55 F3000
;WIPE_START
G1 F7200
G1 X106.666 Y115.649 E-5.01589
G1 X108.029 Y115.379 E-5.56618
G1 X108.313 Y115.435 E-5.68077
G1 X109.394 Y115.649 E-6.11682
G1 X109.994 Y116.05 E-6.4025
;WIPE_END
G1 E-6.5 F3000
G1 X110.856 Y117.788 F9000
G1 E0 F3000
;TYPE:Solid infill
;WIDTH:0.567947
G1 F1200
G1 X110 Y116.932 E0.05292
G1 X109.109 Y116.337 E0.09973
G1 X108.53 Y116.222 E0.12553
G1 X110.751 Y118.443 E0.26279
G1 X110.85 Y118.942 E0.28504
G1 X110.791 Y119.242 E0.29842
G1 X107.73 Y116.182 E0.48757
G1 X107.096 Y116.308 E0.51582
G1 X110.664 Y119.876 E0.73636
G1 X110.635 Y120.021 E0.74284
G1 X110.401 Y120.372 E0.7613
G1 X106.6 Y116.571 E0.99625
G1 X106.144 Y116.875 E1.0202
G1 X110.096 Y120.828 E1.2645
G1 X110.024 Y120.936 E1.27018
G1 X109.677 Y121.168 E1.28845
G1 X105.803 Y117.295 E1.52786
G1 X105.499 Y117.75 E1.55181
G1 X109.221 Y121.473 E1.78188
G1 X109.109 Y121.548 E1.7878
G1 X108.632 Y121.643 E1.80907
G1 X105.329 Y118.34 E2.0132
G1 X105.209 Y118.942 E2.04
G1 X105.219 Y118.99 E2.04216
G1 X107.982 Y121.753 E2.21295
G1 X107.033 Y121.564 E2.25524
G1 X105.114 Y119.645 E2.37388
G92 E0
G1 E-4.55 F3000
;WIPE_START
G1 F7200
G1 X107.033 Y121.564 E-5.62447
G1 X107.982 Y121.753 E-6.00751
G1 X107.276 Y121.048 E-6.4025
;WIPE_END
G1 E-6.5 F3000
; acceleration to travel
M204 S1500
G1 X118.684 Y117.409 F9000
; decel to extrusion
M204 S500
G1 X120.078 Y116.965
; end travel
G1 E0 F3000
;TYPE:Internal perimeter
;WIDTH:0.576
G1 F1200
G1 X119.834 Y115.733 E0.05567
G1 X120.078 Y114.5 E0.11138
G1 X120.776 Y113.455 E0.16708
G1 X121.821 Y112.758 E0.22277
G1 X123.054 Y112.513 E0.27849
G1 X123.272 Y112.556 E0.28834
G1 X124.286 Y112.758 E0.33417
G1 X125.331 Y113.455 E0.38985
G1 X126.029 Y114.5 E0.44555
G1 X126.274 Y115.733 E0.50127
G1 X126.029 Y116.965 E0.55694
G1 X125.331 Y118.01 E0.61264
G1 X124.286 Y118.708 E0.66834
G1 X123.054 Y118.953 E0.72401
G1 X121.821 Y118.707 E0.77973
G1 X120.776 Y118.01 E0.83543
G1 X120.111 Y117.015 E0.88847
G1 X119.571 Y117.174 F9000
;TYPE:External perimeter
G1 F1200
G1 X119.286 Y115.733 E0.95361
G1 X119.571 Y114.291 E1.01879
G1 X120.389 Y113.068 E1.08398
G1 X121.612 Y112.251 E1.14915
G1 X123.054 Y111.965 E1.21434
G1 X123.377 Y112.029 E1.22892
G1 X124.496 Y112.251 E1.27948
G1 X125.718 Y113.068 E1.34465
G1 X126.535 Y114.291 E1.40983
G1 X126.822 Y115.733 E1.47501
G1 X126.535 Y117.174 E1.54016
G1 X125.718 Y118.397 E1.60534
G1 X124.495 Y119.214 E1.67051
G1 X123.054 Y119.501 E1.73566
G1 X121.611 Y119.214 E1.80086
G1 X120.389 Y118.397 E1.86603
G1 X119.605 Y117.224 E1.92856
;WIPE_START
G1 X119.835 Y116.874 F9000
;WIPE_END
G92 E0
G1 E-4.55 F3000
;WIPE_START
G1 F7200
G1 X119.49 Y115.733 E-5.02187
G1 X119.76 Y114.369 E-5.57244
G1 X120.533 Y113.212 E-6.12303
G1 X121.12 Y112.82 E-6.4025
;WIPE_END
G1 E-6.5 F3000
; acceleration to travel
M204 S1500
G1 X123.872 Y112.897 F9000
; decel to extrusion
M204 S500
G1 X124.208 Y112.906
; end travel
G1 E0 F3000
;TYPE:Solid infill
;WIDTH:0.567973
G1 F1200
G1 X125.064 Y113.762 E0.05291
G1 X125.659 Y114.653 E0.09973
G1 X125.774 Y115.233 E0.12555
G1 X123.554 Y113.012 E0.26281
G1 X123.196 Y112.941 E0.27878
G1 X123.054 Y112.913 E0.28509
G1 X122.754 Y112.972 E0.29845
G1 X125.814 Y116.033 E0.48761
G1 X125.688 Y116.666 E0.51585
G1 X122.12 Y113.098 E0.73641
G1 X121.974 Y113.127 E0.74292
G1 X121.623 Y113.361 E0.76135
G1 X125.425 Y117.163 E0.99632
G1 X125.12 Y117.618 E1.02027
G1 X121.168 Y113.666 E1.26461
G1 X121.059 Y113.738 E1.27032
G1 X120.827 Y114.085 E1.28855
G1 X124.701 Y117.959 E1.528
G1 X124.245 Y118.263 E1.55195
G1 X120.523 Y114.54 E1.78205
G1 X120.447 Y114.653 E1.78797
G1 X120.353 Y115.131 E1.80925
G1 X123.655 Y118.433 E2.01339
G1 X123.054 Y118.553 E2.04019
G1 X123.006 Y118.543 E2.04235
G1 X120.243 Y115.781 E2.2131
G1 X120.431 Y116.729 E2.25532
G1 X122.351 Y118.649 E2.374
M106 S84.15
;LAYER_CHANGE
;Z:0.52
;HEIGHT:0.32
;BEFORE_LAYER_CHANGE
;0.52


G92 E0
G1 E-4.55 F3000
;WIPE_START
G1 F7200
G1 X120.431 Y116.729 E-5.62479
G1 X120.243 Y115.781 E-6.00718
G1 X120.949 Y116.487 E-6.4025
;WIPE_END
G1 E-6.5 F3000
; stop printing object Kuwait_Towers.stl id:0 copy 0
M486 S-1
G1 Z0.47 F9000
;AFTER_LAYER_CHANGE
;0.52
G92 E0
; printing object Kuwait_Towers.stl id:0 copy 0
M486 S0
; acceleration to travel
M204 S1500
G1 X112.506 Y118.661
; decel to extrusion
M204 S500
G1 X111.415 Y118.942
; end travel
G1 E6.5 F3000
;TYPE:Internal perimeter
;WIDTH:0.476
G1 F1313
G1 X111.157 Y120.238 E6.5716
G1 X110.424 Y121.335 E6.64315
G1 X109.325 Y122.07 E6.71476
G1 X108.029 Y122.328 E6.78635
G1 X106.735 Y122.07 E6.85789
G1 X105.636 Y121.335 E6.92951
G1 X104.902 Y120.238 E7.00106
G1 X104.644 Y118.942 E7.07265
G1 X104.902 Y117.646 E7.14425
G1 X105.636 Y116.548 E7.21579
G1 X106.734 Y115.815 E7.28737
G1 X108.029 Y115.558 E7.35893
G1 X109.325 Y115.815 E7.43052
G1 X110.424 Y116.548 E7.50211
G1 X111.157 Y117.646 E7.57365
G1 X111.403 Y118.883 E7.64199
G1 X111.813 Y118.942 F9000
;TYPE:External perimeter
;WIDTH:0.428
G1 F1313
G1 X111.525 Y120.39 E7.71257
G1 X110.705 Y121.617 E7.78311
G1 X109.477 Y122.437 E7.8537
G1 X108.029 Y122.725 E7.92428
G1 X106.582 Y122.437 E7.99481
G1 X105.355 Y121.617 E8.06541
G1 X104.535 Y120.39 E8.13594
G1 X104.247 Y118.942 E8.20653
G1 X104.535 Y117.494 E8.27711
G1 X105.355 Y116.267 E8.34764
G1 X106.582 Y115.447 E8.41821
G1 X108.029 Y115.16 E8.48875
G1 X109.477 Y115.447 E8.55932
G1 X110.705 Y116.267 E8.62989
G1 X111.525 Y117.494 E8.70043
G1 X111.801 Y118.883 E8.76814
;WIPE_START
G1 X111.454 Y119.119 F9000
;WIPE_END
G92 E0
G1 E-4.55 F3000
;WIPE_START
G1 F7200
G1 X111.336 Y120.312 E-5.02458
G1 X110.561 Y121.472 E-5.57713
G1 X109.399 Y122.249 E-6.13017
G1 X108.725 Y122.383 E-6.4025
;WIPE_END
G1 E-6.5 F3000
G1 X109.54 Y121.776 F9000
G1 E0 F3000
;TYPE:Solid infill
;WIDTH:0.489106
G1 F1313
G1 X110.218 Y121.098 E0.05338
G1 X110.872 Y120.12 E0.11894
G1 X110.937 Y119.794 E0.13744
G1 X108.881 Y121.85 E0.29935
G1 X108.15 Y121.995 E0.34087
G1 X111.083 Y119.062 E0.57184
G1 X111.107 Y118.942 E0.57868
G1 X111.026 Y118.534 E0.60185
G1 X107.621 Y121.938 E0.86993
G1 X107.133 Y121.841 E0.89766
G1 X110.928 Y118.045 E1.19655
G1 X110.873 Y117.764 E1.21251
G1 X110.773 Y117.615 E1.22249
G1 X106.703 Y121.685 E1.54299
G1 X106.352 Y121.45 E1.5665
G1 X110.538 Y117.264 E1.89616
G1 X110.304 Y116.913 E1.91968
G1 X106.001 Y121.216 E2.25851
G1 X105.854 Y121.117 E2.26835
G1 X105.717 Y120.913 E2.28203
G1 X110.001 Y116.63 E2.61935
G1 X109.65 Y116.395 E2.64287
G1 X105.483 Y120.562 E2.97101
G1 X105.248 Y120.211 E2.99452
G1 X109.299 Y116.16 E3.31349
G1 X109.207 Y116.1 E3.31959
G1 X108.846 Y116.028 E3.34013
G1 X105.115 Y119.758 E3.63389
G1 X105.018 Y119.27 E3.66163
G1 X108.357 Y115.931 E3.92456
G1 X108.029 Y115.866 E3.94315
G1 X107.788 Y115.914 E3.95684
G1 X105.001 Y118.701 E4.17636
G1 X105.146 Y117.97 E4.21788
G1 X107.284 Y115.832 E4.38621
G1 X106.456 Y116.302 F9000
;TYPE:Gap fill
;WIDTH:0.164673
G1 F1313
G1 X106.419 Y116.332 E4.38683
G1 X106.281 Y116.445 E4.38909
;WIDTH:0.21108
G1 X106.144 Y116.557 E4.39245
;WIDTH:0.257488
G1 X106.007 Y116.67 E4.39691
;WIDTH:0.303896
G1 X105.87 Y116.782 E4.40246
G1 X105.757 Y116.92 E4.40802
;WIDTH:0.257488
G1 X105.645 Y117.057 E4.41248
;WIDTH:0.21108
G1 X105.532 Y117.194 E4.41585
;WIDTH:0.164273
G1 X105.419 Y117.332 E4.4181
G1 X105.389 Y117.369 E4.41872
G92 E0
G1 E-4.55 F3000
;WIPE_START
G1 F7200
G1 X105.419 Y117.332 E-4.569
G1 X105.532 Y117.194 E-4.6393
;WIPE_END
G1 E-6.5 F3000
; acceleration to travel
M204 S1500
G1 X110.701 Y110.843 F9000
; decel to extrusion
M204 S250
G1 X111.02 Y110.451
; end travel
G1 E0 F3000
;TYPE:Overhang perimeter
;WIDTH:0.389872
;HEIGHT:0.389872
G1 F1500
G1 X110.53 Y109.717 E0.04378
G1 X110.358 Y108.852 E0.08754
G1 X110.53 Y107.988 E0.13128
G1 X111.02 Y107.255 E0.17501
G1 X111.753 Y106.766 E0.21874
G1 X112.617 Y106.594 E0.26249
G1 X113.483 Y106.767 E0.30629
G1 X114.215 Y107.255 E0.35001
G1 X114.705 Y107.988 E0.39375
G1 X114.877 Y108.852 E0.43749
G1 X114.705 Y109.717 E0.48124
G1 X114.215 Y110.451 E0.52502
G1 X113.482 Y110.94 E0.56876
G1 X112.617 Y111.112 E0.61254
G1 X111.753 Y110.94 E0.65629
G1 X111.07 Y110.484 E0.69705
G1 X110.853 Y110.808 F9000
G1 F1500
G1 X110.739 Y110.732 E0.70389
G1 X110.163 Y109.869 E0.75538
G1 X109.96 Y108.852 E0.80683
G1 X110.163 Y107.836 E0.85828
G1 X110.738 Y106.974 E0.90972
G1 X111.6 Y106.399 E0.96115
G1 X112.617 Y106.196 E1.0126
G1 X113.635 Y106.399 E1.0641
G1 X114.497 Y106.974 E1.11552
G1 X115.072 Y107.836 E1.16697
G1 X115.275 Y108.852 E1.21842
G1 X115.072 Y109.869 E1.26987
G1 X114.497 Y110.732 E1.32135
G1 X113.635 Y111.308 E1.3728
G1 X112.617 Y111.51 E1.42429
G1 X111.6 Y111.308 E1.47574
G1 X110.903 Y110.842 E1.51738
G1 X111.776 Y110.808 F9000
;TYPE:Bridge infill
G1 F1500
G1 X113.459 Y110.808 E1.60089
G1 X114.109 Y110.374 F9000
G1 F1500
G1 X111.428 Y110.374 E1.73397
G1 X111.23 Y110.241 E1.74581
G1 X111.028 Y109.939 E1.76382
G1 X114.207 Y109.939 E1.92161
G1 X114.431 Y109.604 E1.94164
G1 X114.451 Y109.505 E1.94663
G1 X110.784 Y109.505 E2.1286
G1 X110.698 Y109.07 E2.15059
G1 X114.537 Y109.07 E2.34114
G1 X114.581 Y108.852 E2.35218
G1 X114.538 Y108.636 E2.36313
G1 X110.697 Y108.636 E2.55372
G1 X110.784 Y108.202 E2.5757
G1 X114.451 Y108.202 E2.75771
G1 X114.431 Y108.101 E2.76278
G1 X114.208 Y107.767 E2.78272
G1 X111.027 Y107.767 E2.94059
G1 X111.229 Y107.465 E2.95864
G1 X111.427 Y107.333 E2.97045
G1 X114.11 Y107.333 E3.10362
G1 X113.459 Y106.899 F9000
G1 F1500
G1 X111.776 Y106.899 E3.18714
G92 E0
G1 E-4.55 F3000
;WIPE_START
G1 F7200
M204 S500
G1 X113.459 Y106.899 E-5.2161
;WIPE_END
G1 E-6.5 F3000
; acceleration to travel
M204 S1500
G1 X119.836 Y112.602 F9000
; decel to extrusion
M204 S500
G1 X120.66 Y113.339
; end travel
G1 E0 F3000
;TYPE:Internal perimeter
;WIDTH:0.476
;HEIGHT:0.32
G1 F1313
G1 X121.758 Y112.606 E0.07155
G1 X123.061 Y112.349 E0.14353
G1 X124.349 Y112.605 E0.2147
G1 X125.447 Y113.339 E0.28627
G1 X126.181 Y114.437 E0.35785
G1 X126.439 Y115.733 E0.42945
G1 X126.181 Y117.028 E0.501
G1 X125.447 Y118.126 E0.57259
G1 X124.349 Y118.86 E0.64417
G1 X123.054 Y119.118 E0.71573
G1 X121.758 Y118.86 E0.78732
G1 X120.66 Y118.126 E0.85892
G1 X119.925 Y117.028 E0.93051
G1 X119.669 Y115.733 E1.00205
G1 X119.925 Y114.437 E1.07364
G1 X120.626 Y113.389 E1.14198
G1 X120.378 Y113.057 F9000
;TYPE:External perimeter
;WIDTH:0.428
G1 F1313
G1 X121.606 Y112.238 E1.21253
G1 X123.061 Y111.952 E1.28345
G1 X124.501 Y112.238 E1.35363
G1 X125.729 Y113.057 E1.42419
G1 X126.549 Y114.285 E1.49476
G1 X126.837 Y115.733 E1.56534
G1 X126.549 Y117.18 E1.63588
G1 X125.729 Y118.408 E1.70645
G1 X124.501 Y119.228 E1.77702
G1 X123.054 Y119.516 E1.84756
G1 X121.606 Y119.227 E1.91815
G1 X120.378 Y118.408 E1.98872
G1 X119.558 Y117.18 E2.0593
G1 X119.271 Y115.733 E2.12983
G1 X119.558 Y114.285 E2.2004
G1 X120.345 Y113.107 E2.26812
;WIPE_START
G1 X120.757 Y113.186 F9000
;WIPE_END
G1 X122.307 Y112.624
