; generated by SuperSlicer 2.4 on 2023-02-23 at 13:26:29 UTC

; 

; external perimeters extrusion width = 0.43mm
; perimeters extrusion width = 0.48mm
; infill extrusion width = 0.46mm
; solid infill extrusion width = 0.48mm
; top infill extrusion width = 0.46mm
; first layer extrusion width = 0.58mm

; object:{"name":"stringing-test","id":"stringing-test.stl id:0 copy 0","object_center":[115.500000,115.500000,0.000000],"boundingbox_center":[115.500000,115.500000,9.460904],"boundingbox_size":[36.762274,21.804853,18.921809]}
; Total objects to print: 1
M486 T1
; plater:{"center":[115.500000,115.500000,0.000000],"boundingbox_center":[115.500000,115.500000,9.460904],"boundingbox_size":[36.762274,21.804853,18.921809]}

;TYPE:Custom
G90 ; use absolute coordinates
M83 ; extruder relative mode
M140 S60 ; set final bed temp
M104 S150 ; set temporary nozzle temp to prevent oozing during homing and auto bed leveling
G4 S10 ; allow partial nozzle warmup
G28 ; home all axis
;G29 ; auto bed levelling
G1 Z10 F240
G1 X2 Y10 F3000
G1 Z0 F240
M104 S210 ; set final nozzle temp
M190 S60 ; wait for bed temp to stabilize
M109 S210 ; wait for nozzle temp to stabilize
G1 Z0.28 F240
G92 E0
G1 Y100 E7.1 F1500 ; prime the nozzle
G1 X2.3 F5000
G92 E0
G1 Y10 E10 F1200 ; prime the nozzle
G92 E0
;start
M107
G21 ; set units to millimeters
G90 ; use absolute coordinates
M82 ; use absolute distances for extrusion
G92 E0
; Filament gcode
;_TOOLCHANGE 0
M107
;LAYER_CHANGE
;Z:0.2
;HEIGHT:0.2
;BEFORE_LAYER_CHANGE
;0.2


G1 E-6 F3000
G1 Z0.15 F9000
;AFTER_LAYER_CHANGE
;0.2
G92 E0
M204 S500
G1 X97.875 Y101.893
G1 E6 F3000
;TYPE:Skirt
;WIDTH:0.48
G1 F1200
G1 X96.842 Y103.24 E6.06172
G1 X93.912 Y109.808 E6.32308
G1 X93.678 Y112.072 E6.40579
G1 X94.414 Y113.603 E6.46751
G1 X95.762 Y114.636 E6.52924
G1 X129.33 Y129.609 E7.8651
G1 X131.594 Y129.843 E7.9478
G1 X133.125 Y129.107 E8.00953
G1 X134.158 Y127.76 E8.07125
G1 X137.088 Y121.192 E8.33261
G1 X137.322 Y118.928 E8.41532
G1 X136.586 Y117.397 E8.47704
G1 X135.238 Y116.364 E8.53877
G1 X101.67 Y101.391 E9.87463
G1 X99.406 Y101.157 E9.95733
G1 X97.929 Y101.867 E10.01688
G1 X98.229 Y102.17 F9000
G1 F1200
G1 X97.241 Y103.419 E10.07474
G1 X94.312 Y109.986 E10.3361
G1 X94.069 Y111.783 E10.40199
G1 X94.691 Y113.249 E10.45985
G1 X95.94 Y114.237 E10.51772
G1 X129.509 Y129.21 E11.85358
G1 X131.305 Y129.452 E11.91947
G1 X132.771 Y128.83 E11.97734
G1 X133.759 Y127.581 E12.0352
G1 X136.688 Y121.014 E12.29656
G1 X136.931 Y119.217 E12.36245
G1 X136.309 Y117.751 E12.42032
G1 X135.06 Y116.763 E12.47818
G1 X101.491 Y101.79 E13.81404
G1 X99.695 Y101.548 E13.87993
G1 X98.284 Y102.147 E13.93562
G92 E0
G1 E-4.2 F3000
;WIPE_START
G1 F7200
G1 X97.241 Y103.419 E-4.85116
G1 X96.151 Y105.862 E-5.91
;WIPE_END
G1 E-6 F3000
; printing object stringing-test.stl id:0 copy 0
M486 S0
; acceleration to travel
M204 S1500
G1 X100.114 Y105.824 F9000
; decel to extrusion
M204 S500
G1 X100.598 Y105.82
; end travel
G1 E0 F3000
;TYPE:Internal perimeter
;WIDTH:0.576
G1 F1200
G1 X132.659 Y120.12 E1.5561
G1 X130.402 Y125.18 E1.80169
G1 X98.341 Y110.88 E3.35778
G1 X100.573 Y105.874 E3.60071
G1 X100.326 Y105.11 F9000
;TYPE:External perimeter
G1 F1200
G1 X100.428 Y105.155 E3.60565
G1 X133.369 Y119.848 E5.20445
G1 X130.674 Y125.89 E5.49768
G1 X97.631 Y111.152 E7.10141
G1 X100.302 Y105.165 E7.39198
;WIPE_START
G1 X100.561 Y105.434 F9000
;WIPE_END
G92 E0
G1 E-4.2 F3000
;WIPE_START
G1 F7200
G1 X104.506 Y107.194 E-5.91
;WIPE_END
G1 E-6 F3000
; acceleration to travel
M204 S1500
G1 X127.649 Y118.003 F9000
; decel to extrusion
M204 S500
G1 X130.477 Y119.323
; end travel
G1 E0 F3000
;TYPE:Solid infill
;WIDTH:0.572103
G1 F1200
G1 X131.935 Y120.781 E0.09077
G1 X131.7 Y121.307 E0.1161
G1 X129.562 Y119.168 E0.24926
G1 X128.19 Y118.556 E0.31539
G1 X131.466 Y121.832 E0.51936
G1 X131.231 Y122.358 E0.5447
G1 X126.818 Y117.944 E0.81949
G1 X125.446 Y117.333 E0.88563
G1 X130.997 Y122.883 E1.23124
G1 X130.763 Y123.409 E1.25657
G1 X124.074 Y116.721 E1.67301
G1 X122.702 Y116.109 E1.73914
G1 X130.528 Y123.935 E2.2264
G1 X130.294 Y124.46 E2.25173
G1 X121.33 Y115.497 E2.80981
G1 X119.959 Y114.885 E2.87594
G1 X129.36 Y124.286 E3.46126
G1 X127.988 Y123.674 E3.5274
G1 X118.587 Y114.273 E4.11272
G1 X117.215 Y113.661 E4.17886
G1 X126.616 Y123.062 E4.76418
G1 X125.244 Y122.45 E4.83032
G1 X115.843 Y113.049 E5.41564
G1 X114.471 Y112.437 E5.48177
G1 X123.872 Y121.838 E6.0671
G1 X122.5 Y121.226 E6.13323
G1 X113.099 Y111.825 E6.71856
G1 X111.727 Y111.213 E6.78469
G1 X121.128 Y120.614 E7.37002
G1 X119.757 Y120.002 E7.43615
G1 X110.356 Y110.601 E8.02148
G1 X108.984 Y109.99 E8.08761
G1 X118.385 Y119.391 E8.67293
G1 X117.013 Y118.779 E8.73907
G1 X107.612 Y109.378 E9.32439
G1 X106.24 Y108.766 E9.39053
G1 X115.641 Y118.167 E9.97585
G1 X114.269 Y117.555 E10.04199
G1 X104.868 Y108.154 E10.62731
G1 X103.496 Y107.542 E10.69344
G1 X112.897 Y116.943 E11.27877
G1 X111.525 Y116.331 E11.3449
G1 X102.124 Y106.93 E11.93023
G1 X100.796 Y106.338 E11.99424
G1 X100.789 Y106.355 E11.99505
G1 X110.153 Y115.719 E12.57811
G1 X108.782 Y115.107 E12.64424
G1 X100.554 Y106.88 E13.15648
G1 X100.32 Y107.406 E13.18181
G1 X107.41 Y114.495 E13.62322
G1 X106.038 Y113.883 E13.68936
G1 X100.086 Y107.931 E14.05995
G1 X99.851 Y108.457 E14.08529
G1 X104.666 Y113.271 E14.38506
G1 X103.294 Y112.659 E14.45119
G1 X99.617 Y108.982 E14.68014
G1 X99.382 Y109.508 E14.70548
G1 X101.922 Y112.048 E14.86361
G1 X100.55 Y111.436 E14.92974
G1 X99.148 Y110.033 E15.01706
G1 X98.914 Y110.559 E15.04239
G1 X99.635 Y111.28 E15.08732
M106 S84.15
;LAYER_CHANGE
;Z:0.52
;HEIGHT:0.32
;BEFORE_LAYER_CHANGE
;0.52


G92 E0
G1 E-4.2 F3000
;WIPE_START
G1 F7200
G1 X98.914 Y110.559 E-4.60395
G1 X99.148 Y110.033 E-4.83174
G1 X100.55 Y111.436 E-5.61675
G1 X101.227 Y111.737 E-5.91
;WIPE_END
G1 E-6 F3000
; stop printing object stringing-test.stl id:0 copy 0
M486 S-1
G1 Z0.47 F9000
;AFTER_LAYER_CHANGE
;0.52
G92 E0
; printing object stringing-test.stl id:0 copy 0
M486 S0
; acceleration to travel
M204 S1500
G1 X97.822 Y111.294
; decel to extrusion
M204 S500
G1 X97.401 Y111.24
; end travel
G1 E6 F3000
;TYPE:External perimeter
;WIDTH:0.428
G1 F1500
G1 X100.238 Y104.88 E6.33288
G1 X133.599 Y119.76 E8.07914
G1 X130.762 Y126.12 E8.41202
G1 X97.456 Y111.264 E10.15541
;WIPE_START
G1 X97.725 Y111.005 F9000
;WIPE_END
G92 E0
G1 E-4.2 F3000
;WIPE_START
G1 F7200
G1 X99.485 Y107.059 E-5.91
;WIPE_END
G1 E-6 F3000
; acceleration to travel
M204 S1500
G1 X127.815 Y122.601 F9000
; decel to extrusion
M204 S500
G1 X131.356 Y124.544
; end travel
G1 E0 F3000
;TYPE:Top solid infill
;WIDTH:0.463871
G1 F1800
G1 X130.287 Y125.614 E0.07928
G1 X129.901 Y125.442 E0.10141
G1 X131.47 Y123.873 E0.21771
G1 X131.919 Y122.866 E0.27547
G1 X129.516 Y125.27 E0.45363
G1 X129.13 Y125.098 E0.47576
G1 X132.368 Y121.86 E0.71577
G1 X132.817 Y120.854 E0.77353
G1 X128.745 Y124.926 E1.0754
G1 X128.359 Y124.754 E1.09752
G1 X133.225 Y119.888 E1.45824
G1 X132.839 Y119.716 E1.48036
G1 X127.974 Y124.582 E1.84108
G1 X127.588 Y124.41 E1.8632
G1 X132.454 Y119.544 E2.22391
G1 X132.068 Y119.372 E2.24604
G1 X127.203 Y124.238 E2.60675
G1 X126.817 Y124.066 E2.62888
G1 X131.683 Y119.2 E2.98959
G1 X131.297 Y119.028 E3.01172
G1 X126.431 Y123.894 E3.37243
G1 X126.046 Y123.722 E3.39456
G1 X130.912 Y118.856 E3.75527
G1 X130.526 Y118.684 E3.7774
G1 X125.66 Y123.55 E4.13811
G1 X125.275 Y123.378 E4.16024
G1 X130.141 Y118.512 E4.52095
G1 X129.755 Y118.34 E4.54308
G1 X124.889 Y123.206 E4.90379
G1 X124.504 Y123.034 E4.92592
G1 X129.37 Y118.168 E5.28663
G1 X128.984 Y117.996 E5.30875
G1 X124.118 Y122.862 E5.66947
G1 X123.733 Y122.69 E5.69159
G1 X128.599 Y117.825 E6.05231
G1 X128.213 Y117.653 E6.07443
G1 X123.347 Y122.518 E6.43514
G1 X122.962 Y122.346 E6.45727
G1 X127.828 Y117.481 E6.81798
G1 X127.442 Y117.309 E6.84011
G1 X122.576 Y122.174 E7.20082
G1 X122.191 Y122.002 E7.22295
G1 X127.057 Y117.137 E7.58366
G1 X126.671 Y116.965 E7.60579
G1 X121.805 Y121.83 E7.9665
G1 X121.42 Y121.659 E7.98863
G1 X126.286 Y116.793 E8.34934
G1 X125.9 Y116.621 E8.37147
G1 X121.034 Y121.487 E8.73218
G1 X120.649 Y121.315 E8.75431
G1 X125.514 Y116.449 E9.11502
G1 X125.129 Y116.277 E9.13715
G1 X120.263 Y121.143 E9.49786
G1 X119.878 Y120.971 E9.51999
G1 X124.743 Y116.105 E9.8807
G1 X124.358 Y115.933 E9.90282
G1 X119.492 Y120.799 E10.26354
G1 X119.107 Y120.627 E10.28566
G1 X123.972 Y115.761 E10.64637
G1 X123.587 Y115.589 E10.6685
G1 X118.721 Y120.455 E11.02921
G1 X118.336 Y120.283 E11.05134
G1 X123.201 Y115.417 E11.41205
G1 X122.816 Y115.245 E11.43418
G1 X117.95 Y120.111 E11.79489
G1 X117.565 Y119.939 E11.81702
G1 X122.43 Y115.073 E12.17773
G1 X122.045 Y114.901 E12.19986
G1 X117.179 Y119.767 E12.56057
G1 X116.794 Y119.595 E12.5827
G1 X121.659 Y114.729 E12.94341
G1 X121.274 Y114.557 E12.96554
G1 X116.408 Y119.423 E13.32625
G1 X116.023 Y119.251 E13.34838
G1 X120.888 Y114.385 E13.70909
G1 X120.503 Y114.213 E13.73121
G1 X115.637 Y119.079 E14.09193
G1 X115.252 Y118.907 E14.11405
G1 X120.117 Y114.041 E14.47476
G1 X119.732 Y113.869 E14.49689
G1 X114.866 Y118.735 E14.8576
G1 X114.48 Y118.563 E14.87973
G1 X119.346 Y113.698 E15.24044
G1 X118.961 Y113.526 E15.26257
G1 X114.095 Y118.391 E15.62328
G1 X113.709 Y118.219 E15.64541
G1 X118.575 Y113.354 E16.00612
G1 X118.19 Y113.182 E16.02825
G1 X113.324 Y118.047 E16.38896
G1 X112.938 Y117.875 E16.41109
G1 X117.804 Y113.01 E16.7718
G1 X117.419 Y112.838 E16.79393
G1 X112.553 Y117.704 E17.15464
G1 X112.167 Y117.532 E17.17677
G1 X117.033 Y112.666 E17.53748
G1 X116.648 Y112.494 E17.55961
G1 X111.782 Y117.36 E17.92032
G1 X111.396 Y117.188 E17.94244
G1 X116.262 Y112.322 E18.30316
G1 X115.877 Y112.15 E18.32528
G1 X111.011 Y117.016 E18.68599
G1 X110.625 Y116.844 E18.70812
G1 X115.491 Y111.978 E19.06883
G1 X115.106 Y111.806 E19.09096
G1 X110.24 Y116.672 E19.45167
G1 X109.854 Y116.5 E19.4738
G1 X114.72 Y111.634 E19.83451
G1 X114.335 Y111.462 E19.85664
G1 X109.469 Y116.328 E20.21735
G1 X109.083 Y116.156 E20.23948
G1 X113.949 Y111.29 E20.60019
G1 X113.563 Y111.118 E20.62232
G1 X108.698 Y115.984 E20.98303
G1 X108.312 Y115.812 E21.00516
G1 X113.178 Y110.946 E21.36587
G1 X112.792 Y110.774 E21.388
G1 X107.927 Y115.64 E21.74871
G1 X107.541 Y115.468 E21.77083
G1 X112.407 Y110.602 E22.13155
G1 X112.021 Y110.43 E22.15367
G1 X107.156 Y115.296 E22.51439
G1 X106.77 Y115.124 E22.53651
G1 X111.636 Y110.258 E22.89722
G1 X111.25 Y110.086 E22.91935
G1 X106.385 Y114.952 E23.28006
G1 X105.999 Y114.78 E23.30219
G1 X110.865 Y109.914 E23.6629
G1 X110.479 Y109.743 E23.68503
G1 X105.614 Y114.608 E24.04574
G1 X105.228 Y114.436 E24.06787
G1 X110.094 Y109.571 E24.42858
G1 X109.708 Y109.399 E24.45071
G1 X104.843 Y114.264 E24.81142
G1 X104.457 Y114.092 E24.83355
G1 X109.323 Y109.227 E25.19426
G1 X108.937 Y109.055 E25.21639
G1 X104.072 Y113.92 E25.5771
G1 X103.686 Y113.748 E25.59923
G1 X108.552 Y108.883 E25.95994
G1 X108.166 Y108.711 E25.98206
G1 X103.3 Y113.577 E26.34278
G1 X102.915 Y113.405 E26.3649
G1 X107.781 Y108.539 E26.72562
G1 X107.395 Y108.367 E26.74774
G1 X102.529 Y113.233 E27.10845
G1 X102.144 Y113.061 E27.13058
G1 X107.01 Y108.195 E27.49129
G1 X106.624 Y108.023 E27.51342
G1 X101.758 Y112.889 E27.87413
G1 X101.373 Y112.717 E27.89626
G1 X106.239 Y107.851 E28.25697
G1 X105.853 Y107.679 E28.2791
G1 X100.987 Y112.545 E28.63981
G1 X100.602 Y112.373 E28.66194
G1 X105.468 Y107.507 E29.02265
G1 X105.082 Y107.335 E29.04478
G1 X100.216 Y112.201 E29.40549
G1 X99.831 Y112.029 E29.42762
G1 X104.697 Y107.163 E29.78833
G1 X104.311 Y106.991 E29.81046
G1 X99.445 Y111.857 E30.17117
G1 X99.06 Y111.685 E30.19329
G1 X103.926 Y106.819 E30.55401
G1 X103.54 Y106.647 E30.57613
G1 X98.674 Y111.513 E30.93685
G1 X98.289 Y111.341 E30.95897
G1 X103.155 Y106.475 E31.31968
G1 X102.769 Y106.303 E31.34181
G1 X97.903 Y111.169 E31.70252
G1 X97.756 Y111.104 E31.71095
G1 X98.034 Y110.481 E31.74671
G1 X102.383 Y106.131 E32.06913
G1 X101.998 Y105.959 E32.09126
G1 X98.483 Y109.474 E32.35182
G1 X98.932 Y108.468 E32.40958
G1 X101.612 Y105.787 E32.60829
G1 X101.227 Y105.616 E32.63042
G1 X99.381 Y107.462 E32.76727
G1 X99.83 Y106.455 E32.82503
G1 X100.841 Y105.444 E32.90002
G1 X100.456 Y105.272 E32.92215
G1 X99.944 Y105.784 E32.96013
M106 S170.85
;LAYER_CHANGE
;Z:0.84
;HEIGHT:0.32
;BEFORE_LAYER_CHANGE
;0.84


G92 E0
G1 E-4.2 F3000
;WIPE_START
G1 F7200
G1 X100.456 Y105.272 E-4.48677
G1 X100.841 Y105.444 E-4.65386
G1 X99.83 Y106.455 E-5.22016
G1 X99.381 Y107.462 E-5.65634
G1 X99.834 Y107.008 E-5.91
;WIPE_END
G1 E-6 F3000
; stop printing object stringing-test.stl id:0 copy 0
M486 S-1
G1 Z0.79 F9000
;AFTER_LAYER_CHANGE
;0.84
G92 E0
; printing object stringing-test.stl id:0 copy 0
M486 S0
; acceleration to travel
M204 S1500
G1 X123.892 Y118.897
; decel to extrusion
M204 S500
G1 X126.862 Y120.364
; end travel
G1 E6 F3000
;TYPE:External perimeter
;WIDTH:0.428
G1 F900
M106 S255
G1 X126.71 Y120.704 E6.0178
G1 X126.612 Y121.063 E6.0356
G1 X126.57 Y121.433 E6.0534
G1 X126.585 Y121.805 E6.0712
G1 X126.657 Y122.171 E6.089
G1 X126.783 Y122.521 E6.1068
G1 X126.962 Y122.848 E6.1246
G1 X127.188 Y123.143 E6.1424
G1 X127.457 Y123.401 E6.1602
G1 X127.762 Y123.615 E6.178
G1 X128.096 Y123.779 E6.1958
G1 X128.451 Y123.891 E6.2136
G1 X128.819 Y123.947 E6.2314
G1 X129.191 Y123.946 E6.2492
G1 X129.559 Y123.889 E6.267
G1 X129.914 Y123.776 E6.2848
G1 X130.247 Y123.61 E6.3026
G1 X130.551 Y123.395 E6.3204
G1 X130.819 Y123.137 E6.3382
G1 X131.044 Y122.84 E6.35599
G1 X131.222 Y122.513 E6.37379
G1 X131.347 Y122.162 E6.39159
G1 X131.417 Y121.796 E6.40939
G1 X131.431 Y121.424 E6.42719
G1 X131.387 Y121.054 E6.44499
G1 X131.288 Y120.695 E6.46279
G1 X131.135 Y120.356 E6.48059
G1 X130.932 Y120.044 E6.49839
G1 X130.684 Y119.766 E6.51619
G1 X130.396 Y119.53 E6.53399
G1 X130.076 Y119.34 E6.55179
G1 X129.73 Y119.202 E6.56959
G1 X129.367 Y119.118 E6.58739
G1 X128.996 Y119.09 E6.60519
G1 X128.625 Y119.119 E6.62299
G1 X128.262 Y119.205 E6.64079
G1 X127.917 Y119.344 E6.65859
G1 X127.598 Y119.535 E6.67639
G1 X127.311 Y119.773 E6.69419
G1 X127.064 Y120.051 E6.71199
G1 X126.894 Y120.314 E6.72692
M106 S170.85
;WIPE_START
G1 X126.462 Y120.385 F9000
;WIPE_END
G1 X126.462 Y120.153
G1 F900
M106 S255
G1 X126.538 Y120.01 E6.73466
G1 X126.756 Y119.702 E6.75273
G1 X127.013 Y119.424 E6.7708
G1 X127.303 Y119.183 E6.78887
G1 X127.623 Y118.981 E6.80694
G1 X127.967 Y118.823 E6.82501
G1 X128.328 Y118.711 E6.84309
G1 X128.7 Y118.648 E6.86116
G1 X129.078 Y118.633 E6.87923
G1 X129.455 Y118.668 E6.8973
G1 X129.823 Y118.751 E6.91537
G1 X130.178 Y118.883 E6.93344
G1 X130.512 Y119.059 E6.95151
G1 X130.821 Y119.277 E6.96958
G1 X131.098 Y119.534 E6.98765
G1 X131.34 Y119.825 E7.00573
G1 X131.541 Y120.145 E7.0238
G1 X131.699 Y120.488 E7.04187
G1 X131.811 Y120.849 E7.05994
G1 X131.875 Y121.222 E7.07801
G1 X131.889 Y121.599 E7.09608
G1 X131.855 Y121.976 E7.11415
G1 X131.771 Y122.344 E7.13222
G1 X131.64 Y122.699 E7.1503
G1 X131.464 Y123.033 E7.16837
G1 X131.245 Y123.342 E7.18644
G1 X130.988 Y123.619 E7.20451
G1 X130.698 Y123.861 E7.22258
G1 X130.378 Y124.062 E7.24065
G1 X130.034 Y124.22 E7.25872
G1 X129.673 Y124.332 E7.27679
G1 X129.301 Y124.396 E7.29486
G1 X128.923 Y124.411 E7.31294
G1 X128.547 Y124.376 E7.33101
G1 X128.178 Y124.292 E7.34908
G1 X127.823 Y124.161 E7.36715
G1 X127.489 Y123.985 E7.38522
G1 X127.18 Y123.766 E7.40329
G1 X126.903 Y123.51 E7.42136
G1 X126.661 Y123.219 E7.43943
G1 X126.46 Y122.899 E7.4575
G1 X126.302 Y122.556 E7.47558
G1 X126.19 Y122.195 E7.49365
G1 X126.126 Y121.822 E7.51172
G1 X126.112 Y121.444 E7.52979
G1 X126.147 Y121.068 E7.54786
G1 X126.23 Y120.699 E7.56593
G1 X126.361 Y120.345 E7.584
G1 X126.434 Y120.206 E7.59147
M106 S170.85
;WIPE_START
G1 X126.862 Y120.138 F9000
;WIPE_END
G1 X126.772 Y120.077
;TYPE:Gap fill
;WIDTH:0.210873
G1 F900
G1 X126.736 Y120.132 E7.59271
G1 X126.7 Y120.192 E7.59403
G1 X126.661 Y120.261 E7.59553
G1 X126.574 Y120.439 E7.59929
G1 X126.536 Y120.531 E7.60117
G1 X126.499 Y120.623 E7.60305
G1 X126.474 Y120.699 E7.60455
G1 X126.453 Y120.765 E7.60587
G1 X126.39 Y121.016 E7.61075
G1 X126.375 Y121.104 E7.61245
G1 X126.359 Y121.262 E7.61545
G1 X126.343 Y121.42 E7.61845
G1 X126.341 Y121.45 E7.61903
