; generated by SuperSlicer 2.4 on 2022-12-08 at 19:48:18 UTC

; 

; external perimeters extrusion width = 0.43mm
; perimeters extrusion width = 0.48mm
; infill extrusion width = 0.46mm
; solid infill extrusion width = 0.48mm
; top infill extrusion width = 0.46mm
; first layer extrusion width = 0.58mm

; object:{"name":"Carlos_Nippel v1","id":"Carlos_Nippel v1.stl id:0 copy 0","object_center":[115.500000,115.500000,0.000000],"boundingbox_center":[115.500000,115.500000,9.500000],"boundingbox_size":[29.998840,29.997690,19.000000]}
; Total objects to print: 1
M486 T1
; plater:{"center":[115.500000,115.500000,0.000000],"boundingbox_center":[115.500000,115.500000,9.500000],"boundingbox_size":[29.998840,29.997690,19.000000]}

;TYPE:Custom
G90 ; use absolute coordinates
M83 ; extruder relative mode
M140 S60 ; set final bed temp
M104 S150 ; set temporary nozzle temp to prevent oozing during homing and auto bed leveling
G4 S10 ; allow partial nozzle warmup
G28 ; home all axis
;G29 ; auto bed levelling
G1 Z10 F240
G1 X2 Y10 F3000
G1 Z0 F240
M104 S210 ; set final nozzle temp
M190 S60 ; wait for bed temp to stabilize
M109 S210 ; wait for nozzle temp to stabilize
G1 Z0.28 F240
G92 E0
G1 Y140 E10 F1500 ; prime the nozzle
G1 X2.3 F5000
G92 E0
G1 Y10 E10 F1200 ; prime the nozzle
G92 E0
;start
M107
G21 ; set units to millimeters
G90 ; use absolute coordinates
M82 ; use absolute distances for extrusion
G92 E0
; Filament gcode
;_TOOLCHANGE 0
M107
;LAYER_CHANGE
;Z:0.2
;HEIGHT:0.2
;BEFORE_LAYER_CHANGE
;0.2


G1 E-8.5 F3000
G1 Z0.15 F9000
;AFTER_LAYER_CHANGE
;0.2
G92 E0
M204 S500
G1 X101.813 Y100.755
G1 E8.5 F3000
;TYPE:Skirt
;WIDTH:0.48
G1 F1200
G1 X100.227 Y102.403 E8.5856
G1 X99.033 Y103.942 E8.65853
G1 X97.901 Y105.751 E8.73842
G1 X97.196 Y107.148 E8.797
G1 X96.469 Y108.974 E8.87056
G1 X96.002 Y110.544 E8.93186
G1 X95.611 Y112.469 E9.00542
G1 X95.399 Y114.673 E9.08829
G1 X95.413 Y116.621 E9.16122
G1 X95.571 Y118.251 E9.22253
G1 X95.934 Y120.183 E9.29609
G1 X96.535 Y122.213 E9.37536
G1 X97.346 Y124.169 E9.45463
G1 X98.075 Y125.554 E9.5132
G1 X99.138 Y127.206 E9.58676
G1 X100.524 Y128.933 E9.66963
G1 X102.061 Y130.47 E9.75101
G1 X103.572 Y131.7 E9.82394
G1 X105.293 Y132.835 E9.9011
G1 X106.67 Y133.576 E9.95968
G1 X108.476 Y134.351 E10.03323
G1 X110.568 Y135.004 E10.11524
G1 X112.629 Y135.411 E10.19388
G1 X114.681 Y135.6 E10.27104
G1 X116.319 Y135.6 E10.33235
G1 X118.371 Y135.411 E10.40951
G1 X120.432 Y135.004 E10.48815
G1 X122.311 Y134.429 E10.56171
G1 X123.762 Y133.843 E10.62028
G1 X125.707 Y132.835 E10.70229
G1 X127.337 Y131.767 E10.77522
G1 X128.939 Y130.47 E10.85238
G1 X130.476 Y128.933 E10.93376
G1 X131.761 Y127.343 E11.01029
G1 X132.925 Y125.554 E11.09018
G1 X133.587 Y124.307 E11.14304
G1 X134.433 Y122.304 E11.22442
G1 X135.025 Y120.347 E11.30095
G1 X135.429 Y118.251 E11.38084
G1 X135.587 Y116.621 E11.44215
G1 X135.601 Y114.673 E11.51508
G1 X135.413 Y112.637 E11.59161
G1 X134.998 Y110.544 E11.6715
G1 X134.531 Y108.974 E11.73281
G1 X134.026 Y107.655 E11.78567
G1 X133.09 Y105.737 E11.86556
G1 X132.064 Y104.081 E11.9385
G1 X130.661 Y102.275 E12.0241
G1 X129.311 Y100.87 E12.09703
G1 X127.697 Y99.499 E12.1763
G1 X125.962 Y98.315 E12.25494
G1 X124.149 Y97.335 E12.3321
G1 X122.123 Y96.502 E12.4141
G1 X120.089 Y95.911 E12.49337
G1 X118.553 Y95.614 E12.55195
G1 X116.429 Y95.403 E12.63184
G1 X115.034 Y95.386 E12.68407
G1 X112.906 Y95.549 E12.76396
G1 X110.894 Y95.915 E12.8405
G1 X108.877 Y96.502 E12.91914
G1 X107.056 Y97.239 E12.9927
G1 X105.135 Y98.256 E13.07408
G1 X103.303 Y99.499 E13.15695
G1 X101.859 Y100.716 E13.22763
G92 E0
G1 E-5.95 F3000
;WIPE_START
G1 F7200
G1 X100.227 Y102.403 E-6.87878
G1 X99.033 Y103.942 E-7.65001
G1 X98.065 Y105.489 E-8.3725
;WIPE_END
G1 E-8.5 F3000
; acceleration to travel
M204 S1500
G1 X103.723 Y103.831 F9000
; decel to extrusion
M204 S500
G1 X104.415 Y103.629
; end travel
G1 E0 F3000
;WIDTH:0.576
G1 F1200
G1 X105.21 Y102.93 E0.04833
G1 X105.669 Y102.568 E0.07503
G1 X106.634 Y101.888 E0.12892
G1 X107.584 Y101.315 E0.17959
G1 X108.574 Y100.806 E0.23037
G1 X109.658 Y100.342 E0.2842
G1 X110.207 Y100.142 E0.3109
G1 X111.256 Y99.82 E0.36099
G1 X112.411 Y99.552 E0.41511
G1 X113.485 Y99.381 E0.46476
G1 X114.087 Y99.317 E0.49243
G1 X115.196 Y99.258 E0.54312
G1 X115.96 Y99.27 E0.57801
G1 X116.358 Y99.278 E0.5962
G1 X116.92 Y99.318 E0.62192
G1 X118.027 Y99.453 E0.67282
G1 X119.184 Y99.679 E0.72666
G1 X119.751 Y99.822 E0.75336
G1 X120.82 Y100.151 E0.80442
G1 X121.376 Y100.356 E0.83145
G1 X122.418 Y100.802 E0.88321
G1 X123.393 Y101.302 E0.93325
G1 X123.916 Y101.606 E0.96086
G1 X124.412 Y101.919 E0.98761
G1 X125.325 Y102.564 E1.03867
G1 X125.79 Y102.93 E1.06569
G1 X126.63 Y103.668 E1.11675
G1 X127.054 Y104.081 E1.14376
G1 X127.789 Y104.877 E1.1932
G1 X128.19 Y105.359 E1.22185
G1 X128.858 Y106.256 E1.27291
G1 X129.185 Y106.749 E1.29993
G1 X129.741 Y107.687 E1.34969
G1 X130.029 Y108.236 E1.37801
G1 X130.482 Y109.224 E1.42762
G1 X130.889 Y110.299 E1.48009
G1 X131.227 Y111.437 E1.53432
G1 X131.464 Y112.498 E1.58393
G1 X131.567 Y113.109 E1.61224
G1 X131.691 Y114.192 E1.66201
G1 X131.728 Y114.786 E1.68919
G1 X131.743 Y115.381 E1.71636
G1 X131.714 Y116.468 E1.76597
G1 X131.6 Y117.649 E1.82017
G1 X131.419 Y118.73 E1.87022
G1 X131.284 Y119.336 E1.89854
G1 X130.991 Y120.386 E1.9483
G1 X130.801 Y120.95 E1.97548
G1 X130.591 Y121.507 E2.00266
G1 X130.152 Y122.511 E2.05271
G1 X129.6 Y123.563 E2.10691
G1 X129.03 Y124.487 E2.15653
G1 X128.677 Y124.997 E2.18484
G1 X128.01 Y125.86 E2.2346
G1 X127.622 Y126.311 E2.26179
G1 X127.217 Y126.748 E2.28896
G1 X126.432 Y127.513 E2.339
G1 X125.568 Y128.246 E2.39075
G1 X125.102 Y128.601 E2.4175
G1 X124.607 Y128.949 E2.44512
G1 X123.687 Y129.528 E2.49473
G1 X122.648 Y130.085 E2.54856
G1 X122.118 Y130.333 E2.57526
G1 X121.103 Y130.745 E2.6253
G1 X119.991 Y131.109 E2.6787
G1 X119.426 Y131.26 E2.7054
G1 X118.326 Y131.495 E2.75678
G1 X117.763 Y131.584 E2.78278
G1 X117.175 Y131.655 E2.80984
G1 X116.07 Y131.732 E2.86042
G1 X114.949 Y131.733 E2.91159
G1 X113.818 Y131.655 E2.96335
G1 X113.236 Y131.584 E2.9901
G1 X112.639 Y131.488 E3.01772
G1 X111.573 Y131.26 E3.06748
G1 X110.974 Y131.099 E3.0958
G1 X109.941 Y130.761 E3.14541
G1 X108.855 Y130.321 E3.19891
G1 X108.32 Y130.069 E3.22594
G1 X107.354 Y129.552 E3.27598
G1 X106.393 Y128.949 E3.32773
G1 X105.918 Y128.615 E3.35426
G1 X105.433 Y128.246 E3.3821
G1 X104.603 Y127.544 E3.43171
G1 X103.753 Y126.717 E3.48586
G1 X102.992 Y125.862 E3.53815
G1 X102.323 Y124.997 E3.58802
G1 X101.966 Y124.481 E3.61667
G1 X101.385 Y123.538 E3.66726
G1 X100.867 Y122.551 E3.71815
G1 X100.609 Y121.987 E3.74647
G1 X100.207 Y120.974 E3.79623
G1 X100.009 Y120.386 E3.82456
G1 X99.71 Y119.308 E3.87562
G1 X99.581 Y118.73 E3.90264
G1 X99.401 Y117.659 E3.95225
G1 X99.286 Y116.477 E4.00645
G1 X99.257 Y115.381 E4.0565
G1 X99.272 Y114.801 E4.08301
G1 X99.309 Y114.192 E4.11086
G1 X99.437 Y113.081 E4.16192
G1 X99.536 Y112.498 E4.18893
G1 X99.773 Y111.437 E4.23854
G1 X100.111 Y110.299 E4.29275
G1 X100.497 Y109.273 E4.34279
G1 X100.734 Y108.731 E4.36982
G1 X101.26 Y107.684 E4.42332
G1 X101.815 Y106.749 E4.47293
G1 X102.159 Y106.233 E4.50125
G1 X102.81 Y105.359 E4.55101
G1 X103.188 Y104.904 E4.57803
G1 X103.946 Y104.082 E4.62909
G1 X104.37 Y103.668 E4.6561
G1 X104.74 Y104.058 F9000
G1 F1200
G1 X105.559 Y103.339 E4.70586
G1 X105.996 Y102.994 E4.73128
G1 X106.92 Y102.344 E4.78287
G1 X107.854 Y101.779 E4.83269
G1 X108.811 Y101.289 E4.88177
G1 X109.849 Y100.845 E4.93332
G1 X110.372 Y100.654 E4.95873
G1 X111.405 Y100.336 E5.00807
G1 X112.504 Y100.081 E5.05961
G1 X113.562 Y99.913 E5.10851
G1 X114.123 Y99.853 E5.13425
G1 X115.215 Y99.795 E5.18418
G1 X115.951 Y99.808 E5.21779
G1 X116.327 Y99.815 E5.23499
G1 X116.876 Y99.853 E5.26007
G1 X117.952 Y99.986 E5.30958
G1 X119.06 Y100.202 E5.36114
G1 X119.6 Y100.337 E5.38655
G1 X120.642 Y100.658 E5.43631
G1 X121.171 Y100.852 E5.46205
G1 X122.181 Y101.285 E5.5122
G1 X123.142 Y101.777 E5.5615
G1 X123.634 Y102.063 E5.58749
G1 X124.108 Y102.362 E5.61305
G1 X124.998 Y102.99 E5.66281
G1 X125.441 Y103.339 E5.68854
G1 X126.26 Y104.058 E5.73831
G1 X126.664 Y104.451 E5.76404
G1 X127.389 Y105.236 E5.81284
G1 X127.763 Y105.686 E5.83954
G1 X128.414 Y106.56 E5.88931
G1 X128.727 Y107.029 E5.91504
G1 X129.275 Y107.955 E5.96416
G1 X129.544 Y108.466 E5.99054
G1 X129.99 Y109.439 E6.03941
G1 X130.382 Y110.479 E6.09017
G1 X130.705 Y111.563 E6.14178
G1 X130.938 Y112.608 E6.19065
G1 X131.033 Y113.178 E6.21703
G1 X131.156 Y114.246 E6.26615
G1 X131.191 Y114.805 E6.29171
G1 X131.205 Y115.374 E6.31769
G1 X131.177 Y116.444 E6.36656
G1 X131.069 Y117.57 E6.41818
G1 X130.89 Y118.634 E6.46747
G1 X130.764 Y119.198 E6.49386
G1 X130.475 Y120.235 E6.54297
G1 X130.294 Y120.774 E6.56896
G1 X130.096 Y121.298 E6.59452
G1 X129.663 Y122.287 E6.64382
G1 X129.138 Y123.288 E6.69544
G1 X128.576 Y124.199 E6.7443
G1 X128.247 Y124.674 E6.77068
G1 X127.589 Y125.525 E6.8198
G1 X127.224 Y125.95 E6.84536
G1 X126.838 Y126.368 E6.87135
G1 X126.064 Y127.121 E6.92064
G1 X125.226 Y127.831 E6.9708
G1 X124.78 Y128.17 E6.99636
G1 X124.315 Y128.498 E7.02235
G1 X123.409 Y129.068 E7.07121
G1 X122.414 Y129.601 E7.12276
G1 X121.91 Y129.837 E7.14818
G1 X120.909 Y130.244 E7.19747
G1 X119.845 Y130.592 E7.24859
G1 X119.307 Y130.736 E7.27401
G1 X118.235 Y130.965 E7.32409
G1 X117.693 Y131.051 E7.34911
G1 X117.131 Y131.12 E7.375
G1 X116.042 Y131.196 E7.42483
G1 X114.958 Y131.196 E7.4743
G1 X113.862 Y131.119 E7.52445
G1 X113.307 Y131.051 E7.55001
G1 X112.745 Y130.961 E7.576
G1 X111.693 Y130.736 E7.62512
G1 X111.135 Y130.586 E7.6515
G1 X110.117 Y130.253 E7.70036
G1 X109.077 Y129.832 E7.75159
G1 X108.567 Y129.592 E7.77733
G1 X107.615 Y129.082 E7.82662
G1 X106.685 Y128.498 E7.87678
G1 X106.231 Y128.178 E7.90212
G1 X105.774 Y127.831 E7.92833
G1 X104.957 Y127.14 E7.97719
G1 X104.148 Y126.353 E8.02874
G1 X103.411 Y125.525 E8.07931
G1 X102.753 Y124.674 E8.12843
G1 X102.42 Y124.193 E8.15514
G1 X101.848 Y123.264 E8.20497
G1 X101.347 Y122.308 E8.25426
G1 X101.106 Y121.782 E8.28065
G1 X100.709 Y120.782 E8.32976
G1 X100.525 Y120.235 E8.35614
G1 X100.233 Y119.185 E8.40591
G1 X100.11 Y118.634 E8.43164
G1 X99.933 Y117.579 E8.48051
G1 X99.823 Y116.454 E8.53213
G1 X99.795 Y115.374 E8.58142
G1 X99.809 Y114.819 E8.60676
G1 X99.844 Y114.246 E8.63297
G1 X99.969 Y113.164 E8.68274
G1 X100.062 Y112.608 E8.70847
G1 X100.295 Y111.563 E8.75733
G1 X100.618 Y110.479 E8.80895
G1 X100.998 Y109.469 E8.85824
G1 X101.223 Y108.952 E8.88398
G1 X101.727 Y107.95 E8.93521
G1 X102.273 Y107.029 E8.98408
G1 X102.594 Y106.549 E9.01045
G1 X103.237 Y105.686 E9.05957
G1 X103.597 Y105.252 E9.08531
G1 X104.336 Y104.451 E9.13507
G1 X104.697 Y104.1 E9.15807
G1 X105.072 Y104.485 F9000
G1 F1200
G1 X105.112 Y104.445 E9.16065
G1 X105.911 Y103.746 E9.20912
G1 X106.332 Y103.415 E9.23356
G1 X107.202 Y102.801 E9.2822
G1 X108.112 Y102.251 E9.33073
G1 X109.052 Y101.769 E9.37894
G1 X110.03 Y101.351 E9.42754
G1 X110.54 Y101.164 E9.4523
G1 X111.549 Y100.854 E9.50051
G1 X112.593 Y100.611 E9.54946
G1 X113.636 Y100.445 E9.59767
G1 X114.169 Y100.389 E9.62211
G1 X115.239 Y100.332 E9.67103
G1 X115.942 Y100.345 E9.70313
G1 X116.293 Y100.351 E9.71919
G1 X116.827 Y100.388 E9.74364
G1 X117.891 Y100.52 E9.79255
G1 X118.926 Y100.722 E9.84072
G1 X119.445 Y100.852 E9.86516
G1 X120.46 Y101.164 E9.91363
G1 X120.97 Y101.351 E9.9384
G1 X121.94 Y101.765 E9.98656
G1 X122.887 Y102.25 E10.03516
G1 X123.35 Y102.519 E10.05959
G1 X123.801 Y102.803 E10.08391
G1 X124.668 Y103.415 E10.13238
G1 X125.089 Y103.746 E10.15682
G1 X125.888 Y104.445 E10.2053
G1 X126.276 Y104.824 E10.23006
G1 X126.992 Y105.598 E10.27821
G1 X127.334 Y106.01 E10.30266
G1 X127.969 Y106.861 E10.35113
G1 X128.27 Y107.312 E10.37589
G1 X128.808 Y108.22 E10.42404
G1 X129.06 Y108.7 E10.44881
G1 X129.499 Y109.659 E10.49697
G1 X129.875 Y110.655 E10.54558
G1 X130.181 Y111.685 E10.59462
G1 X130.411 Y112.714 E10.64278
G1 X130.501 Y113.249 E10.66755
G1 X130.621 Y114.297 E10.7157
G1 X130.654 Y114.836 E10.74034
G1 X130.668 Y115.371 E10.76477
G1 X130.64 Y116.425 E10.81294
G1 X130.537 Y117.494 E10.86197
G1 X130.362 Y118.535 E10.91014
G1 X130.244 Y119.064 E10.9349
G1 X129.96 Y120.08 E10.98306
G1 X129.788 Y120.592 E11.0077
G1 X129.6 Y121.092 E11.03213
G1 X129.177 Y122.059 E11.08029
G1 X128.678 Y123.01 E11.12933
G1 X128.124 Y123.908 E11.17749
G1 X127.816 Y124.354 E11.20226
G1 X127.17 Y125.188 E11.25041
G1 X126.821 Y125.594 E11.27484
G1 X126.455 Y125.99 E11.29948
G1 X125.699 Y126.727 E11.34765
G1 X124.887 Y127.414 E11.39624
G1 X124.461 Y127.738 E11.42067
G1 X124.02 Y128.049 E11.44532
G1 X123.127 Y128.611 E11.49348
G1 X122.182 Y129.116 E11.5424
G1 X121.697 Y129.344 E11.56684
G1 X120.72 Y129.741 E11.615
G1 X119.702 Y130.074 E11.66392
G1 X119.185 Y130.213 E11.68836
G1 X118.147 Y130.435 E11.73684
G1 X117.62 Y130.519 E11.76116
G1 X117.089 Y130.584 E11.78559
G1 X116.028 Y130.658 E11.83418
G1 X114.972 Y130.658 E11.88236
G1 X113.911 Y130.584 E11.93095
G1 X113.38 Y130.519 E11.95538
G1 X112.846 Y130.434 E11.98003
G1 X111.815 Y130.213 E12.02817
G1 X111.291 Y130.072 E12.05294
G1 X110.289 Y129.744 E12.10111
G1 X109.296 Y129.341 E12.15002
G1 X108.811 Y129.113 E12.17447
G1 X107.881 Y128.615 E12.22263
G1 X106.98 Y128.049 E12.27122
G1 X106.543 Y127.741 E12.29565
G1 X106.113 Y127.414 E12.3203
G1 X105.308 Y126.733 E12.36846
G1 X104.54 Y125.985 E12.41738
G1 X104.179 Y125.594 E12.4417
G1 X103.83 Y125.188 E12.46613
G1 X103.184 Y124.354 E12.51428
G1 X102.876 Y123.908 E12.53904
G1 X102.317 Y123.002 E12.58764
G1 X101.827 Y122.068 E12.6358
G1 X101.601 Y121.575 E12.66057
G1 X101.213 Y120.594 E12.70872
G1 X101.04 Y120.08 E12.73348
G1 X100.756 Y119.064 E12.78163
G1 X100.638 Y118.535 E12.8064
G1 X100.462 Y117.485 E12.85499
G1 X100.36 Y116.435 E12.90317
G1 X100.332 Y115.364 E12.95209
G1 X100.346 Y114.831 E12.97641
G1 X100.379 Y114.297 E13.00084
G1 X100.499 Y113.249 E13.04899
G1 X100.589 Y112.714 E13.07376
G1 X100.821 Y111.676 E13.12235
G1 X101.122 Y110.664 E13.17053
G1 X101.5 Y109.661 E13.21944
G1 X101.714 Y109.171 E13.24389
G1 X102.192 Y108.22 E13.29248
G1 X102.73 Y107.312 E13.34065
G1 X103.027 Y106.867 E13.36509
G1 X103.661 Y106.016 E13.41356
G1 X104.003 Y105.604 E13.43801
G1 X104.724 Y104.824 E13.48648
G1 X105.029 Y104.526 E13.50593
; printing object Carlos_Nippel v1.stl id:0 copy 0
M486 S0
G1 X105.417 Y104.925 F9000
;TYPE:External perimeter
G1 F1200
G1 X105.488 Y104.857 E13.51041
G1 X106.264 Y104.176 E13.55755
G1 X106.662 Y103.863 E13.58065
G1 X107.503 Y103.27 E13.62767
G1 X108.379 Y102.74 E13.67441
G1 X109.293 Y102.271 E13.72128
G1 X110.239 Y101.867 E13.76826
G1 X110.714 Y101.693 E13.79136
G1 X111.698 Y101.39 E13.83838
G1 X112.696 Y101.159 E13.88512
G1 X113.713 Y100.997 E13.93214
G1 X114.216 Y100.943 E13.95525
G1 X115.244 Y100.889 E14.00223
G1 X115.927 Y100.901 E14.03344
G1 X116.78 Y100.943 E14.07244
G1 X117.798 Y101.069 E14.11928
G1 X118.808 Y101.266 E14.16626
G1 X119.299 Y101.39 E14.18936
G1 X120.286 Y101.693 E14.23649
G1 X120.761 Y101.867 E14.2596
G1 X121.707 Y102.271 E14.30658
G1 X122.623 Y102.741 E14.35356
G1 X123.064 Y102.997 E14.37682
G1 X123.495 Y103.268 E14.40008
G1 X124.338 Y103.863 E14.44721
G1 X124.736 Y104.176 E14.47032
G1 X125.512 Y104.857 E14.51745
G1 X125.875 Y105.21 E14.54056
G1 X126.576 Y105.968 E14.58769
G1 X126.899 Y106.357 E14.6108
G1 X127.516 Y107.185 E14.65793
G1 X127.797 Y107.606 E14.68104
G1 X128.323 Y108.494 E14.72817
G1 X128.558 Y108.942 E14.75128
G1 X128.987 Y109.878 E14.79825
G1 X129.348 Y110.838 E14.84508
G1 X129.641 Y111.82 E14.8919
G1 X129.865 Y112.825 E14.93888
G1 X129.949 Y113.324 E14.96198
G1 X130.067 Y114.349 E15.00912
G1 X130.098 Y114.858 E15.03238
G1 X130.111 Y115.367 E15.05564
G1 X130.084 Y116.396 E15.10262
G1 X129.985 Y117.417 E15.14944
G1 X129.815 Y118.431 E15.19642
G1 X129.704 Y118.925 E15.21953
G1 X129.427 Y119.92 E15.26666
G1 X129.265 Y120.403 E15.28992
G1 X129.085 Y120.879 E15.31318
G1 X128.673 Y121.822 E15.36016
G1 X128.197 Y122.731 E15.40698
G1 X127.656 Y123.606 E15.45396
G1 X127.368 Y124.022 E15.47707
G1 X126.737 Y124.839 E15.5242
G1 X126.404 Y125.225 E15.54746
G1 X126.059 Y125.599 E15.57072
G1 X125.322 Y126.317 E15.6177
