; generated by SuperSlicer 2.4 on 2022-12-07 at 20:14:39 UTC

; 

; external perimeters extrusion width = 0.43mm
; perimeters extrusion width = 0.48mm
; infill extrusion width = 0.46mm
; solid infill extrusion width = 0.48mm
; top infill extrusion width = 0.46mm
; first layer extrusion width = 0.58mm

; object:{"name":"Lampenhalterung v2","id":"Lampenhalterung v2.stl id:0 copy 0","object_center":[115.641939,115.688261,0.000000],"boundingbox_center":[115.641939,115.688261,15.000000],"boundingbox_size":[30.997907,39.372811,30.000000]}
; Total objects to print: 1
M486 T1
; plater:{"center":[115.641939,115.688261,0.000000],"boundingbox_center":[115.641939,115.688261,15.000000],"boundingbox_size":[30.997907,39.372811,30.000000]}

;TYPE:Custom
G90 ; use absolute coordinates
M83 ; extruder relative mode
M140 S60 ; set final bed temp
M104 S150 ; set temporary nozzle temp to prevent oozing during homing and auto bed leveling
G4 S10 ; allow partial nozzle warmup
G28 ; home all axis
;G29 ; auto bed levelling
G1 Z10 F240
G1 X2 Y10 F3000
G1 Z0 F240
M104 S210 ; set final nozzle temp
M190 S60 ; wait for bed temp to stabilize
M109 S210 ; wait for nozzle temp to stabilize
G1 Z0.28 F240
G92 E0
G1 Y140 E10 F1500 ; prime the nozzle
G1 X2.3 F5000
G92 E0
G1 Y10 E10 F1200 ; prime the nozzle
G92 E0
;start
M107
G21 ; set units to millimeters
G90 ; use absolute coordinates
M82 ; use absolute distances for extrusion
G92 E0
; Filament gcode
;_TOOLCHANGE 0
M107
;LAYER_CHANGE
;Z:0.2
;HEIGHT:0.2
;BEFORE_LAYER_CHANGE
;0.2


G1 E-8.5 F3000
G1 Z0.15 F9000
;AFTER_LAYER_CHANGE
;0.2
G92 E0
M204 S500
G1 X100.665 Y96.867
G1 E8.5 F3000
;TYPE:Skirt
;WIDTH:0.48
G1 F1200
G1 X99.325 Y98.285 E8.57304
G1 X98.373 Y99.63 E8.6347
G1 X97.564 Y100.979 E8.69357
G1 X96.861 Y102.385 E8.75244
G1 X96.267 Y103.841 E8.8113
G1 X95.854 Y105.103 E8.86099
G1 X95.474 Y106.61 E8.91918
G1 X95.193 Y108.256 E8.98169
G1 X95.044 Y109.988 E9.04677
G1 X95.028 Y111.315 E9.09646
G1 X95.119 Y112.867 E9.15464
G1 X97.212 Y136.727 E10.05123
G1 X97.658 Y138.101 E10.10532
G1 X98.789 Y139.222 E10.16492
G1 X100.319 Y139.663 E10.22451
G1 X129.105 Y140.549 E11.3026
G1 X130.515 Y140.272 E11.3564
G1 X131.764 Y139.284 E11.416
G1 X132.386 Y137.818 E11.47559
G1 X136.19 Y112.594 E12.4305
G1 X136.254 Y110.38 E12.51342
G1 X136.144 Y108.707 E12.57617
G1 X135.791 Y106.52 E12.65909
G1 X135.322 Y104.745 E12.72785
G1 X134.79 Y103.248 E12.78732
G1 X134.144 Y101.796 E12.8468
G1 X133.389 Y100.398 E12.90628
G1 X132.639 Y99.219 E12.95858
G1 X131.865 Y98.259 E13.00474
G1 X130.644 Y96.976 E13.07102
G1 X129.448 Y95.901 E13.13125
G1 X128.369 Y95.057 E13.18251
G1 X127.036 Y94.156 E13.24274
G1 X125.64 Y93.356 E13.30296
G1 X124.189 Y92.663 E13.36318
G1 X122.689 Y92.079 E13.42341
G1 X121.151 Y91.608 E13.48363
G1 X119.582 Y91.253 E13.54386
G1 X117.99 Y91.016 E13.60409
G1 X116.379 Y90.898 E13.66458
G1 X114.518 Y90.91 E13.73422
G1 X112.903 Y91.052 E13.79491
G1 X111.304 Y91.314 E13.85559
G1 X109.728 Y91.695 E13.91627
G1 X108.185 Y92.193 E13.97695
G1 X106.684 Y92.805 E14.03764
G1 X105.233 Y93.528 E14.09832
G1 X103.841 Y94.358 E14.159
G1 X101.865 Y95.804 E14.25067
G1 X100.71 Y96.827 E14.30843
G92 E0
G1 E-5.95 F3000
;WIPE_START
G1 F7200
G1 X99.325 Y98.285 E-6.74602
G1 X98.373 Y99.63 E-7.39801
G1 X97.564 Y100.979 E-8.0205
G1 X97.167 Y101.774 E-8.3725
;WIPE_END
G1 E-8.5 F3000
; acceleration to travel
M204 S1500
G1 X102.719 Y99.851 F9000
; decel to extrusion
M204 S500
G1 X103.397 Y99.616
; end travel
G1 E0 F3000
;WIDTH:0.576
G1 F1200
G1 X104.392 Y98.742 E0.06049
G1 X104.959 Y98.299 E0.09334
G1 X106.048 Y97.545 E0.15378
G1 X107.178 Y96.881 E0.21361
G1 X108.372 Y96.295 E0.27435
G1 X109.607 Y95.799 E0.3351
G1 X110.875 Y95.397 E0.39585
G1 X112.17 Y95.092 E0.45659
G1 X113.484 Y94.884 E0.51734
G1 X114.81 Y94.775 E0.57808
G1 X116.14 Y94.767 E0.6388
G1 X117.464 Y94.856 E0.69938
G1 X118.771 Y95.044 E0.75967
G1 X120.061 Y95.328 E0.81996
G1 X121.326 Y95.707 E0.88025
G1 X122.559 Y96.18 E0.94053
G1 X123.753 Y96.742 E1.00082
G1 X124.903 Y97.392 E1.06111
G1 X126.001 Y98.126 E1.12139
G1 X127.026 Y98.926 E1.18077
G1 X128.004 Y99.813 E1.24105
G1 X128.909 Y100.766 E1.30106
G1 X129.413 Y101.369 E1.33691
G1 X130.115 Y102.475 E1.39675
G1 X130.721 Y103.615 E1.45566
G1 X131.236 Y104.798 E1.51457
G1 X131.659 Y106.017 E1.57349
G1 X131.989 Y107.274 E1.63285
G1 X132.211 Y108.486 E1.68908
G1 X132.294 Y109.149 E1.71962
G1 X132.378 Y110.413 E1.77744
G1 X132.384 Y111.074 E1.80764
G1 X132.318 Y112.395 E1.86802
G1 X132.156 Y113.654 E1.92597
G1 X131.901 Y114.891 E1.98362
G1 X131.719 Y115.568 E2.01562
G1 X131.314 Y116.786 E2.07422
G1 X130.823 Y117.956 E2.13218
G1 X130.244 Y119.086 E2.19013
G1 X129.57 Y120.186 E2.24903
G1 X129.054 Y120.899 E2.28922
G1 X128.601 Y135.584 E2.95998
G1 X128.578 Y135.687 E2.96481
G1 X128.446 Y135.979 E2.9794
G1 X128.385 Y136.065 E2.98424
G1 X127.99 Y136.436 E3.00899
G1 X127.9 Y136.492 E3.01382
G1 X127.601 Y136.605 E3.02842
G1 X127.497 Y136.623 E3.03325
G1 X102.166 Y135.843 E4.19026
G1 X102.063 Y135.819 E4.1951
G1 X101.772 Y135.687 E4.20969
G1 X101.686 Y135.626 E4.21452
G1 X101.314 Y135.231 E4.23928
G1 X101.258 Y135.141 E4.24411
G1 X101.145 Y134.842 E4.2587
G1 X101.128 Y134.738 E4.26354
G1 X101.583 Y119.967 E4.93821
G1 X101.121 Y119.228 E4.978
G1 X100.536 Y118.116 E5.03536
G1 X100.023 Y116.925 E5.09459
G1 X99.614 Y115.737 E5.15195
G1 X99.296 Y114.521 E5.20931
G1 X99.068 Y113.271 E5.26732
G1 X98.984 Y112.583 E5.29897
G1 X98.905 Y111.346 E5.35556
G1 X98.919 Y110.059 E5.41433
G1 X99.03 Y108.799 E5.47209
G1 X99.124 Y108.155 E5.5018
G1 X99.246 Y107.5 E5.5322
G1 X99.542 Y106.297 E5.58877
G1 X99.932 Y105.102 E5.64613
G1 X100.423 Y103.912 E5.70491
G1 X101 Y102.773 E5.76323
G1 X101.661 Y101.68 E5.82153
G1 X102.421 Y100.62 E5.88109
G1 X103.355 Y99.659 E5.94228
G1 X103.739 Y100.034 F9000
G1 F1200
G1 X103.774 Y99.999 E5.94455
G1 X104.741 Y99.151 E6.00327
G1 X105.272 Y98.736 E6.03402
G1 X106.329 Y98.003 E6.09274
G1 X107.441 Y97.35 E6.15164
G1 X108.6 Y96.781 E6.21055
G1 X109.797 Y96.301 E6.26946
G1 X111.028 Y95.913 E6.32836
G1 X112.283 Y95.617 E6.38727
G1 X113.558 Y95.416 E6.44618
G1 X114.844 Y95.312 E6.50508
G1 X116.114 Y95.303 E6.56307
G1 X117.398 Y95.39 E6.62182
G1 X118.666 Y95.571 E6.68029
G1 X119.916 Y95.846 E6.73875
G1 X121.143 Y96.213 E6.79721
G1 X122.339 Y96.67 E6.85568
G1 X123.498 Y97.215 E6.91414
G1 X124.613 Y97.845 E6.9726
G1 X125.678 Y98.555 E7.03106
G1 X126.687 Y99.343 E7.08952
G1 X127.635 Y100.204 E7.14798
G1 X128.514 Y101.13 E7.20625
G1 X128.969 Y101.672 E7.23856
G1 X129.646 Y102.737 E7.29616
G1 X130.232 Y103.839 E7.35318
G1 X130.732 Y104.984 E7.4102
G1 X131.142 Y106.163 E7.46722
G1 X131.463 Y107.381 E7.52471
G1 X131.681 Y108.575 E7.58011
G1 X131.76 Y109.208 E7.60925
G1 X131.842 Y110.441 E7.66565
G1 X131.847 Y111.071 E7.69443
G1 X131.783 Y112.338 E7.75232
G1 X131.628 Y113.556 E7.80839
G1 X131.376 Y114.775 E7.86521
G1 X131.207 Y115.406 E7.89506
G1 X130.815 Y116.587 E7.95188
G1 X130.331 Y117.739 E8.0089
G1 X129.77 Y118.832 E8.06498
G1 X129.117 Y119.896 E8.12199
G1 X128.522 Y120.718 E8.16832
G1 X128.066 Y135.515 E8.8442
G1 X127.978 Y135.709 E8.85396
G1 X127.66 Y136.008 E8.87388
G1 X127.46 Y136.084 E8.88364
G1 X102.236 Y135.307 E10.03582
G1 X102.041 Y135.219 E10.04558
G1 X101.742 Y134.901 E10.06551
G1 X101.666 Y134.701 E10.07527
G1 X102.125 Y119.821 E10.75498
G1 X101.592 Y118.969 E10.80083
G1 X101.017 Y117.875 E10.85727
G1 X100.527 Y116.74 E10.9137
G1 X100.132 Y115.591 E10.9692
G1 X99.819 Y114.395 E11.02563
G1 X99.599 Y113.183 E11.08188
G1 X99.52 Y112.541 E11.11141
G1 X99.442 Y111.342 E11.16625
G1 X99.457 Y110.075 E11.22409
G1 X99.563 Y108.868 E11.2794
G1 X99.653 Y108.248 E11.30804
G1 X99.77 Y107.621 E11.33716
G1 X100.056 Y106.454 E11.392
G1 X100.44 Y105.279 E11.44843
G1 X100.916 Y104.127 E11.50533
G1 X101.474 Y103.025 E11.56177
G1 X102.115 Y101.968 E11.6182
G1 X102.845 Y100.949 E11.67541
G1 X103.697 Y100.077 E11.73108
G1 X104.08 Y100.453 F9000
G1 F1200
G1 X104.154 Y100.379 E11.73585
G1 X105.092 Y99.557 E11.79279
G1 X105.587 Y99.171 E11.82147
G1 X106.614 Y98.459 E11.87852
G1 X107.692 Y97.825 E11.93559
G1 X108.805 Y97.278 E11.9922
G1 X109.964 Y96.812 E12.04926
G1 X111.166 Y96.432 E12.10679
G1 X112.372 Y96.147 E12.1634
G1 X113.607 Y95.952 E12.22046
G1 X114.863 Y95.849 E12.27799
G1 X116.113 Y95.841 E12.33506
G1 X116.935 Y95.897 E12.37268
G1 X117.357 Y95.926 E12.39199
G1 X118.585 Y96.102 E12.44862
G1 X119.786 Y96.367 E12.5048
G1 X120.984 Y96.726 E12.56189
G1 X122.133 Y97.166 E12.61807
G1 X123.255 Y97.695 E12.67471
G1 X124.344 Y98.31 E12.7318
G1 X125.367 Y98.994 E12.78798
G1 X126.345 Y99.757 E12.84461
G1 X127.27 Y100.599 E12.9017
G1 X128.116 Y101.492 E12.95787
G1 X128.52 Y101.969 E12.9864
G1 X128.531 Y101.983 E12.98723
G1 X129.179 Y103.003 E13.0424
G1 X129.746 Y104.069 E13.09753
G1 X130.23 Y105.175 E13.15266
G1 X130.627 Y106.316 E13.20779
G1 X130.935 Y107.483 E13.26291
G1 X131.152 Y108.668 E13.31791
G1 X131.226 Y109.271 E13.34563
G1 X131.305 Y110.464 E13.40025
G1 X131.309 Y111.079 E13.42832
G1 X131.249 Y112.285 E13.48343
G1 X131.095 Y113.483 E13.53856
G1 X130.852 Y114.654 E13.5932
G1 X130.695 Y115.241 E13.62092
G1 X130.317 Y116.384 E13.67591
G1 X129.85 Y117.498 E13.73104
G1 X129.3 Y118.573 E13.78617
G1 X128.668 Y119.602 E13.84129
G1 X127.99 Y120.536 E13.89399
G1 X127.532 Y135.391 E14.57255
G1 X127.37 Y135.544 E14.58271
G1 X102.359 Y134.773 E15.72513
G1 X102.207 Y134.611 E15.73529
G1 X102.667 Y119.674 E16.4176
G1 X102.06 Y118.706 E16.46975
G1 X101.504 Y117.648 E16.52431
G1 X101.03 Y116.551 E16.57888
G1 X100.642 Y115.421 E16.63344
G1 X100.34 Y114.264 E16.688
G1 X100.129 Y113.098 E16.74208
G1 X100.056 Y112.502 E16.76951
G1 X99.979 Y111.302 E16.82441
G1 X99.993 Y110.107 E16.87898
G1 X100.097 Y108.927 E16.93306
G1 X100.185 Y108.328 E16.96071
G1 X100.294 Y107.738 E16.98812
G1 X100.577 Y106.587 E17.0422
G1 X100.949 Y105.451 E17.09677
G1 X101.406 Y104.347 E17.15133
G1 X101.946 Y103.281 E17.20589
G1 X102.572 Y102.251 E17.26092
G1 X103.263 Y101.287 E17.31508
G1 X103.277 Y101.271 E17.31603
G1 X104.038 Y100.496 E17.36564
G92 E0
G1 E-5.95 F3000
;WIPE_START
G1 F7200
G1 X104.147 Y100.386 E-6.01116
G1 X104.154 Y100.379 E-6.01515
G1 X105.086 Y99.562 E-6.50579
G1 X105.092 Y99.557 E-6.50878
G1 X105.581 Y99.175 E-6.75449
G1 X105.587 Y99.171 E-6.75748
G1 X106.606 Y98.464 E-7.24813
G1 X106.614 Y98.459 E-7.25212
G1 X107.683 Y97.83 E-7.74289
G1 X107.692 Y97.825 E-7.74688
G1 X108.805 Y97.278 E-8.23767
G1 X108.814 Y97.274 E-8.24166
G1 X109.121 Y97.151 E-8.3725
;WIPE_END
G1 E-8.5 F3000
; printing object Lampenhalterung v2.stl id:0 copy 0
M486 S0
; acceleration to travel
M204 S1500
G1 X103.466 Y130.192 F9000
; decel to extrusion
M204 S500
G1 X102.776 Y134.229
; end travel
G1 E0 F3000
;TYPE:External perimeter
G1 F1200
G1 X103.229 Y119.521 E0.67181
G1 X102.545 Y118.432 E0.73051
G1 X102.009 Y117.412 E0.78313
G1 X101.551 Y116.354 E0.83575
G1 X101.176 Y115.264 E0.88838
G1 X100.885 Y114.149 E0.941
G1 X100.679 Y113.011 E0.99379
G1 X100.61 Y112.446 E1.01977
G1 X100.535 Y111.293 E1.07256
G1 X100.549 Y110.14 E1.12519
G1 X100.651 Y108.988 E1.17798
G1 X100.734 Y108.421 E1.20413
G1 X100.838 Y107.858 E1.23027
G1 X101.113 Y106.735 E1.28307
G1 X101.473 Y105.64 E1.33569
G1 X101.914 Y104.576 E1.38831
G1 X102.436 Y103.548 E1.44093
G1 X103.034 Y102.562 E1.49356
G1 X103.697 Y101.638 E1.54549
G1 X104.533 Y100.787 E1.59994
G1 X105.444 Y99.989 E1.65527
G1 X105.915 Y99.621 E1.68252
G1 X106.91 Y98.93 E1.73785
G1 X107.952 Y98.318 E1.79301
G1 X109.036 Y97.785 E1.84817
G1 X110.157 Y97.335 E1.90333
G1 X111.309 Y96.97 E1.95849
G1 X112.485 Y96.693 E2.01365
G1 X113.678 Y96.504 E2.06881
G1 X114.882 Y96.406 E2.12397
G1 X116.091 Y96.397 E2.17913
G1 X116.897 Y96.452 E2.21604
G1 X117.293 Y96.479 E2.23416
G1 X118.48 Y96.649 E2.28891
G1 X119.651 Y96.907 E2.34365
G1 X120.8 Y97.252 E2.39839
G1 X121.919 Y97.681 E2.45314
G1 X123.004 Y98.191 E2.50788
G1 X124.048 Y98.782 E2.56262
G1 X125.045 Y99.448 E2.61737
G1 X125.989 Y100.186 E2.67211
G1 X126.876 Y100.993 E2.72685
G1 X127.704 Y101.866 E2.78176
G1 X128.076 Y102.306 E2.80809
G1 X128.695 Y103.279 E2.86074
G1 X129.243 Y104.307 E2.91391
G1 X129.71 Y105.374 E2.96708
G1 X130.093 Y106.474 E3.02024
G1 X130.39 Y107.599 E3.07341
G1 X130.601 Y108.749 E3.12675
G1 X130.672 Y109.319 E3.153
G1 X130.748 Y110.489 E3.20651
G1 X130.753 Y111.064 E3.23276
G1 X130.694 Y112.23 E3.28609
G1 X130.547 Y113.386 E3.33926
G1 X130.31 Y114.53 E3.3926
G1 X130.161 Y115.085 E3.41885
G1 X129.793 Y116.194 E3.47219
G1 X129.343 Y117.268 E3.52536
G1 X128.812 Y118.304 E3.57852
G1 X128.202 Y119.296 E3.63169
G1 X127.439 Y120.347 E3.691
G1 X126.988 Y134.975 E4.35915
G1 X102.835 Y134.231 E5.46237
;WIPE_START
G1 X102.986 Y133.889 F9000
;WIPE_END
G1 X103.329 Y133.709
;TYPE:Internal perimeter
G1 F1200
G1 X103.771 Y119.374 E6.11712
G1 X103.011 Y118.164 E6.18235
G1 X102.494 Y117.18 E6.2331
G1 X102.053 Y116.16 E6.28385
G1 X101.691 Y115.109 E6.3346
G1 X101.41 Y114.033 E6.38535
G1 X101.211 Y112.931 E6.43651
G1 X101.145 Y112.396 E6.46108
G1 X101.073 Y111.278 E6.51224
G1 X101.086 Y110.167 E6.56299
G1 X101.185 Y109.051 E6.61414
G1 X101.264 Y108.509 E6.63912
G1 X101.363 Y107.972 E6.66409
G1 X101.63 Y106.883 E6.71525
G1 X101.977 Y105.827 E6.766
G1 X102.403 Y104.8 E6.81675
G1 X102.906 Y103.809 E6.8675
G1 X103.483 Y102.859 E6.91825
G1 X104.109 Y101.985 E6.96734
G1 X104.902 Y101.178 E7.01898
G1 X105.787 Y100.403 E7.07269
G1 X106.233 Y100.054 E7.09857
G1 X107.2 Y99.383 E7.15228
G1 X108.207 Y98.791 E7.2056
G1 X109.255 Y98.276 E7.25892
G1 X110.339 Y97.841 E7.31224
G1 X111.452 Y97.489 E7.36556
G1 X112.589 Y97.22 E7.41888
G1 X113.742 Y97.038 E7.47219
G1 X114.906 Y96.943 E7.52551
G1 X116.074 Y96.935 E7.57885
G1 X116.861 Y96.988 E7.61484
G1 X117.237 Y97.014 E7.63205
G1 X118.384 Y97.178 E7.68496
G1 X119.516 Y97.428 E7.73788
G1 X120.626 Y97.761 E7.79079
G1 X121.708 Y98.175 E7.84371
G1 X122.757 Y98.669 E7.89662
G1 X123.766 Y99.24 E7.94954
G1 X124.73 Y99.884 E8.00246
G1 X125.643 Y100.597 E8.05537
G1 X126.5 Y101.377 E8.10829
G1 X127.303 Y102.225 E8.1616
G1 X127.643 Y102.626 E8.18558
G1 X128.231 Y103.55 E8.2356
G1 X128.759 Y104.541 E8.28688
G1 X129.209 Y105.57 E8.33816
G1 X129.579 Y106.631 E8.38943
G1 X129.865 Y107.717 E8.44071
G1 X130.069 Y108.83 E8.49239
G1 X130.136 Y109.37 E8.51722
G1 X130.211 Y110.508 E8.56931
G1 X130.215 Y111.052 E8.59414
G1 X130.159 Y112.183 E8.64582
G1 X130.016 Y113.297 E8.6971
G1 X129.787 Y114.405 E8.74878
G1 X129.646 Y114.931 E8.77361
G1 X129.29 Y116.005 E8.8253
G1 X128.856 Y117.041 E8.87657
G1 X128.343 Y118.04 E8.92785
G1 X127.755 Y118.997 E8.97913
G1 X126.907 Y120.165 E9.04504
G1 X126.467 Y134.421 E9.69621
G1 X103.389 Y133.71 E10.75036
G92 E0
G1 E-5.95 F3000
;WIPE_START
G1 F7200
G1 X103.552 Y127.593 E-8.3725
;WIPE_END
G1 E-8.5 F3000
; acceleration to travel
M204 S1500
G1 X110.648 Y119.977 F9000
; decel to extrusion
M204 S500
G1 X111.515 Y119.047
; end travel
G1 E0 F3000
;TYPE:External perimeter
G1 F1200
G1 X112.375 Y119.428 E0.04296
G1 X113.27 Y119.719 E0.08591
G1 X114.19 Y119.916 E0.12887
G1 X115.125 Y120.017 E0.17182
G1 X116.061 Y120.022 E0.21455
G1 X116.541 Y119.987 E0.23649
G1 X117.466 Y119.848 E0.27922
G1 X118.377 Y119.613 E0.32218
G1 X119.259 Y119.285 E0.36513
G1 X120.103 Y118.869 E0.40809
G1 X120.899 Y118.368 E0.45105
G1 X121.64 Y117.788 E0.494
G1 X122.317 Y117.135 E0.53696
G1 X122.924 Y116.415 E0.57991
G1 X123.453 Y115.637 E0.62287
G1 X123.899 Y114.809 E0.66583
G1 X124.258 Y113.939 E0.70878
G1 X124.524 Y113.042 E0.75151
G1 X124.625 Y112.572 E0.77345
G1 X124.75 Y111.644 E0.81618
G1 X124.778 Y110.704 E0.85914
G1 X124.711 Y109.766 E0.90209
G1 X124.547 Y108.839 E0.94505
G1 X124.288 Y107.934 E0.98801
G1 X123.938 Y107.061 E1.03096
G1 X123.5 Y106.228 E1.07392
G1 X122.979 Y105.445 E1.11688
G1 X122.38 Y104.72 E1.15983
G1 X121.709 Y104.06 E1.20279
G1 X120.974 Y103.472 E1.24574
G1 X120.183 Y102.963 E1.2887
G1 X119.348 Y102.54 E1.33143
G1 X118.904 Y102.357 E1.35337
G1 X118.014 Y102.068 E1.3961
G1 X117.094 Y101.871 E1.43905
G1 X116.158 Y101.769 E1.48201
G1 X115.217 Y101.765 E1.52497
G1 X114.749 Y101.811 E1.54644
G1 X114.281 Y101.857 E1.56792
G1 X113.359 Y102.044 E1.61088
