; generated by SuperSlicer 2.4 on 2022-12-22 at 11:10:11 UTC

; 

; external perimeters extrusion width = 0.43mm
; perimeters extrusion width = 0.48mm
; infill extrusion width = 0.46mm
; solid infill extrusion width = 0.48mm
; top infill extrusion width = 0.46mm
; first layer extrusion width = 0.58mm

; object:{"name":"cone_1_thick_half","id":"cone_1_thick_half.obj id:0 copy 0","object_center":[121.429131,122.714710,0.000000],"boundingbox_center":[121.429131,122.714710,10.202165],"boundingbox_size":[45.188219,42.615033,20.404330]}
; Total objects to print: 1
M486 T1
; plater:{"center":[121.429131,122.714710,0.000000],"boundingbox_center":[121.429131,122.714710,10.202165],"boundingbox_size":[45.188219,42.615033,20.404330]}

;TYPE:Custom
G90 ; use absolute coordinates
M83 ; extruder relative mode
M140 S60 ; set final bed temp
M104 S150 ; set temporary nozzle temp to prevent oozing during homing and auto bed leveling
G4 S10 ; allow partial nozzle warmup
G28 ; home all axis
;G29 ; auto bed levelling
G1 Z10 F240
G1 X2 Y10 F3000
G1 Z0 F240
M104 S210 ; set final nozzle temp
M190 S60 ; wait for bed temp to stabilize
M109 S210 ; wait for nozzle temp to stabilize
G1 Z0.28 F240
G92 E0
G1 Y140 E10 F1500 ; prime the nozzle
G1 X2.3 F5000
G92 E0
G1 Y10 E10 F1200 ; prime the nozzle
G92 E0
;start
M107
G21 ; set units to millimeters
G90 ; use absolute coordinates
M82 ; use absolute distances for extrusion
G92 E0
; Filament gcode
;_TOOLCHANGE 0
M107
;LAYER_CHANGE
;Z:0.2
;HEIGHT:0.2
;BEFORE_LAYER_CHANGE
;0.2


G1 E-3 F3000
G1 Z0.15 F9000
;AFTER_LAYER_CHANGE
;0.2
G92 E0
M204 S500
G1 X96.762 Y98.173
G1 E3 F3000
;TYPE:Skirt
;WIDTH:0.48
G1 F1200
G1 X94.882 Y100.467 E3.10885
G1 X94.21 Y101.611 E3.15755
G1 X93.896 Y102.537 E3.19345
G1 X93.748 Y103.381 E3.2249
G1 X93.807 Y104.766 E3.27579
G1 X94.043 Y105.652 E3.30944
G1 X107.357 Y135.013 E4.49283
G1 X111.709 Y144.534 E4.87709
G1 X112.194 Y145.414 E4.91396
G1 X112.649 Y146.032 E4.94216
G1 X113.295 Y146.678 E4.97567
G1 X114.915 Y148.001 E5.05243
G1 X116.013 Y148.646 E5.09919
G1 X116.916 Y148.953 E5.1342
G1 X117.573 Y149.072 E5.15873
G1 X118.475 Y149.107 E5.19184
G1 X119.178 Y149.035 E5.2178
G1 X120.21 Y148.75 E5.2571
G1 X120.84 Y148.456 E5.28261
G1 X121.55 Y148.004 E5.31349
G1 X122.393 Y147.225 E5.35565
G1 X147.957 Y116.125 E6.83338
G1 X148.64 Y114.944 E6.88347
G1 X149.043 Y113.606 E6.93476
G1 X149.107 Y112.55 E6.9736
G1 X149.028 Y111.798 E7.00135
G1 X148.722 Y110.728 E7.0422
G1 X148.381 Y110.024 E7.07093
G1 X147.742 Y109.135 E7.11111
G1 X147.026 Y108.448 E7.14752
G1 X145.297 Y107.062 E7.22888
G1 X144.195 Y106.475 E7.27471
G1 X143.57 Y106.264 E7.2989
G1 X133.061 Y103.723 E7.69576
G1 X101.665 Y96.352 E8.87955
G1 X100.862 Y96.301 E8.90907
G1 X99.725 Y96.433 E8.95111
G1 X98.886 Y96.688 E8.98328
G1 X97.839 Y97.232 E9.02661
G1 X96.807 Y98.133 E9.0769
G92 E0
G1 E-2.1 F3000
;WIPE_START
G1 F7200
G1 X95.433 Y99.8 E-2.955
;WIPE_END
G1 E-3 F3000
; acceleration to travel
M204 S1500
G1 X99.292 Y100.556 F9000
; decel to extrusion
M204 S500
G1 X99.763 Y100.649
; end travel
G1 E0 F3000
;WIDTH:0.576
G1 F1200
G1 X100.031 Y100.443 E0.01512
G1 X100.303 Y100.307 E0.02874
G1 X100.681 Y100.204 E0.04629
G1 X100.911 Y100.187 E0.0566
G1 X101.13 Y100.201 E0.06644
G1 X101.414 Y100.267 E0.07948
G1 X101.732 Y100.409 E0.09508
G1 X101.919 Y100.531 E0.10508
G1 X102.19 Y100.762 E0.121
G1 X102.232 Y100.776 E0.12301
G1 X106.889 Y101.862 E0.33709
G1 X110.58 Y102.746 E0.50699
G1 X111.031 Y102.64 E0.52774
G1 X111.345 Y102.633 E0.54182
G1 X111.613 Y102.675 E0.55396
G1 X111.859 Y102.756 E0.56552
G1 X112.067 Y102.859 E0.57595
G1 X112.285 Y103.011 E0.58782
G1 X112.508 Y103.212 E0.60125
G1 X114.012 Y103.545 E0.67021
G1 X114.411 Y103.654 E0.68877
G1 X120.915 Y105.187 E0.98792
G1 X121.315 Y105.082 E1.00641
G1 X121.66 Y105.072 E1.02187
G1 X121.897 Y105.105 E1.03261
G1 X122.206 Y105.209 E1.04719
G1 X122.393 Y105.304 E1.05659
G1 X122.85 Y105.65 E1.08224
G1 X127.473 Y106.728 E1.29474
G1 X131.212 Y107.628 E1.46694
G1 X131.314 Y107.589 E1.47184
G1 X131.648 Y107.511 E1.4872
G1 X132.003 Y107.504 E1.50309
G1 X132.241 Y107.54 E1.51386
G1 X132.556 Y107.651 E1.5288
G1 X132.745 Y107.752 E1.53842
G1 X133.167 Y108.092 E1.56265
G1 X134.614 Y108.415 E1.62906
G1 X135.164 Y108.561 E1.65453
G1 X136.638 Y108.892 E1.72215
G1 X141.531 Y110.062 E1.94738
G1 X141.735 Y110 E1.95695
G1 X142.017 Y109.959 E1.9697
G1 X142.319 Y109.968 E1.98322
G1 X142.575 Y110.018 E1.99489
G1 X142.888 Y110.135 E2.00987
G1 X143.205 Y110.329 E2.0265
G1 X144.101 Y111.08 E2.07882
G1 X144.524 Y111.411 E2.10287
G1 X144.895 Y111.784 E2.12645
G1 X145.017 Y111.969 E2.13636
G1 X145.123 Y112.187 E2.14724
G1 X145.214 Y112.552 E2.16406
G1 X145.213 Y112.925 E2.18076
G1 X145.111 Y113.336 E2.1997
G1 X144.979 Y113.597 E2.21281
G1 X144.862 Y113.773 E2.22227
G1 X144.544 Y114.132 E2.24375
G1 X143.712 Y115.172 E2.30337
G1 X143.377 Y115.483 E2.32383
G1 X143.18 Y115.61 E2.33432
G1 X142.956 Y115.713 E2.34537
G1 X142.479 Y115.818 E2.36723
G1 X142.075 Y115.797 E2.38533
G1 X141.844 Y115.73 E2.39614
G1 X141.519 Y115.568 E2.41238
G1 X141.043 Y115.202 E2.43923
G1 X139.693 Y114.906 E2.50111
G1 X133.712 Y113.495 E2.77624
G1 X132.747 Y113.251 E2.82078
G1 X132.492 Y113.328 E2.83273
G1 X132.272 Y113.363 E2.84268
G1 X131.998 Y113.368 E2.85498
G1 X131.733 Y113.329 E2.86695
G1 X131.485 Y113.249 E2.87861
G1 X131.275 Y113.146 E2.88909
G1 X131.049 Y112.992 E2.90132
G1 X130.831 Y112.794 E2.9145
G1 X130.79 Y112.781 E2.91644
G1 X126.982 Y111.902 E3.09138
G1 X126.432 Y111.757 E3.11685
G1 X124.848 Y111.398 E3.18958
G1 X122.441 Y110.818 E3.30041
G1 X121.952 Y110.926 E3.32286
G1 X121.645 Y110.927 E3.3366
G1 X121.431 Y110.896 E3.34628
G1 X121.168 Y110.814 E3.35859
G1 X120.966 Y110.721 E3.36855
G1 X120.689 Y110.534 E3.38351
G1 X120.481 Y110.35 E3.39593
G1 X118.899 Y109.994 E3.46854
G1 X113.852 Y108.783 E3.7009
G1 X113.23 Y108.651 E3.72937
G1 X112.109 Y108.373 E3.78106
G1 X111.706 Y108.485 E3.79979
G1 X111.341 Y108.497 E3.81615
G1 X111.096 Y108.463 E3.82722
G1 X110.777 Y108.351 E3.84235
G1 X110.582 Y108.247 E3.85225
G1 X110.166 Y107.912 E3.87618
G1 X104.698 Y106.623 E4.12769
G1 X107.026 Y111.741 E4.37941
G1 X107.431 Y112.079 E4.40302
G1 X107.57 Y112.247 E4.41281
G1 X107.742 Y112.536 E4.42786
G1 X107.825 Y112.768 E4.43887
G1 X107.886 Y113.127 E4.45521
G1 X107.853 Y113.559 E4.47459
G1 X110.759 Y119.9 E4.78686
G1 X111.425 Y121.394 E4.86007
G1 X111.637 Y121.551 E4.87188
G1 X111.847 Y121.755 E4.885
G1 X111.988 Y121.937 E4.89529
G1 X112.12 Y122.17 E4.90731
G1 X112.211 Y122.415 E4.91902
G1 X112.27 Y122.728 E4.93328
G1 X112.255 Y123.221 E4.95535
G1 X114.045 Y127.111 E5.14704
G1 X115.804 Y131.023 E5.33907
G1 X115.824 Y131.059 E5.34091
G1 X116.061 Y131.233 E5.35408
G1 X116.264 Y131.433 E5.3668
G1 X116.407 Y131.624 E5.37752
G1 X116.532 Y131.854 E5.38923
G1 X116.619 Y132.104 E5.40108
G1 X116.67 Y132.416 E5.41521
G1 X116.649 Y132.857 E5.435
G1 X119.865 Y139.898 E5.78155
G1 X120.172 Y140.616 E5.8165
G1 X120.62 Y141.009 E5.84319
G1 X120.847 Y141.304 E5.85984
G1 X120.96 Y141.523 E5.87087
G1 X121.057 Y141.918 E5.88909
G1 X121.053 Y142.286 E5.90554
G1 X120.978 Y142.647 E5.92207
G1 X120.81 Y143.01 E5.93998
G1 X120.65 Y143.242 E5.9526
G1 X119.47 Y144.677 E6.03576
G1 X119.186 Y144.926 E6.05268
G1 X118.833 Y145.117 E6.07065
G1 X118.515 Y145.207 E6.08544
G1 X118.305 Y145.229 E6.09488
G1 X118.072 Y145.222 E6.10534
G1 X117.688 Y145.137 E6.12292
G1 X117.366 Y144.982 E6.13895
G1 X115.808 Y143.727 E6.22849
G1 X115.577 Y143.486 E6.24345
G1 X115.365 Y143.152 E6.26114
G1 X115.245 Y142.802 E6.2777
G1 X115.208 Y142.532 E6.28991
G1 X115.227 Y142.126 E6.3081
G1 X115.215 Y142.09 E6.30982
G1 X112.26 Y135.625 E6.62803
G1 X111.686 Y134.309 E6.69233
G1 X111.669 Y134.279 E6.69387
G1 X111.441 Y134.102 E6.70677
G1 X111.223 Y133.895 E6.72025
G1 X110.942 Y133.469 E6.7431
G1 X110.859 Y133.238 E6.75407
G1 X110.797 Y132.887 E6.77004
G1 X110.81 Y132.542 E6.78546
G1 X110.828 Y132.438 E6.79023
G1 X109.769 Y130.159 E6.90274
G1 X109.144 Y128.747 E6.97187
G1 X107.257 Y124.605 E7.17561
G1 X107.042 Y124.438 E7.1878
G1 X106.833 Y124.235 E7.20086
G1 X106.706 Y124.072 E7.21012
G1 X106.543 Y123.788 E7.22476
G1 X106.465 Y123.561 E7.23553
G1 X106.409 Y123.218 E7.25107
G1 X106.436 Y122.809 E7.26943
G1 X103.898 Y117.264 E7.54243
G1 X103.702 Y116.8 E7.56499
G1 X103.396 Y116.162 E7.59666
G1 X102.865 Y114.948 E7.65599
G1 X102.628 Y114.771 E7.66923
G1 X102.436 Y114.585 E7.6812
G1 X102.293 Y114.4 E7.69168
G1 X102.165 Y114.174 E7.70327
G1 X102.073 Y113.92 E7.7154
G1 X102.018 Y113.61 E7.72949
G1 X102.035 Y113.156 E7.74984
G1 X98.482 Y105.341 E8.13415
G1 X98.447 Y105.278 E8.13738
G1 X98.197 Y105.084 E8.15154
G1 X98.039 Y104.925 E8.16157
G1 X97.863 Y104.687 E8.17483
G1 X97.751 Y104.476 E8.18553
G1 X97.634 Y104.056 E8.20504
G1 X97.628 Y103.685 E8.22163
G1 X97.738 Y103.235 E8.2424
G1 X97.866 Y102.979 E8.25519
G1 X97.991 Y102.794 E8.26519
G1 X98.341 Y102.388 E8.2892
G1 X99.725 Y100.695 E8.3871
G1 X100.12 Y101.051 F9000
G1 F1200
G1 X100.301 Y100.908 E8.39746
G1 X100.477 Y100.816 E8.40632
G1 X100.754 Y100.737 E8.41919
G1 X100.897 Y100.725 E8.42565
G1 X101.072 Y100.736 E8.4335
G1 X101.26 Y100.782 E8.44215
G1 X101.488 Y100.888 E8.45339
G1 X101.582 Y100.951 E8.45849
G1 X101.922 Y101.24 E8.47849
G1 X102.088 Y101.294 E8.4863
G1 X106.766 Y102.385 E8.70134
G1 X110.522 Y103.285 E8.87424
G1 X110.61 Y103.292 E8.87821
G1 X111.078 Y103.176 E8.89979
G1 X111.293 Y103.168 E8.90944
G1 X111.472 Y103.194 E8.9175
G1 X111.643 Y103.248 E8.92553
G1 X111.778 Y103.313 E8.93226
G1 X111.964 Y103.442 E8.94237
G1 X112.232 Y103.688 E8.95865
G1 X112.278 Y103.711 E8.96097
G1 X113.889 Y104.068 E9.03483
G1 X114.279 Y104.175 E9.05295
G1 X118.208 Y105.091 E9.23356
G1 X119.227 Y105.348 E9.28062
G1 X120.54 Y105.642 E9.34085
G1 X120.952 Y105.754 E9.35998
G1 X121.143 Y105.674 E9.36926
G1 X121.361 Y105.619 E9.37929
G1 X121.651 Y105.61 E9.3923
G1 X121.789 Y105.632 E9.39856
G1 X122.008 Y105.71 E9.40897
G1 X122.124 Y105.77 E9.41482
G1 X122.622 Y106.152 E9.44293
G1 X122.997 Y106.227 E9.46005
G1 X127.349 Y107.25 E9.66019
G1 X131.257 Y108.192 E9.84016
G1 X131.466 Y108.104 E9.85028
G1 X131.69 Y108.048 E9.86063
G1 X131.988 Y108.042 E9.874
G1 X132.126 Y108.065 E9.88026
G1 X132.35 Y108.148 E9.89096
G1 X132.464 Y108.211 E9.89676
G1 X132.875 Y108.548 E9.92055
G1 X132.968 Y108.598 E9.92531
G1 X134.492 Y108.939 E9.99521
G1 X135.037 Y109.083 E10.02043
G1 X136.515 Y109.415 E10.08826
G1 X141.433 Y110.592 E10.31464
G1 X141.596 Y110.613 E10.32202
G1 X141.844 Y110.527 E10.33375
G1 X142.031 Y110.497 E10.34226
G1 X142.247 Y110.501 E10.35193
G1 X142.41 Y110.53 E10.35934
G1 X142.674 Y110.628 E10.37195
G1 X142.903 Y110.773 E10.38406
G1 X143.762 Y111.497 E10.43437
G1 X144.18 Y111.824 E10.45815
G1 X144.465 Y112.107 E10.4761
G1 X144.542 Y112.221 E10.48227
G1 X144.628 Y112.398 E10.49108
G1 X144.676 Y112.585 E10.49974
G1 X144.676 Y112.891 E10.51343
G1 X144.618 Y113.12 E10.52401
G1 X144.507 Y113.339 E10.535
G1 X144.428 Y113.456 E10.54131
G1 X144.134 Y113.785 E10.56108
G1 X143.305 Y114.821 E10.62049
G1 X143.065 Y115.045 E10.63516
G1 X142.906 Y115.147 E10.64363
G1 X142.765 Y115.21 E10.65054
G1 X142.407 Y115.284 E10.66691
G1 X142.146 Y115.264 E10.67862
G1 X142.063 Y115.238 E10.68252
G1 X141.784 Y115.1 E10.69646
G1 X141.348 Y114.75 E10.72148
G1 X141.213 Y114.689 E10.72814
G1 X139.815 Y114.383 E10.7922
G1 X133.837 Y112.972 E11.06715
G1 X132.812 Y112.713 E11.11452
G1 X132.701 Y112.703 E11.1195
G1 X132.383 Y112.801 E11.13437
G1 X132.236 Y112.826 E11.14104
G1 X132.047 Y112.832 E11.14952
G1 X131.871 Y112.809 E11.1575
G1 X131.697 Y112.755 E11.16563
G1 X131.561 Y112.691 E11.17237
G1 X131.369 Y112.559 E11.18278
G1 X131.106 Y112.317 E11.1988
G1 X130.93 Y112.262 E11.20705
G1 X127.107 Y111.379 E11.38269
G1 X126.56 Y111.235 E11.40803
G1 X124.972 Y110.875 E11.48093
G1 X122.504 Y110.28 E11.5946
G1 X122.407 Y110.274 E11.59894
G1 X121.915 Y110.389 E11.62155
G1 X121.695 Y110.392 E11.63141
G1 X121.568 Y110.376 E11.63716
G1 X121.346 Y110.307 E11.64755
G1 X121.217 Y110.245 E11.65393
G1 X121.011 Y110.103 E11.66516
G1 X120.766 Y109.872 E11.68023
G1 X120.612 Y109.829 E11.68739
G1 X119.023 Y109.471 E11.76033
G1 X113.97 Y108.258 E11.99295
G1 X113.355 Y108.129 E12.0211
G1 X112.063 Y107.807 E12.08071
G1 X111.881 Y107.886 E12.08959
G1 X111.656 Y107.949 E12.10005
G1 X111.349 Y107.959 E12.1138
G1 X111.207 Y107.937 E12.12021
G1 X110.982 Y107.854 E12.13098
G1 X110.864 Y107.789 E12.13699
G1 X110.403 Y107.411 E12.16369
G1 X110.018 Y107.334 E12.18127
G1 X104.918 Y106.12 E12.41596
G1 X104.298 Y105.989 E12.44433
G1 X103.752 Y105.845 E12.46962
G1 X104.03 Y106.427 E12.49849
G1 X104.279 Y107.009 E12.52683
G1 X106.45 Y111.751 E12.76028
G1 X106.579 Y112.07 E12.7757
G1 X107.037 Y112.445 E12.80222
G1 X107.123 Y112.546 E12.80816
G1 X107.249 Y112.75 E12.81888
G1 X107.299 Y112.883 E12.82525
G1 X107.35 Y113.186 E12.83898
G1 X107.334 Y113.419 E12.84946
G1 X107.29 Y113.62 E12.85867
G1 X110.27 Y120.123 E13.17889
G1 X110.993 Y121.745 E13.25839
G1 X111.277 Y121.95 E13.2741
G1 X111.458 Y122.126 E13.28539
G1 X111.546 Y122.244 E13.29199
G1 X111.639 Y122.411 E13.30056
G1 X111.698 Y122.575 E13.30833
G1 X111.736 Y122.792 E13.31823
G1 X111.714 Y123.313 E13.34157
G1 X111.76 Y123.431 E13.34723
G1 X113.555 Y127.332 E13.5395
G1 X115.323 Y131.262 E13.73237
G1 X115.411 Y131.424 E13.74063
G1 X115.699 Y131.631 E13.75653
G1 X115.871 Y131.8 E13.76733
G1 X115.961 Y131.924 E13.7742
G1 X116.046 Y132.085 E13.78235
G1 X116.101 Y132.252 E13.79022
G1 X116.134 Y132.468 E13.79998
G1 X116.104 Y132.959 E13.822
G1 X119.375 Y140.118 E14.1744
G1 X119.7 Y140.879 E14.21141
G1 X119.784 Y140.999 E14.21801
G1 X120.212 Y141.36 E14.24305
G1 X120.407 Y141.614 E14.25739
G1 X120.449 Y141.693 E14.26137
G1 X120.519 Y141.95 E14.27332
G1 X120.516 Y142.255 E14.28697
G1 X120.476 Y142.454 E14.29606
G1 X120.353 Y142.727 E14.30945
G1 X120.227 Y142.91 E14.3194
G1 X119.07 Y144.318 E14.40099
G1 X118.859 Y144.499 E14.41342
G1 X118.611 Y144.627 E14.42594
G1 X118.438 Y144.675 E14.43397
G1 X118.269 Y144.692 E14.44156
G1 X118.118 Y144.686 E14.44833
G1 X117.843 Y144.621 E14.46099
G1 X117.634 Y144.516 E14.47146
G1 X116.16 Y143.321 E14.55641
G1 X115.986 Y143.137 E14.56775
G1 X115.839 Y142.897 E14.58033
G1 X115.774 Y142.704 E14.58945
G1 X115.744 Y142.485 E14.59934
G1 X115.77 Y142.054 E14.61866
G1 X115.715 Y141.892 E14.62631
G1 X112.75 Y135.404 E14.9457
G1 X112.168 Y134.069 E15.01089
G1 X112.083 Y133.919 E15.01859
G1 X111.801 Y133.703 E15.03449
G1 X111.616 Y133.527 E15.04596
G1 X111.434 Y133.25 E15.06077
G1 X111.384 Y133.12 E15.06701
G1 X111.332 Y132.824 E15.08046
G1 X111.345 Y132.592 E15.09086
G1 X111.39 Y132.375 E15.1008
G1 X111.377 Y132.342 E15.10236
G1 X110.257 Y129.934 E15.22124
G1 X109.634 Y128.526 E15.2902
G1 X107.84 Y124.611 E15.48298
G1 X107.716 Y124.308 E15.49764
G1 X107.663 Y124.239 E15.50154
G1 X107.403 Y124.04 E15.51623
G1 X107.241 Y123.885 E15.52623
G1 X107.158 Y123.782 E15.53216
G1 X107.039 Y123.581 E15.54261
G1 X106.991 Y123.449 E15.54888
G1 X106.944 Y123.161 E15.56196
G1 X106.958 Y122.936 E15.57204
G1 X106.997 Y122.745 E15.58079
G1 X104.388 Y117.044 E15.86147
G1 X104.192 Y116.579 E15.88408
G1 X103.886 Y115.943 E15.91567
G1 X103.311 Y114.625 E15.98004
G1 X103.28 Y114.585 E15.98231
G1 X102.988 Y114.372 E15.99848
G1 X102.825 Y114.213 E16.00867
G1 X102.734 Y114.092 E16.01545
G1 X102.647 Y113.935 E16.02349
G1 X102.588 Y113.765 E16.03154
G1 X102.553 Y113.552 E16.0412
G1 X102.578 Y113.052 E16.06362
G1 X98.962 Y105.097 E16.45484
G1 X98.862 Y104.92 E16.46392
G1 X98.54 Y104.67 E16.48216
G1 X98.459 Y104.589 E16.48728
G1 X98.309 Y104.385 E16.49863
G1 X98.242 Y104.254 E16.50521
G1 X98.17 Y104.001 E16.51699
G1 X98.16 Y103.769 E16.52742
G1 X98.232 Y103.447 E16.5422
G1 X98.338 Y103.236 E16.55274
G1 X98.408 Y103.133 E16.55831
G1 X98.753 Y102.733 E16.58197
G1 X100.082 Y101.098 E16.6763
G1 X100.464 Y101.467 F9000
G1 F1200
G1 X100.486 Y101.445 E16.67768
G1 X100.613 Y101.346 E16.68487
G1 X100.657 Y101.323 E16.68709
G1 X100.839 Y101.268 E16.69563
G1 X100.887 Y101.262 E16.69779
G1 X101.014 Y101.27 E16.70348
G1 X101.061 Y101.282 E16.70566
G1 X101.216 Y101.352 E16.71326
