; generated by SuperSlicer 2.4 on 2022-12-22 at 11:11:47 UTC

; 

; external perimeters extrusion width = 0.43mm
; perimeters extrusion width = 0.48mm
; infill extrusion width = 0.46mm
; solid infill extrusion width = 0.48mm
; top infill extrusion width = 0.46mm
; first layer extrusion width = 0.58mm

; object:{"name":"cube_1_thick","id":"cube_1_thick.stl id:0 copy 0","object_center":[115.500000,115.500000,0.000000],"boundingbox_center":[115.500000,115.500000,18.350380],"boundingbox_size":[36.705350,36.744942,36.700760]}
; Total objects to print: 1
M486 T1
; plater:{"center":[115.500000,115.500000,0.000000],"boundingbox_center":[115.500000,115.500000,18.350380],"boundingbox_size":[36.705350,36.744942,36.700760]}

;TYPE:Custom
G90 ; use absolute coordinates
M83 ; extruder relative mode
M140 S60 ; set final bed temp
M104 S150 ; set temporary nozzle temp to prevent oozing during homing and auto bed leveling
G4 S10 ; allow partial nozzle warmup
G28 ; home all axis
;G29 ; auto bed levelling
G1 Z10 F240
G1 X2 Y10 F3000
G1 Z0 F240
M104 S210 ; set final nozzle temp
M190 S60 ; wait for bed temp to stabilize
M109 S210 ; wait for nozzle temp to stabilize
G1 Z0.28 F240
G92 E0
G1 Y140 E10 F1500 ; prime the nozzle
G1 X2.3 F5000
G92 E0
G1 Y10 E10 F1200 ; prime the nozzle
G92 E0
;start
M107
G21 ; set units to millimeters
G90 ; use absolute coordinates
M82 ; use absolute distances for extrusion
G92 E0
; Filament gcode
;_TOOLCHANGE 0
M107
;LAYER_CHANGE
;Z:0.2
;HEIGHT:0.2
;BEFORE_LAYER_CHANGE
;0.2


G1 E-3 F3000
G1 Z0.15 F9000
;AFTER_LAYER_CHANGE
;0.2
G92 E0
M204 S500
G1 X94.356 Y93.751
G1 E3 F3000
;TYPE:Skirt
;WIDTH:0.48
G1 F1200
G1 X93.707 Y94.418 E3.03416
G1 X93.117 Y95.259 E3.07188
G1 X92.757 Y95.999 E3.1021
G1 X92.482 Y96.858 E3.13521
G1 X92.251 Y98.463 E3.19474
G1 X92.237 Y131.553 E4.40933
G1 X92.327 Y132.625 E4.44884
G1 X92.505 Y133.491 E4.48127
G1 X92.847 Y134.579 E4.52315
G1 X93.145 Y135.22 E4.54909
G1 X94.053 Y136.494 E4.60652
G1 X94.973 Y137.325 E4.65202
G1 X96.235 Y138.092 E4.70624
G1 X97.216 Y138.488 E4.74506
G1 X98.035 Y138.703 E4.77615
G1 X99.411 Y138.844 E4.8269
G1 X131.784 Y138.769 E6.01524
G1 X133.309 Y138.514 E6.07197
G1 X134.544 Y138.005 E6.121
G1 X135.572 Y137.284 E6.16711
G1 X136.739 Y136.168 E6.22639
G1 X137.443 Y135.367 E6.26554
G1 X137.86 Y134.747 E6.29295
G1 X138.389 Y133.592 E6.33959
G1 X138.621 Y132.68 E6.37413
G1 X138.748 Y131.555 E6.41568
G1 X138.689 Y97.825 E7.6538
G1 X138.498 Y96.663 E7.69704
G1 X138.198 Y95.789 E7.73096
G1 X137.876 Y95.16 E7.75687
G1 X137.109 Y94.122 E7.80425
G1 X136.476 Y93.547 E7.83564
G1 X135.848 Y93.113 E7.86367
G1 X134.945 Y92.678 E7.90046
G1 X134.007 Y92.423 E7.93611
G1 X132.603 Y92.281 E7.98792
G1 X99.425 Y92.281 E9.2058
G1 X98.131 Y92.338 E9.25333
G1 X97.055 Y92.474 E9.29313
G1 X96.306 Y92.673 E9.32158
G1 X95.469 Y93.007 E9.35468
G1 X94.406 Y93.717 E9.4016
G92 E0
G1 E-2.1 F3000
;WIPE_START
G1 F7200
G1 X93.707 Y94.418 E-2.49168
G1 X93.117 Y95.259 E-2.89843
G1 X93.054 Y95.387 E-2.955
;WIPE_END
G1 E-3 F3000
; acceleration to travel
M204 S1500
G1 X96.471 Y96.561 F9000
; decel to extrusion
M204 S500
G1 X96.888 Y96.705
; end travel
G1 E0 F3000
;WIDTH:0.576
G1 F1200
G1 X97.111 Y96.539 E0.01242
G1 X97.674 Y96.31 E0.03964
G1 X98.266 Y96.218 E0.06647
G1 X98.749 Y96.211 E0.08808
G1 X99.472 Y96.156 E0.12053
G1 X99.919 Y96.157 E0.14054
G1 X128.928 Y96.203 E1.43927
G1 X132.577 Y96.157 E1.60265
G1 X132.981 Y96.181 E1.62076
G1 X133.293 Y96.233 E1.63494
G1 X133.583 Y96.315 E1.6484
G1 X133.852 Y96.444 E1.66176
G1 X134.125 Y96.635 E1.67667
G1 X134.296 Y96.797 E1.68722
G1 X134.514 Y97.096 E1.70381
G1 X134.719 Y97.554 E1.72625
G1 X134.814 Y98.046 E1.74868
G1 X134.845 Y98.517 E1.76984
G1 X134.819 Y99.416 E1.81009
G1 X134.833 Y105.145 E2.06658
G1 X134.813 Y107.323 E2.16408
G1 X134.836 Y108.957 E2.23722
G1 X134.831 Y116.634 E2.58092
G1 X134.851 Y122.431 E2.84044
G1 X134.837 Y123.206 E2.87515
G1 X134.872 Y131.474 E3.24532
G1 X134.772 Y132.155 E3.27612
G1 X134.661 Y132.49 E3.29194
G1 X134.477 Y132.848 E3.30994
G1 X134.114 Y133.294 E3.3357
G1 X133.812 Y133.565 E3.35386
G1 X133.405 Y133.998 E3.38045
G1 X133.015 Y134.369 E3.40458
G1 X132.61 Y134.642 E3.42642
G1 X132.191 Y134.802 E3.44649
G1 X131.699 Y134.889 E3.46886
G1 X131.221 Y134.905 E3.49026
G1 X128.915 Y134.876 E3.59351
G1 X126.12 Y134.882 E3.71867
G1 X125.156 Y134.845 E3.76185
G1 X124.027 Y134.839 E3.81239
G1 X122.682 Y134.886 E3.87263
G1 X116.443 Y134.893 E4.15195
G1 X114.722 Y134.827 E4.22904
G1 X113.333 Y134.897 E4.2913
G1 X108.474 Y134.907 E4.50885
G1 X106.976 Y134.883 E4.57595
G1 X106.153 Y134.907 E4.61279
G1 X102.057 Y134.912 E4.79619
G1 X100.89 Y134.932 E4.84841
G1 X100.274 Y134.966 E4.87602
G1 X99.466 Y134.968 E4.91222
G1 X98.822 Y134.907 E4.94119
G1 X98.464 Y134.818 E4.95768
G1 X98.097 Y134.685 E4.97514
G1 X97.477 Y134.351 E5.00669
G1 X96.911 Y133.874 E5.03984
G1 X96.717 Y133.635 E5.05361
G1 X96.528 Y133.321 E5.07002
G1 X96.31 Y132.725 E5.09845
G1 X96.143 Y131.939 E5.13442
G1 X96.109 Y131.372 E5.15984
G1 X96.125 Y125.904 E5.40463
G1 X96.153 Y123.409 E5.51632
G1 X96.127 Y122.187 E5.57105
G1 X96.149 Y107.003 E6.25085
G1 X96.146 Y100.799 E6.52857
G1 X96.124 Y99.752 E6.57545
G1 X96.146 Y99.132 E6.60326
G1 X96.134 Y98.522 E6.63057
G1 X96.271 Y97.703 E6.66774
G1 X96.343 Y97.487 E6.67793
G1 X96.489 Y97.186 E6.69291
G1 X96.631 Y96.975 E6.70428
G1 X96.847 Y96.748 E6.71831
G1 X97.236 Y97.119 F9000
G1 F1200
G1 X97.26 Y97.094 E6.71988
G1 X97.397 Y96.995 E6.72744
G1 X97.841 Y96.822 E6.74875
G1 X98.325 Y96.753 E6.77065
G1 X98.772 Y96.749 E6.79067
G1 X99.481 Y96.694 E6.82252
G1 X99.918 Y96.695 E6.84205
G1 X128.931 Y96.74 E8.14096
G1 X132.575 Y96.694 E8.3041
G1 X132.906 Y96.713 E8.31896
G1 X133.189 Y96.761 E8.33179
G1 X133.412 Y96.825 E8.3422
G1 X133.564 Y96.898 E8.34972
G1 X133.776 Y97.045 E8.36129
G1 X133.882 Y97.141 E8.36769
G1 X134.04 Y97.349 E8.37938
G1 X134.198 Y97.688 E8.39613
G1 X134.283 Y98.131 E8.41631
G1 X134.307 Y98.514 E8.43351
G1 X134.282 Y99.409 E8.47358
G1 X134.295 Y105.145 E8.73038
G1 X134.275 Y107.324 E8.82795
G1 X134.299 Y108.958 E8.90111
G1 X134.294 Y116.635 E9.24476
G1 X134.314 Y122.43 E9.5042
G1 X134.3 Y123.202 E9.53879
G1 X134.334 Y131.456 E9.90833
G1 X134.253 Y132.013 E9.93351
G1 X134.173 Y132.264 E9.94531
G1 X134.013 Y132.575 E9.96099
G1 X133.714 Y132.935 E9.98193
G1 X133.438 Y133.179 E9.99843
G1 X133.019 Y133.625 E10.0258
G1 X132.662 Y133.963 E10.04783
G1 X132.34 Y134.176 E10.06509
G1 X132.031 Y134.288 E10.07982
G1 X131.628 Y134.356 E10.0981
G1 X131.212 Y134.368 E10.11677
G1 X128.918 Y134.339 E10.21945
G1 X126.124 Y134.345 E10.34455
G1 X125.168 Y134.308 E10.38739
G1 X124.019 Y134.302 E10.43882
G1 X122.677 Y134.349 E10.49893
G1 X116.448 Y134.356 E10.77781
G1 X114.719 Y134.289 E10.85526
G1 X113.326 Y134.36 E10.91771
G1 X108.476 Y134.37 E11.13486
G1 X106.972 Y134.345 E11.20218
G1 X106.149 Y134.37 E11.23906
G1 X102.052 Y134.374 E11.42248
G1 X100.871 Y134.395 E11.47535
G1 X100.266 Y134.428 E11.50248
G1 X99.477 Y134.431 E11.5378
G1 X98.93 Y134.38 E11.56238
G1 X98.633 Y134.308 E11.57605
G1 X98.299 Y134.187 E11.59197
G1 X97.758 Y133.892 E11.61955
G1 X97.31 Y133.513 E11.64581
G1 X97.167 Y133.34 E11.65587
G1 X97.002 Y133.066 E11.67019
G1 X96.823 Y132.562 E11.69416
G1 X96.673 Y131.848 E11.7268
G1 X96.646 Y131.366 E11.74844
G1 X96.662 Y125.907 E11.99283
G1 X96.69 Y123.407 E12.10476
G1 X96.664 Y122.185 E12.15946
G1 X96.686 Y107.003 E12.83917
G1 X96.683 Y100.793 E13.11714
G1 X96.662 Y99.749 E13.16393
G1 X96.683 Y99.134 E13.19147
G1 X96.669 Y98.583 E13.21614
G1 X96.789 Y97.848 E13.24948
G1 X96.835 Y97.704 E13.25625
G1 X96.965 Y97.436 E13.26957
G1 X97.036 Y97.329 E13.27536
G1 X97.194 Y97.162 E13.28564
G1 X97.579 Y97.537 F9000
G1 F1200
G1 X97.625 Y97.489 E13.28864
G1 X97.672 Y97.457 E13.29116
G1 X97.931 Y97.354 E13.30364
G1 X97.963 Y97.346 E13.30509
G1 X98.39 Y97.286 E13.32439
G1 X98.409 Y97.285 E13.32525
G1 X98.792 Y97.286 E13.34243
G1 X99.496 Y97.231 E13.37404
G1 X99.917 Y97.232 E13.39286
G1 X128.934 Y97.278 E14.69195
G1 X132.57 Y97.232 E14.85472
G1 X132.826 Y97.244 E14.86619
G1 X133.092 Y97.29 E14.87828
G1 X133.237 Y97.334 E14.88509
G1 X133.275 Y97.352 E14.88697
G1 X133.456 Y97.477 E14.8968
G1 X133.482 Y97.501 E14.8984
G1 X133.552 Y97.583 E14.90321
G1 X133.568 Y97.608 E14.90457
G1 X133.671 Y97.808 E14.9146
G1 X133.683 Y97.844 E14.91633
G1 X133.751 Y98.204 E14.93273
G1 X133.753 Y98.222 E14.93352
G1 X133.77 Y98.538 E14.94772
G1 X133.744 Y99.402 E14.98639
G1 X133.758 Y105.145 E15.2435
G1 X133.738 Y107.326 E15.34115
G1 X133.762 Y108.962 E15.41441
G1 X133.756 Y116.635 E15.75793
G1 X133.777 Y122.43 E16.01736
G1 X133.763 Y123.198 E16.05176
G1 X133.797 Y131.429 E16.42026
G1 X133.796 Y131.449 E16.42113
G1 X133.739 Y131.852 E16.43937
G1 X133.735 Y131.871 E16.44023
G1 X133.689 Y132.029 E16.4476
G1 X133.679 Y132.053 E16.44875
G1 X133.558 Y132.289 E16.46062
G1 X133.54 Y132.315 E16.46202
G1 X133.34 Y132.549 E16.47583
G1 X133.315 Y132.572 E16.47733
G1 X133.227 Y132.633 E16.48214
G1 X133.054 Y132.803 E16.49299
G1 X132.635 Y133.248 E16.52035
G1 X132.302 Y133.564 E16.54091
G1 X132.281 Y133.58 E16.54209
G1 X132.096 Y133.697 E16.55189
G1 X132.067 Y133.711 E16.55335
G1 X131.893 Y133.769 E16.56154
G1 X131.872 Y133.774 E16.56252
G1 X131.571 Y133.821 E16.57614
G1 X131.553 Y133.823 E16.57696
G1 X131.203 Y133.83 E16.59265
G1 X128.921 Y133.801 E16.69481
G1 X126.131 Y133.807 E16.81971
G1 X125.18 Y133.77 E16.86234
G1 X124.011 Y133.765 E16.91467
G1 X122.674 Y133.812 E16.97454
G1 X116.45 Y133.818 E17.2532
G1 X114.716 Y133.752 E17.33089
G1 X113.321 Y133.822 E17.3934
G1 X108.477 Y133.833 E17.61028
G1 X106.968 Y133.808 E17.67784
G1 X106.146 Y133.833 E17.71466
G1 X102.047 Y133.837 E17.89819
G1 X100.851 Y133.858 E17.95171
G1 X100.253 Y133.891 E17.97851
G1 X99.481 Y133.893 E18.01309
G1 X99.064 Y133.858 E18.03182
G1 X99.045 Y133.855 E18.03271
G1 X98.794 Y133.795 E18.04425
G1 X98.511 Y133.693 E18.05773
G1 X98.491 Y133.684 E18.05868
G1 X98.051 Y133.442 E18.08116
G1 X98.029 Y133.427 E18.08236
G1 X97.726 Y133.17 E18.10016
G1 X97.711 Y133.155 E18.10111
G1 X97.621 Y133.051 E18.10725
G1 X97.609 Y133.033 E18.10823
G1 X97.483 Y132.826 E18.11908
G1 X97.47 Y132.799 E18.12041
G1 X97.334 Y132.398 E18.13939
G1 X97.205 Y131.771 E18.16805
G1 X97.202 Y131.75 E18.16898
G1 X97.183 Y131.357 E18.1866
G1 X97.2 Y125.909 E18.43049
G1 X97.227 Y123.404 E18.54265
G1 X97.202 Y122.184 E18.59727
G1 X97.224 Y107.003 E19.27694
G1 X97.221 Y100.788 E19.55518
G1 X97.199 Y99.749 E19.60169
G1 X97.221 Y99.136 E19.62915
G1 X97.206 Y98.608 E19.65281
G1 X97.208 Y98.581 E19.65401
G1 X97.315 Y97.958 E19.68233
G1 X97.326 Y97.922 E19.68402
G1 X97.439 Y97.69 E19.69554
G1 X97.464 Y97.655 E19.69747
G1 X97.537 Y97.58 E19.70218
; printing object cube_1_thick.stl id:0 copy 0
M486 S0
G1 X97.936 Y97.968 F9000
;TYPE:External perimeter
G1 F1200
G1 X97.962 Y97.941 E19.70385
G1 X98.09 Y97.89 E19.71003
G1 X98.437 Y97.842 E19.7257
G1 X98.813 Y97.843 E19.74257
G1 X99.512 Y97.788 E19.77395
G1 X99.916 Y97.789 E19.79201
G1 X128.937 Y97.834 E21.09128
G1 X132.564 Y97.788 E21.25367
G1 X132.957 Y97.831 E21.27136
G1 X133.073 Y97.889 E21.27717
G1 X133.149 Y98.016 E21.28382
G1 X133.199 Y98.28 E21.29583
G1 X133.213 Y98.54 E21.30748
G1 X133.188 Y99.394 E21.34574
G1 X133.201 Y105.144 E21.60314
G1 X133.181 Y107.327 E21.70091
G1 X133.205 Y108.965 E21.77423
G1 X133.2 Y116.636 E22.11766
G1 X133.22 Y122.427 E22.37693
G1 X133.206 Y123.195 E22.41128
G1 X133.241 Y131.401 E22.77869
G1 X133.192 Y131.744 E22.79418
G1 X133.085 Y131.99 E22.8062
G1 X132.951 Y132.147 E22.81543
G1 X132.656 Y132.413 E22.83322
G1 X132.238 Y132.858 E22.86057
G1 X131.949 Y133.131 E22.87836
G1 X131.843 Y133.199 E22.88401
G1 X131.75 Y133.229 E22.88836
G1 X131.513 Y133.267 E22.89914
G1 X131.198 Y133.274 E22.91322
G1 X128.924 Y133.244 E23.01505
G1 X126.139 Y133.251 E23.13975
G1 X125.192 Y133.214 E23.18216
G1 X124.002 Y133.208 E23.23541
G1 X122.666 Y133.255 E23.29526
G1 X116.458 Y133.262 E23.57322
G1 X114.712 Y133.194 E23.65141
G1 X113.31 Y133.266 E23.71428
G1 X108.48 Y133.276 E23.93052
G1 X106.964 Y133.251 E23.99839
G1 X106.139 Y133.276 E24.03534
G1 X102.041 Y133.28 E24.21879
G1 X100.831 Y133.302 E24.27299
G1 X100.241 Y133.334 E24.29946
G1 X99.498 Y133.337 E24.33271
G1 X99.143 Y133.306 E24.34866
G1 X98.731 Y133.18 E24.36796
G1 X98.357 Y132.975 E24.38706
G1 X98.123 Y132.777 E24.40077
G1 X97.98 Y132.569 E24.41206
G1 X97.87 Y132.244 E24.42742
G1 X97.757 Y131.691 E24.45271
G1 X97.74 Y131.348 E24.46807
G1 X97.756 Y125.913 E24.71141
G1 X97.784 Y123.401 E24.82385
G1 X97.759 Y122.18 E24.87852
G1 X97.78 Y107.003 E25.55799
G1 X97.777 Y100.782 E25.83652
G1 X97.756 Y99.749 E25.88275
G1 X97.778 Y99.138 E25.91013
G1 X97.763 Y98.634 E25.93272
G1 X97.853 Y98.111 E25.95647
G1 X97.9 Y98.015 E25.96123
;WIPE_START
G1 X98.33 Y98.034 F9000
;WIPE_END
G92 E0
G1 E-2.1 F3000
;WIPE_START
G1 F7200
G1 X98.821 Y98.043 E-2.29427
G1 X99.52 Y97.988 E-2.57178
G1 X99.915 Y97.989 E-2.72826
G1 X100.488 Y97.99 E-2.955
;WIPE_END
G1 E-3 F3000
; acceleration to travel
M204 S1500
G1 X106.921 Y106.774 F9000
; decel to extrusion
M204 S500
G1 X107.707 Y107.848
; end travel
G1 E0 F3000
G1 F1200
G1 X107.585 Y108.066 E0.0112
G1 X107.535 Y108.289 E0.02142
G1 X107.593 Y109.303 E0.06691
G1 X107.595 Y112.756 E0.22148
G1 X107.511 Y113.953 E0.27522
G1 X107.534 Y114.319 E0.29165
G1 X107.758 Y114.73 E0.31259
G1 X108.167 Y114.926 E0.33287
G1 X108.38 Y114.945 E0.34245
G1 X109.379 Y114.89 E0.38725
G1 X113.48 Y114.897 E0.57087
G1 X114.026 Y114.931 E0.59533
G1 X114.213 Y114.925 E0.60371
G1 X114.556 Y114.828 E0.61968
G1 X114.801 Y114.601 E0.63463
G1 X114.905 Y114.375 E0.64578
G1 X114.947 Y114.043 E0.66075
G1 X114.896 Y113.325 E0.69297
G1 X114.9 Y109.391 E0.86908
G1 X114.973 Y108.333 E0.91656
G1 X114.903 Y107.998 E0.93187
G1 X114.678 Y107.702 E0.94852
G1 X114.247 Y107.559 E0.96884
G1 X113.925 Y107.567 E0.98325
G1 X113.328 Y107.585 E1.01001
G1 X108.992 Y107.592 E1.20409
G1 X108.428 Y107.57 E1.22937
G1 X108.111 Y107.605 E1.24367
G1 X107.891 Y107.687 E1.25418
G1 X107.752 Y107.808 E1.26243
;WIPE_START
G1 X107.309 Y107.808 F9000
;WIPE_END
G92 E0
G1 E-2.1 F3000
;WIPE_START
G1 F7200
G1 X107.333 Y108.272 E-2.28388
G1 X107.393 Y109.309 E-2.695
G1 X107.393 Y109.966 E-2.955
;WIPE_END
G1 E-3 F3000
; acceleration to travel
M204 S1500
G1 X115.481 Y107.905 F9000
; decel to extrusion
M204 S500
G1 X116.469 Y107.654
; end travel
G1 E0 F3000
G1 F1200
G1 X116.241 Y107.853 E0.01357
G1 X116.124 Y108.081 E0.02505
G1 X116.083 Y108.296 E0.03484
G1 X116.126 Y109.225 E0.07648
G1 X116.132 Y113.011 E0.24596
G1 X116.058 Y114.143 E0.29674
G1 X116.133 Y114.466 E0.31161
G1 X116.326 Y114.745 E0.32681
G1 X116.683 Y114.939 E0.34497
G1 X116.906 Y114.964 E0.35504
G1 X117.779 Y114.905 E0.39422
G1 X122.003 Y114.912 E0.5833
G1 X122.596 Y114.951 E0.60991
G1 X122.928 Y114.914 E0.62487
G1 X123.15 Y114.822 E0.63564
G1 X123.36 Y114.634 E0.64826
G1 X123.497 Y114.395 E0.66061
G1 X123.545 Y114.043 E0.67649
G1 X123.458 Y112.682 E0.73757
G1 X123.469 Y109.032 E0.90095
G1 X123.525 Y108.391 E0.92975
G1 X123.52 Y108.19 E0.93874
G1 X123.474 Y107.987 E0.94807
G1 X123.278 Y107.706 E0.96341
G1 X122.982 Y107.568 E0.97805
G1 X122.792 Y107.538 E0.98664
G1 X122.436 Y107.553 E1.00262
G1 X121.824 Y107.57 E1.02999
G1 X118.019 Y107.577 E1.20036
G1 X116.834 Y107.557 E1.25341
G1 X116.527 Y107.638 E1.26762
;WIPE_START
G1 X116.115 Y107.468 F9000
;WIPE_END
G92 E0
G1 E-2.1 F3000
;WIPE_START
G1 F7200
G1 X116.081 Y107.728 E-2.20358
G1 X115.932 Y108.015 E-2.33165
G1 X115.882 Y108.282 E-2.43911
G1 X115.926 Y109.23 E-2.81472
G1 X115.927 Y109.584 E-2.955
;WIPE_END
G1 E-3 F3000
; acceleration to travel
M204 S1500
G1 X123.824 Y123.275 F9000
; decel to extrusion
M204 S500
G1 X124.789 Y124.948
; end travel
G1 E0 F3000
G1 F1200
G1 X124.654 Y125.213 E0.01335
G1 X124.626 Y125.428 E0.02303
G1 X124.678 Y126.197 E0.05757
G1 X124.682 Y129.544 E0.20741
G1 X124.619 Y131.221 E0.28255
G1 X124.67 Y131.58 E0.29877
G1 X124.861 Y131.868 E0.31426
G1 X125.151 Y132.031 E0.32912
G1 X125.471 Y132.073 E0.34358
G1 X125.995 Y132.016 E0.36717
G1 X126.344 Y132 E0.38284
G1 X130.708 Y132 E0.5782
G1 X131.131 Y132.045 E0.59726
