; generated by SuperSlicer 2.4 on 2022-12-22 at 11:12:39 UTC

; 

; external perimeters extrusion width = 0.43mm
; perimeters extrusion width = 0.48mm
; infill extrusion width = 0.46mm
; solid infill extrusion width = 0.48mm
; top infill extrusion width = 0.46mm
; first layer extrusion width = 0.58mm

; object:{"name":"diamond_1_thick","id":"diamond_1_thick.stl id:0 copy 0","object_center":[115.531731,115.474296,0.000000],"boundingbox_center":[115.531731,115.474296,12.627285],"boundingbox_size":[32.858522,31.860671,25.254570]}
; Total objects to print: 1
M486 T1
; plater:{"center":[115.531731,115.474296,0.000000],"boundingbox_center":[115.531731,115.474296,12.627285],"boundingbox_size":[32.858522,31.860671,25.254570]}

;TYPE:Custom
G90 ; use absolute coordinates
M83 ; extruder relative mode
M140 S60 ; set final bed temp
M104 S150 ; set temporary nozzle temp to prevent oozing during homing and auto bed leveling
G4 S10 ; allow partial nozzle warmup
G28 ; home all axis
;G29 ; auto bed levelling
G1 Z10 F240
G1 X2 Y10 F3000
G1 Z0 F240
M104 S210 ; set final nozzle temp
M190 S60 ; wait for bed temp to stabilize
M109 S210 ; wait for nozzle temp to stabilize
G1 Z0.28 F240
G92 E0
G1 Y140 E10 F1500 ; prime the nozzle
G1 X2.3 F5000
G92 E0
G1 Y10 E10 F1200 ; prime the nozzle
G92 E0
;start
M107
G21 ; set units to millimeters
G90 ; use absolute coordinates
M82 ; use absolute distances for extrusion
G92 E0
; Filament gcode
;_TOOLCHANGE 0
M107
;LAYER_CHANGE
;Z:0.2
;HEIGHT:0.2
;BEFORE_LAYER_CHANGE
;0.2


G1 E-3 F3000
G1 Z0.15 F9000
;AFTER_LAYER_CHANGE
;0.2
G92 E0
M204 S500
G1 X107.777 Y98.499
G1 E3 F3000
;TYPE:Skirt
;WIDTH:0.48
G1 F1200
G1 X106.575 Y100.036 E3.07164
G1 X105.87 Y101.2 E3.12161
G1 X105.291 Y102.536 E3.17505
G1 X96.34 Y125.689 E4.08621
G1 X95.489 Y128.484 E4.19345
G1 X95.406 Y129.07 E4.21517
G1 X95.405 Y129.965 E4.24805
G1 X95.546 Y130.974 E4.28544
G1 X96.233 Y132.557 E4.34877
G1 X96.961 Y133.454 E4.3912
G1 X98.063 Y134.326 E4.44278
G1 X98.846 Y134.704 E4.47466
G1 X99.861 Y135 E4.5135
G1 X100.655 Y135.095 E4.54283
G1 X101.556 Y135.076 E4.57594
G1 X102.695 Y134.861 E4.61848
G1 X104.805 Y134.215 E4.69948
G1 X127.997 Y126.187 E5.60034
G1 X129.167 Y125.723 E5.64653
G1 X130.587 Y124.854 E5.70763
G1 X131.583 Y123.894 E5.7584
G1 X132.088 Y123.188 E5.79026
G1 X132.392 Y122.612 E5.8142
G1 X132.71 Y121.698 E5.8497
G1 X132.887 Y120.746 E5.88524
G1 X132.797 Y119.205 E5.94193
G1 X132.52 Y118.309 E5.97635
G1 X132.093 Y117.431 E6.01218
G1 X131.283 Y116.31 E6.06293
G1 X129.612 Y114.477 E6.15401
G1 X115.705 Y100.136 E6.88728
G1 X114.554 Y99.122 E6.94359
G1 X113.881 Y98.67 E6.97334
G1 X111.756 Y97.604 E7.0606
G1 X110.61 Y97.276 E7.10436
G1 X109.037 Y97.526 E7.16281
G1 X107.825 Y98.462 E7.21904
G92 E0
G1 E-2.1 F3000
;WIPE_START
G1 F7200
G1 X106.575 Y100.036 E-2.89558
G1 X106.497 Y100.165 E-2.955
;WIPE_END
G1 E-3 F3000
; acceleration to travel
M204 S1500
G1 X109.732 Y101.863 F9000
; decel to extrusion
M204 S500
G1 X110.127 Y102.07
; end travel
G1 E0 F3000
;WIDTH:0.576
G1 F1200
G1 X110.304 Y101.972 E0.00907
G1 X110.568 Y101.882 E0.02157
G1 X111.136 Y101.833 E0.04705
G1 X111.43 Y101.886 E0.06045
G1 X111.878 Y102.074 E0.08217
G1 X112.065 Y102.215 E0.09269
G1 X112.187 Y102.353 E0.10092
G1 X112.623 Y102.588 E0.12309
G1 X113.002 Y102.913 E0.14547
G1 X114.496 Y104.428 E0.24072
G1 X115.098 Y105.073 E0.28019
G1 X116.511 Y106.503 E0.3702
G1 X117.26 Y107.308 E0.41942
G1 X118.507 Y108.56 E0.49854
G1 X119.453 Y109.577 E0.56074
G1 X120.491 Y110.611 E0.62633
G1 X121.661 Y111.856 E0.70279
G1 X122.432 Y112.617 E0.7513
G1 X123.967 Y114.233 E0.85108
G1 X124.462 Y114.721 E0.88221
G1 X125.98 Y116.313 E0.98067
G1 X126.825 Y117.171 E1.0346
G1 X127.498 Y117.914 E1.07947
G1 X127.977 Y118.484 E1.11279
G1 X128.361 Y118.866 E1.13706
G1 X128.786 Y119.467 E1.17002
G1 X128.894 Y119.7 E1.18152
G1 X129.004 Y120.121 E1.20098
G1 X129.004 Y120.432 E1.21491
G1 X128.945 Y120.747 E1.22924
G1 X128.888 Y120.932 E1.23791
G1 X128.765 Y121.181 E1.25036
G1 X128.613 Y121.395 E1.26214
G1 X128.358 Y121.659 E1.27855
G1 X128.093 Y121.882 E1.29408
G1 X127.811 Y122.06 E1.30898
G1 X127.449 Y122.249 E1.32728
G1 X126.744 Y122.519 E1.36108
G1 X126.246 Y122.677 E1.38447
G1 X123.378 Y123.686 E1.52056
G1 X121.464 Y124.326 E1.61093
G1 X120.711 Y124.6 E1.64681
G1 X118.882 Y125.146 E1.73226
G1 X117.552 Y125.694 E1.79665
G1 X113.615 Y127.06 E1.98321
G1 X112.521 Y127.422 E2.03479
G1 X110.814 Y127.904 E2.11421
G1 X109.958 Y128.236 E2.15534
G1 X109.036 Y128.645 E2.20047
G1 X108.711 Y128.767 E2.21602
G1 X103.561 Y130.545 E2.4599
G1 X101.572 Y131.146 E2.55297
G1 X101.158 Y131.215 E2.57172
G1 X100.977 Y131.225 E2.57987
G1 X100.594 Y131.185 E2.5971
G1 X100.339 Y131.117 E2.60889
G1 X100.079 Y130.997 E2.62171
G1 X99.843 Y130.83 E2.63467
G1 X99.529 Y130.469 E2.65608
G1 X99.341 Y130.066 E2.67601
G1 X99.271 Y129.609 E2.6967
G1 X99.276 Y129.376 E2.70711
G1 X99.34 Y129.013 E2.72363
G1 X100.031 Y126.873 E2.82429
G1 X102.018 Y121.727 E3.07124
G1 X102.391 Y120.879 E3.11275
G1 X102.617 Y120.218 E3.14403
G1 X102.927 Y119.502 E3.17896
G1 X103.498 Y117.94 E3.25339
G1 X105.008 Y114.003 E3.44219
G1 X105.686 Y112.282 E3.52498
G1 X105.993 Y111.577 E3.55942
G1 X106.545 Y110.031 E3.6329
G1 X108.692 Y104.526 E3.89743
G1 X108.91 Y103.924 E3.92611
G1 X109.233 Y103.139 E3.96408
G1 X109.59 Y102.528 E3.99578
G1 X109.77 Y102.342 E4.00739
G1 X110.079 Y102.106 E4.02477
G1 X110.405 Y102.534 F9000
G1 F1200
G1 X110.438 Y102.509 E4.02663
G1 X110.502 Y102.472 E4.02994
G1 X110.712 Y102.401 E4.03985
G1 X111.084 Y102.369 E4.05659
G1 X111.26 Y102.397 E4.06457
G1 X111.582 Y102.524 E4.08008
G1 X111.715 Y102.624 E4.08753
G1 X111.831 Y102.767 E4.09573
G1 X112.073 Y102.91 E4.10833
G1 X112.3 Y103.019 E4.11962
G1 X112.628 Y103.299 E4.1389
G1 X114.111 Y104.803 E4.23347
G1 X114.71 Y105.445 E4.27278
G1 X116.126 Y106.877 E4.36296
G1 X116.872 Y107.681 E4.41204
G1 X118.123 Y108.936 E4.49137
G1 X119.067 Y109.951 E4.55341
G1 X120.103 Y110.983 E4.61887
G1 X121.276 Y112.231 E4.69558
G1 X122.045 Y112.99 E4.74396
G1 X123.583 Y114.61 E4.84395
G1 X124.076 Y115.095 E4.87491
G1 X125.594 Y116.687 E4.97337
G1 X126.431 Y117.536 E5.02674
G1 X127.096 Y118.271 E5.07113
G1 X127.58 Y118.848 E5.10486
G1 X127.966 Y119.231 E5.12917
G1 X128.312 Y119.722 E5.15608
G1 X128.384 Y119.869 E5.1634
G1 X128.467 Y120.165 E5.17717
G1 X128.471 Y120.36 E5.18592
G1 X128.42 Y120.632 E5.19828
G1 X128.383 Y120.747 E5.20372
G1 X128.296 Y120.92 E5.21238
G1 X128.211 Y121.038 E5.21888
G1 X128.001 Y121.257 E5.23247
G1 X127.762 Y121.459 E5.24646
G1 X127.537 Y121.598 E5.25831
G1 X127.215 Y121.764 E5.27452
G1 X126.559 Y122.014 E5.30595
G1 X126.075 Y122.167 E5.32868
G1 X123.206 Y123.177 E5.46487
G1 X121.287 Y123.819 E5.55546
G1 X120.534 Y124.093 E5.5913
G1 X118.702 Y124.639 E5.6769
G1 X117.369 Y125.189 E5.74148
G1 X113.444 Y126.55 E5.92744
G1 X112.369 Y126.906 E5.97814
G1 X110.644 Y127.394 E6.05842
G1 X109.751 Y127.74 E6.10126
G1 X108.825 Y128.151 E6.14661
G1 X108.526 Y128.263 E6.16093
G1 X103.391 Y130.035 E6.40412
G1 X101.467 Y130.619 E6.49415
G1 X101.087 Y130.682 E6.5114
G1 X100.973 Y130.687 E6.51647
G1 X100.672 Y130.653 E6.53003
G1 X100.544 Y130.62 E6.53599
G1 X100.33 Y130.521 E6.54655
G1 X100.186 Y130.416 E6.55449
G1 X99.965 Y130.153 E6.56987
G1 X99.849 Y129.886 E6.5829
G1 X99.806 Y129.559 E6.59764
G1 X99.809 Y129.447 E6.60268
G1 X99.858 Y129.159 E6.61573
G1 X100.535 Y127.06 E6.7145
G1 X102.517 Y121.927 E6.96084
G1 X102.886 Y121.086 E7.00193
G1 X102.968 Y120.88 E7.01187
G1 X103.116 Y120.419 E7.03357
G1 X103.426 Y119.7 E7.06859
G1 X104 Y118.131 E7.14343
G1 X105.51 Y114.196 E7.33208
G1 X106.184 Y112.483 E7.41449
G1 X106.493 Y111.775 E7.44909
G1 X107.047 Y110.223 E7.52289
G1 X109.195 Y104.715 E7.78754
G1 X109.409 Y104.123 E7.81573
G1 X109.723 Y103.36 E7.85266
G1 X110.003 Y102.873 E7.87782
G1 X110.114 Y102.756 E7.88503
G1 X110.357 Y102.57 E7.89873
G1 X110.683 Y102.998 F9000
G1 F1200
G1 X110.734 Y102.959 E7.90162
G1 X110.803 Y102.931 E7.90494
G1 X111.05 Y102.906 E7.91605
G1 X111.109 Y102.913 E7.91872
G1 X111.291 Y102.978 E7.92736
G1 X111.358 Y103.028 E7.9311
G1 X111.54 Y103.286 E7.94527
G1 X111.607 Y103.259 E7.94852
G1 X111.872 Y103.415 E7.9623
G1 X111.929 Y103.428 E7.96489
G1 X111.985 Y103.455 E7.96768
G1 X112.071 Y103.526 E7.97268
G1 X112.251 Y103.682 E7.98335
G1 X112.804 Y104.236 E8.01837
G1 X113.726 Y105.178 E8.07738
G1 X114.322 Y105.817 E8.11653
G1 X115.74 Y107.251 E8.20678
G1 X116.485 Y108.053 E8.25581
G1 X117.737 Y109.311 E8.33525
G1 X118.68 Y110.324 E8.39725
G1 X119.716 Y111.355 E8.46266
G1 X120.892 Y112.607 E8.53953
G1 X121.66 Y113.365 E8.58787
G1 X123.2 Y114.986 E8.68798
G1 X123.692 Y115.47 E8.71887
G1 X125.208 Y117.061 E8.81725
G1 X126.038 Y117.903 E8.87017
G1 X126.693 Y118.626 E8.91383
G1 X127.185 Y119.212 E8.94811
G1 X127.562 Y119.586 E8.97186
G1 X127.578 Y119.605 E8.97298
G1 X127.859 Y120.011 E8.99508
G1 X127.876 Y120.047 E8.99691
G1 X127.933 Y120.229 E9.0054
G1 X127.936 Y120.294 E9.00833
G1 X127.896 Y120.513 E9.01832
G1 X127.882 Y120.552 E9.02014
G1 X127.829 Y120.653 E9.02526
G1 X127.808 Y120.683 E9.02689
G1 X127.635 Y120.864 E9.03809
G1 X127.469 Y121.007 E9.04791
G1 X127.452 Y121.019 E9.04884
G1 X127.276 Y121.128 E9.05812
G1 X126.99 Y121.276 E9.07256
G1 X126.38 Y121.508 E9.10174
G1 X125.905 Y121.658 E9.12404
G1 X123.031 Y122.669 E9.26043
G1 X121.11 Y123.311 E9.35115
G1 X120.362 Y123.584 E9.38677
G1 X118.522 Y124.132 E9.47271
G1 X117.182 Y124.685 E9.53765
G1 X113.272 Y126.041 E9.72292
G1 X112.215 Y126.392 E9.77278
G1 X110.473 Y126.884 E9.85379
G1 X109.545 Y127.243 E9.89835
G1 X108.611 Y127.658 E9.94408
G1 X108.341 Y127.758 E9.95701
G1 X103.223 Y129.525 E10.1994
G1 X101.371 Y130.089 E10.28607
G1 X101.354 Y130.094 E10.28687
G1 X101.018 Y130.148 E10.30207
G1 X100.981 Y130.149 E10.30376
G1 X100.758 Y130.123 E10.31379
G1 X100.716 Y130.11 E10.31578
G1 X100.59 Y130.049 E10.32204
G1 X100.543 Y130.013 E10.3247
G1 X100.406 Y129.843 E10.33448
G1 X100.376 Y129.776 E10.33776
G1 X100.344 Y129.541 E10.34835
G1 X100.344 Y129.504 E10.35004
G1 X100.367 Y129.336 E10.35763
G1 X100.373 Y129.313 E10.35866
G1 X101.037 Y127.25 E10.45572
G1 X103.017 Y122.123 E10.70175
G1 X103.382 Y121.295 E10.74228
G1 X103.475 Y121.061 E10.75353
G1 X103.617 Y120.613 E10.77459
G1 X103.925 Y119.9 E10.80938
G1 X104.504 Y118.319 E10.88471
G1 X106.011 Y114.389 E11.07318
G1 X106.681 Y112.687 E11.15505
G1 X106.993 Y111.973 E11.18992
G1 X107.549 Y110.416 E11.26394
G1 X109.698 Y104.904 E11.52882
G1 X109.909 Y104.319 E11.55665
G1 X110.224 Y103.557 E11.59356
G1 X110.425 Y103.207 E11.61162
G1 X110.461 Y103.167 E11.61403
G1 X110.635 Y103.034 E11.62383
G92 E0
G1 E-2.1 F3000
;WIPE_START
G1 F7200
G1 X110.734 Y102.959 E-2.14933
G1 X110.803 Y102.931 E-2.17871
G1 X111.05 Y102.906 E-2.27695
G1 X111.109 Y102.913 E-2.30054
G1 X111.291 Y102.978 E-2.37694
G1 X111.358 Y103.028 E-2.40998
G1 X111.54 Y103.286 E-2.53526
G1 X111.607 Y103.259 E-2.56405
G1 X111.872 Y103.415 E-2.68582
G1 X111.929 Y103.428 E-2.70875
G1 X111.985 Y103.455 E-2.73342
G1 X112.068 Y103.524 E-2.7761
G1 X112.071 Y103.526 E-2.77762
G1 X112.244 Y103.676 E-2.86811
G1 X112.251 Y103.682 E-2.87199
G1 X112.399 Y103.831 E-2.955
;WIPE_END
G1 E-3 F3000
; printing object diamond_1_thick.stl id:0 copy 0
M486 S0
; acceleration to travel
M204 S1500
G1 X105.003 Y119.345 F9000
; decel to extrusion
M204 S500
G1 X104.1 Y121.24
; end travel
G1 E0 F3000
;TYPE:Thin wall
;WIDTH:0.732198
G1 F1200
G1 X104.055 Y121.282 E0.00354
;WIDTH:0.666831
G1 X103.983 Y121.362 E0.00918
;WIDTH:0.593149
G1 X103.901 Y121.469 E0.01541
;WIDTH:0.538938
G1 X103.854 Y121.539 E0.01891
G1 X103.814 Y121.611 E0.02234
;WIDTH:0.490143
G1 X103.75 Y121.727 E0.02733
G1 X103.714 Y121.809 E0.03067
G1 X103.671 Y121.908 E0.03475
G1 X103.59 Y122.115 E0.04311
;WIDTH:0.523158
G1 X103.508 Y122.323 E0.05209
G1 X103.418 Y122.569 E0.06267
G1 X103.328 Y122.815 E0.07325
G1 X103.159 Y123.24 E0.09168
G1 X102.987 Y123.676 E0.11059
G1 X102.864 Y124.008 E0.12486
G1 X102.741 Y124.34 E0.13914
G1 X102.563 Y124.789 E0.15862
G1 X102.386 Y125.239 E0.17811
G1 X102.379 Y125.257 E0.17891
G1 X102.329 Y125.399 E0.18498
G1 X102.279 Y125.541 E0.19105
G1 X102.111 Y125.967 E0.2095
G1 X101.943 Y126.392 E0.22795
G1 X101.853 Y126.636 E0.23842
G1 X101.768 Y126.867 E0.24838
G1 X101.657 Y127.151 E0.26065
G1 X101.547 Y127.434 E0.27291
G1 X101.44 Y127.734 E0.28575
G1 X101.332 Y128.033 E0.29858
G1 X101.23 Y128.287 E0.3096
;WIDTH:0.425901
G1 X101.128 Y128.54 E0.31838
G1 X101.113 Y128.581 E0.31979
G1 X101.062 Y128.761 E0.32579
G1 X101.05 Y128.815 E0.3276
;WIDTH:0.46547
G1 X101.031 Y128.935 E0.33191
;WIDTH:0.506258
G1 X101.025 Y129.024 E0.33538
G1 X101.027 Y129.099 E0.3383
;WIDTH:0.624989
G1 X101.028 Y129.174 E0.34196
;WIDTH:0.672835
G1 X101.045 Y129.298 E0.34858
;WIDTH:0.802584
G1 X101.072 Y129.429 E0.35712
G92 E0
G1 E-2.1 F3000
;WIPE_START
G1 F7200
G1 X101.045 Y129.298 E-2.15296
;WIPE_END
G1 E-3 F3000
; acceleration to travel
M204 S1500
G1 X108.431 Y126.935 F9000
; decel to extrusion
M204 S500
G1 X109.334 Y126.646
; end travel
G1 E0 F3000
;WIDTH:0.681844
G1 F1200
G1 X109.304 Y126.567 E0.0045
;WIDTH:0.568383
G1 X109.249 Y126.44 E0.01064
;WIDTH:0.457786
G1 X109.188 Y126.31 E0.01563
;WIDTH:0.409633
G1 X109.156 Y126.251 E0.0177
G1 X109.088 Y126.149 E0.02146
G1 X108.999 Y126.039 E0.02582
G1 X108.928 Y125.961 E0.02906
G1 X108.825 Y125.875 E0.03321
G1 X108.678 Y125.73 E0.03957
G1 X108.532 Y125.584 E0.04593
G1 X108.483 Y125.529 E0.04821
G1 X108.385 Y125.428 E0.05253
G1 X108.356 Y125.404 E0.05369
G1 X107.987 Y125.019 E0.07012
G1 X107.9 Y124.923 E0.0741
G1 X107.868 Y124.897 E0.07537
G1 X107.682 Y124.705 E0.0836
G1 X107.497 Y124.512 E0.09183
G1 X107.41 Y124.417 E0.0958
G1 X107.378 Y124.391 E0.09709
G1 X107.193 Y124.2 E0.10527
G1 X107.009 Y124.008 E0.11345
G1 X106.924 Y123.914 E0.11738
G1 X106.891 Y123.887 E0.11866
G1 X106.708 Y123.697 E0.1268
G1 X106.524 Y123.507 E0.13495
G1 X106.439 Y123.412 E0.13888
G1 X106.406 Y123.386 E0.14017
G1 X106.221 Y123.193 E0.14841
G1 X106.036 Y122.999 E0.15664
G1 X105.948 Y122.902 E0.16068
G1 X105.912 Y122.872 E0.16214
G1 X105.55 Y122.497 E0.17817
G1 X105.463 Y122.401 E0.18217
G1 X105.429 Y122.374 E0.18352
G1 X105.249 Y122.185 E0.19154
G1 X105.069 Y121.997 E0.19957
G1 X104.989 Y121.902 E0.20338
G1 X104.945 Y121.864 E0.2052
G1 X104.71 Y121.602 E0.21603
G1 X104.627 Y121.527 E0.21946
G1 X104.453 Y121.41 E0.22593
G1 X104.34 Y121.35 E0.22988
;WIDTH:0.517778
G1 X104.256 Y121.309 E0.23358
;WIDTH:0.633144
G1 X104.148 Y121.263 E0.23941
;WIDTH:0.822063
G1 X104.098 Y121.163 E0.24673
;WIDTH:0.691065
G1 X104.101 Y121.049 E0.25293
;WIDTH:0.607842
G1 X104.104 Y120.935 E0.25834
;WIDTH:0.564505
G1 X104.122 Y120.808 E0.26394
G1 X104.148 Y120.714 E0.26822
;WIDTH:0.492656
G1 X104.175 Y120.62 E0.27191
G1 X104.19 Y120.575 E0.2737
G1 X104.235 Y120.46 E0.27839
G1 X104.281 Y120.344 E0.28308
G1 X104.291 Y120.321 E0.28404
G1 X104.339 Y120.214 E0.28845
G1 X104.397 Y120.084 E0.29384
G1 X104.567 Y119.639 E0.31181
G1 X104.737 Y119.195 E0.32978
G1 X104.781 Y119.099 E0.33377
G1 X105.116 Y118.202 E0.36994
G1 X105.122 Y118.185 E0.37061
G1 X105.206 Y117.984 E0.37886
G1 X105.29 Y117.782 E0.38711
G1 X105.421 Y117.421 E0.40161
G1 X105.553 Y117.061 E0.41611
G1 X105.644 Y116.835 E0.42531
G1 X105.729 Y116.624 E0.4339
G1 X105.893 Y116.183 E0.45166
G1 X106.061 Y115.733 E0.46982
G1 X106.192 Y115.404 E0.48317
G1 X106.323 Y115.076 E0.49652
G1 X106.413 Y114.826 E0.50656
G1 X106.509 Y114.561 E0.51721
G1 X106.84 Y113.732 E0.5509
G1 X107.11 Y112.972 E0.58137
G1 X107.148 Y112.877 E0.58525
G1 X107.204 Y112.747 E0.59058
G1 X107.246 Y112.666 E0.59403
G1 X107.288 Y112.585 E0.59748
G1 X107.323 Y112.528 E0.6
;WIDTH:0.537408
G1 X107.399 Y112.419 E0.60555
;WIDTH:0.595942
G1 X107.472 Y112.333 E0.61075
;WIDTH:0.677395
G1 X107.566 Y112.24 E0.61783
;WIDTH:0.771481
G1 X107.577 Y112.191 E0.62086
;WIDTH:0.670825
G1 X107.575 Y112.084 E0.62651
;WIDTH:0.603863
G1 X107.581 Y111.982 E0.63135
;WIDTH:0.575045
G1 X107.595 Y111.882 E0.63586
;WIDTH:0.494781
G1 X107.609 Y111.782 E0.63969
G1 X107.627 Y111.703 E0.64277
G1 X107.674 Y111.556 E0.64861
;WIDTH:0.455206
G1 X107.721 Y111.409 E0.65395
