; generated by SuperSlicer 2.4 on 2022-12-22 at 11:13:09 UTC

; 

; external perimeters extrusion width = 0.43mm
; perimeters extrusion width = 0.48mm
; infill extrusion width = 0.46mm
; solid infill extrusion width = 0.48mm
; top infill extrusion width = 0.46mm
; first layer extrusion width = 0.58mm

; object:{"name":"dod_1_thick","id":"dod_1_thick.stl id:0 copy 0","object_center":[115.500000,115.500000,0.000000],"boundingbox_center":[115.500000,115.500000,19.082735],"boundingbox_size":[44.143539,46.322320,38.165470]}
; Total objects to print: 1
M486 T1
; plater:{"center":[115.500000,115.500000,0.000000],"boundingbox_center":[115.500000,115.500000,19.082735],"boundingbox_size":[44.143539,46.322320,38.165470]}

;TYPE:Custom
G90 ; use absolute coordinates
M83 ; extruder relative mode
M140 S60 ; set final bed temp
M104 S150 ; set temporary nozzle temp to prevent oozing during homing and auto bed leveling
G4 S10 ; allow partial nozzle warmup
G28 ; home all axis
;G29 ; auto bed levelling
G1 Z10 F240
G1 X2 Y10 F3000
G1 Z0 F240
M104 S210 ; set final nozzle temp
M190 S60 ; wait for bed temp to stabilize
M109 S210 ; wait for nozzle temp to stabilize
G1 Z0.28 F240
G92 E0
G1 Y140 E10 F1500 ; prime the nozzle
G1 X2.3 F5000
G92 E0
G1 Y10 E10 F1200 ; prime the nozzle
G92 E0
;start
M107
G21 ; set units to millimeters
G90 ; use absolute coordinates
M82 ; use absolute distances for extrusion
G92 E0
; Filament gcode
;_TOOLCHANGE 0
M107
;LAYER_CHANGE
;Z:0.2
;HEIGHT:0.2
;BEFORE_LAYER_CHANGE
;0.2


G1 E-3 F3000
G1 Z0.15 F9000
;AFTER_LAYER_CHANGE
;0.2
G92 E0
M204 S500
G1 X99.534 Y107.019
G1 E3 F3000
;TYPE:Skirt
;WIDTH:0.48
G1 F1200
G1 X98.628 Y107.876 E3.04579
G1 X97.857 Y109.1 E3.09887
G1 X97.528 Y110.044 E3.13558
G1 X97.361 Y111.375 E3.18483
G1 X97.422 Y112.097 E3.21141
G1 X97.639 Y113.105 E3.24928
G1 X102.514 Y128.091 E3.82772
G1 X103.024 Y129.182 E3.87192
G1 X104.055 Y130.392 E3.93027
G1 X104.948 Y131.024 E3.97045
G1 X106.253 Y131.567 E4.02231
G1 X107.556 Y131.752 E4.07064
G1 X108.764 Y131.766 E4.11499
G1 X123.464 Y131.751 E4.65455
G1 X124.765 Y131.559 E4.70285
G1 X125.989 Y131.057 E4.75139
G1 X126.862 Y130.464 E4.79013
G1 X127.903 Y129.3 E4.84745
G1 X128.488 Y128.101 E4.8964
G1 X133.454 Y112.832 E5.4858
G1 X133.606 Y111.954 E5.5185
G1 X133.628 Y111.263 E5.54387
G1 X133.542 Y110.415 E5.57516
G1 X133.335 Y109.546 E5.60794
G1 X132.515 Y108.052 E5.67051
G1 X131.831 Y107.346 E5.7066
G1 X130.391 Y106.224 E5.77361
G1 X119.458 Y98.279 E6.26971
G1 X118.033 Y97.353 E6.33209
G1 X117.123 Y96.948 E6.36864
G1 X115.732 Y96.705 E6.42047
G1 X114.731 Y96.754 E6.45724
G1 X113.365 Y97.134 E6.50931
G1 X112.394 Y97.681 E6.55021
G1 X99.583 Y106.984 E7.13136
G92 E0
G1 E-2.1 F3000
;WIPE_START
G1 F7200
G1 X98.628 Y107.876 E-2.61739
G1 X98.173 Y108.598 E-2.955
;WIPE_END
G1 E-3 F3000
; acceleration to travel
M204 S1500
G1 X101.518 Y109.911 F9000
; decel to extrusion
M204 S500
G1 X101.926 Y110.072
; end travel
G1 E0 F3000
;WIDTH:0.576
G1 F1200
G1 X102.639 Y109.537 E0.03988
G1 X112.405 Y102.457 E0.57988
G1 X113.602 Y101.569 E0.64662
G1 X114.568 Y100.893 E0.69941
G1 X114.879 Y100.719 E0.71539
G1 X115.257 Y100.61 E0.73296
G1 X115.721 Y100.61 E0.75376
G1 X116.126 Y100.727 E0.77262
G1 X116.474 Y100.927 E0.79062
G1 X117.239 Y101.456 E0.83224
G1 X124.509 Y106.757 E1.23504
G1 X124.862 Y106.995 E1.25409
G1 X125.01 Y107.12 E1.2628
G1 X126.629 Y108.302 E1.35251
G1 X128.107 Y109.355 E1.43375
G1 X129.096 Y110.098 E1.48916
G1 X129.421 Y110.427 E1.50985
G1 X129.635 Y110.785 E1.52853
G1 X129.72 Y111.09 E1.54268
G1 X129.747 Y111.317 E1.55293
G1 X129.74 Y111.591 E1.5652
G1 X129.697 Y111.845 E1.57673
G1 X129.326 Y113.019 E1.63185
G1 X128.911 Y114.241 E1.68961
G1 X126.048 Y123.053 E2.10443
G1 X125.171 Y125.809 E2.23392
G1 X125.002 Y126.263 E2.25561
G1 X124.829 Y126.8 E2.28086
G1 X124.62 Y127.199 E2.301
G1 X124.575 Y127.261 E2.30446
G1 X124.349 Y127.486 E2.31872
G1 X124.091 Y127.661 E2.33271
G1 X123.784 Y127.793 E2.34766
G1 X123.389 Y127.867 E2.36567
G1 X122.167 Y127.888 E2.42036
G1 X120.675 Y127.875 E2.48717
G1 X110.305 Y127.875 E2.95142
G1 X108.804 Y127.89 E3.0186
G1 X107.668 Y127.873 E3.0695
G1 X107.21 Y127.793 E3.09028
G1 X106.887 Y127.649 E3.10611
G1 X106.576 Y127.419 E3.12343
G1 X106.32 Y127.104 E3.14162
G1 X106.148 Y126.738 E3.1597
G1 X105.822 Y125.809 E3.20378
G1 X105.541 Y124.867 E3.24778
G1 X104.575 Y121.93 E3.38622
G1 X102.026 Y114.057 E3.75668
G1 X101.573 Y112.705 E3.82052
G1 X101.453 Y112.267 E3.84087
G1 X101.362 Y112.027 E3.85235
G1 X101.278 Y111.675 E3.86855
G1 X101.251 Y111.318 E3.8846
G1 X101.301 Y110.992 E3.89933
G1 X101.393 Y110.729 E3.91183
G1 X101.536 Y110.472 E3.92498
G1 X101.885 Y110.115 E3.94732
G1 X102.263 Y110.492 F9000
G1 F1200
G1 X102.956 Y109.97 E3.98616
G1 X112.722 Y102.89 E4.52619
G1 X113.913 Y102.007 E4.59255
G1 X114.864 Y101.341 E4.64455
G1 X115.114 Y101.203 E4.65733
G1 X115.305 Y101.147 E4.66625
G1 X115.62 Y101.139 E4.68035
G1 X115.889 Y101.21 E4.69282
G1 X116.178 Y101.376 E4.70772
G1 X116.93 Y101.896 E4.74868
G1 X124.2 Y107.197 E5.15147
G1 X124.548 Y107.431 E5.17025
G1 X124.676 Y107.541 E5.17779
G1 X126.314 Y108.738 E5.26862
G1 X127.792 Y109.791 E5.34986
G1 X128.757 Y110.515 E5.40388
G1 X129.015 Y110.78 E5.42042
G1 X129.127 Y110.965 E5.4301
G1 X129.196 Y111.212 E5.44157
G1 X129.21 Y111.354 E5.44796
G1 X129.204 Y111.555 E5.457
G1 X129.179 Y111.701 E5.46359
G1 X128.814 Y112.854 E5.51776
G1 X128.401 Y114.071 E5.5753
G1 X125.537 Y122.889 E5.99034
G1 X124.661 Y125.64 E6.11961
G1 X124.493 Y126.088 E6.14105
G1 X124.342 Y126.572 E6.16374
G1 X124.162 Y126.915 E6.18106
G1 X124.025 Y127.057 E6.18991
G1 X123.812 Y127.201 E6.20143
G1 X123.606 Y127.286 E6.21137
G1 X123.358 Y127.33 E6.22269
G1 X122.169 Y127.351 E6.27593
G1 X120.677 Y127.338 E6.3427
G1 X110.302 Y127.338 E6.80717
G1 X108.809 Y127.353 E6.87401
G1 X107.698 Y127.336 E6.92377
G1 X107.34 Y127.27 E6.94008
G1 X107.177 Y127.196 E6.94807
G1 X106.964 Y127.045 E6.95979
G1 X106.79 Y126.841 E6.97178
G1 X106.65 Y126.547 E6.98634
G1 X106.332 Y125.638 E7.02949
G1 X106.054 Y124.707 E7.07298
G1 X105.086 Y121.764 E7.21168
G1 X102.537 Y113.889 E7.58223
G1 X102.085 Y112.542 E7.64585
G1 X101.964 Y112.097 E7.66646
G1 X101.88 Y111.883 E7.67675
G1 X101.806 Y111.572 E7.69107
G1 X101.79 Y111.314 E7.70266
G1 X101.817 Y111.147 E7.71024
G1 X101.892 Y110.929 E7.72055
G1 X101.984 Y110.771 E7.72873
G1 X102.22 Y110.534 E7.74372
G1 X102.581 Y110.926 F9000
G1 F1200
G1 X102.595 Y110.914 E7.74455
G1 X103.275 Y110.403 E7.78263
G1 X107.062 Y107.669 E7.99175
G1 X113.04 Y103.324 E8.32263
G1 X114.228 Y102.442 E8.38885
G1 X115.166 Y101.786 E8.44007
G1 X115.339 Y101.692 E8.44891
G1 X115.404 Y101.676 E8.45189
G1 X115.585 Y101.676 E8.45998
G1 X115.652 Y101.694 E8.46312
G1 X115.916 Y101.846 E8.47672
G1 X116.615 Y102.331 E8.51484
G1 X123.892 Y107.637 E8.91803
G1 X124.225 Y107.861 E8.93601
G1 X124.24 Y107.873 E8.93686
G1 X124.338 Y107.96 E8.94273
G1 X125.596 Y108.866 E9.01212
G1 X125.995 Y109.171 E9.03461
G1 X127.479 Y110.227 E9.11616
G1 X128.378 Y110.898 E9.16636
G1 X128.394 Y110.912 E9.16732
G1 X128.604 Y111.128 E9.1808
G1 X128.639 Y111.192 E9.18405
G1 X128.669 Y111.319 E9.18989
G1 X128.672 Y111.354 E9.19149
G1 X128.667 Y111.52 E9.19891
G1 X128.661 Y111.556 E9.20057
G1 X128.302 Y112.691 E9.25384
G1 X127.891 Y113.902 E9.31109
G1 X125.025 Y122.724 E9.72637
G1 X124.15 Y125.474 E9.85555
G1 X123.985 Y125.913 E9.87657
G1 X123.833 Y126.4 E9.89941
G1 X123.823 Y126.422 E9.9005
G1 X123.74 Y126.581 E9.90854
G1 X123.696 Y126.631 E9.9115
G1 X123.533 Y126.741 E9.92029
G1 X123.482 Y126.762 E9.92279
G1 X123.297 Y126.796 E9.93119
G1 X123.272 Y126.798 E9.9323
G1 X122.664 Y126.797 E9.95953
G1 X122.165 Y126.814 E9.9819
G1 X120.68 Y126.8 E10.04838
G1 X110.299 Y126.8 E10.5131
G1 X108.812 Y126.816 E10.57967
G1 X107.738 Y126.8 E10.62778
G1 X107.717 Y126.798 E10.62873
G1 X107.519 Y126.763 E10.63774
G1 X107.463 Y126.74 E10.64041
G1 X107.301 Y126.625 E10.6493
G1 X107.258 Y126.574 E10.65231
G1 X107.155 Y126.362 E10.66287
G1 X106.84 Y125.463 E10.70552
G1 X106.567 Y124.546 E10.74835
G1 X105.597 Y121.597 E10.88733
G1 X103.047 Y113.721 E11.25795
G1 X102.596 Y112.375 E11.32152
G1 X102.474 Y111.925 E11.34235
G1 X102.393 Y111.721 E11.35221
G1 X102.344 Y111.539 E11.36066
G1 X102.34 Y111.515 E11.36172
G1 X102.326 Y111.353 E11.36899
G1 X102.333 Y111.297 E11.37153
G1 X102.39 Y111.135 E11.37921
G1 X102.422 Y111.083 E11.38195
G1 X102.538 Y110.968 E11.38925
; printing object dod_1_thick.stl id:0 copy 0
M486 S0
G1 X102.897 Y111.397 F9000
;TYPE:External perimeter
G1 F1200
G1 X103.604 Y110.852 E11.42921
G1 X107.389 Y108.12 E11.63821
G1 X114.554 Y102.893 E12.03526
G1 X115.465 Y102.257 E12.08499
G1 X115.49 Y102.243 E12.08631
G1 X115.613 Y102.313 E12.09264
G1 X116.293 Y102.786 E12.12972
G1 X123.573 Y108.094 E12.53305
G1 X123.89 Y108.307 E12.55017
G1 X125.668 Y109.621 E12.64912
G1 X127.15 Y110.676 E12.73059
G1 X128.018 Y111.324 E12.77907
G1 X128.113 Y111.422 E12.78519
G1 X127.773 Y112.519 E12.83662
G1 X127.363 Y113.726 E12.8937
G1 X124.495 Y122.554 E13.30923
G1 X123.623 Y125.295 E13.43799
G1 X123.459 Y125.732 E13.4589
G1 X123.313 Y126.197 E13.48074
G1 X123.294 Y126.231 E13.48247
G1 X123.232 Y126.242 E13.48527
G1 X122.162 Y126.257 E13.53317
G1 X110.297 Y126.244 E14.06438
G1 X108.815 Y126.259 E14.1307
G1 X107.71 Y126.231 E14.18022
G1 X107.369 Y125.289 E14.2251
G1 X107.099 Y124.38 E14.26753
G1 X103.128 Y112.211 E14.8406
G1 X103.003 Y111.747 E14.86209
G1 X102.928 Y111.562 E14.87103
G1 X102.908 Y111.456 E14.87588
;WIPE_START
G1 X103.297 Y111.407 F9000
;WIPE_END
G1 X103.62 Y111.708
G1 F1200
G1 X103.632 Y111.992 E14.88862
G1 X103.687 Y112.213 E14.89881
G1 X103.95 Y112.937 E14.93328
G1 X105.938 Y119.106 E15.22344
G1 X107.666 Y124.38 E15.47193
G1 X107.875 Y125.109 E15.50587
G1 X107.949 Y125.313 E15.5156
G1 X108.149 Y125.579 E15.5305
G1 X108.431 Y125.702 E15.54426
G1 X108.689 Y125.725 E15.55586
G1 X109.21 Y125.702 E15.57919
G1 X121.765 Y125.702 E16.14127
G1 X122.342 Y125.725 E16.16714
G1 X122.705 Y125.661 E16.18363
G1 X122.99 Y125.397 E16.201
G1 X123.106 Y125.151 E16.21319
G1 X123.426 Y124.098 E16.26245
G1 X127.041 Y112.969 E16.78633
G1 X127.367 Y112.034 E16.83065
G1 X127.376 Y111.733 E16.8441
G1 X127.302 Y111.53 E16.85378
G1 X127.163 Y111.353 E16.86386
G1 X126.967 Y111.202 E16.87495
G1 X126.579 Y110.944 E16.89578
G1 X120.396 Y106.438 E17.23832
G1 X117.799 Y104.566 E17.38164
G1 X117.677 Y104.461 E17.38883
G1 X116.524 Y103.644 E17.45209
G1 X116.064 Y103.281 E17.47833
G1 X115.92 Y103.182 E17.48616
G1 X115.654 Y103.053 E17.49941
G1 X115.345 Y103.043 E17.51325
G1 X115.118 Y103.154 E17.52456
G1 X104.743 Y110.709 E18.09912
G1 X104.015 Y111.213 E18.13877
G1 X103.784 Y111.41 E18.15236
G1 X103.649 Y111.655 E18.16493
;WIPE_START
G1 X103.249 Y111.859 F9000
;WIPE_END
M106 S84.15
;LAYER_CHANGE
;Z:0.52
;HEIGHT:0.32
;BEFORE_LAYER_CHANGE
;0.52


G92 E0
G1 E-2.1 F3000
;WIPE_START
G1 F7200
G1 X103.495 Y112.272 E-2.29026
G1 X103.761 Y113.002 E-2.59789
G1 X104.038 Y113.861 E-2.955
;WIPE_END
G1 E-3 F3000
; stop printing object dod_1_thick.stl id:0 copy 0
M486 S-1
G1 Z0.47 F9000
;AFTER_LAYER_CHANGE
;0.52
; printing object dod_1_thick.stl id:0 copy 0
M486 S0
M204 S250
G1 X104.516 Y113.705
G1 E0 F3000
;TYPE:Overhang perimeter
;WIDTH:0.476
G1 F1500
G1 X107.423 Y122.65 E0.51479
G1 X107.883 Y124.072 E0.5966
G1 X108.011 Y124.552 E0.62379
G1 X108.097 Y124.783 E0.63726
G1 X108.279 Y125.083 E0.6565
G1 X108.414 Y125.196 E0.66613
G1 X108.456 Y125.231 E0.66911
G1 X108.52 Y125.285 E0.67369
G1 X108.638 Y125.328 E0.68059
G1 X108.8 Y125.388 E0.69
G1 X109.103 Y125.422 E0.70669
G1 X109.701 Y125.393 E0.73945
G1 X121.285 Y125.393 E1.37351
G1 X121.776 Y125.416 E1.40042
G1 X122.001 Y125.413 E1.41271
G1 X122.31 Y125.357 E1.42989
G1 X122.364 Y125.324 E1.43338
G1 X122.487 Y125.25 E1.4412
G1 X122.517 Y125.232 E1.44314
G1 X122.641 Y125.158 E1.45101
G1 X122.709 Y125.076 E1.45685
G1 X122.854 Y124.901 E1.46931
G1 X122.99 Y124.538 E1.49051
G1 X123.231 Y123.714 E1.53752
G1 X126.622 Y113.277 E2.13816
G1 X126.932 Y112.42 E2.18807
G1 X126.989 Y112.084 E2.20668
G1 X126.97 Y111.991 E2.21189
G1 X126.904 Y111.665 E2.23007
G1 X126.856 Y111.61 E2.23408
G1 X126.582 Y111.293 E2.25705
G1 X125.91 Y110.833 E2.30156
G1 X116.771 Y104.193 E2.9199
G1 X116.034 Y103.624 E2.97082
G1 X115.697 Y103.481 E2.99089
G1 X115.627 Y103.481 E2.99471
G1 X115.341 Y103.48 E3.01036
G1 X115.292 Y103.48 E3.01302
G1 X115.12 Y103.557 E3.02334
G1 X114.961 Y103.62 E3.03268
G1 X114.48 Y104.005 E3.06641
G1 X111.483 Y106.188 E3.26936
G1 X105.016 Y110.885 E3.7068
G1 X104.567 Y111.185 E3.73634
G1 X104.339 Y111.357 E3.75199
G1 X104.14 Y111.619 E3.77002
G1 X104.091 Y111.685 E3.77451
G1 X104.031 Y111.976 E3.79078
G1 X104.008 Y112.085 E3.79687
G1 X104.064 Y112.406 E3.81468
G1 X104.392 Y113.325 E3.8681
G1 X104.497 Y113.648 E3.88671
G1 X104.868 Y113.527 F9000
;WIDTH:0.389872
;HEIGHT:0.389872
G1 F1500
G1 X107.794 Y122.529 E4.3612
G1 X108.257 Y123.962 E4.43666
G1 X108.383 Y124.433 E4.46114
G1 X108.45 Y124.612 E4.47071
G1 X108.579 Y124.826 E4.48321
G1 X108.719 Y124.942 E4.49232
G1 X108.89 Y125.005 E4.50149
G1 X109.115 Y125.031 E4.51284
G1 X109.691 Y125.003 E4.54175
G1 X121.294 Y125.003 E5.1234
G1 X121.783 Y125.026 E5.14793
G1 X121.963 Y125.024 E5.15696
G1 X122.17 Y124.986 E5.16748
G1 X122.383 Y124.858 E5.17994
G1 X122.512 Y124.702 E5.19008
G1 X122.62 Y124.415 E5.20545
G1 X122.858 Y123.599 E5.24807
G1 X126.253 Y113.15 E5.79881
G1 X126.553 Y112.32 E5.84307
G1 X126.592 Y112.091 E5.85472
G1 X126.542 Y111.843 E5.86738
G1 X126.319 Y111.586 E5.88443
G1 X125.685 Y111.152 E5.92294
G1 X116.537 Y104.505 E6.48983
G1 X115.836 Y103.964 E6.53422
G1 X115.617 Y103.871 E6.54613
G1 X115.375 Y103.871 E6.55827
G1 X115.272 Y103.917 E6.56394
G1 X115.16 Y103.961 E6.56997
G1 X114.717 Y104.315 E6.59839
G1 X111.712 Y106.504 E6.78472
G1 X105.239 Y111.205 E7.18577
G1 X104.794 Y111.503 E7.21263
G1 X104.618 Y111.636 E7.22369
G1 X104.455 Y111.85 E7.23718
G1 X104.406 Y112.091 E7.24952
G1 X104.443 Y112.306 E7.26045
G1 X104.761 Y113.199 E7.30797
G1 X104.85 Y113.47 E7.32228
G1 X103.38 Y113.948 F9000
;WIDTH:0.476
;HEIGHT:0.32
G1 F1500
G1 X102.954 Y112.636 E7.39778
G1 X102.502 Y111.316 E7.47411
G1 X102.485 Y111.265 E7.47706
G1 X102.531 Y111.235 E7.48006
G1 X103 Y110.925 E7.51088
G1 X106.973 Y108.043 E7.77952
G1 X114.923 Y102.263 E8.31745
G1 X115.466 Y101.842 E8.3551
G1 X115.501 Y101.815 E8.35751
G1 X115.535 Y101.842 E8.35989
G1 X115.996 Y102.206 E8.39205
G1 X116.915 Y102.881 E8.45444
G1 X127.461 Y110.542 E9.16786
G1 X128.486 Y111.253 E9.23615
G1 X128.516 Y111.274 E9.23817
G1 X128.492 Y111.337 E9.24189
G1 X128.364 Y111.666 E9.26121
G1 X127.922 Y113 E9.33813
G1 X123.811 Y125.663 E10.06681
G1 X123.551 Y126.529 E10.11629
G1 X123.537 Y126.574 E10.11886
G1 X123.487 Y126.572 E10.12159
G1 X122.951 Y126.55 E10.15099
G1 X108.046 Y126.55 E10.96677
G1 X107.513 Y126.572 E10.99596
G1 X107.452 Y126.574 E10.99931
G1 X107.436 Y126.517 E11.00255
G1 X107.26 Y125.897 E11.03785
G1 X106.651 Y124.014 E11.14618
G1 X103.398 Y114.005 E11.72217
G1 X103.027 Y114.126 F9000
;WIDTH:0.389872
;HEIGHT:0.389872
G1 F1500
G1 X102.583 Y112.759 E11.79418
G1 X102.142 Y111.469 E11.86252
G1 X102.104 Y111.314 E11.87053
G1 X102.125 Y111.122 E11.88024
G1 X102.17 Y111.043 E11.88477
G1 X102.317 Y110.908 E11.8948
G1 X102.778 Y110.604 E11.92248
G1 X106.744 Y107.727 E12.16808
G1 X114.688 Y101.951 E12.66046
G1 X115.218 Y101.54 E12.69408
G1 X115.432 Y101.433 E12.70605
G1 X115.572 Y101.435 E12.71308
G1 X115.777 Y101.536 E12.72456
G1 X116.233 Y101.896 E12.75366
G1 X117.145 Y102.566 E12.81039
G1 X127.687 Y110.223 E13.46355
G1 X128.731 Y110.947 E13.52723
G1 X128.841 Y111.062 E13.53523
G1 X128.884 Y111.158 E13.5405
G1 X128.895 Y111.311 E13.54816
G1 X128.851 Y111.49 E13.5574
G1 X128.731 Y111.798 E13.57399
G1 X128.292 Y113.122 E13.64389
G1 X124.183 Y125.779 E14.311
G1 X123.913 Y126.68 E14.35812
G1 X123.86 Y126.796 E14.36454
G1 X123.764 Y126.898 E14.37156
G1 X123.681 Y126.938 E14.37621
G1 X123.542 Y126.964 E14.3833
G1 X122.943 Y126.94 E14.41334
G1 X108.054 Y126.94 E15.15971
G1 X107.53 Y126.962 E15.18597
G1 X107.315 Y126.935 E15.19685
G1 X107.228 Y126.893 E15.20171
