; generated by SuperSlicer 2.4 on 2022-12-22 at 11:13:47 UTC

; 

; external perimeters extrusion width = 0.43mm
; perimeters extrusion width = 0.48mm
; infill extrusion width = 0.46mm
; solid infill extrusion width = 0.48mm
; top infill extrusion width = 0.46mm
; first layer extrusion width = 0.58mm

; object:{"name":"pedestal_1_thick","id":"pedestal_1_thick.stl id:0 copy 0","object_center":[115.500000,115.500000,0.000000],"boundingbox_center":[115.500000,115.500000,15.078668],"boundingbox_size":[43.427907,43.426898,30.157335]}
; Total objects to print: 1
M486 T1
; plater:{"center":[115.500000,115.500000,0.000000],"boundingbox_center":[115.500000,115.500000,15.078668],"boundingbox_size":[43.427907,43.426898,30.157335]}

;TYPE:Custom
G90 ; use absolute coordinates
M83 ; extruder relative mode
M140 S60 ; set final bed temp
M104 S150 ; set temporary nozzle temp to prevent oozing during homing and auto bed leveling
G4 S10 ; allow partial nozzle warmup
G28 ; home all axis
;G29 ; auto bed levelling
G1 Z10 F240
G1 X2 Y10 F3000
G1 Z0 F240
M104 S210 ; set final nozzle temp
M190 S60 ; wait for bed temp to stabilize
M109 S210 ; wait for nozzle temp to stabilize
G1 Z0.28 F240
G92 E0
G1 Y140 E10 F1500 ; prime the nozzle
G1 X2.3 F5000
G92 E0
G1 Y10 E10 F1200 ; prime the nozzle
G92 E0
;start
M107
G21 ; set units to millimeters
G90 ; use absolute coordinates
M82 ; use absolute distances for extrusion
G92 E0
; Filament gcode
;_TOOLCHANGE 0
M107
;LAYER_CHANGE
;Z:0.2
;HEIGHT:0.2
;BEFORE_LAYER_CHANGE
;0.2


G1 E-3 F3000
G1 Z0.15 F9000
;AFTER_LAYER_CHANGE
;0.2
G92 E0
M204 S500
G1 X100.693 Y100.744
G1 E3 F3000
;TYPE:Skirt
;WIDTH:0.48
G1 F1200
G1 X91.903 Y109.529 E3.45616
G1 X90.968 Y110.834 E3.51508
G1 X90.242 Y112.374 E3.57759
G1 X89.844 Y113.683 E3.62781
G1 X89.647 Y115.476 E3.69403
G1 X89.771 Y117.342 E3.76268
G1 X89.918 Y118.155 E3.793
G1 X90.201 Y119.011 E3.82608
G1 X90.943 Y120.353 E3.88237
G1 X91.596 Y121.178 E3.92101
G1 X107.552 Y137.189 E4.75073
G1 X109.422 Y139.03 E4.84703
G1 X110.047 Y139.56 E4.87713
G1 X110.945 Y140.14 E4.91635
G1 X112.295 Y140.715 E4.97023
G1 X113.152 Y140.967 E5.00302
G1 X114.64 Y141.222 E5.05844
G1 X115.623 Y141.292 E5.09461
G1 X117.666 Y141.158 E5.16977
G1 X118.633 Y140.919 E5.20631
G1 X119.454 Y140.585 E5.23885
G1 X120.268 Y140.121 E5.27325
G1 X121.014 Y139.557 E5.30758
G1 X123.282 Y137.35 E5.42374
G1 X138.874 Y121.75 E6.23335
G1 X139.389 Y121.152 E6.26233
G1 X140.459 Y119.442 E6.33634
G1 X140.863 Y118.487 E6.37442
G1 X141.211 Y117.026 E6.42955
G1 X141.357 Y115.556 E6.48378
G1 X141.356 Y114.695 E6.51538
G1 X141.251 Y113.746 E6.55042
G1 X140.951 Y112.591 E6.59423
G1 X140.583 Y111.66 E6.63096
G1 X139.912 Y110.504 E6.68004
G1 X138.638 Y109.016 E6.75193
G1 X121.417 Y91.826 E7.64508
G1 X120.468 Y91.172 E7.68741
G1 X118.759 Y90.36 E7.75686
G1 X117.124 Y89.962 E7.81864
G1 X116.043 Y89.8 E7.85874
G1 X114.661 Y89.803 E7.90946
G1 X112.743 Y90.053 E7.98046
G1 X111.929 Y90.308 E8.01176
G1 X111.297 Y90.602 E8.03737
G1 X110.761 Y90.918 E8.06022
G1 X109.729 Y91.712 E8.10801
G1 X100.735 Y100.702 E8.57477
G92 E0
G1 E-2.1 F3000
;WIPE_START
G1 F7200
G1 X99.207 Y102.228 E-2.955
;WIPE_END
G1 E-3 F3000
; acceleration to travel
M204 S1500
G1 X102.997 Y103.295 F9000
; decel to extrusion
M204 S500
G1 X103.46 Y103.425
; end travel
G1 E0 F3000
;WIDTH:0.576
G1 F1200
G1 X110.48 Y96.401 E0.44459
G1 X112.379 Y94.542 E0.56356
G1 X112.988 Y94.097 E0.59733
G1 X113.363 Y93.914 E0.61601
G1 X113.532 Y93.855 E0.62402
G1 X113.969 Y93.776 E0.64391
G1 X114.589 Y93.722 E0.67178
G1 X115.055 Y93.661 E0.69279
G1 X115.554 Y93.649 E0.71515
G1 X116.336 Y93.757 E0.75051
G1 X117.468 Y94.016 E0.80248
G1 X117.782 Y94.142 E0.81763
G1 X118.461 Y94.496 E0.85189
G1 X118.78 Y94.722 E0.8694
G1 X119.088 Y94.994 E0.88782
G1 X119.672 Y95.572 E0.92459
G1 X120.005 Y95.928 E0.94644
G1 X120.749 Y96.64 E0.99253
G1 X120.862 Y96.77 E1.00027
G1 X121.387 Y97.284 E1.03313
G1 X121.506 Y97.424 E1.04136
G1 X122.102 Y98.003 E1.07854
G1 X122.337 Y98.258 E1.09408
G1 X123.141 Y99.03 E1.14398
G1 X124.655 Y100.576 E1.24084
G1 X125.421 Y101.309 E1.2883
G1 X125.643 Y101.557 E1.30321
G1 X126.497 Y102.396 E1.35683
G1 X126.971 Y102.89 E1.38747
G1 X127.583 Y103.469 E1.4252
G1 X127.958 Y103.873 E1.44988
G1 X128.779 Y104.677 E1.50133
G1 X129.257 Y105.175 E1.53223
G1 X129.864 Y105.749 E1.5696
G1 X130.413 Y106.33 E1.60542
G1 X130.655 Y106.554 E1.62017
G1 X131.771 Y107.676 E1.69102
G1 X132.065 Y107.947 E1.70891
G1 X132.626 Y108.543 E1.74557
G1 X133.02 Y108.918 E1.76989
G1 X134.104 Y110.009 E1.83876
G1 X134.374 Y110.259 E1.85524
G1 X135.098 Y111.016 E1.90212
G1 X136.102 Y111.996 E1.96495
G1 X136.623 Y112.582 E2.00002
G1 X136.816 Y112.842 E2.01453
G1 X137.035 Y113.224 E2.03423
G1 X137.239 Y113.715 E2.05806
G1 X137.338 Y114.034 E2.07302
G1 X137.454 Y114.531 E2.09587
G1 X137.486 Y114.936 E2.11403
G1 X137.482 Y115.473 E2.13809
G1 X137.43 Y116.024 E2.16284
G1 X137.362 Y116.547 E2.18646
G1 X137.216 Y117.173 E2.21527
G1 X137.035 Y117.623 E2.23698
G1 X136.694 Y118.235 E2.26833
G1 X136.405 Y118.673 E2.29184
G1 X136.086 Y119.057 E2.31418
G1 X120.545 Y134.607 E3.29839
G1 X118.58 Y136.539 E3.42179
G1 X118.174 Y136.859 E3.44495
G1 X117.806 Y137.076 E3.46406
G1 X117.442 Y137.23 E3.48174
G1 X117.148 Y137.313 E3.49543
G1 X116.844 Y137.355 E3.50918
G1 X116.396 Y137.353 E3.52922
G1 X115.735 Y137.416 E3.55896
G1 X115.304 Y137.393 E3.57827
G1 X114.799 Y137.272 E3.60149
G1 X114.148 Y137.213 E3.63078
G1 X113.664 Y137.089 E3.65316
G1 X112.912 Y136.79 E3.68935
G1 X112.577 Y136.606 E3.70647
G1 X111.924 Y136.067 E3.74437
G1 X110.686 Y134.814 E3.82323
G1 X110.264 Y134.421 E3.84905
G1 X108.362 Y132.492 E3.97032
G1 X107.913 Y132.073 E3.99782
G1 X106.046 Y130.177 E4.11695
G1 X105.735 Y129.894 E4.13579
G1 X105.47 Y129.605 E4.15332
G1 X103.675 Y127.812 E4.26691
G1 X103.471 Y127.63 E4.27915
G1 X103.269 Y127.405 E4.2927
G1 X98.802 Y122.961 E4.57479
G1 X96.744 Y120.881 E4.70579
G1 X96.471 Y120.631 E4.72235
G1 X94.634 Y118.767 E4.83952
G1 X94.063 Y118.048 E4.88064
G1 X93.742 Y117.417 E4.91229
G1 X93.69 Y117.24 E4.92057
G1 X93.593 Y116.686 E4.94574
G1 X93.52 Y115.679 E4.99094
G1 X93.564 Y114.951 E5.02359
G1 X93.646 Y114.439 E5.04682
G1 X93.906 Y113.639 E5.08449
G1 X94.096 Y113.189 E5.10637
G1 X94.281 Y112.845 E5.12384
G1 X94.555 Y112.414 E5.14669
G1 X94.911 Y111.977 E5.17196
G1 X103.417 Y103.467 E5.7106
G1 X103.797 Y103.847 F9000
G1 F1200
G1 X110.859 Y96.782 E6.15781
G1 X112.741 Y94.939 E6.27574
G1 X113.245 Y94.57 E6.3037
G1 X113.583 Y94.405 E6.32052
G1 X113.684 Y94.371 E6.32532
G1 X114.05 Y94.307 E6.34194
G1 X114.648 Y94.256 E6.3688
G1 X115.085 Y94.198 E6.38855
G1 X115.504 Y94.185 E6.4073
G1 X116.229 Y94.283 E6.44009
G1 X117.289 Y94.523 E6.48875
G1 X117.546 Y94.624 E6.5011
G1 X118.196 Y94.963 E6.5339
G1 X118.435 Y95.134 E6.54708
G1 X118.71 Y95.376 E6.56346
G1 X119.071 Y95.748 E6.58667
G1 X119.286 Y95.947 E6.59978
G1 X119.623 Y96.306 E6.62185
G1 X120.368 Y97.018 E6.66798
G1 X120.469 Y97.137 E6.67496
G1 X121.002 Y97.659 E6.70835
G1 X121.113 Y97.791 E6.71607
G1 X121.722 Y98.383 E6.75408
G1 X121.953 Y98.634 E6.76935
G1 X122.757 Y99.406 E6.81926
G1 X123.415 Y100.092 E6.86181
G1 X123.942 Y100.602 E6.89468
G1 X124.273 Y100.954 E6.91628
G1 X125.041 Y101.69 E6.96391
G1 X125.254 Y101.928 E6.97819
G1 X126.118 Y102.776 E7.03242
G1 X126.592 Y103.271 E7.06309
G1 X127.207 Y103.854 E7.10102
G1 X127.573 Y104.248 E7.12511
G1 X128.401 Y105.058 E7.17696
G1 X128.879 Y105.557 E7.20788
G1 X129.479 Y106.123 E7.24482
G1 X130.035 Y106.713 E7.28112
G1 X130.278 Y106.937 E7.29591
G1 X131.398 Y108.064 E7.36705
G1 X131.68 Y108.323 E7.38418
G1 X132.245 Y108.923 E7.42107
G1 X132.641 Y109.299 E7.44553
G1 X133.731 Y110.396 E7.51476
G1 X133.991 Y110.637 E7.53064
G1 X134.716 Y111.394 E7.57756
G1 X135.707 Y112.361 E7.63956
G1 X136.2 Y112.913 E7.67268
G1 X136.359 Y113.126 E7.68458
G1 X136.546 Y113.446 E7.70117
G1 X136.738 Y113.909 E7.72362
G1 X136.817 Y114.166 E7.73563
G1 X136.926 Y114.633 E7.75713
G1 X136.949 Y114.942 E7.771
G1 X136.945 Y115.457 E7.79405
G1 X136.897 Y115.96 E7.81667
G1 X136.836 Y116.44 E7.83831
G1 X136.708 Y116.995 E7.86381
G1 X136.558 Y117.377 E7.8822
G1 X136.23 Y117.964 E7.91231
G1 X135.965 Y118.365 E7.93382
G1 X135.697 Y118.686 E7.95252
G1 X120.166 Y134.226 E8.93613
G1 X118.213 Y136.146 E9.05873
G1 X117.883 Y136.407 E9.07757
G1 X117.577 Y136.589 E9.09351
G1 X117.276 Y136.718 E9.10818
G1 X117.054 Y136.783 E9.11854
G1 X116.789 Y136.82 E9.13052
G1 X116.372 Y136.816 E9.14921
G1 X115.743 Y136.879 E9.17747
G1 X115.359 Y136.857 E9.19472
G1 X114.889 Y136.741 E9.2164
G1 X114.219 Y136.68 E9.24653
G1 X113.847 Y136.583 E9.26374
G1 X113.127 Y136.297 E9.2984
G1 X112.86 Y136.149 E9.31206
G1 X112.297 Y135.68 E9.34485
G1 X111.06 Y134.429 E9.42363
G1 X110.643 Y134.039 E9.44918
G1 X108.737 Y132.106 E9.57072
G1 X108.292 Y131.692 E9.59794
G1 X106.418 Y129.789 E9.71749
G1 X106.105 Y129.505 E9.73642
G1 X105.858 Y129.233 E9.75286
G1 X104.135 Y127.525 E9.86151
G1 X104.063 Y127.438 E9.86653
G1 X103.841 Y127.24 E9.87988
G1 X103.66 Y127.035 E9.8921
G1 X99.182 Y122.581 E10.17488
G1 X97.117 Y120.493 E10.30635
G1 X96.849 Y120.249 E10.32257
G1 X95.027 Y118.4 E10.43876
G1 X94.501 Y117.735 E10.47672
G1 X94.25 Y117.239 E10.50163
G1 X94.217 Y117.13 E10.5067
G1 X94.124 Y116.606 E10.53053
G1 X94.058 Y115.694 E10.57149
G1 X94.099 Y114.997 E10.60273
G1 X94.173 Y114.546 E10.6232
G1 X94.405 Y113.838 E10.65656
G1 X94.586 Y113.41 E10.67738
G1 X94.74 Y113.124 E10.69191
G1 X94.982 Y112.741 E10.71217
G1 X95.319 Y112.327 E10.73611
G1 X103.754 Y103.889 E11.27023
G1 X104.134 Y104.269 F9000
G1 F1200
G1 X111.239 Y97.162 E11.72013
G1 X113.096 Y95.343 E11.83649
G1 X113.111 Y95.33 E11.83737
G1 X113.529 Y95.026 E11.86053
G1 X113.551 Y95.013 E11.86169
G1 X113.793 Y94.9 E11.87365
G1 X113.828 Y94.889 E11.87525
G1 X114.101 Y94.842 E11.88765
G1 X114.706 Y94.791 E11.91486
G1 X115.136 Y94.733 E11.93427
G1 X115.485 Y94.722 E11.94991
G1 X115.508 Y94.723 E11.95093
G1 X115.814 Y94.766 E11.96477
G1 X116.129 Y94.811 E11.97901
G1 X117.085 Y95.022 E12.02286
G1 X117.105 Y95.028 E12.02378
G1 X117.317 Y95.111 E12.03399
G1 X117.929 Y95.43 E12.06489
G1 X117.961 Y95.454 E12.06667
G1 X118.028 Y95.52 E12.07086
G1 X118.113 Y95.565 E12.0752
G1 X118.155 Y95.6 E12.0776
G1 X118.211 Y95.669 E12.08162
G1 X118.289 Y95.718 E12.08571
G1 X118.326 Y95.752 E12.08799
G1 X118.371 Y95.813 E12.09136
G1 X118.425 Y95.849 E12.09426
G1 X118.459 Y95.881 E12.09637
G1 X118.514 Y95.955 E12.10048
G1 X118.594 Y96.015 E12.10497
G1 X118.623 Y96.045 E12.10685
G1 X118.666 Y96.105 E12.11013
G1 X118.904 Y96.325 E12.12467
G1 X119.241 Y96.684 E12.14673
G1 X119.99 Y97.401 E12.19311
G1 X120.002 Y97.414 E12.19391
G1 X120.083 Y97.514 E12.19967
G1 X120.17 Y97.588 E12.2048
G1 X120.198 Y97.62 E12.20668
G1 X120.237 Y97.682 E12.20999
G1 X120.308 Y97.728 E12.21379
G1 X120.346 Y97.763 E12.21609
G1 X120.401 Y97.84 E12.22032
G1 X120.475 Y97.893 E12.22442
G1 X120.509 Y97.926 E12.22654
G1 X120.552 Y97.989 E12.22995
G1 X120.628 Y98.046 E12.2342
G1 X120.658 Y98.078 E12.23614
G1 X120.7 Y98.139 E12.23948
G1 X121.339 Y98.76 E12.27935
G1 X121.568 Y99.009 E12.29451
G1 X122.378 Y99.787 E12.34479
G1 X122.511 Y99.927 E12.35341
G1 X122.527 Y99.948 E12.35463
G1 X122.562 Y100.004 E12.35756
G1 X122.64 Y100.058 E12.36181
G1 X122.674 Y100.092 E12.36396
G1 X122.724 Y100.163 E12.36787
G1 X122.801 Y100.22 E12.37216
G1 X122.831 Y100.251 E12.37406
G1 X122.868 Y100.303 E12.37694
G1 X122.916 Y100.337 E12.37959
G1 X122.944 Y100.364 E12.3813
G1 X123.016 Y100.454 E12.38649
G1 X123.553 Y100.973 E12.4199
G1 X123.891 Y101.332 E12.44199
G1 X124.658 Y102.066 E12.48952
G1 X124.892 Y102.33 E12.50528
G1 X124.952 Y102.373 E12.50861
G1 X124.981 Y102.401 E12.5104
G1 X125.041 Y102.478 E12.51479
G1 X125.093 Y102.516 E12.51768
G1 X125.121 Y102.542 E12.51939
G1 X125.191 Y102.631 E12.52445
G1 X125.732 Y103.15 E12.558
G1 X126.213 Y103.653 E12.58915
G1 X126.828 Y104.235 E12.62708
G1 X127.215 Y104.653 E12.65257
G1 X127.275 Y104.696 E12.65589
G1 X127.302 Y104.722 E12.65758
G1 X127.365 Y104.802 E12.66213
G1 X127.417 Y104.839 E12.66496
G1 X127.444 Y104.864 E12.66665
G1 X127.516 Y104.954 E12.67178
G1 X128.019 Y105.436 E12.70298
G1 X128.529 Y105.968 E12.73595
G1 X128.59 Y106.01 E12.73928
G1 X128.619 Y106.038 E12.74109
G1 X128.68 Y106.115 E12.7455
G1 X128.734 Y106.151 E12.74838
G1 X128.761 Y106.175 E12.75004
G1 X128.848 Y106.276 E12.75597
G1 X129.099 Y106.504 E12.77116
G1 X129.681 Y107.12 E12.80909
G1 X129.74 Y107.162 E12.81233
G1 X129.766 Y107.187 E12.81397
G1 X129.832 Y107.268 E12.81865
G1 X129.882 Y107.303 E12.82137
G1 X129.901 Y107.32 E12.8225
G1 X130.42 Y107.856 E12.85592
G1 X130.515 Y107.933 E12.86138
G1 X130.54 Y107.959 E12.863
G1 X130.573 Y108.006 E12.86558
G1 X130.622 Y108.04 E12.86825
G1 X130.65 Y108.067 E12.86997
G1 X130.713 Y108.148 E12.87458
G1 X130.77 Y108.188 E12.87768
G1 X130.8 Y108.218 E12.87959
G1 X130.857 Y108.294 E12.88386
G1 X130.929 Y108.344 E12.88777
G1 X130.962 Y108.378 E12.8899
G1 X131.016 Y108.456 E12.89413
G1 X131.068 Y108.488 E12.89689
G1 X131.09 Y108.505 E12.8981
G1 X131.292 Y108.694 E12.9105
G1 X131.864 Y109.302 E12.94788
G1 X132.261 Y109.679 E12.9724
G1 X132.882 Y110.317 E13.01224
G1 X132.943 Y110.36 E13.01559
G1 X132.975 Y110.39 E13.01753
G1 X133.032 Y110.465 E13.02177
G1 X133.095 Y110.509 E13.0252
G1 X133.128 Y110.543 E13.02732
G1 X133.18 Y110.617 E13.0314
G1 X133.258 Y110.672 E13.03563
G1 X133.293 Y110.709 E13.03792
G1 X133.339 Y110.781 E13.04175
G1 X133.39 Y110.812 E13.04442
G1 X133.411 Y110.829 E13.04563
G1 X133.605 Y111.011 E13.05755
G1 X134.337 Y111.776 E13.10495
G1 X134.702 Y112.119 E13.12735
G1 X135.057 Y112.492 E13.15042
G1 X135.12 Y112.536 E13.15388
G1 X135.152 Y112.567 E13.15583
G1 X135.215 Y112.651 E13.16055
G1 X135.3 Y112.715 E13.16535
G1 X135.323 Y112.737 E13.16677
G1 X135.488 Y112.938 E13.1784
G1 X135.59 Y113.028 E13.18446
G1 X135.615 Y113.058 E13.18624
G1 X135.665 Y113.139 E13.19049
G1 X135.764 Y113.232 E13.19657
G1 X135.779 Y113.248 E13.19757
G1 X135.909 Y113.42 E13.20721
G1 X136.052 Y113.661 E13.21976
G1 X136.061 Y113.678 E13.22061
G1 X136.234 Y114.096 E13.24087
G1 X136.301 Y114.317 E13.25119
G1 X136.396 Y114.722 E13.26985
G1 X136.4 Y114.745 E13.27087
G1 X136.411 Y114.934 E13.27932
G1 X136.407 Y115.447 E13.30231
G1 X136.363 Y115.899 E13.32265
G1 X136.307 Y116.342 E13.34262
G1 X136.203 Y116.81 E13.36409
G1 X136.197 Y116.829 E13.36499
G1 X136.083 Y117.122 E13.37907
G1 X136.075 Y117.139 E13.37992
G1 X135.763 Y117.697 E13.40853
G1 X135.529 Y118.05 E13.42749
G1 X135.321 Y118.301 E13.44209
G1 X119.786 Y133.846 E14.42598
G1 X117.841 Y135.758 E14.54806
G1 X117.612 Y135.942 E14.56123
G1 X117.597 Y135.952 E14.56202
G1 X117.351 Y136.101 E14.5749
G1 X117.132 Y136.199 E14.58564
G1 X117.116 Y136.205 E14.58643
G1 X116.934 Y136.259 E14.5949
G1 X116.913 Y136.263 E14.5959
G1 X116.733 Y136.285 E14.60398
G1 X116.714 Y136.286 E14.60485
G1 X116.349 Y136.278 E14.62118
G1 X115.762 Y136.341 E14.64763
G1 X115.74 Y136.341 E14.6486
G1 X115.428 Y136.324 E14.66258
G1 X115.401 Y136.32 E14.6638
G1 X114.982 Y136.21 E14.68323
G1 X114.301 Y136.149 E14.71382
G1 X114.278 Y136.145 E14.71486
G1 X114.023 Y136.075 E14.7267
G1 X113.335 Y135.802 E14.75986
G1 X113.317 Y135.793 E14.76076
G1 X113.141 Y135.69 E14.76986
G1 X113.122 Y135.677 E14.77092
G1 X112.684 Y135.306 E14.7966
G1 X111.435 Y134.043 E14.87613
G1 X111.024 Y133.66 E14.90129
G1 X109.111 Y131.721 E15.02322
G1 X108.673 Y131.313 E15.05003
G1 X106.791 Y129.401 E15.17013
G1 X106.481 Y129.121 E15.18884
G1 X106.247 Y128.862 E15.20444
G1 X104.521 Y127.15 E15.31329
G1 X104.507 Y127.135 E15.31422
G1 X104.462 Y127.074 E15.31758
G1 X104.217 Y126.856 E15.33229
G1 X104.052 Y126.668 E15.3435
G1 X102.197 Y124.831 E15.46037
G1 X102.184 Y124.815 E15.4613
G1 X102.145 Y124.763 E15.4642
G1 X102.054 Y124.691 E15.46937
G1 X102.037 Y124.675 E15.47041
G1 X101.868 Y124.487 E15.48176
G1 X99.561 Y122.2 E15.62719
G1 X97.488 Y120.105 E15.75913
G1 X97.229 Y119.869 E15.77482
G1 X95.425 Y118.039 E15.88987
G1 X94.947 Y117.436 E15.9243
G1 X94.932 Y117.412 E15.92556
G1 X94.754 Y117.052 E15.94354
G1 X94.742 Y117.016 E15.94523
G1 X94.658 Y116.546 E15.96662
