; generated by SuperSlicer 2.4 on 2022-12-22 at 11:14:22 UTC

; 

; external perimeters extrusion width = 0.43mm
; perimeters extrusion width = 0.48mm
; infill extrusion width = 0.46mm
; solid infill extrusion width = 0.48mm
; top infill extrusion width = 0.46mm
; first layer extrusion width = 0.58mm

; object:{"name":"pent_1_thick","id":"pent_1_thick.stl id:0 copy 0","object_center":[115.500000,115.500000,0.000000],"boundingbox_center":[115.500000,115.500000,16.280861],"boundingbox_size":[43.708484,45.872168,32.561722]}
; Total objects to print: 1
M486 T1
; plater:{"center":[115.500000,115.500000,0.000000],"boundingbox_center":[115.500000,115.500000,16.280861],"boundingbox_size":[43.708484,45.872168,32.561722]}

;TYPE:Custom
G90 ; use absolute coordinates
M83 ; extruder relative mode
M140 S60 ; set final bed temp
M104 S150 ; set temporary nozzle temp to prevent oozing during homing and auto bed leveling
G4 S10 ; allow partial nozzle warmup
G28 ; home all axis
;G29 ; auto bed levelling
G1 Z10 F240
G1 X2 Y10 F3000
G1 Z0 F240
M104 S210 ; set final nozzle temp
M190 S60 ; wait for bed temp to stabilize
M109 S210 ; wait for nozzle temp to stabilize
G1 Z0.28 F240
G92 E0
G1 Y140 E10 F1500 ; prime the nozzle
G1 X2.3 F5000
G92 E0
G1 Y10 E10 F1200 ; prime the nozzle
G92 E0
;start
M107
G21 ; set units to millimeters
G90 ; use absolute coordinates
M82 ; use absolute distances for extrusion
G92 E0
; Filament gcode
;_TOOLCHANGE 0
M107
;LAYER_CHANGE
;Z:0.2
;HEIGHT:0.2
;BEFORE_LAYER_CHANGE
;0.2


G1 E-3 F3000
G1 Z0.15 F9000
;AFTER_LAYER_CHANGE
;0.2
G92 E0
M204 S500
G1 X90.14 Y98.157
G1 E3 F3000
;TYPE:Skirt
;WIDTH:0.48
G1 F1200
G1 X89.562 Y98.996 E3.03739
G1 X89.08 Y100.083 E3.08105
G1 X88.811 Y101.6 E3.13759
G1 X88.816 Y129.332 E4.15554
G1 X88.988 Y130.587 E4.20204
G1 X89.358 Y131.615 E4.24214
G1 X89.868 Y132.512 E4.28003
G1 X91.096 Y133.733 E4.34361
G1 X91.892 Y134.178 E4.37706
G1 X92.792 Y134.545 E4.41273
G1 X118.725 Y142.971 E5.41364
G1 X119.522 Y143.178 E5.44387
G1 X120.613 Y143.257 E5.48401
G1 X121.573 Y143.163 E5.51945
G1 X123.04 Y142.641 E5.57658
G1 X123.793 Y142.14 E5.60979
G1 X124.427 Y141.587 E5.64067
G1 X124.994 Y140.922 E5.67275
G1 X141.003 Y118.89 E6.67242
G1 X141.421 Y118.229 E6.70113
G1 X141.957 Y117.016 E6.74982
G1 X142.172 Y115.54 E6.80456
G1 X142.079 Y114.498 E6.84298
G1 X141.623 Y113.111 E6.89656
G1 X140.928 Y111.989 E6.94502
G1 X125.022 Y90.112 E7.93785
G1 X124.442 Y89.424 E7.97089
G1 X123.742 Y88.819 E8.00485
G1 X122.968 Y88.325 E8.03857
G1 X121.534 Y87.832 E8.09421
G1 X120.687 Y87.753 E8.12545
G1 X119.82 Y87.789 E8.15729
G1 X118.785 Y88.005 E8.19612
G1 X92.107 Y96.717 E9.22627
G1 X91.329 Y97.114 E9.25833
G1 X90.185 Y98.117 E9.31418
G92 E0
G1 E-2.1 F3000
;WIPE_START
G1 F7200
G1 X89.562 Y98.996 E-2.52628
G1 X89.123 Y99.986 E-2.955
;WIPE_END
G1 E-3 F3000
; acceleration to travel
M204 S1500
G1 X92.668 Y100.612 F9000
; decel to extrusion
M204 S500
G1 X93.101 Y100.689
; end travel
G1 E0 F3000
;WIDTH:0.576
G1 F1200
G1 X93.458 Y100.378 E0.02119
G1 X93.863 Y100.186 E0.04126
G1 X94.567 Y99.987 E0.074
G1 X113.315 Y93.885 E0.95669
G1 X115.21 Y93.285 E1.04566
G1 X116.238 Y92.936 E1.09425
G1 X119.11 Y92.016 E1.22928
G1 X119.882 Y91.728 E1.26615
G1 X120.278 Y91.643 E1.28428
G1 X120.554 Y91.632 E1.29666
G1 X120.931 Y91.687 E1.3137
G1 X121.226 Y91.809 E1.32803
G1 X121.577 Y92.053 E1.34713
G1 X121.85 Y92.353 E1.36532
G1 X122.081 Y92.721 E1.38475
G1 X122.352 Y93.087 E1.40513
G1 X122.509 Y93.336 E1.41831
G1 X122.794 Y93.696 E1.43888
G1 X123.037 Y94.065 E1.45865
G1 X123.16 Y94.207 E1.46707
G1 X123.268 Y94.374 E1.47597
G1 X123.59 Y94.793 E1.49962
G1 X123.813 Y95.135 E1.51791
G1 X123.899 Y95.229 E1.52359
G1 X124.016 Y95.409 E1.53322
G1 X124.25 Y95.7 E1.54994
G1 X124.665 Y96.295 E1.58241
G1 X125.311 Y97.154 E1.63053
G1 X125.596 Y97.582 E1.65353
G1 X126.44 Y98.718 E1.7169
G1 X126.774 Y99.209 E1.74348
G1 X126.903 Y99.356 E1.75225
G1 X127.141 Y99.696 E1.77084
G1 X127.242 Y99.815 E1.77783
G1 X127.501 Y100.203 E1.7987
G1 X127.844 Y100.653 E1.82404
G1 X127.963 Y100.839 E1.8339
G1 X128.146 Y101.062 E1.84683
G1 X128.307 Y101.314 E1.86024
G1 X128.598 Y101.682 E1.88121
G1 X128.753 Y101.927 E1.8942
G1 X128.922 Y102.131 E1.90605
G1 X129.037 Y102.316 E1.91584
G1 X129.397 Y102.785 E1.94229
G1 X129.753 Y103.306 E1.97053
G1 X129.864 Y103.429 E1.97797
G1 X130.015 Y103.658 E1.99024
G1 X130.188 Y103.871 E2.00252
G1 X130.538 Y104.39 E2.03053
G1 X130.662 Y104.532 E2.03899
G1 X130.888 Y104.855 E2.05662
G1 X130.969 Y104.947 E2.06213
G1 X131.498 Y105.701 E2.10334
G1 X132.214 Y106.661 E2.15699
G1 X132.469 Y107.048 E2.1777
G1 X133.008 Y107.75 E2.21735
G1 X133.402 Y108.335 E2.24892
G1 X133.939 Y109.03 E2.28824
G1 X134.419 Y109.7 E2.32515
G1 X134.532 Y109.881 E2.33469
G1 X135.039 Y110.544 E2.37206
G1 X135.35 Y111.019 E2.39746
G1 X136.116 Y112.023 E2.45401
G1 X136.397 Y112.465 E2.47743
G1 X137.052 Y113.306 E2.52518
G1 X137.207 Y113.562 E2.53857
G1 X137.503 Y113.966 E2.56097
G1 X137.694 Y114.213 E2.57495
G1 X137.896 Y114.439 E2.58854
G1 X138.176 Y114.934 E2.61402
G1 X138.253 Y115.219 E2.62722
G1 X138.279 Y115.504 E2.64005
G1 X138.213 Y115.946 E2.66003
G1 X138.068 Y116.282 E2.67642
G1 X137.896 Y116.56 E2.69104
G1 X137.435 Y117.135 E2.72404
G1 X137.026 Y117.723 E2.75611
G1 X136.479 Y118.448 E2.7968
G1 X136.114 Y118.984 E2.82581
G1 X135.666 Y119.559 E2.85846
G1 X135.185 Y120.255 E2.89631
G1 X133.496 Y122.552 E3.02395
G1 X133.143 Y123.067 E3.05194
G1 X132.488 Y123.939 E3.10075
G1 X132.212 Y124.346 E3.12276
G1 X129.728 Y127.737 E3.31093
G1 X127.362 Y131.02 E3.49212
G1 X126.772 Y131.803 E3.53599
G1 X126.562 Y132.118 E3.55297
G1 X125.969 Y132.908 E3.59716
G1 X124.524 Y134.927 E3.70832
G1 X123.013 Y136.977 E3.82234
G1 X122.181 Y138.147 E3.88661
G1 X121.887 Y138.599 E3.91075
G1 X121.627 Y138.9 E3.92858
G1 X121.24 Y139.185 E3.95008
G1 X120.859 Y139.332 E3.96835
G1 X120.453 Y139.375 E3.98664
G1 X120.181 Y139.349 E3.99885
G1 X119.884 Y139.271 E4.01262
G1 X119.471 Y139.118 E4.03234
G1 X119.292 Y139.036 E4.04114
G1 X118.624 Y138.838 E4.07235
G1 X118.395 Y138.749 E4.08332
G1 X118.145 Y138.683 E4.09493
G1 X117.902 Y138.589 E4.10657
G1 X117.622 Y138.511 E4.11961
G1 X116.991 Y138.289 E4.14954
G1 X116.193 Y138.048 E4.18684
G1 X115.57 Y137.827 E4.21648
G1 X115.264 Y137.743 E4.23068
G1 X115.069 Y137.665 E4.24006
G1 X114.794 Y137.591 E4.25282
G1 X114.6 Y137.514 E4.26216
G1 X114.308 Y137.434 E4.27573
G1 X114.12 Y137.358 E4.28477
G1 X113.827 Y137.277 E4.29838
G1 X113.557 Y137.178 E4.31129
G1 X113.323 Y137.118 E4.3221
G1 X113.071 Y137.019 E4.33422
G1 X112.78 Y136.937 E4.34776
G1 X112.593 Y136.858 E4.35681
G1 X111.889 Y136.649 E4.38971
G1 X111.658 Y136.56 E4.40077
G1 X111.4 Y136.492 E4.41273
G1 X111.164 Y136.399 E4.42408
G1 X110.885 Y136.32 E4.43708
G1 X110.681 Y136.234 E4.44696
G1 X109.956 Y136.022 E4.48078
G1 X109.297 Y135.789 E4.51209
G1 X108.478 Y135.545 E4.55034
G1 X107.84 Y135.315 E4.58071
G1 X107.025 Y135.071 E4.61881
G1 X106.361 Y134.837 E4.65031
G1 X106.041 Y134.747 E4.66519
G1 X105.838 Y134.662 E4.67507
G1 X105.114 Y134.448 E4.70886
G1 X104.474 Y134.223 E4.73921
G1 X104.164 Y134.139 E4.75359
G1 X103.524 Y133.915 E4.78398
G1 X102.724 Y133.669 E4.82145
G1 X102.511 Y133.583 E4.83172
G1 X100.746 Y133.031 E4.91452
G1 X100.516 Y132.935 E4.92568
G1 X99.836 Y132.734 E4.95739
G1 X99.602 Y132.642 E4.96868
G1 X99.33 Y132.568 E4.98127
G1 X98.656 Y132.333 E5.01322
G1 X96.454 Y131.634 E5.11669
G1 X95.816 Y131.407 E5.14699
G1 X94.986 Y131.159 E5.18577
G1 X94.34 Y130.936 E5.21635
G1 X93.974 Y130.853 E5.23315
G1 X93.692 Y130.744 E5.24668
G1 X93.38 Y130.57 E5.26269
G1 X93.32 Y130.526 E5.26601
G1 X93.016 Y130.21 E5.28565
G1 X92.866 Y129.945 E5.29927
G1 X92.782 Y129.738 E5.30927
G1 X92.698 Y129.228 E5.3324
G1 X92.733 Y128.47 E5.36636
G1 X92.733 Y102.499 E6.52908
G1 X92.697 Y101.793 E6.56074
G1 X92.722 Y101.522 E6.5729
G1 X92.821 Y101.156 E6.58989
G1 X92.927 Y100.941 E6.6006
G1 X93.067 Y100.738 E6.61165
G1 X93.51 Y101.043 F9000
G1 F1200
G1 X93.525 Y101.021 E6.61285
G1 X93.725 Y100.845 E6.62477
G1 X94.032 Y100.696 E6.64005
G1 X94.723 Y100.501 E6.67219
G1 X113.481 Y94.397 E7.5553
G1 X115.377 Y93.795 E7.64437
G1 X116.404 Y93.447 E7.6929
G1 X119.286 Y92.524 E7.82839
G1 X120.05 Y92.239 E7.8649
G1 X120.365 Y92.174 E7.87931
G1 X120.51 Y92.168 E7.88581
G1 X120.767 Y92.2 E7.89739
G1 X120.946 Y92.269 E7.90597
G1 X121.243 Y92.476 E7.92218
G1 X121.431 Y92.69 E7.93497
G1 X121.636 Y93.022 E7.95239
G1 X121.913 Y93.398 E7.97332
G1 X122.069 Y93.646 E7.98645
G1 X122.365 Y94.02 E8.0078
G1 X122.61 Y94.394 E8.02782
G1 X122.72 Y94.516 E8.03518
G1 X122.828 Y94.684 E8.0441
G1 X123.157 Y95.112 E8.06827
G1 X123.393 Y95.475 E8.08765
G1 X123.464 Y95.545 E8.09212
G1 X123.581 Y95.725 E8.10172
G1 X123.815 Y96.015 E8.11839
G1 X124.229 Y96.61 E8.15087
G1 X124.877 Y97.471 E8.19909
G1 X125.156 Y97.891 E8.22168
G1 X125.833 Y98.798 E8.27235
G1 X125.921 Y98.937 E8.27969
G1 X126.005 Y99.033 E8.28544
G1 X126.35 Y99.541 E8.31289
G1 X126.472 Y99.677 E8.3211
G1 X126.717 Y100.027 E8.34023
G1 X126.804 Y100.127 E8.34617
G1 X127.063 Y100.515 E8.36705
G1 X127.41 Y100.97 E8.39263
G1 X127.526 Y101.154 E8.4024
G1 X127.72 Y101.39 E8.41607
G1 X127.867 Y101.625 E8.42848
G1 X128.167 Y102.004 E8.4501
G1 X128.317 Y102.242 E8.46271
G1 X128.495 Y102.457 E8.47522
G1 X128.592 Y102.619 E8.48368
G1 X128.957 Y103.095 E8.51053
G1 X129.33 Y103.638 E8.54001
G1 X129.449 Y103.772 E8.54805
G1 X129.58 Y103.975 E8.55887
G1 X129.75 Y104.182 E8.57082
G1 X130.112 Y104.72 E8.59988
G1 X130.231 Y104.853 E8.60788
G1 X130.467 Y105.19 E8.62628
G1 X130.542 Y105.273 E8.63128
G1 X130.98 Y105.882 E8.66489
G1 X131.063 Y106.02 E8.67208
G1 X131.145 Y106.113 E8.67764
G1 X131.254 Y106.281 E8.68661
G1 X131.327 Y106.36 E8.69141
G1 X131.777 Y106.974 E8.72548
G1 X132.03 Y107.359 E8.74614
G1 X132.577 Y108.071 E8.7863
G1 X132.966 Y108.65 E8.81753
G1 X133.505 Y109.347 E8.85697
G1 X133.977 Y110.006 E8.89328
G1 X134.089 Y110.187 E8.90281
G1 X134.606 Y110.863 E8.94089
G1 X134.91 Y111.329 E8.96582
G1 X135.682 Y112.34 E9.02274
G1 X135.957 Y112.774 E9.04575
G1 X136.617 Y113.623 E9.09393
G1 X136.759 Y113.859 E9.10624
G1 X137.073 Y114.289 E9.13007
G1 X137.284 Y114.561 E9.14547
G1 X137.447 Y114.736 E9.15621
G1 X137.669 Y115.115 E9.17586
G1 X137.72 Y115.292 E9.18412
G1 X137.741 Y115.521 E9.19439
G1 X137.704 Y115.769 E9.20562
G1 X137.6 Y116.017 E9.21767
G1 X137.451 Y116.259 E9.23039
G1 X137.252 Y116.488 E9.24396
G1 X137.001 Y116.818 E9.26255
G1 X136.594 Y117.404 E9.29446
G1 X136.042 Y118.135 E9.33548
G1 X135.675 Y118.674 E9.36469
G1 X135.233 Y119.241 E9.39687
G1 X134.75 Y119.94 E9.43488
G1 X133.058 Y122.241 E9.56275
G1 X132.71 Y122.749 E9.59036
G1 X132.05 Y123.627 E9.63949
G1 X131.775 Y124.033 E9.66143
G1 X129.294 Y127.421 E9.84947
G1 X126.928 Y130.704 E10.03062
G1 X126.334 Y131.492 E10.07482
G1 X126.128 Y131.802 E10.09147
G1 X125.536 Y132.59 E10.13559
G1 X124.091 Y134.609 E10.24677
G1 X122.578 Y136.662 E10.36091
G1 X121.736 Y137.844 E10.4259
G1 X121.447 Y138.29 E10.44969
G1 X121.243 Y138.523 E10.46355
G1 X120.958 Y138.726 E10.47919
G1 X120.712 Y138.814 E10.49092
G1 X120.433 Y138.837 E10.50345
G1 X120.296 Y138.823 E10.50961
G1 X120.057 Y138.762 E10.52064
G1 X119.667 Y138.618 E10.53924
G1 X119.484 Y138.532 E10.54833
G1 X118.788 Y138.326 E10.58082
G1 X118.562 Y138.237 E10.59167
G1 X118.297 Y138.168 E10.60394
G1 X118.074 Y138.079 E10.61471
G1 X117.792 Y138.001 E10.62781
G1 X117.158 Y137.778 E10.65788
G1 X116.367 Y137.539 E10.69487
G1 X115.731 Y137.314 E10.72509
G1 X115.422 Y137.229 E10.73944
G1 X115.242 Y137.155 E10.74813
G1 X114.951 Y137.076 E10.76165
G1 X114.773 Y137.004 E10.77023
G1 X114.466 Y136.92 E10.78449
G1 X114.295 Y136.849 E10.79275
G1 X113.982 Y136.762 E10.80731
G1 X113.717 Y136.664 E10.81994
G1 X113.473 Y136.601 E10.83122
G1 X113.242 Y136.509 E10.84239
G1 X112.973 Y136.435 E10.85489
G1 X112.775 Y136.352 E10.8645
G1 X112.052 Y136.137 E10.89823
G1 X111.826 Y136.049 E10.90913
G1 X111.553 Y135.977 E10.92174
G1 X111.336 Y135.889 E10.93222
G1 X111.078 Y135.818 E10.94423
G1 X110.862 Y135.727 E10.9547
G1 X110.115 Y135.508 E10.98957
G1 X109.464 Y135.278 E11.02048
G1 X108.647 Y135.034 E11.05862
G1 X108.493 Y134.967 E11.06615
G1 X108.198 Y134.883 E11.07989
G1 X108.022 Y134.809 E11.08845
G1 X107.185 Y134.558 E11.12755
G1 X106.522 Y134.323 E11.15907
G1 X106.233 Y134.245 E11.17247
G1 X106.018 Y134.155 E11.18287
G1 X105.273 Y133.935 E11.21768
G1 X104.633 Y133.709 E11.24803
G1 X104.332 Y133.629 E11.26198
G1 X103.683 Y133.401 E11.29276
G1 X103.379 Y133.318 E11.30687
G1 X103.177 Y133.237 E11.31664
G1 X102.883 Y133.155 E11.33029
G1 X102.694 Y133.077 E11.33944
G1 X100.918 Y132.522 E11.42275
G1 X100.697 Y132.429 E11.43349
G1 X100.001 Y132.222 E11.46601
G1 X99.771 Y132.131 E11.4771
G1 X99.498 Y132.058 E11.48973
G1 X98.823 Y131.822 E11.52172
G1 X98.074 Y131.594 E11.55678
G1 X97.875 Y131.514 E11.5664
G1 X97.584 Y131.436 E11.57987
G1 X97.38 Y131.353 E11.58973
G1 X96.616 Y131.122 E11.62549
G1 X95.983 Y130.896 E11.65555
G1 X95.145 Y130.646 E11.6947
G1 X94.486 Y130.418 E11.72593
G1 X94.146 Y130.343 E11.74153
G1 X93.936 Y130.264 E11.75156
G1 X93.673 Y130.118 E11.76503
G1 X93.466 Y129.912 E11.77811
G1 X93.343 Y129.696 E11.78924
G1 X93.293 Y129.568 E11.7954
G1 X93.237 Y129.225 E11.81097
G1 X93.271 Y128.483 E11.84423
G1 X93.27 Y102.485 E13.00811
G1 X93.235 Y101.784 E13.03954
G1 X93.249 Y101.634 E13.04631
G1 X93.317 Y101.364 E13.05876
G1 X93.382 Y101.229 E13.06547
G1 X93.476 Y101.092 E13.0729
G1 X93.918 Y101.397 F9000
G1 F1200
G1 X93.949 Y101.353 E13.07529
G1 X93.999 Y101.309 E13.07829
G1 X94.191 Y101.211 E13.08791
G1 X94.215 Y101.202 E13.0891
G1 X94.879 Y101.015 E13.11996
G1 X113.646 Y94.908 E14.00352
G1 X115.545 Y94.306 E14.09269
G1 X116.572 Y93.958 E14.14126
G1 X119.462 Y93.032 E14.2771
G1 X120.226 Y92.747 E14.31362
G1 X120.25 Y92.741 E14.3147
G1 X120.442 Y92.706 E14.32346
G1 X120.478 Y92.705 E14.32509
G1 X120.623 Y92.718 E14.33158
G1 X120.683 Y92.739 E14.33445
G1 X120.848 Y92.844 E14.34318
G1 X120.877 Y92.869 E14.34491
G1 X121.003 Y93.015 E14.35352
G1 X121.017 Y93.034 E14.35458
G1 X121.188 Y93.32 E14.3695
G1 X121.472 Y93.704 E14.39088
G1 X121.629 Y93.956 E14.40417
G1 X121.932 Y94.339 E14.42607
G1 X122.19 Y94.733 E14.44713
G1 X122.273 Y94.817 E14.45243
G1 X122.291 Y94.84 E14.45372
G1 X122.415 Y95.035 E14.46409
G1 X122.465 Y95.082 E14.46716
G1 X122.718 Y95.422 E14.48614
G1 X122.978 Y95.822 E14.5075
G1 X123.052 Y95.891 E14.512
G1 X123.078 Y95.925 E14.51394
G1 X123.132 Y96.025 E14.51901
G1 X123.382 Y96.334 E14.53681
G1 X123.794 Y96.925 E14.56907
G1 X124.443 Y97.788 E14.6174
G1 X124.579 Y98.015 E14.62922
G1 X124.618 Y98.049 E14.63156
G1 X124.646 Y98.083 E14.63354
G1 X124.708 Y98.19 E14.63907
G1 X125.057 Y98.649 E14.66489
G1 X125.155 Y98.809 E14.67329
G1 X125.218 Y98.87 E14.67721
G1 X125.241 Y98.9 E14.67892
G1 X125.296 Y98.997 E14.68391
G1 X125.403 Y99.12 E14.6912
G1 X125.417 Y99.14 E14.69229
G1 X125.5 Y99.282 E14.69965
G1 X125.548 Y99.324 E14.7025
G1 X125.57 Y99.35 E14.70403
G1 X125.94 Y99.893 E14.73345
G1 X126.01 Y99.958 E14.73773
G1 X126.036 Y99.992 E14.73964
G1 X126.087 Y100.083 E14.74431
G1 X126.184 Y100.191 E14.75082
G1 X126.199 Y100.211 E14.75193
G1 X126.301 Y100.377 E14.76066
G1 X126.343 Y100.413 E14.76314
G1 X126.367 Y100.44 E14.76476
G1 X126.629 Y100.833 E14.78591
G1 X126.788 Y101.032 E14.7973
G1 X126.8 Y101.048 E14.79821
G1 X126.871 Y101.171 E14.80453
G1 X126.96 Y101.266 E14.81036
G1 X126.975 Y101.286 E14.81152
G1 X127.09 Y101.471 E14.82126
G1 X127.269 Y101.683 E14.83366
G1 X127.28 Y101.698 E14.83451
G1 X127.428 Y101.935 E14.84699
G1 X127.732 Y102.318 E14.86891
G1 X127.88 Y102.557 E14.88146
G1 X128.059 Y102.772 E14.89403
G1 X128.073 Y102.793 E14.89514
G1 X128.142 Y102.916 E14.90147
G1 X128.52 Y103.408 E14.92924
G1 X128.912 Y103.979 E14.96026
G1 X129.002 Y104.072 E14.96605
G1 X129.019 Y104.094 E14.96727
G1 X129.145 Y104.293 E14.97782
G1 X129.316 Y104.499 E14.98979
G1 X129.7 Y105.07 E15.02061
G1 X129.769 Y105.135 E15.02487
G1 X129.794 Y105.168 E15.02671
G1 X129.845 Y105.258 E15.03136
G1 X129.944 Y105.368 E15.03797
G1 X129.959 Y105.388 E15.03909
G1 X130.051 Y105.54 E15.04704
