; generated by SuperSlicer 2.4 on 2022-12-22 at 11:14:58 UTC

; 

; external perimeters extrusion width = 0.43mm
; perimeters extrusion width = 0.48mm
; infill extrusion width = 0.46mm
; solid infill extrusion width = 0.48mm
; top infill extrusion width = 0.46mm
; first layer extrusion width = 0.58mm

; object:{"name":"prism_2_thick","id":"prism_2_thick.stl id:0 copy 0","object_center":[115.500000,115.500000,0.000000],"boundingbox_center":[115.500000,115.500000,23.021786],"boundingbox_size":[35.652327,40.215352,46.043572]}
; Total objects to print: 1
M486 T1
; plater:{"center":[115.500000,115.500000,0.000000],"boundingbox_center":[115.500000,115.500000,23.021786],"boundingbox_size":[35.652327,40.215352,46.043572]}

;TYPE:Custom
G90 ; use absolute coordinates
M83 ; extruder relative mode
M140 S60 ; set final bed temp
M104 S150 ; set temporary nozzle temp to prevent oozing during homing and auto bed leveling
G4 S10 ; allow partial nozzle warmup
G28 ; home all axis
;G29 ; auto bed levelling
G1 Z10 F240
G1 X2 Y10 F3000
G1 Z0 F240
M104 S210 ; set final nozzle temp
M190 S60 ; wait for bed temp to stabilize
M109 S210 ; wait for nozzle temp to stabilize
G1 Z0.28 F240
G92 E0
G1 Y140 E10 F1500 ; prime the nozzle
G1 X2.3 F5000
G92 E0
G1 Y10 E10 F1200 ; prime the nozzle
G92 E0
;start
M107
G21 ; set units to millimeters
G90 ; use absolute coordinates
M82 ; use absolute distances for extrusion
G92 E0
; Filament gcode
;_TOOLCHANGE 0
M107
;LAYER_CHANGE
;Z:0.2
;HEIGHT:0.2
;BEFORE_LAYER_CHANGE
;0.2


G1 E-3 F3000
G1 Z0.15 F9000
;AFTER_LAYER_CHANGE
;0.2
G92 E0
M204 S500
G1 X96.399 Y93.683
G1 E3 F3000
;TYPE:Skirt
;WIDTH:0.48
G1 F1200
G1 X95.536 Y94.576 E3.04561
G1 X95.075 Y95.273 E3.07627
G1 X94.737 Y95.967 E3.10459
G1 X94.439 Y96.956 E3.1425
G1 X94.33 Y97.968 E3.17989
G1 X94.329 Y132.994 E4.46555
G1 X94.422 Y133.914 E4.49949
G1 X94.786 Y135.172 E4.54757
G1 X95.305 Y136.119 E4.58723
G1 X96.336 Y137.272 E4.64399
G1 X96.938 Y137.74 E4.672
G1 X97.788 Y138.214 E4.7077
G1 X99.097 Y138.627 E4.75811
G1 X99.848 Y138.739 E4.78595
G1 X101.032 Y138.694 E4.82944
G1 X101.773 Y138.526 E4.85733
G1 X103.102 Y137.98 E4.91007
G1 X133.246 Y120.576 E6.18776
G1 X134.515 Y119.595 E6.24662
G1 X135.166 Y118.781 E6.28489
G1 X135.574 Y118.056 E6.31544
G1 X135.917 Y117.148 E6.35104
G1 X136.136 Y115.754 E6.40286
G1 X136.039 Y114.385 E6.45323
G1 X135.856 Y113.64 E6.48139
G1 X135.432 Y112.658 E6.52064
G1 X134.916 Y111.862 E6.55547
G1 X134.042 Y110.962 E6.60152
G1 X133.438 Y110.545 E6.62849
G1 X103.048 Y92.989 E7.91676
G1 X102.057 Y92.565 E7.9563
G1 X100.774 Y92.284 E8.00451
G1 X99.805 Y92.275 E8.04009
G1 X98.427 Y92.551 E8.09168
G1 X97.776 Y92.798 E8.11725
G1 X96.963 Y93.251 E8.1514
G1 X96.447 Y93.646 E8.17527
G92 E0
G1 E-2.1 F3000
;WIPE_START
G1 F7200
G1 X95.536 Y94.576 E-2.6153
G1 X95.075 Y95.273 E-2.946
G1 X95.065 Y95.294 E-2.955
;WIPE_END
G1 E-3 F3000
; acceleration to travel
M204 S1500
G1 X98.44 Y96.535 F9000
; decel to extrusion
M204 S500
G1 X98.853 Y96.686
; end travel
G1 E0 F3000
;WIDTH:0.576
G1 F1200
G1 X99.128 Y96.474 E0.01556
G1 X99.292 Y96.374 E0.02416
G1 X99.794 Y96.193 E0.04804
G1 X100.107 Y96.146 E0.0622
G1 X100.359 Y96.145 E0.07348
G1 X100.761 Y96.221 E0.09183
G1 X101.14 Y96.369 E0.11
G1 X102.173 Y96.948 E0.16302
G1 X131.232 Y113.733 E1.6654
G1 X131.671 Y114.049 E1.6896
G1 X131.839 Y114.239 E1.70096
G1 X132.033 Y114.538 E1.71693
G1 X132.157 Y114.826 E1.73096
G1 X132.233 Y115.137 E1.74532
G1 X132.26 Y115.593 E1.76575
G1 X132.239 Y115.817 E1.77582
G1 X132.151 Y116.191 E1.79305
G1 X132.076 Y116.371 E1.80178
G1 X131.919 Y116.649 E1.81606
G1 X131.795 Y116.817 E1.8254
G1 X131.609 Y116.998 E1.83703
G1 X131.237 Y117.262 E1.85745
G1 X101.242 Y134.58 E3.40805
G1 X100.886 Y134.741 E3.42553
G1 X100.483 Y134.845 E3.44417
G1 X100.232 Y134.867 E3.45542
G1 X99.797 Y134.812 E3.47506
G1 X99.38 Y134.673 E3.49478
G1 X99.121 Y134.529 E3.50804
G1 X98.83 Y134.3 E3.5246
G1 X98.522 Y133.94 E3.5458
G1 X98.379 Y133.692 E3.55861
G1 X98.249 Y133.288 E3.57763
G1 X98.205 Y132.914 E3.59447
G1 X98.195 Y99.357 E5.09678
G1 X98.209 Y98.02 E5.15666
G1 X98.246 Y97.726 E5.16995
G1 X98.316 Y97.477 E5.1815
G1 X98.505 Y97.093 E5.20068
G1 X98.61 Y96.946 E5.20873
G1 X98.812 Y96.73 E5.22198
G1 X99.2 Y97.097 F9000
G1 F1200
G1 X99.443 Y96.909 E5.23575
G1 X99.544 Y96.85 E5.24098
G1 X99.9 Y96.72 E5.25795
G1 X100.169 Y96.68 E5.27011
G1 X100.29 Y96.678 E5.27557
G1 X100.591 Y96.732 E5.28922
G1 X100.927 Y96.863 E5.30537
G1 X101.908 Y97.415 E5.35577
G1 X130.952 Y114.193 E6.85743
G1 X131.293 Y114.432 E6.87606
G1 X131.4 Y114.549 E6.88314
G1 X131.569 Y114.811 E6.89712
G1 X131.64 Y114.976 E6.90515
G1 X131.705 Y115.24 E6.91734
G1 X131.723 Y115.599 E6.93341
G1 X131.711 Y115.715 E6.93864
G1 X131.645 Y116.01 E6.95216
G1 X131.599 Y116.123 E6.95762
G1 X131.46 Y116.37 E6.97033
G1 X131.381 Y116.475 E6.9762
G1 X131.254 Y116.593 E6.98395
G1 X130.958 Y116.803 E7.00023
G1 X101.899 Y133.586 E8.50254
G1 X100.985 Y134.107 E8.54963
G1 X100.728 Y134.227 E8.56234
G1 X100.372 Y134.319 E8.57879
G1 X100.223 Y134.329 E8.58547
G1 X99.897 Y134.284 E8.6002
G1 X99.578 Y134.173 E8.61532
G1 X99.436 Y134.093 E8.62261
G1 X99.184 Y133.895 E8.63696
G1 X98.949 Y133.613 E8.65341
G1 X98.88 Y133.496 E8.6595
G1 X98.779 Y133.194 E8.67372
G1 X98.742 Y132.898 E8.68712
G1 X98.733 Y99.359 E10.18862
G1 X98.746 Y98.042 E10.24758
G1 X98.776 Y97.814 E10.25787
G1 X98.811 Y97.689 E10.26369
G1 X98.959 Y97.382 E10.27895
G1 X99.019 Y97.295 E10.28365
G1 X99.159 Y97.142 E10.29297
G1 X99.538 Y97.517 F9000
G1 F1200
G1 X99.558 Y97.498 E10.2942
G1 X99.754 Y97.348 E10.30525
G1 X99.788 Y97.329 E10.307
G1 X99.991 Y97.252 E10.31672
G1 X100.02 Y97.245 E10.31805
G1 X100.225 Y97.215 E10.32731
G1 X100.265 Y97.216 E10.32913
G1 X100.407 Y97.239 E10.33557
G1 X100.435 Y97.246 E10.33686
G1 X100.704 Y97.352 E10.3498
G1 X100.721 Y97.36 E10.35065
G1 X101.643 Y97.883 E10.39807
G1 X130.679 Y114.655 E11.8993
G1 X130.926 Y114.825 E11.91271
G1 X130.963 Y114.863 E11.91508
G1 X131.106 Y115.084 E11.92688
G1 X131.124 Y115.126 E11.92889
G1 X131.18 Y115.353 E11.93938
G1 X131.184 Y115.384 E11.94078
G1 X131.185 Y115.588 E11.94991
G1 X131.182 Y115.617 E11.95122
G1 X131.135 Y115.839 E11.96136
G1 X131.121 Y115.877 E11.96318
G1 X131.002 Y116.088 E11.974
G1 X130.975 Y116.122 E11.97596
G1 X130.901 Y116.188 E11.98041
G1 X130.69 Y116.336 E11.99193
G1 X129.787 Y116.866 E12.03882
G1 X101.632 Y133.12 E13.49424
G1 X100.724 Y133.637 E13.54103
G1 X100.518 Y133.732 E13.55119
G1 X100.492 Y133.741 E13.55241
G1 X100.278 Y133.789 E13.56226
G1 X100.228 Y133.791 E13.5645
G1 X100.018 Y133.76 E13.574
G1 X99.99 Y133.753 E13.57526
G1 X99.785 Y133.676 E13.58506
G1 X99.75 Y133.657 E13.58689
G1 X99.551 Y133.502 E13.59815
G1 X99.528 Y133.479 E13.5996
G1 X99.384 Y133.298 E13.60998
G1 X99.362 Y133.258 E13.61201
G1 X99.312 Y133.111 E13.61896
G1 X99.306 Y133.085 E13.62017
G1 X99.279 Y132.871 E13.6298
G1 X99.27 Y99.359 E15.13013
G1 X99.28 Y98.104 E15.18629
G1 X99.306 Y97.906 E15.19524
G1 X99.319 Y97.864 E15.19719
G1 X99.417 Y97.663 E15.2072
G1 X99.436 Y97.634 E15.20877
G1 X99.499 Y97.562 E15.21303
; printing object prism_2_thick.stl id:0 copy 0
M486 S0
G1 X99.93 Y97.914 F9000
;TYPE:External perimeter
G1 F1200
G1 X100.043 Y97.828 E15.2194
G1 X100.145 Y97.789 E15.22427
G1 X100.274 Y97.781 E15.23004
G1 X100.473 Y97.859 E15.23961
G1 X101.366 Y98.365 E15.28557
G1 X130.386 Y115.129 E16.78596
G1 X130.541 Y115.236 E16.79439
G1 X130.6 Y115.327 E16.79927
G1 X130.627 Y115.438 E16.80437
G1 X130.628 Y115.546 E16.80922
G1 X130.604 Y115.66 E16.81442
G1 X130.548 Y115.757 E16.81944
G1 X130.386 Y115.87 E16.82829
G1 X129.507 Y116.384 E16.87385
G1 X101.355 Y132.637 E18.32916
G1 X100.465 Y133.144 E18.375
G1 X100.231 Y133.229 E18.38615
G1 X100.04 Y133.177 E18.395
G1 X99.933 Y133.094 E18.4011
G1 X99.865 Y133.008 E18.40598
G1 X99.835 Y132.844 E18.41347
G1 X99.827 Y99.361 E19.91246
G1 X99.849 Y98.047 E19.9713
G1 X99.899 Y97.965 E19.97558
;WIPE_START
G1 X100.316 Y98.021 F9000
;WIPE_END
G1 X100.092 Y98.527
G1 F1200
G1 X100.001 Y98.746 E19.98622
G1 X99.95 Y98.964 E19.99623
G1 X99.934 Y99.188 E20.00626
G1 X99.978 Y99.924 E20.03928
G1 X99.987 Y100.506 E20.06536
G1 X99.987 Y130.564 E21.41101
G1 X99.939 Y131.837 E21.46806
G1 X99.955 Y132.05 E21.47762
G1 X100.013 Y132.286 E21.48849
G1 X100.185 Y132.581 E21.50377
G1 X100.388 Y132.711 E21.51455
G1 X100.656 Y132.755 E21.52672
G1 X100.885 Y132.723 E21.53705
G1 X101.151 Y132.61 E21.55001
G1 X101.742 Y132.222 E21.58167
G1 X102.186 Y131.954 E21.60488
G1 X102.516 Y131.783 E21.62152
G1 X103.457 Y131.213 E21.67078
G1 X104.133 Y130.846 E21.70522
G1 X105.106 Y130.264 E21.75599
G1 X107.102 Y129.134 E21.85862
G1 X107.791 Y128.716 E21.89471
G1 X109.74 Y127.61 E21.99503
G1 X111.397 Y126.628 E22.0813
G1 X112.949 Y125.753 E22.16103
G1 X113.528 Y125.395 E22.1915
G1 X114.182 Y125.04 E22.22483
G1 X115.731 Y124.131 E22.30523
G1 X116.795 Y123.534 E22.35985
G1 X118.07 Y122.777 E22.42625
G1 X119.607 Y121.915 E22.50513
G1 X120.337 Y121.471 E22.5434
G1 X120.854 Y121.19 E22.56973
G1 X122.189 Y120.399 E22.6392
G1 X124.56 Y119.029 E22.7618
G1 X125.459 Y118.531 E22.80781
G1 X126.401 Y117.963 E22.85704
G1 X127.532 Y117.338 E22.91491
G1 X128.612 Y116.695 E22.97119
G1 X129.497 Y116.247 E23.01557
G1 X129.866 Y115.965 E23.03639
G1 X130.039 Y115.667 E23.05181
G1 X130.038 Y115.326 E23.06708
G1 X129.801 Y114.952 E23.0869
G1 X129.408 Y114.688 E23.10809
G1 X129.034 Y114.522 E23.12642
G1 X128.574 Y114.279 E23.1497
G1 X128.515 Y114.221 E23.15342
G1 X128.271 Y114.101 E23.16557
G1 X128.174 Y114.018 E23.17131
G1 X127.784 Y113.813 E23.19105
G1 X127.591 Y113.678 E23.20156
G1 X127.379 Y113.582 E23.21197
G1 X127.265 Y113.5 E23.21827
G1 X126.451 Y113.052 E23.25987
G1 X126.396 Y112.999 E23.26328
G1 X126.137 Y112.869 E23.27629
G1 X126.039 Y112.785 E23.28203
G1 X125.812 Y112.679 E23.29324
G1 X125.705 Y112.595 E23.29935
G1 X125.241 Y112.344 E23.32295
G1 X125.15 Y112.264 E23.32838
G1 X124.909 Y112.156 E23.34021
G1 X124.802 Y112.072 E23.34631
G1 X124.578 Y111.972 E23.3573
G1 X124.468 Y111.892 E23.36337
G1 X124.013 Y111.642 E23.38663
G1 X123.93 Y111.569 E23.39157
G1 X123.68 Y111.45 E23.40394
G1 X123.58 Y111.367 E23.40976
G1 X123.363 Y111.265 E23.42054
G1 X123.24 Y111.17 E23.42747
G1 X122.771 Y110.923 E23.45118
G1 X122.678 Y110.846 E23.45661
G1 X122.442 Y110.739 E23.46819
G1 X122.363 Y110.671 E23.47286
G1 X121.893 Y110.414 E23.49686
G1 X121.796 Y110.33 E23.50257
G1 X121.55 Y110.219 E23.51465
G1 X121.45 Y110.144 E23.52025
G1 X120.965 Y109.876 E23.54507
G1 X120.912 Y109.827 E23.54831
G1 X120.648 Y109.696 E23.56148
G1 X120.569 Y109.627 E23.56618
G1 X120.337 Y109.518 E23.57766
G1 X120.239 Y109.437 E23.58337
G1 X119.844 Y109.229 E23.60333
G1 X119.672 Y109.103 E23.61289
G1 X119.438 Y108.994 E23.62442
G1 X119.346 Y108.915 E23.62985
G1 X118.765 Y108.615 E23.65915
G1 X118.656 Y108.535 E23.66521
G1 X118.195 Y108.284 E23.68868
G1 X118.123 Y108.218 E23.69305
G1 X117.89 Y108.105 E23.70465
G1 X117.762 Y108.005 E23.71194
G1 X117.658 Y107.964 E23.71694
G1 X117.307 Y107.763 E23.73505
G1 X117.228 Y107.692 E23.7398
G1 X116.656 Y107.392 E23.76875
G1 X116.532 Y107.303 E23.77557
G1 X116.077 Y107.056 E23.79873
G1 X115.981 Y106.974 E23.80438
G1 X115.722 Y106.856 E23.81712
G1 X115.637 Y106.79 E23.82193
G1 X115.173 Y106.534 E23.84567
G1 X115.105 Y106.469 E23.84987
G1 X114.85 Y106.346 E23.86255
G1 X114.754 Y106.264 E23.86821
G1 X114.523 Y106.158 E23.87958
G1 X114.42 Y106.078 E23.88543
G1 X113.606 Y105.638 E23.92684
G1 X113.536 Y105.573 E23.93113
G1 X113.304 Y105.46 E23.94269
G1 X113.196 Y105.372 E23.94892
G1 X112.725 Y105.119 E23.97286
G1 X112.636 Y105.041 E23.97814
G1 X112.395 Y104.93 E23.99002
G1 X112.302 Y104.853 E23.99543
G1 X111.748 Y104.562 E24.02344
G1 X111.607 Y104.461 E24.03122
G1 X111.472 Y104.4 E24.03782
G1 X111.415 Y104.345 E24.04136
G1 X111.155 Y104.219 E24.05431
G1 X111.051 Y104.135 E24.06029
G1 X110.817 Y104.026 E24.07183
G1 X110.717 Y103.946 E24.07757
G1 X110.57 Y103.877 E24.08485
G1 X110.526 Y103.832 E24.08763
G1 X110.274 Y103.705 E24.1003
G1 X110.18 Y103.622 E24.10591
G1 X109.955 Y103.516 E24.11705
G1 X109.598 Y103.295 E24.13585
G1 X109.368 Y103.178 E24.14739
G1 X109.294 Y103.11 E24.1519
G1 X109.035 Y102.987 E24.16472
G1 X108.74 Y102.818 E24.17994
G1 X108.607 Y102.72 E24.18734
G1 X108.195 Y102.506 E24.20813
G1 X108.036 Y102.388 E24.21698
G1 X107.789 Y102.273 E24.22919
G1 X107.704 Y102.206 E24.23403
G1 X107.236 Y101.948 E24.25797
G1 X107.166 Y101.884 E24.26221
G1 X106.936 Y101.776 E24.27358
G1 X106.819 Y101.683 E24.28028
G1 X106.597 Y101.58 E24.29124
G1 X106.491 Y101.495 E24.29733
G1 X106.091 Y101.288 E24.3175
G1 X105.92 Y101.165 E24.32691
G1 X105.682 Y101.053 E24.33871
G1 X105.583 Y100.971 E24.34445
G1 X105.347 Y100.863 E24.35607
G1 X105.247 Y100.785 E24.36176
G1 X104.795 Y100.539 E24.38478
G1 X104.708 Y100.461 E24.39001
G1 X104.471 Y100.351 E24.4017
G1 X104.365 Y100.264 E24.40784
G1 X104.141 Y100.16 E24.41891
G1 X103.535 Y99.816 E24.45011
G1 X103.481 Y99.764 E24.45344
G1 X103.241 Y99.646 E24.46541
G1 X103.144 Y99.563 E24.47116
G1 X102.66 Y99.306 E24.49568
G1 X102.584 Y99.238 E24.50023
G1 X102.353 Y99.13 E24.51165
G1 X102.257 Y99.046 E24.51739
G1 X101.909 Y98.863 E24.53498
G1 X101.58 Y98.635 E24.5529
G1 X101.468 Y98.58 E24.55848
G1 X101.377 Y98.498 E24.56395
G1 X100.851 Y98.261 E24.5898
G1 X100.569 Y98.251 E24.6024
G1 X100.298 Y98.353 E24.61538
G1 X100.138 Y98.488 E24.62476
;WIPE_START
G1 X99.692 Y98.515 F9000
;WIPE_END
M106 S84.15
;LAYER_CHANGE
;Z:0.52
;HEIGHT:0.32
;BEFORE_LAYER_CHANGE
;0.52


G92 E0
G1 E-2.1 F3000
;WIPE_START
G1 F7200
G1 X99.752 Y98.934 E-2.2676
G1 X99.733 Y99.186 E-2.36766
G1 X99.778 Y99.931 E-2.6631
G1 X99.787 Y100.508 E-2.89134
G1 X99.787 Y100.669 E-2.955
;WIPE_END
G1 E-3 F3000
; stop printing object prism_2_thick.stl id:0 copy 0
M486 S-1
G1 Z0.47 F9000
;AFTER_LAYER_CHANGE
;0.52
; printing object prism_2_thick.stl id:0 copy 0
M486 S0
G1 X99.958 Y100.663
G1 E0 F3000
;TYPE:Internal perimeter
;WIDTH:0.476
G1 F2400
G1 X99.969 Y100.98 E0.01735
G1 X99.968 Y130.035 E1.60764
G1 X99.932 Y131.495 E1.68754
G1 X99.999 Y131.984 E1.71457
G1 X100.167 Y132.322 E1.7352
G1 X100.497 Y132.574 E1.75797
G1 X100.88 Y132.633 E1.77918
G1 X101.223 Y132.562 E1.79832
G1 X101.51 Y132.432 E1.81557
G1 X102.362 Y131.894 E1.87074
G1 X106.07 Y129.752 E2.10513
G1 X128.365 Y116.882 E3.51409
G1 X129.187 Y116.449 E3.56492
G1 X129.474 Y116.245 E3.58422
G1 X129.84 Y115.776 E3.6168
G1 X129.782 Y115.12 E3.65283
G1 X129.433 Y114.723 E3.68177
G1 X129.204 Y114.56 E3.69713
G1 X128.113 Y113.973 E3.76497
G1 X122.948 Y110.995 E4.09129
G1 X102.905 Y99.422 E5.35803
G1 X101.827 Y98.752 E5.42751
G1 X101.401 Y98.52 E5.45406
G1 X100.984 Y98.384 E5.47804
G1 X100.862 Y98.409 E5.48488
G1 X100.523 Y98.401 E5.50345
G1 X100.062 Y98.85 E5.53863
G1 X99.956 Y99.201 E5.55868
G1 X99.925 Y99.653 E5.58352
G1 X99.956 Y100.603 E5.63554
M204 S250
G1 X100.346 Y100.59 F9000
;TYPE:Overhang perimeter
;WIDTH:0.428
G1 F1500
G1 X100.359 Y100.974 E5.65405
G1 X100.359 Y130.04 E7.05749
G1 X100.322 Y131.473 E7.12668
G1 X100.339 Y131.596 E7.13268
G1 X100.377 Y131.868 E7.14591
G1 X100.395 Y131.905 E7.14792
G1 X100.476 Y132.067 E7.15665
G1 X100.655 Y132.204 E7.16754
G1 X100.87 Y132.237 E7.17805
G1 X100.929 Y132.225 E7.18094
G1 X101.072 Y132.195 E7.18799
G1 X101.101 Y132.189 E7.18942
G1 X101.324 Y132.087 E7.20125
G1 X102.16 Y131.56 E7.24901
G1 X105.875 Y129.414 E7.45615
G1 X128.176 Y116.541 E8.69944
G1 X128.982 Y116.116 E8.7434
G1 X129.204 Y115.958 E8.75656
;WIDTH:0.389872
;HEIGHT:0.389872
G1 X129.286 Y115.852 E8.76325
G1 X129.438 Y115.657 E8.77566
G1 X129.404 Y115.282 E8.79455
G1 X129.268 Y115.126 E8.80495
G1 X129.17 Y115.014 E8.81239
G1 X129.136 Y114.99 E8.81447
;WIDTH:0.428
;HEIGHT:0.32
G1 X128.998 Y114.892 E8.82264
G1 X127.923 Y114.314 E8.88158
G1 X122.753 Y111.334 E9.16973
G1 X102.705 Y99.757 E10.28751
G1 X101.63 Y99.089 E10.34857
G1 X101.246 Y98.88 E10.36972
G1 X101.2 Y98.865 E10.37204
G1 X100.961 Y98.787 E10.38416
G1 X100.897 Y98.801 E10.38735
G1 X100.677 Y98.795 E10.39794
G1 X100.406 Y99.059 E10.4162
G1 X100.389 Y99.116 E10.41906
G1 X100.342 Y99.271 E10.42689
G1 X100.334 Y99.396 E10.43294
