; generated by SuperSlicer 2.4 on 2022-12-22 at 11:15:19 UTC

; 

; external perimeters extrusion width = 0.43mm
; perimeters extrusion width = 0.48mm
; infill extrusion width = 0.46mm
; solid infill extrusion width = 0.48mm
; top infill extrusion width = 0.46mm
; first layer extrusion width = 0.58mm

; object:{"name":"pyramid_1_thick","id":"pyramid_1_thick.stl id:0 copy 0","object_center":[115.500000,115.500000,0.000000],"boundingbox_center":[115.500000,115.500000,17.621338],"boundingbox_size":[52.184568,52.171086,35.242677]}
; Total objects to print: 1
M486 T1
; plater:{"center":[115.500000,115.500000,0.000000],"boundingbox_center":[115.500000,115.500000,17.621338],"boundingbox_size":[52.184568,52.171086,35.242677]}

;TYPE:Custom
G90 ; use absolute coordinates
M83 ; extruder relative mode
M140 S60 ; set final bed temp
M104 S150 ; set temporary nozzle temp to prevent oozing during homing and auto bed leveling
G4 S10 ; allow partial nozzle warmup
G28 ; home all axis
;G29 ; auto bed levelling
G1 Z10 F240
G1 X2 Y10 F3000
G1 Z0 F240
M104 S210 ; set final nozzle temp
M190 S60 ; wait for bed temp to stabilize
M109 S210 ; wait for nozzle temp to stabilize
G1 Z0.28 F240
G92 E0
G1 Y140 E10 F1500 ; prime the nozzle
G1 X2.3 F5000
G92 E0
G1 Y10 E10 F1200 ; prime the nozzle
G92 E0
;start
M107
G21 ; set units to millimeters
G90 ; use absolute coordinates
M82 ; use absolute distances for extrusion
G92 E0
; Filament gcode
;_TOOLCHANGE 0
M107
;LAYER_CHANGE
;Z:0.2
;HEIGHT:0.2
;BEFORE_LAYER_CHANGE
;0.2


G1 E-3 F3000
G1 Z0.15 F9000
;AFTER_LAYER_CHANGE
;0.2
G92 E0
M204 S500
G1 X98.71 Y98.643
G1 E3 F3000
;TYPE:Skirt
;WIDTH:0.48
G1 F1200
G1 X86.28 Y111.08 E3.64543
G1 X85.538 Y112.036 E3.68985
G1 X85.183 Y112.654 E3.71604
G1 X84.821 Y113.611 E3.75358
G1 X84.62 Y114.796 E3.79768
G1 X84.592 Y115.505 E3.82373
G1 X84.681 Y116.752 E3.86964
G1 X84.899 Y117.65 E3.90356
G1 X85.204 Y118.407 E3.9335
G1 X85.81 Y119.372 E3.97535
G1 X88.005 Y121.665 E4.09187
G1 X111.015 Y144.643 E5.28549
G1 X112.034 Y145.446 E5.33314
G1 X113.275 Y146.065 E5.38404
G1 X114.254 Y146.307 E5.42104
G1 X115.381 Y146.408 E5.4626
G1 X116.103 Y146.387 E5.48909
G1 X117.175 Y146.23 E5.52889
G1 X118.061 Y145.93 E5.5632
G1 X118.743 Y145.582 E5.59131
G1 X119.978 Y144.654 E5.64804
G1 X122.068 Y142.594 E5.75574
G1 X143.116 Y121.545 E6.8484
G1 X145.19 Y119.372 E6.95864
G1 X145.796 Y118.407 E7.00049
G1 X146.101 Y117.65 E7.03043
G1 X146.319 Y116.752 E7.06435
G1 X146.408 Y115.505 E7.11026
G1 X146.38 Y114.811 E7.13575
G1 X146.215 Y113.752 E7.17508
G1 X145.903 Y112.855 E7.20996
G1 X145.147 Y111.583 E7.26424
G1 X144.549 Y110.894 E7.29775
G1 X121.545 Y87.891 E8.49187
G1 X119.529 Y85.954 E8.5945
G1 X118.282 Y85.159 E8.64878
G1 X117.435 Y84.842 E8.68201
G1 X115.851 Y84.602 E8.7408
G1 X114.906 Y84.617 E8.77549
G1 X113.855 Y84.767 E8.81446
G1 X113.012 Y85.037 E8.84698
G1 X112.337 Y85.361 E8.87445
G1 X111.578 Y85.87 E8.90798
G1 X109.422 Y87.923 E9.01727
G1 X98.752 Y98.6 E9.57134
G92 E0
G1 E-2.1 F3000
;WIPE_START
G1 F7200
G1 X97.225 Y100.128 E-2.955
;WIPE_END
G1 E-3 F3000
; acceleration to travel
M204 S1500
G1 X101.087 Y101.165 F9000
; decel to extrusion
M204 S500
G1 X101.559 Y101.292
; end travel
G1 E0 F3000
;WIDTH:0.576
G1 F1200
G1 X101.838 Y101.001 E0.01805
G1 X102.222 Y100.643 E0.04157
G1 X102.844 Y99.996 E0.08175
G1 X103.423 Y99.444 E0.11758
G1 X104.055 Y98.784 E0.15847
G1 X104.639 Y98.228 E0.19455
G1 X106.497 Y96.344 E0.31302
G1 X107.009 Y95.859 E0.34463
G1 X107.509 Y95.33 E0.3772
G1 X108.214 Y94.654 E0.42092
G1 X108.723 Y94.116 E0.45405
G1 X109.377 Y93.492 E0.49455
G1 X109.928 Y92.912 E0.53038
G1 X110.641 Y92.227 E0.57464
G1 X112.081 Y90.747 E0.66706
G1 X112.506 Y90.421 E0.69106
G1 X112.655 Y90.333 E0.69881
G1 X113.228 Y90.102 E0.72646
G1 X113.409 Y89.662 E0.74777
G1 X113.536 Y89.436 E0.75937
G1 X113.861 Y89.03 E0.78264
G1 X114.175 Y88.781 E0.80058
G1 X114.487 Y88.627 E0.81617
G1 X114.742 Y88.546 E0.82815
G1 X115.112 Y88.488 E0.84492
G1 X115.67 Y88.473 E0.86993
G1 X116.046 Y88.504 E0.88682
G1 X116.489 Y88.612 E0.9072
G1 X116.834 Y88.782 E0.92444
G1 X117.139 Y89.023 E0.94183
G1 X117.535 Y89.547 E0.97125
G1 X117.785 Y90.107 E0.9987
G1 X118.375 Y90.349 E1.02725
G1 X118.892 Y90.721 E1.05575
G1 X120.213 Y92.08 E1.14062
G1 X121.089 Y92.93 E1.19527
G1 X121.648 Y93.517 E1.23155
G1 X122.285 Y94.124 E1.27094
G1 X122.862 Y94.729 E1.30837
G1 X123.488 Y95.327 E1.34716
G1 X124.069 Y95.936 E1.3848
G1 X124.491 Y96.331 E1.41069
G1 X125.091 Y96.957 E1.44951
G1 X125.72 Y97.559 E1.48851
G1 X126.296 Y98.164 E1.52589
G1 X126.748 Y98.588 E1.55363
G1 X127.352 Y99.22 E1.59276
G1 X127.957 Y99.797 E1.63021
G1 X128.764 Y100.63 E1.6821
G1 X129.163 Y101.002 E1.70655
G1 X129.785 Y101.652 E1.7468
G1 X131.392 Y103.23 E1.84764
G1 X132.005 Y103.872 E1.88736
G1 X132.613 Y104.451 E1.92498
G1 X133.2 Y105.066 E1.96306
G1 X133.814 Y105.653 E2.00107
G1 X134.414 Y106.28 E2.03992
G1 X135.221 Y107.058 E2.0901
G1 X135.605 Y107.468 E2.11525
G1 X137.255 Y109.092 E2.21889
G1 X138.002 Y109.865 E2.26701
G1 X138.471 Y110.307 E2.29585
G1 X139.236 Y111.099 E2.34515
G1 X140.109 Y111.927 E2.39903
G1 X140.4 Y112.236 E2.41805
G1 X140.636 Y112.591 E2.43712
G1 X140.903 Y113.211 E2.46734
G1 X141.432 Y113.423 E2.49287
G1 X141.706 Y113.588 E2.50719
G1 X141.895 Y113.746 E2.51824
G1 X142.136 Y114.035 E2.53506
G1 X142.357 Y114.436 E2.55557
G1 X142.453 Y114.711 E2.56863
G1 X142.511 Y115.056 E2.58428
G1 X142.532 Y115.579 E2.6077
G1 X142.484 Y116.152 E2.63347
G1 X142.419 Y116.418 E2.6457
G1 X142.311 Y116.688 E2.65874
G1 X142.197 Y116.888 E2.66902
G1 X141.913 Y117.215 E2.6884
G1 X141.746 Y117.361 E2.69837
G1 X141.499 Y117.524 E2.7116
G1 X141.077 Y117.726 E2.73255
G1 X140.894 Y117.793 E2.74128
G1 X140.68 Y118.336 E2.76741
G1 X140.594 Y118.483 E2.77503
G1 X140.286 Y118.893 E2.79797
G1 X138.587 Y120.554 E2.90437
G1 X137.416 Y121.724 E2.97847
G1 X137.075 Y122.091 E3.0009
G1 X136.349 Y122.788 E3.04595
G1 X135.676 Y123.491 E3.0895
G1 X135.143 Y123.994 E3.12234
G1 X134.654 Y124.51 E3.15414
G1 X133.954 Y125.185 E3.1977
G1 X132.772 Y126.365 E3.27245
G1 X132.427 Y126.735 E3.29508
G1 X131.55 Y127.588 E3.3499
G1 X131.209 Y127.955 E3.37232
G1 X130.5 Y128.634 E3.41624
G1 X130.001 Y129.162 E3.44878
G1 X129.289 Y129.846 E3.493
G1 X128.791 Y130.372 E3.52544
G1 X128.11 Y131.029 E3.56777
G1 X127.776 Y131.385 E3.58962
G1 X126.897 Y132.241 E3.64456
G1 X126.558 Y132.605 E3.6668
G1 X125.818 Y133.316 E3.71277
G1 X125.345 Y133.818 E3.74364
G1 X124.635 Y134.499 E3.7877
G1 X124.137 Y135.025 E3.82013
G1 X123.423 Y135.713 E3.86452
G1 X122.927 Y136.235 E3.89674
G1 X121.274 Y137.863 E4.0006
G1 X120.504 Y138.658 E4.05016
G1 X119.965 Y139.169 E4.08342
G1 X119.308 Y139.873 E4.12653
G1 X118.812 Y140.358 E4.1576
G1 X118.527 Y140.561 E4.17322
G1 X118.256 Y140.712 E4.18713
G1 X117.767 Y140.904 E4.21064
G1 X117.684 Y141.136 E4.22166
G1 X117.453 Y141.601 E4.24491
G1 X117.238 Y141.888 E4.26096
G1 X116.928 Y142.149 E4.27911
G1 X116.515 Y142.369 E4.30005
G1 X116.244 Y142.461 E4.31287
G1 X115.902 Y142.516 E4.32837
G1 X115.377 Y142.531 E4.35187
G1 X114.724 Y142.45 E4.38134
G1 X114.454 Y142.365 E4.394
G1 X113.967 Y142.07 E4.41949
G1 X113.773 Y141.9 E4.43105
G1 X113.481 Y141.482 E4.45387
G1 X113.313 Y141.128 E4.47139
G1 X113.227 Y140.882 E4.48308
G1 X113.01 Y140.818 E4.49319
G1 X112.574 Y140.625 E4.51456
G1 X112.229 Y140.392 E4.53317
G1 X111.928 Y140.107 E4.55175
G1 X111.136 Y139.271 E4.60328
G1 X110.302 Y138.465 E4.6552
G1 X109.906 Y138.042 E4.68115
G1 X108.073 Y136.235 E4.79638
G1 X107.493 Y135.629 E4.83396
G1 X106.866 Y135.028 E4.87286
G1 X106.284 Y134.419 E4.91053
G1 X105.64 Y133.803 E4.95044
G1 X105.073 Y133.208 E4.98723
G1 X104.444 Y132.607 E5.02616
G1 X104.044 Y132.179 E5.05242
G1 X102.207 Y130.37 E5.16781
G1 X101.631 Y129.767 E5.20515
G1 X100.999 Y129.163 E5.24431
G1 X100.57 Y128.706 E5.27235
G1 X99.79 Y127.954 E5.32086
G1 X99.394 Y127.53 E5.34683
G1 X98.575 Y126.737 E5.39788
G1 X98.182 Y126.318 E5.4236
G1 X97.524 Y125.686 E5.46444
G1 X96.972 Y125.111 E5.50012
G1 X96.348 Y124.513 E5.5388
G1 X95.771 Y123.91 E5.57619
G1 X95.323 Y123.49 E5.60367
G1 X94.76 Y122.899 E5.64023
G1 X94.126 Y122.293 E5.67946
G1 X93.536 Y121.675 E5.71774
G1 X92.874 Y121.038 E5.75888
G1 X92.319 Y120.459 E5.79475
G1 X90.752 Y118.932 E5.89271
G1 X90.558 Y118.713 E5.90581
G1 X90.355 Y118.402 E5.92244
G1 X90.104 Y117.784 E5.95233
G1 X89.918 Y117.725 E5.96104
G1 X89.42 Y117.477 E5.98595
G1 X89.117 Y117.245 E6.00305
G1 X88.804 Y116.888 E6.0243
G1 X88.688 Y116.685 E6.03478
G1 X88.554 Y116.334 E6.05161
G1 X88.516 Y116.149 E6.06003
G1 X88.468 Y115.579 E6.08566
G1 X88.489 Y115.049 E6.1094
G1 X88.592 Y114.551 E6.13218
G1 X88.672 Y114.359 E6.14148
G1 X88.829 Y114.087 E6.15554
G1 X89.063 Y113.789 E6.1725
G1 X89.259 Y113.614 E6.18424
G1 X89.551 Y113.431 E6.1997
G1 X90.107 Y113.203 E6.22661
G1 X90.344 Y112.629 E6.25442
G1 X90.696 Y112.127 E6.28185
G1 X91.146 Y111.671 E6.31054
G1 X91.838 Y111.026 E6.35292
G1 X92.527 Y110.309 E6.39743
G1 X93.074 Y109.791 E6.43113
G1 X94.563 Y108.275 E6.52629
G1 X95.288 Y107.577 E6.57132
G1 X95.99 Y106.849 E6.61662
G1 X96.505 Y106.361 E6.64836
G1 X96.975 Y105.865 E6.67896
G1 X97.566 Y105.298 E6.71564
G1 X98.395 Y104.443 E6.76894
G1 X98.784 Y104.081 E6.79275
G1 X100.629 Y102.21 E6.91037
G1 X101.157 Y101.711 E6.94288
G1 X101.517 Y101.335 E6.9662
G1 X101.905 Y101.707 F9000
G1 F1200
G1 X102.22 Y101.379 E6.98659
G1 X102.599 Y101.027 E7.00975
G1 X103.227 Y100.373 E7.05035
G1 X103.803 Y99.824 E7.08592
G1 X104.439 Y99.161 E7.12708
G1 X105.016 Y98.611 E7.16273
G1 X106.876 Y96.724 E7.28137
G1 X107.39 Y96.239 E7.31302
G1 X107.886 Y95.713 E7.34537
G1 X108.596 Y95.033 E7.38939
G1 X109.099 Y94.5 E7.42218
G1 X109.758 Y93.872 E7.46296
G1 X110.305 Y93.295 E7.49856
G1 X111.02 Y92.608 E7.54296
G1 X112.452 Y91.136 E7.63486
G1 X112.817 Y90.859 E7.6554
G1 X112.907 Y90.808 E7.66003
G1 X113.581 Y90.54 E7.69251
G1 X113.618 Y90.508 E7.69469
G1 X113.739 Y90.288 E7.70593
G1 X113.902 Y89.876 E7.72576
G1 X113.973 Y89.75 E7.73223
G1 X114.225 Y89.426 E7.75062
G1 X114.44 Y89.249 E7.76306
G1 X114.707 Y89.118 E7.77638
G1 X114.848 Y89.073 E7.78302
G1 X115.145 Y89.025 E7.79652
G1 X115.644 Y89.01 E7.81886
G1 X115.947 Y89.033 E7.83245
G1 X116.28 Y89.108 E7.84772
G1 X116.569 Y89.251 E7.86216
G1 X116.772 Y89.417 E7.87393
G1 X117.084 Y89.841 E7.89749
G1 X117.38 Y90.525 E7.93084
G1 X118.09 Y90.806 E7.96506
G1 X118.524 Y91.113 E7.98882
G1 X119.834 Y92.46 E8.07294
G1 X120.704 Y93.304 E8.12721
G1 X121.268 Y93.897 E8.16385
G1 X121.9 Y94.499 E8.20296
G1 X122.482 Y95.109 E8.24067
G1 X123.113 Y95.712 E8.27974
G1 X123.69 Y96.317 E8.31721
G1 X124.118 Y96.718 E8.34345
G1 X124.712 Y97.337 E8.38182
G1 X125.344 Y97.943 E8.42105
G1 X125.918 Y98.546 E8.45829
G1 X126.365 Y98.964 E8.48571
G1 X126.972 Y99.6 E8.52508
G1 X127.575 Y100.175 E8.56237
G1 X128.387 Y101.014 E8.61465
G1 X128.78 Y101.379 E8.63867
G1 X129.402 Y102.029 E8.67895
G1 X131.012 Y103.61 E8.77997
G1 X131.625 Y104.252 E8.81969
G1 X132.229 Y104.827 E8.85702
G1 X132.82 Y105.447 E8.89537
G1 X133.43 Y106.029 E8.93311
G1 X134.033 Y106.659 E8.97217
G1 X134.842 Y107.44 E9.02253
G1 X135.22 Y107.844 E9.04726
G1 X136.875 Y109.473 E9.15123
G1 X137.624 Y110.248 E9.19948
G1 X138.089 Y110.685 E9.22803
G1 X138.857 Y111.481 E9.27757
G1 X139.726 Y112.304 E9.33115
G1 X139.966 Y112.554 E9.34665
G1 X140.174 Y112.867 E9.36352
G1 X140.495 Y113.627 E9.40042
G1 X141.21 Y113.913 E9.43493
G1 X141.407 Y114.035 E9.44529
G1 X141.503 Y114.114 E9.45087
G1 X141.679 Y114.318 E9.46292
G1 X141.875 Y114.675 E9.48116
G1 X141.928 Y114.826 E9.48829
G1 X141.975 Y115.096 E9.50057
G1 X141.995 Y115.583 E9.52242
G1 X141.95 Y116.085 E9.54495
G1 X141.914 Y116.235 E9.55188
G1 X141.82 Y116.469 E9.56316
G1 X141.747 Y116.593 E9.56959
G1 X141.522 Y116.846 E9.58472
G1 X141.434 Y116.923 E9.58997
G1 X141.219 Y117.065 E9.6015
G1 X140.859 Y117.235 E9.61932
G1 X140.562 Y117.342 E9.63349
G1 X140.505 Y117.377 E9.63649
G1 X140.46 Y117.425 E9.63941
G1 X140.202 Y118.089 E9.67129
G1 X140.153 Y118.176 E9.67581
G1 X139.895 Y118.523 E9.69515
G1 X138.209 Y120.172 E9.80073
G1 X137.028 Y121.351 E9.87542
G1 X136.697 Y121.709 E9.89726
G1 X135.969 Y122.408 E9.94246
G1 X135.293 Y123.114 E9.98622
G1 X134.763 Y123.614 E10.01883
G1 X134.277 Y124.128 E10.05047
G1 X133.578 Y124.802 E10.09397
G1 X132.386 Y125.992 E10.16936
G1 X132.048 Y126.354 E10.19155
G1 X131.165 Y127.213 E10.24668
G1 X130.831 Y127.573 E10.26866
G1 X130.119 Y128.255 E10.31283
G1 X129.625 Y128.779 E10.34508
G1 X128.907 Y129.468 E10.38959
G1 X128.413 Y129.99 E10.42179
G1 X127.728 Y130.652 E10.46444
G1 X127.397 Y131.004 E10.48607
G1 X126.512 Y131.865 E10.54133
G1 X126.18 Y132.222 E10.56316
G1 X125.436 Y132.938 E10.60939
G1 X124.968 Y133.435 E10.63995
G1 X124.253 Y134.12 E10.68429
G1 X123.76 Y134.642 E10.71646
G1 X123.041 Y135.334 E10.76111
G1 X122.547 Y135.855 E10.79326
G1 X120.892 Y137.484 E10.89721
G1 X120.122 Y138.28 E10.94679
G1 X119.583 Y138.791 E10.98002
G1 X118.928 Y139.493 E11.02303
G1 X118.452 Y139.958 E11.05282
G1 X118.231 Y140.112 E11.06489
G1 X118.042 Y140.219 E11.0746
G1 X117.413 Y140.466 E11.10483
G1 X117.379 Y140.496 E11.10687
G1 X117.271 Y140.691 E11.11682
G1 X117.195 Y140.915 E11.12743
G1 X117.003 Y141.305 E11.14691
G1 X116.861 Y141.504 E11.15783
G1 X116.648 Y141.689 E11.17047
G1 X116.282 Y141.884 E11.18904
G1 X116.134 Y141.934 E11.19605
G1 X115.868 Y141.979 E11.20813
G1 X115.383 Y141.993 E11.22985
G1 X114.819 Y141.92 E11.25531
G1 X114.654 Y141.865 E11.26306
G1 X114.272 Y141.626 E11.28324
G1 X114.156 Y141.522 E11.29024
G1 X113.957 Y141.233 E11.30593
G1 X113.806 Y140.912 E11.32182
G1 X113.721 Y140.666 E11.33346
G1 X113.639 Y140.513 E11.34124
G1 X113.565 Y140.448 E11.34566
G1 X113.426 Y140.38 E11.3526
G1 X113.206 Y140.318 E11.36281
G1 X112.854 Y140.166 E11.37999
G1 X112.55 Y139.96 E11.39643
G1 X112.306 Y139.724 E11.41163
G1 X111.518 Y138.893 E11.46288
G1 X110.681 Y138.084 E11.51503
G1 X110.291 Y137.667 E11.54057
G1 X108.453 Y135.855 E11.65611
G1 X107.873 Y135.249 E11.69367
G1 X107.242 Y134.644 E11.73282
G1 X106.665 Y134.039 E11.77024
G1 X106.025 Y133.427 E11.80987
G1 X105.453 Y132.828 E11.84694
G1 X104.821 Y132.224 E11.8861
G1 X104.428 Y131.804 E11.91183
G1 X102.587 Y129.99 E12.02753
G1 X102.012 Y129.387 E12.06487
G1 X101.376 Y128.779 E12.10425
G1 X100.953 Y128.329 E12.13191
G1 X100.168 Y127.572 E12.18071
G1 X99.778 Y127.154 E12.20633
G1 X98.953 Y126.356 E12.25771
G1 X98.564 Y125.94 E12.28319
G1 X97.9 Y125.303 E12.32441
G1 X97.352 Y124.731 E12.35984
G1 X96.725 Y124.129 E12.39877
G1 X96.149 Y123.528 E12.43604
G1 X95.707 Y123.114 E12.46316
G1 X95.14 Y122.519 E12.49994
G1 X94.502 Y121.909 E12.53945
G1 X93.917 Y121.295 E12.57741
G1 X93.25 Y120.654 E12.61884
G1 X92.701 Y120.081 E12.65438
G1 X91.133 Y118.553 E12.75237
G1 X90.997 Y118.402 E12.76149
G1 X90.82 Y118.131 E12.77598
G1 X90.54 Y117.425 E12.81
G1 X90.471 Y117.351 E12.8145
G1 X90.425 Y117.319 E12.81704
G1 X90.134 Y117.232 E12.83063
G1 X89.72 Y117.031 E12.85121
G1 X89.499 Y116.866 E12.86358
G1 X89.253 Y116.593 E12.88002
G1 X89.18 Y116.469 E12.88644
G1 X89.074 Y116.198 E12.89946
G1 X89.05 Y116.085 E12.90466
G1 X89.005 Y115.583 E12.9272
G1 X89.025 Y115.092 E12.9492
G1 X89.099 Y114.731 E12.96572
G1 X89.147 Y114.612 E12.97148
G1 X89.285 Y114.373 E12.98383
G1 X89.467 Y114.144 E12.99693
G1 X89.593 Y114.035 E13.00437
G1 X89.813 Y113.9 E13.01591
G1 X90.493 Y113.628 E13.04871
G1 X90.535 Y113.58 E13.05156
G1 X90.804 Y112.91 E13.0839
G1 X91.095 Y112.488 E13.10685
G1 X91.516 Y112.06 E13.13372
G1 X92.216 Y111.409 E13.17651
G1 X92.91 Y110.686 E13.2214
G1 X93.45 Y110.175 E13.25468
G1 X94.944 Y108.654 E13.35012
G1 X95.668 Y107.957 E13.3951
G1 X96.363 Y107.235 E13.44
G1 X96.885 Y106.741 E13.47214
G1 X97.36 Y106.239 E13.50312
G1 X97.945 Y105.679 E13.53934
G1 X98.776 Y104.823 E13.59278
G1 X99.159 Y104.467 E13.61618
G1 X101.008 Y102.591 E13.7341
G1 X101.535 Y102.093 E13.76658
G1 X101.863 Y101.751 E13.78779
G1 X102.251 Y102.123 F9000
G1 F1200
G1 X102.606 Y101.754 E13.8107
G1 X102.976 Y101.41 E13.83332
G1 X103.613 Y100.747 E13.87448
G1 X104.182 Y100.205 E13.90966
G1 X104.825 Y99.535 E13.95123
G1 X105.392 Y98.995 E13.9863
G1 X107.254 Y97.107 E14.105
