; generated by SuperSlicer 2.4 on 2022-12-22 at 11:16:36 UTC

; 

; external perimeters extrusion width = 0.43mm
; perimeters extrusion width = 0.48mm
; infill extrusion width = 0.46mm
; solid infill extrusion width = 0.48mm
; top infill extrusion width = 0.46mm
; first layer extrusion width = 0.58mm

; object:{"name":"tri_1_thick","id":"tri_1_thick.stl id:0 copy 0","object_center":[115.500000,115.500000,0.000000],"boundingbox_center":[115.500000,115.500000,19.964736],"boundingbox_size":[44.747161,50.832474,39.929473]}
; Total objects to print: 1
M486 T1
; plater:{"center":[115.500000,115.500000,0.000000],"boundingbox_center":[115.500000,115.500000,19.964736],"boundingbox_size":[44.747161,50.832474,39.929473]}

;TYPE:Custom
G90 ; use absolute coordinates
M83 ; extruder relative mode
M140 S60 ; set final bed temp
M104 S150 ; set temporary nozzle temp to prevent oozing during homing and auto bed leveling
G4 S10 ; allow partial nozzle warmup
G28 ; home all axis
;G29 ; auto bed levelling
G1 Z10 F240
G1 X2 Y10 F3000
G1 Z0 F240
M104 S210 ; set final nozzle temp
M190 S60 ; wait for bed temp to stabilize
M109 S210 ; wait for nozzle temp to stabilize
G1 Z0.28 F240
G92 E0
G1 Y140 E10 F1500 ; prime the nozzle
G1 X2.3 F5000
G92 E0
G1 Y10 E10 F1200 ; prime the nozzle
G92 E0
;start
M107
G21 ; set units to millimeters
G90 ; use absolute coordinates
M82 ; use absolute distances for extrusion
G92 E0
; Filament gcode
;_TOOLCHANGE 0
M107
;LAYER_CHANGE
;Z:0.2
;HEIGHT:0.2
;BEFORE_LAYER_CHANGE
;0.2


G1 E-3 F3000
G1 Z0.15 F9000
;AFTER_LAYER_CHANGE
;0.2
G92 E0
M204 S500
G1 X91.362 Y88.456
G1 E3 F3000
;TYPE:Skirt
;WIDTH:0.48
G1 F1200
G1 X90.623 Y89.397 E3.04392
G1 X90.197 Y90.215 E3.07779
G1 X89.867 Y91.243 E3.11739
G1 X89.695 Y93.126 E3.18681
G1 X89.699 Y137.572 E4.81827
G1 X89.791 Y139.067 E4.87328
G1 X89.905 Y139.82 E4.90123
G1 X90.124 Y140.593 E4.9307
G1 X90.509 Y141.465 E4.96568
G1 X91.111 Y142.348 E5.00492
G1 X91.59 Y142.847 E5.03031
G1 X92.532 Y143.566 E5.0738
G1 X93.481 Y144.041 E5.11276
G1 X94.353 Y144.292 E5.14607
G1 X95.112 Y144.397 E5.1742
G1 X96.133 Y144.376 E5.2117
G1 X96.825 Y144.25 E5.23749
G1 X97.464 Y144.064 E5.26193
G1 X98.927 Y143.421 E5.32057
G1 X137.727 Y121.013 E6.96528
G1 X139.353 Y119.828 E7.03915
G1 X140.248 Y118.859 E7.08755
G1 X140.862 Y117.754 E7.13395
G1 X141.134 Y116.907 E7.16659
G1 X141.287 Y115.895 E7.20416
G1 X141.28 Y115.106 E7.23312
G1 X141.119 Y114.131 E7.2694
G1 X140.824 Y113.233 E7.30412
G1 X140.049 Y111.969 E7.35853
G1 X138.968 Y110.936 E7.41341
G1 X137.797 Y110.099 E7.46623
G1 X98.97 Y87.636 E9.11277
G1 X97.449 Y86.997 E9.17335
G1 X96.019 Y86.711 E9.22688
G1 X94.775 Y86.756 E9.27255
G1 X94.071 Y86.887 E9.29887
G1 X93.106 Y87.233 E9.33648
G1 X91.913 Y87.975 E9.38803
G1 X91.407 Y88.417 E9.41269
G92 E0
G1 E-2.1 F3000
;WIPE_START
G1 F7200
G1 X90.623 Y89.397 E-2.59696
G1 X90.206 Y90.199 E-2.955
;WIPE_END
G1 E-3 F3000
; acceleration to travel
M204 S1500
G1 X93.68 Y91.102 F9000
; decel to extrusion
M204 S500
G1 X94.104 Y91.213
; end travel
G1 E0 F3000
;WIDTH:0.576
G1 F1200
G1 X94.34 Y91 E0.01423
G1 X94.749 Y90.752 E0.03563
G1 X95.086 Y90.638 E0.05154
G1 X95.452 Y90.589 E0.06808
G1 X95.778 Y90.588 E0.08267
G1 X96.003 Y90.622 E0.09288
G1 X96.277 Y90.701 E0.10563
G1 X96.558 Y90.796 E0.1189
G1 X96.856 Y90.923 E0.13341
G1 X97.92 Y91.573 E0.18923
G1 X98.06 Y91.63 E0.196
G1 X98.292 Y91.765 E0.20804
G1 X98.583 Y91.903 E0.22243
G1 X98.944 Y92.135 E0.24165
G1 X99.188 Y92.261 E0.25392
G1 X99.318 Y92.356 E0.26114
G1 X99.463 Y92.428 E0.26841
G1 X99.621 Y92.536 E0.27695
G1 X99.778 Y92.608 E0.28469
G1 X100.119 Y92.805 E0.30234
G1 X100.265 Y92.91 E0.31036
G1 X100.408 Y92.982 E0.31754
G1 X100.557 Y93.083 E0.3256
G1 X100.736 Y93.164 E0.33439
G1 X101.128 Y93.383 E0.35448
G1 X101.242 Y93.465 E0.3608
G1 X101.796 Y93.763 E0.38896
G1 X102.081 Y93.952 E0.40427
G1 X102.381 Y94.111 E0.41948
G1 X102.507 Y94.198 E0.42632
G1 X102.685 Y94.286 E0.43521
G1 X102.859 Y94.407 E0.44469
G1 X103.032 Y94.492 E0.45334
G1 X103.429 Y94.738 E0.47426
G1 X103.626 Y94.832 E0.48401
G1 X103.792 Y94.94 E0.4929
G1 X104.035 Y95.059 E0.50498
G1 X104.155 Y95.144 E0.51159
G1 X104.427 Y95.28 E0.52519
G1 X104.756 Y95.492 E0.54273
G1 X105.335 Y95.809 E0.57227
G1 X105.464 Y95.904 E0.57944
G1 X105.629 Y95.984 E0.58765
G1 X106.05 Y96.241 E0.60972
G1 X106.238 Y96.336 E0.61916
G1 X106.415 Y96.462 E0.62888
G1 X106.57 Y96.541 E0.63668
G1 X106.722 Y96.646 E0.64497
G1 X106.894 Y96.726 E0.65345
G1 X107.36 Y96.999 E0.67761
G1 X107.536 Y97.084 E0.68635
G1 X108.057 Y97.415 E0.71401
G1 X108.496 Y97.643 E0.73616
G1 X108.974 Y97.946 E0.76152
G1 X109.168 Y98.038 E0.77109
G1 X109.321 Y98.135 E0.7792
G1 X109.609 Y98.266 E0.79337
G1 X109.979 Y98.505 E0.81309
G1 X110.201 Y98.62 E0.82429
G1 X110.332 Y98.716 E0.83155
G1 X111.124 Y99.157 E0.87215
G1 X111.267 Y99.261 E0.88007
G1 X111.448 Y99.353 E0.88914
G1 X111.589 Y99.453 E0.8969
G1 X111.766 Y99.537 E0.90565
G1 X112.195 Y99.792 E0.928
G1 X112.449 Y99.918 E0.9407
G1 X112.578 Y100.007 E0.94771
G1 X112.76 Y100.096 E0.95681
G1 X112.915 Y100.206 E0.9653
G1 X113.432 Y100.497 E0.99184
G1 X113.832 Y100.751 E1.01306
G1 X114.023 Y100.841 E1.02252
G1 X114.328 Y101.017 E1.03826
G1 X114.441 Y101.099 E1.04455
G1 X114.658 Y101.209 E1.05542
G1 X114.784 Y101.3 E1.06241
G1 X114.976 Y101.391 E1.0719
G1 X115.174 Y101.518 E1.08244
G1 X115.997 Y101.967 E1.12438
G1 X116.133 Y102.062 E1.13184
G1 X116.347 Y102.166 E1.14247
G1 X116.494 Y102.272 E1.1506
G1 X116.673 Y102.363 E1.15956
G1 X117.401 Y102.808 E1.19776
G1 X117.611 Y102.907 E1.20816
G1 X118.007 Y103.146 E1.22887
G1 X118.241 Y103.265 E1.24064
G1 X118.387 Y103.365 E1.24854
G1 X118.603 Y103.474 E1.25937
G1 X118.74 Y103.574 E1.26696
G1 X118.893 Y103.649 E1.2746
G1 X119.305 Y103.898 E1.29615
G1 X119.516 Y104.003 E1.30669
G1 X119.668 Y104.111 E1.31505
G1 X119.843 Y104.202 E1.3239
G1 X119.992 Y104.306 E1.33203
G1 X120.133 Y104.372 E1.33898
G1 X120.617 Y104.661 E1.36423
G1 X120.818 Y104.758 E1.37422
G1 X120.977 Y104.865 E1.3828
G1 X121.233 Y104.99 E1.39555
G1 X121.559 Y105.2 E1.41291
G1 X121.785 Y105.314 E1.42425
G1 X121.925 Y105.408 E1.43179
G1 X122.159 Y105.523 E1.44346
G1 X122.555 Y105.784 E1.46469
G1 X123.117 Y106.089 E1.49336
G1 X123.258 Y106.192 E1.50117
G1 X123.834 Y106.489 E1.53013
G1 X124.18 Y106.712 E1.54857
G1 X124.418 Y106.838 E1.56064
G1 X124.553 Y106.94 E1.56821
G1 X125.388 Y107.406 E1.61104
G1 X125.824 Y107.68 E1.63406
G1 X126.443 Y107.994 E1.66516
G1 X126.781 Y108.213 E1.6832
G1 X127.017 Y108.337 E1.69514
G1 X127.422 Y108.601 E1.71674
G1 X127.581 Y108.67 E1.72452
G1 X127.739 Y108.771 E1.73291
G1 X127.9 Y108.848 E1.74093
G1 X128.4 Y109.165 E1.76742
G1 X128.567 Y109.242 E1.77565
G1 X129.041 Y109.521 E1.80027
G1 X129.236 Y109.618 E1.81002
G1 X129.393 Y109.725 E1.81853
G1 X129.629 Y109.849 E1.83047
G1 X129.73 Y109.926 E1.83615
G1 X129.89 Y110.003 E1.84411
G1 X130.317 Y110.263 E1.86647
G1 X130.5 Y110.35 E1.87553
G1 X130.68 Y110.476 E1.88539
G1 X130.86 Y110.565 E1.89435
G1 X131.265 Y110.819 E1.91576
G1 X131.452 Y110.911 E1.92508
G1 X131.629 Y111.035 E1.93476
G1 X132.19 Y111.322 E1.96299
G1 X132.574 Y111.563 E1.98327
G1 X133.185 Y111.891 E2.01431
G1 X133.467 Y112.078 E2.02948
G1 X134.1 Y112.43 E2.06191
G1 X134.257 Y112.543 E2.07057
G1 X134.404 Y112.618 E2.07795
G1 X134.557 Y112.722 E2.08623
G1 X134.748 Y112.812 E2.09569
G1 X135.108 Y113.021 E2.11431
G1 X135.212 Y113.097 E2.12011
G1 X135.4 Y113.194 E2.12954
G1 X136.426 Y113.869 E2.18454
G1 X137.05 Y114.453 E2.2228
G1 X137.23 Y114.736 E2.23782
G1 X137.36 Y115.105 E2.25533
G1 X137.403 Y115.35 E2.26645
G1 X137.41 Y115.673 E2.28095
G1 X137.363 Y115.977 E2.29468
G1 X137.221 Y116.377 E2.31372
G1 X137.08 Y116.602 E2.32557
G1 X136.797 Y116.912 E2.3444
G1 X136.45 Y117.193 E2.3644
G1 X135.744 Y117.682 E2.4028
G1 X134.106 Y118.657 E2.48817
G1 X131.309 Y120.256 E2.63241
G1 X127.921 Y122.232 E2.808
G1 X127.388 Y122.525 E2.83523
G1 X126.58 Y123.01 E2.8774
G1 X125.512 Y123.603 E2.93211
G1 X123.948 Y124.529 E3.01345
G1 X122.906 Y125.113 E3.06695
G1 X122.128 Y125.579 E3.10757
G1 X120.296 Y126.619 E3.20185
G1 X119.52 Y127.086 E3.24241
G1 X117.115 Y128.458 E3.36637
G1 X116.008 Y129.117 E3.42405
G1 X114.132 Y130.178 E3.52055
G1 X112.756 Y130.994 E3.59212
G1 X110.585 Y132.231 E3.704
G1 X109.766 Y132.732 E3.74698
G1 X108.877 Y133.215 E3.7923
G1 X104.043 Y136.03 E4.04274
G1 X103.098 Y136.55 E4.091
G1 X101.379 Y137.567 E4.18043
G1 X100.299 Y138.17 E4.2358
G1 X98.742 Y139.089 E4.31674
G1 X97.847 Y139.564 E4.36213
G1 X97.001 Y140.052 E4.40585
G1 X96.132 Y140.422 E4.44811
G1 X95.706 Y140.516 E4.46765
G1 X95.491 Y140.529 E4.4773
G1 X95.099 Y140.483 E4.49494
G1 X94.744 Y140.361 E4.51177
G1 X94.316 Y140.086 E4.53452
G1 X94.095 Y139.861 E4.54864
G1 X93.957 Y139.672 E4.55912
G1 X93.775 Y139.279 E4.5785
G1 X93.706 Y139.04 E4.58964
G1 X93.626 Y138.491 E4.6145
G1 X93.575 Y137.568 E4.6559
G1 X93.564 Y94.056 E6.60387
G1 X93.59 Y92.578 E6.67003
G1 X93.688 Y91.962 E6.69797
G1 X93.763 Y91.758 E6.70772
G1 X93.922 Y91.452 E6.72312
G1 X94.068 Y91.26 E6.73391
G1 X94.49 Y91.592 F9000
G1 F1200
G1 X94.511 Y91.564 E6.73548
G1 X94.675 Y91.421 E6.74525
G1 X94.999 Y91.228 E6.7621
G1 X95.184 Y91.167 E6.77084
G1 X95.476 Y91.126 E6.78402
G1 X95.723 Y91.123 E6.79507
G1 X95.872 Y91.144 E6.80183
G1 X96.122 Y91.216 E6.81348
G1 X96.357 Y91.295 E6.82459
G1 X96.63 Y91.41 E6.83784
G1 X96.898 Y91.569 E6.85179
G1 X97.093 Y91.708 E6.86249
G1 X97.219 Y91.768 E6.86877
G1 X97.365 Y91.877 E6.87691
G1 X97.541 Y91.964 E6.88572
G1 X97.661 Y92.047 E6.89226
G1 X97.838 Y92.12 E6.90079
G1 X98.041 Y92.241 E6.91139
G1 X98.308 Y92.365 E6.92455
G1 X98.675 Y92.601 E6.94411
G1 X98.919 Y92.727 E6.95642
G1 X99.03 Y92.813 E6.9627
G1 X99.205 Y92.9 E6.97144
G1 X99.351 Y93.003 E6.97945
G1 X99.532 Y93.087 E6.98838
G1 X99.649 Y93.167 E6.99473
G1 X99.852 Y93.272 E7.00494
G1 X99.982 Y93.369 E7.0122
G1 X100.149 Y93.453 E7.0206
G1 X100.29 Y93.552 E7.02831
G1 X100.484 Y93.639 E7.03782
G1 X100.851 Y93.843 E7.05661
G1 X100.954 Y93.92 E7.06235
G1 X101.53 Y94.23 E7.09166
G1 X101.805 Y94.414 E7.10647
G1 X102.113 Y94.577 E7.12208
G1 X102.229 Y94.661 E7.12848
G1 X102.428 Y94.758 E7.13839
G1 X102.582 Y94.87 E7.14693
G1 X102.761 Y94.956 E7.15581
G1 X103.171 Y95.211 E7.17742
G1 X103.377 Y95.309 E7.18764
G1 X103.527 Y95.409 E7.1957
G1 X103.744 Y95.511 E7.20646
G1 X103.88 Y95.607 E7.21387
G1 X104.149 Y95.74 E7.22731
G1 X104.481 Y95.954 E7.24503
G1 X105.059 Y96.271 E7.27451
G1 X105.182 Y96.365 E7.28144
G1 X105.36 Y96.45 E7.2903
G1 X105.789 Y96.712 E7.31278
G1 X105.977 Y96.806 E7.32217
G1 X106.13 Y96.92 E7.33076
G1 X106.309 Y97.011 E7.33972
G1 X106.452 Y97.113 E7.3476
G1 X106.641 Y97.2 E7.35692
G1 X106.993 Y97.397 E7.37495
G1 X107.084 Y97.462 E7.37997
G1 X107.281 Y97.557 E7.38976
G1 X107.435 Y97.669 E7.39831
G1 X107.617 Y97.761 E7.40742
G1 X107.775 Y97.875 E7.41613
G1 X108.23 Y98.111 E7.43907
G1 X108.37 Y98.214 E7.44688
G1 X108.545 Y98.3 E7.45557
G1 X108.703 Y98.413 E7.4643
G1 X108.895 Y98.502 E7.47378
G1 X109.067 Y98.61 E7.48286
G1 X109.335 Y98.729 E7.49601
G1 X109.71 Y98.97 E7.51594
G1 X109.932 Y99.085 E7.52716
G1 X110.047 Y99.175 E7.53369
G1 X110.209 Y99.253 E7.54175
G1 X110.643 Y99.515 E7.56445
G1 X110.858 Y99.624 E7.57525
G1 X110.982 Y99.719 E7.58222
G1 X111.155 Y99.805 E7.59086
G1 X111.319 Y99.92 E7.59983
G1 X111.503 Y100.006 E7.60893
G1 X111.939 Y100.264 E7.6316
G1 X112.19 Y100.389 E7.64414
G1 X112.298 Y100.469 E7.65018
G1 X112.503 Y100.568 E7.66037
G1 X112.635 Y100.668 E7.66779
G1 X112.79 Y100.742 E7.67546
G1 X113.144 Y100.951 E7.69386
G1 X113.241 Y101.027 E7.69939
G1 X113.391 Y101.1 E7.70686
G1 X113.563 Y101.219 E7.71621
G1 X113.765 Y101.313 E7.72619
G1 X114.045 Y101.474 E7.74067
G1 X114.159 Y101.56 E7.74706
G1 X114.362 Y101.658 E7.75715
G1 X114.51 Y101.765 E7.76531
G1 X114.729 Y101.869 E7.77618
G1 X114.897 Y101.979 E7.78518
G1 X115.725 Y102.431 E7.82741
G1 X115.858 Y102.525 E7.83467
G1 X116.086 Y102.637 E7.84607
G1 X116.208 Y102.73 E7.85291
G1 X116.413 Y102.833 E7.86319
G1 X116.544 Y102.925 E7.87036
G1 X116.693 Y103.002 E7.87788
G1 X116.797 Y103.081 E7.8837
G1 X117.021 Y103.195 E7.89498
G1 X117.124 Y103.272 E7.90073
G1 X117.345 Y103.375 E7.91164
G1 X117.746 Y103.617 E7.93258
G1 X117.98 Y103.736 E7.94434
G1 X118.109 Y103.827 E7.95141
G1 X118.338 Y103.943 E7.96291
G1 X118.455 Y104.033 E7.96954
G1 X118.625 Y104.115 E7.97799
G1 X119.046 Y104.37 E8.00002
G1 X119.255 Y104.473 E8.01047
G1 X119.384 Y104.571 E8.0177
G1 X119.551 Y104.653 E8.02604
G1 X119.721 Y104.773 E8.03534
G1 X119.883 Y104.848 E8.04333
G1 X120.003 Y104.933 E8.04991
G1 X120.237 Y105.051 E8.06162
G1 X120.343 Y105.126 E8.06746
G1 X120.566 Y105.233 E8.07851
G1 X120.705 Y105.33 E8.08612
G1 X120.956 Y105.451 E8.09859
G1 X121.292 Y105.667 E8.11649
G1 X121.527 Y105.785 E8.12823
G1 X121.652 Y105.873 E8.13507
G1 X121.886 Y105.987 E8.14672
G1 X122.168 Y106.163 E8.16163
G1 X122.255 Y106.233 E8.16663
G1 X122.844 Y106.552 E8.1966
G1 X122.972 Y106.649 E8.20379
G1 X123.553 Y106.947 E8.23305
G1 X123.908 Y107.176 E8.25192
G1 X124.145 Y107.301 E8.26393
G1 X124.253 Y107.388 E8.27013
G1 X125.109 Y107.866 E8.31405
G1 X125.206 Y107.939 E8.31946
G1 X125.428 Y108.054 E8.33065
G1 X125.539 Y108.138 E8.33687
G1 X126.163 Y108.453 E8.36818
G1 X126.511 Y108.678 E8.38673
G1 X126.735 Y108.795 E8.39806
G1 X127.165 Y109.075 E8.42105
G1 X127.343 Y109.153 E8.42975
G1 X127.472 Y109.239 E8.43668
G1 X127.647 Y109.323 E8.44534
G1 X127.806 Y109.438 E8.45416
G1 X127.993 Y109.534 E8.46357
G1 X128.129 Y109.632 E8.47104
G1 X128.314 Y109.717 E8.48019
G1 X128.671 Y109.916 E8.49845
G1 X128.763 Y109.982 E8.50353
G1 X128.978 Y110.089 E8.51429
G1 X129.115 Y110.187 E8.52185
G1 X129.324 Y110.292 E8.5323
G1 X129.45 Y110.387 E8.53937
G1 X129.623 Y110.47 E8.54797
G1 X130.061 Y110.735 E8.57088
G1 X130.245 Y110.824 E8.58004
G1 X130.404 Y110.939 E8.58882
G1 X130.587 Y111.028 E8.59793
G1 X131.003 Y111.289 E8.61992
G1 X131.194 Y111.383 E8.62945
G1 X131.346 Y111.494 E8.63789
G1 X131.934 Y111.795 E8.66747
G1 X132.303 Y112.028 E8.68698
G1 X132.92 Y112.358 E8.71832
G1 X133.188 Y112.537 E8.73273
G1 X133.824 Y112.891 E8.76532
G1 X133.972 Y113.001 E8.77362
G1 X134.143 Y113.088 E8.78219
G1 X134.287 Y113.189 E8.79008
G1 X134.489 Y113.283 E8.80004
G1 X134.824 Y113.477 E8.81738
G1 X134.925 Y113.553 E8.82301
G1 X135.132 Y113.66 E8.83344
G1 X135.254 Y113.755 E8.84035
G1 X135.402 Y113.829 E8.8478
G1 X136.109 Y114.304 E8.8859
G1 X136.615 Y114.771 E8.91674
G1 X136.759 Y114.996 E8.9287
G1 X136.843 Y115.253 E8.94081
G1 X136.87 Y115.417 E8.94822
G1 X136.872 Y115.657 E8.95899
G1 X136.846 Y115.827 E8.96667
G1 X136.745 Y116.125 E8.98079
G1 X136.663 Y116.262 E8.98792
G1 X136.442 Y116.508 E9.00275
G1 X136.135 Y116.757 E9.02043
G1 X135.446 Y117.235 E9.05797
G1 X133.833 Y118.194 E9.14199
G1 X131.04 Y119.79 E9.28602
G1 X127.653 Y121.766 E9.46155
G1 X127.12 Y122.059 E9.48878
G1 X126.315 Y122.542 E9.53081
G1 X125.245 Y123.137 E9.58564
G1 X123.677 Y124.065 E9.66717
G1 X122.636 Y124.648 E9.72059
G1 X121.86 Y125.114 E9.76114
G1 X120.025 Y126.155 E9.85559
G1 X119.251 Y126.621 E9.89603
G1 X116.844 Y127.993 E10.02008
G1 X115.741 Y128.651 E10.07758
G1 X113.862 Y129.713 E10.17418
G1 X112.488 Y130.528 E10.2457
G1 X110.312 Y131.769 E10.35785
G1 X109.504 Y132.263 E10.40027
G1 X108.613 Y132.747 E10.44563
G1 X103.775 Y135.564 E10.69629
G1 X102.832 Y136.083 E10.74449
G1 X101.108 Y137.103 E10.83413
G1 X100.031 Y137.704 E10.88935
G1 X98.474 Y138.623 E10.97031
G1 X97.586 Y139.094 E11.01532
G1 X96.775 Y139.564 E11.05728
G1 X95.946 Y139.917 E11.09761
G1 X95.617 Y139.985 E11.11266
G1 X95.489 Y139.991 E11.11841
G1 X95.194 Y139.954 E11.1317
G1 X95.001 Y139.888 E11.14083
G1 X94.677 Y139.687 E11.1579
G1 X94.494 Y139.5 E11.16961
G1 X94.411 Y139.383 E11.17604
G1 X94.274 Y139.077 E11.19106
G1 X94.235 Y138.944 E11.19726
G1 X94.162 Y138.449 E11.21966
G1 X94.112 Y137.545 E11.26017
G1 X94.101 Y94.058 E13.20706
G1 X94.124 Y92.641 E13.27051
G1 X94.203 Y92.117 E13.29424
G1 X94.249 Y91.989 E13.30032
G1 X94.387 Y91.722 E13.31376
G1 X94.452 Y91.639 E13.3185
G1 X94.871 Y91.968 F9000
G1 F1200
G1 X94.883 Y91.953 E13.31938
G1 X95.018 Y91.835 E13.32738
G1 X95.042 Y91.819 E13.32867
