; generated by SuperSlicer 2.4 on 2022-12-20 at 12:43:07 UTC

; 

; external perimeters extrusion width = 0.43mm
; perimeters extrusion width = 0.48mm
; infill extrusion width = 0.46mm
; solid infill extrusion width = 0.48mm
; top infill extrusion width = 0.46mm
; first layer extrusion width = 0.58mm

; object:{"name":"90_deg_angle_litho_tower","id":"90_deg_angle_litho_tower.stl id:0 copy 0","object_center":[115.498608,115.386109,0.000000],"boundingbox_center":[115.498608,115.386109,28.133879],"boundingbox_size":[18.909846,18.684847,56.267759]}
; Total objects to print: 1
M486 T1
; plater:{"center":[115.498608,115.386109,0.000000],"boundingbox_center":[115.498608,115.386109,28.133879],"boundingbox_size":[18.909846,18.684847,56.267759]}

;TYPE:Custom
G90 ; use absolute coordinates
M83 ; extruder relative mode
M140 S60 ; set final bed temp
M104 S150 ; set temporary nozzle temp to prevent oozing during homing and auto bed leveling
G4 S10 ; allow partial nozzle warmup
G28 ; home all axis
;G29 ; auto bed levelling
G1 Z10 F240
G1 X2 Y10 F3000
G1 Z0 F240
M104 S210 ; set final nozzle temp
M190 S60 ; wait for bed temp to stabilize
M109 S210 ; wait for nozzle temp to stabilize
G1 Z0.28 F240
G92 E0
G1 Y140 E10 F1500 ; prime the nozzle
G1 X2.3 F5000
G92 E0
G1 Y10 E10 F1200 ; prime the nozzle
G92 E0
;start
M107
G21 ; set units to millimeters
G90 ; use absolute coordinates
M82 ; use absolute distances for extrusion
G92 E0
; Filament gcode
;_TOOLCHANGE 0
M107
;LAYER_CHANGE
;Z:0.2
;HEIGHT:0.2
;BEFORE_LAYER_CHANGE
;0.2


G1 E-3 F3000
G1 Z0.15 F9000
;AFTER_LAYER_CHANGE
;0.2
G92 E0
M204 S500
G1 X102.624 Y101.957
G1 E3 F3000
;TYPE:Skirt
;WIDTH:0.48
G1 F1200
G1 X102.008 Y103.54 E3.06234
G1 X101.605 Y106.52 E3.17272
G1 X100.367 Y125.186 E3.85941
G1 X100.872 Y127.291 E3.93887
G1 X102.055 Y128.51 E4.00121
G1 X103.661 Y129.062 E4.06356
G1 X104.718 Y129.165 E4.10254
G1 X119.933 Y130.348 E4.6627
G1 X124.444 Y130.361 E4.8283
G1 X126.007 Y130.015 E4.88703
G1 X126.84 Y129.625 E4.92081
G1 X128.286 Y128.407 E4.99021
G1 X128.907 Y126.826 E5.05255
G1 X129.565 Y122.117 E5.22707
G1 X130.741 Y106.085 E5.81714
G1 X130.422 Y104.311 E5.8833
G1 X129.38 Y102.97 E5.94565
G1 X127.844 Y102.246 E6.00799
G1 X125.467 Y101.748 E6.09713
G1 X110.594 Y100.49 E6.64502
G1 X105.708 Y100.384 E6.8244
G1 X103.889 Y100.824 E6.89311
G1 X102.668 Y101.917 E6.95324
G1 X103.041 Y102.125 F9000
G1 F1200
G1 X102.441 Y103.6 E7.01169
G1 X102.041 Y106.551 E7.12101
G1 X100.803 Y125.215 E7.8076
G1 X101.151 Y126.893 E7.87054
G1 X102.206 Y128.086 E7.92898
G1 X103.704 Y128.627 E7.98742
G1 X104.761 Y128.729 E8.0264
G1 X119.934 Y129.911 E8.58506
G1 X124.446 Y129.924 E8.75066
G1 X125.821 Y129.62 E8.80237
G1 X126.654 Y129.229 E8.83614
G1 X127.869 Y128.237 E8.8937
G1 X128.475 Y126.765 E8.95215
G1 X129.106 Y122.298 E9.11775
G1 X130.305 Y106.054 E9.71564
G1 X130.101 Y104.676 E9.76676
G1 X129.183 Y103.375 E9.82521
G1 X127.754 Y102.673 E9.88365
G1 X125.377 Y102.176 E9.97278
G1 X110.584 Y100.927 E10.51772
G1 X105.699 Y100.821 E10.6971
G1 X104.275 Y101.119 E10.75049
G1 X103.088 Y102.087 E10.80672
G92 E0
G1 E-2.1 F3000
;WIPE_START
G1 F7200
G1 X102.441 Y103.6 E-2.75116
G1 X102.371 Y104.11 E-2.955
;WIPE_END
G1 E-3 F3000
; acceleration to travel
M204 S1500
G1 X105.899 Y105.12 F9000
; decel to extrusion
M204 S500
G1 X106.329 Y105.244
; end travel
G1 E0 F3000
;WIDTH:0.576
G1 F1200
G1 X106.72 Y104.924 E0.02259
G1 X106.806 Y104.877 E0.02701
G1 X107.089 Y104.783 E0.04035
G1 X107.187 Y104.77 E0.04478
G1 X107.65 Y104.791 E0.0655
G1 X108.001 Y104.772 E0.08124
G1 X108.666 Y104.78 E0.11101
G1 X108.773 Y104.803 E0.11593
G1 X108.874 Y104.848 E0.12087
G1 X124.571 Y105.974 E0.82543
G1 X125.379 Y106.135 E0.86232
G1 X125.475 Y106.174 E0.86694
G1 X125.731 Y106.343 E0.88067
G1 X125.803 Y106.414 E0.88521
G1 X126.101 Y106.838 E0.9084
G1 X126.143 Y106.93 E0.91294
G1 X126.214 Y107.227 E0.92663
G1 X126.219 Y107.329 E0.93117
G1 X126.148 Y107.834 E0.95404
G1 X126.129 Y108.096 E0.96577
G1 X126.128 Y108.607 E0.98864
G1 X126.09 Y108.752 E0.99535
G1 X125.348 Y119.234 E1.46581
G1 X125.313 Y120.112 E1.50513
G1 X125.343 Y120.686 E1.53085
G1 X125.268 Y121.75 E1.57864
G1 X125.144 Y122.638 E1.61875
G1 X125.084 Y122.775 E1.62548
G1 X124.792 Y123.125 E1.64589
G1 X124.668 Y123.21 E1.6526
G1 X123.92 Y123.459 E1.68789
G1 X123.77 Y123.466 E1.6946
G1 X123.327 Y123.361 E1.715
G1 X123.196 Y123.288 E1.72171
G1 X122.59 Y122.679 E1.76016
G1 X121.885 Y121.865 E1.80835
G1 X121.571 Y121.394 E1.8337
G1 X121.033 Y120.731 E1.87195
G1 X112.121 Y110.449 E2.48109
G1 X111.842 Y110.162 E2.49901
G1 X111.409 Y109.771 E2.52515
G1 X110.729 Y108.986 E2.57165
G1 X110.532 Y108.725 E2.5863
G1 X109.533 Y108.653 E2.63111
G1 X109.437 Y109.999 E2.69148
G1 X109.967 Y110.652 E2.72913
G1 X119.535 Y121.698 E3.38338
G1 X120.115 Y122.325 E3.42163
G1 X120.536 Y122.703 E3.44696
G1 X121.223 Y123.494 E3.49388
G1 X121.757 Y124.203 E3.53359
G1 X121.811 Y124.343 E3.54032
G1 X121.851 Y124.797 E3.56073
G1 X121.823 Y124.944 E3.56744
G1 X121.47 Y125.649 E3.60273
G1 X121.369 Y125.759 E3.60944
G1 X120.98 Y125.998 E3.62984
G1 X120.836 Y126.039 E3.63655
G1 X119.986 Y126.036 E3.67461
G1 X118.875 Y125.957 E3.72446
G1 X118.311 Y125.846 E3.7502
G1 X117.438 Y125.755 E3.7895
G1 X106.843 Y124.995 E4.26506
G1 X106.727 Y124.96 E4.2705
G1 X105.786 Y124.892 E4.31272
G1 X105.684 Y124.864 E4.31745
G1 X105.398 Y124.721 E4.33176
G1 X105.315 Y124.656 E4.3365
G1 X104.96 Y124.246 E4.36077
G1 X104.907 Y124.154 E4.36551
G1 X104.806 Y123.851 E4.37982
G1 X104.793 Y123.746 E4.38456
G1 X105.645 Y111.843 E4.91882
G1 X105.667 Y111.403 E4.93853
G1 X105.651 Y110.379 E4.98437
G1 X105.904 Y106.874 E5.14172
G1 X106.086 Y105.672 E5.19612
G1 X106.118 Y105.579 E5.20056
G1 X106.266 Y105.319 E5.21391
G1 X106.291 Y105.29 E5.21564
G1 X106.708 Y105.628 F9000
G1 F1200
G1 X107.022 Y105.371 E5.23381
G1 X107.211 Y105.309 E5.24273
G1 X107.652 Y105.33 E5.2625
G1 X108.004 Y105.31 E5.27826
G1 X108.604 Y105.316 E5.30515
G1 X108.741 Y105.377 E5.31185
G1 X124.515 Y106.508 E6.01986
G1 X125.222 Y106.651 E6.05214
G1 X125.393 Y106.764 E6.06129
G1 X125.632 Y107.105 E6.07995
G1 X125.68 Y107.304 E6.0891
G1 X125.613 Y107.778 E6.11053
G1 X125.592 Y108.076 E6.1239
G1 X125.59 Y108.554 E6.14533
G1 X125.56 Y108.63 E6.149
G1 X124.812 Y119.199 E6.62332
G1 X124.783 Y119.673 E6.64461
G1 X124.776 Y120.123 E6.66472
G1 X124.806 Y120.664 E6.68902
G1 X124.732 Y121.703 E6.73563
G1 X124.623 Y122.489 E6.77115
G1 X124.427 Y122.724 E6.78484
G1 X123.821 Y122.926 E6.81342
G1 X123.524 Y122.855 E6.82711
G1 X122.99 Y122.32 E6.86094
G1 X122.303 Y121.527 E6.90793
G1 X122.009 Y121.082 E6.9318
G1 X121.742 Y120.735 E6.95139
G1 X121.441 Y120.381 E6.9722
G1 X112.517 Y110.086 E7.58215
G1 X112.215 Y109.774 E7.6016
G1 X111.804 Y109.406 E7.62629
G1 X111.141 Y108.641 E7.67161
G1 X110.814 Y108.206 E7.69596
G1 X109.036 Y108.079 E7.77578
G1 X108.888 Y110.142 E7.86838
G1 X108.991 Y110.3 E7.87683
G1 X109.258 Y110.647 E7.89643
G1 X109.559 Y111.001 E7.91723
G1 X119.13 Y122.052 E8.57172
G1 X119.438 Y122.4 E8.59252
G1 X119.743 Y122.714 E8.61212
G1 X120.142 Y123.068 E8.63599
G1 X120.811 Y123.839 E8.68171
G1 X121.282 Y124.466 E8.71681
G1 X121.309 Y124.77 E8.7305
G1 X121.023 Y125.341 E8.75908
G1 X120.763 Y125.501 E8.77277
G1 X119.997 Y125.499 E8.80705
G1 X118.931 Y125.423 E8.8549
G1 X118.399 Y125.315 E8.8792
G1 X117.953 Y125.258 E8.89931
G1 X117.479 Y125.219 E8.9206
G1 X106.934 Y124.463 E9.39391
G1 X106.872 Y124.431 E9.39704
G1 X105.877 Y124.36 E9.44167
G1 X105.686 Y124.264 E9.45124
G1 X105.4 Y123.934 E9.47078
G1 X105.333 Y123.732 E9.48035
G1 X106.181 Y111.875 E10.0125
G1 X106.204 Y111.412 E10.03326
G1 X106.188 Y110.406 E10.07831
G1 X106.437 Y106.944 E10.23372
G1 X106.61 Y105.802 E10.28543
G1 X106.679 Y105.681 E10.29166
G1 X107.126 Y105.981 F9000
G1 F1200
G1 X107.285 Y105.85 E10.3009
G1 X107.656 Y105.868 E10.31749
G1 X108.012 Y105.847 E10.33347
G1 X108.487 Y105.852 E10.35475
G1 X108.532 Y105.901 E10.35771
G1 X124.468 Y107.044 E11.07298
G1 X124.486 Y107.046 E11.0738
G1 X125.012 Y107.156 E11.09785
G1 X125.134 Y107.33 E11.10735
G1 X125.079 Y107.721 E11.12502
G1 X125.055 Y108.056 E11.14004
G1 X125.053 Y108.45 E11.15771
G1 X124.916 Y108.596 E11.1667
G1 X125.024 Y108.722 E11.17412
G1 X124.276 Y119.163 E11.64277
G1 X124.246 Y119.653 E11.66473
G1 X124.238 Y120.135 E11.68632
G1 X124.269 Y120.635 E11.70875
G1 X124.269 Y120.653 E11.70955
G1 X124.197 Y121.66 E11.75475
G1 X124.112 Y122.262 E11.78198
G1 X123.796 Y122.367 E11.79688
G1 X123.374 Y121.944 E11.82366
G1 X122.727 Y121.196 E11.86793
G1 X122.716 Y121.181 E11.86875
G1 X122.448 Y120.77 E11.89072
G1 X122.16 Y120.397 E11.91183
G1 X121.849 Y120.031 E11.93331
G1 X114.508 Y111.555 E12.4353
G1 X112.913 Y109.722 E12.5441
G1 X112.585 Y109.384 E12.56516
G1 X112.217 Y109.061 E12.58713
G1 X112.204 Y109.048 E12.58795
G1 X111.556 Y108.3 E12.63222
G1 X111.197 Y107.822 E12.65901
G1 X111.258 Y107.7 E12.66513
G1 X108.538 Y107.504 E12.78722
G1 X108.339 Y110.284 E12.91198
G1 X108.552 Y110.612 E12.92948
G1 X108.84 Y110.985 E12.95059
G1 X109.151 Y111.351 E12.97208
G1 X118.726 Y122.405 E13.62682
G1 X119.044 Y122.765 E13.64831
G1 X119.372 Y123.103 E13.66941
G1 X119.741 Y123.427 E13.69138
G1 X119.754 Y123.44 E13.6922
G1 X120.401 Y124.188 E13.73648
G1 X120.761 Y124.666 E13.76326
G1 X120.611 Y124.963 E13.77815
G1 X120.003 Y124.961 E13.80539
G1 X118.996 Y124.889 E13.85059
G1 X118.978 Y124.887 E13.85139
G1 X118.488 Y124.785 E13.87382
G1 X118.009 Y124.723 E13.89541
G1 X117.521 Y124.683 E13.91737
G1 X107.079 Y123.934 E14.38602
G1 X107.054 Y123.906 E14.38771
G1 X106.022 Y123.832 E14.43404
G1 X105.877 Y123.663 E14.444
G1 X106.718 Y111.908 E14.97163
G1 X106.742 Y111.427 E14.9932
G1 X106.744 Y110.947 E15.01468
G1 X106.725 Y110.437 E15.03752
G1 X106.971 Y106.998 E15.19188
G1 X107.117 Y106.04 E15.23525
; printing object 90_deg_angle_litho_tower.stl id:0 copy 0
M486 S0
G1 X107.622 Y106.423 F9000
;TYPE:External perimeter
G1 F1200
G1 X108.059 Y106.404 E15.25484
G1 X108.057 Y106.425 E15.25579
G1 X124.4 Y107.597 E15.9893
G1 X124.54 Y107.626 E15.9957
G1 X124.498 Y108.073 E16.01578
G1 X124.365 Y108.081 E16.02174
G1 X108.023 Y106.909 E16.75525
G1 X107.77 Y110.431 E16.91331
G1 X108.1 Y110.937 E16.94035
G1 X108.726 Y111.711 E16.98491
G1 X118.309 Y122.775 E17.64021
G1 X118.986 Y123.505 E17.68477
G1 X119.352 Y123.826 E17.70658
G1 X119.841 Y124.392 E17.74006
G1 X119.064 Y124.336 E17.77496
G1 X118.577 Y124.234 E17.79724
G1 X117.566 Y124.128 E17.84272
G1 X107.517 Y123.408 E18.29376
G1 X107.519 Y123.381 E18.29496
G1 X106.46 Y123.305 E18.34249
G1 X107.273 Y111.942 E18.85251
G1 X107.298 Y111.439 E18.87506
G1 X107.281 Y110.457 E18.91903
G1 X107.525 Y107.055 E19.07172
G1 X107.612 Y106.483 E19.09762
;WIPE_START
G1 X107.964 Y106.631 F9000
;WIPE_END
G92 E0
G1 E-2.1 F3000
;WIPE_START
G1 F7200
G1 X110.118 Y106.784 E-2.955
;WIPE_END
G1 E-3 F3000
; acceleration to travel
M204 S1500
G1 X108.093 Y110.966 F9000
; decel to extrusion
M204 S500
G1 X107.845 Y111.477
; end travel
G1 E0 F3000
;TYPE:Internal perimeter
G1 F1200
G1 X108.314 Y112.056 E0.03333
G1 X117.909 Y123.133 E0.68944
G1 X118.413 Y123.677 E0.72263
G1 X117.614 Y123.593 E0.7586
G1 X108.092 Y122.91 E1.18598
G1 X108.094 Y122.883 E1.18718
G1 X107.035 Y122.807 E1.23471
G1 X107.841 Y111.537 E1.74058
G92 E0
G1 E-2.1 F3000
;WIPE_START
G1 F7200
G1 X108.314 Y112.056 E-2.37786
G1 X109.268 Y113.158 E-2.955
;WIPE_END
G1 E-3 F3000
; acceleration to travel
M204 S1500
G1 X114.595 Y119.503 F9000
; decel to extrusion
M204 S500
G1 X115.246 Y120.279
; end travel
G1 E0 F3000
;TYPE:Solid infill
;WIDTH:0.589772
G1 F1200
G1 X108.119 Y113.152 E0.462
G1 X108.068 Y113.861 E0.49459
G1 X117.415 Y123.207 E1.10048
G1 X116.592 Y123.144 E1.13831
G1 X108.018 Y114.57 E1.69415
G1 X107.967 Y115.279 E1.72674
G1 X115.769 Y123.082 E2.23252
G1 X114.946 Y123.019 E2.27035
G1 X107.916 Y115.989 E2.72609
G1 X107.865 Y116.698 E2.75868
G1 X114.123 Y122.956 E3.16436
G1 X113.3 Y122.893 E3.20219
G1 X107.815 Y117.407 E3.55783
G1 X107.764 Y118.116 E3.59042
G1 X112.478 Y122.83 E3.896
G1 X111.655 Y122.767 E3.93383
G1 X107.713 Y118.825 E4.18936
G1 X107.662 Y119.534 E4.22195
G1 X110.832 Y122.704 E4.42743
G1 X110.009 Y122.641 E4.46526
G1 X107.611 Y120.244 E4.62069
G1 X107.561 Y120.953 E4.65328
G1 X109.186 Y122.578 E4.75866
G1 X108.363 Y122.516 E4.79649
G1 X107.51 Y121.662 E4.85182
G1 X107.459 Y122.371 E4.88441
G1 X107.791 Y122.704 E4.90596
G92 E0
G1 E-2.1 F3000
;WIPE_START
G1 F7200
G1 X107.459 Y122.371 E-2.28604
G1 X107.51 Y121.662 E-2.56747
G1 X108.202 Y122.354 E-2.955
;WIPE_END
G1 E-3 F3000
; acceleration to travel
M204 S1500
G1 X110.39 Y116.01 F9000
; decel to extrusion
M204 S500
G1 X110.657 Y115.235
; end travel
G1 E0 F3000
;TYPE:Gap fill
;WIDTH:0.15812
G1 F1200
G1 X110.187 Y114.731 E0.00667
;WIDTH:0.213573
G1 X109.717 Y114.227 E0.01654
;WIDTH:0.269025
G1 X109.247 Y113.723 E0.02963
;WIDTH:0.324477
G1 X108.777 Y113.219 E0.04592
;WIDTH:0.379929
G1 X108.307 Y112.715 E0.06542
G1 X108.264 Y112.681 E0.06698
;WIDTH:0.421924
G1 X108.221 Y112.648 E0.06872
G1 X108.21 Y112.628 E0.06945
;WIDTH:0.302141
G1 X108.165 Y112.548 E0.07143
;WIDTH:0.230271
G1 X108.109 Y112.446 E0.07327
;WIDTH:0.17196
G1 X108.053 Y112.343 E0.07453
G92 E0
G1 E-2.1 F3000
;WIPE_START
G1 F7200
G1 X108.109 Y112.446 E-2.14627
;WIPE_END
G1 E-3 F3000
; acceleration to travel
M204 S1500
G1 X111.68 Y108.57 F9000
; decel to extrusion
M204 S500
G1 X112.116 Y108.096
; end travel
G1 E0 F3000
;TYPE:External perimeter
;WIDTH:0.576
G1 F1200
G1 X112.894 Y108.152 E0.0349
G1 X113.381 Y108.253 E0.05718
G1 X114.391 Y108.359 E0.10265
G1 X124.44 Y109.08 E0.5537
G1 X123.72 Y119.129 E1.00475
G1 X123.681 Y120.144 E1.05022
G1 X123.712 Y120.641 E1.07251
G1 X123.656 Y121.419 E1.1074
G1 X123.166 Y120.853 E1.14088
G1 X122.9 Y120.445 E1.1627
G1 X122.274 Y119.671 E1.20726
G1 X114.929 Y111.19 E1.70955
G1 X113.323 Y109.345 E1.81906
G1 X112.969 Y108.981 E1.84179
G1 X112.606 Y108.661 E1.86346
G1 X112.155 Y108.142 E1.89425
;WIPE_START
G1 X112.494 Y108.227 F9000
;WIPE_END
G1 X113.573 Y108.814
;TYPE:Internal perimeter
G1 F1200
G1 X114.344 Y108.895 E1.92895
G1 X123.866 Y109.578 E2.35634
G1 X123.183 Y119.1 E2.78373
G1 X123.152 Y119.903 E2.8197
G1 X122.686 Y119.326 E2.85288
G1 X115.335 Y110.838 E3.35559
G1 X113.612 Y108.859 E3.47306
G92 E0
G1 E-2.1 F3000
;WIPE_START
G1 F7200
G1 X114.344 Y108.895 E-2.3899
G1 X115.768 Y108.997 E-2.955
;WIPE_END
G1 E-3 F3000
; acceleration to travel
M204 S1500
G1 X121.788 Y109.573 F9000
; decel to extrusion
M204 S500
G1 X122.524 Y109.643
; end travel
G1 E0 F3000
;TYPE:Solid infill
;WIDTH:0.590416
G1 F1200
G1 X123.407 Y110.527 E0.05734
G1 X123.358 Y111.237 E0.09004
G1 X121.954 Y109.834 E0.18113
G1 X121.136 Y109.775 E0.21879
G1 X123.309 Y111.948 E0.35982
G1 X123.26 Y112.659 E0.39252
G1 X120.317 Y109.716 E0.58349
G1 X119.498 Y109.658 E0.62116
G1 X123.211 Y113.37 E0.86208
G1 X123.162 Y114.081 E0.89477
G1 X118.68 Y109.599 E1.18563
G1 X117.861 Y109.54 E1.2233
G1 X123.112 Y114.792 E1.5641
G1 X123.063 Y115.502 E1.5968
G1 X117.042 Y109.481 E1.98755
G1 X116.224 Y109.423 E2.02521
G1 X123.014 Y116.213 E2.4659
G1 X122.965 Y116.924 E2.4986
G1 X115.405 Y109.364 E2.98923
G1 X114.586 Y109.305 E3.0269
G1 X122.916 Y117.635 E3.56747
G1 X122.867 Y118.346 E3.60017
G1 X116.65 Y112.129 E4.00365
G92 E0
G1 E-2.1 F3000
;WIPE_START
G1 F7200
G1 X118.177 Y113.656 E-2.955
;WIPE_END
G1 E-3 F3000
; acceleration to travel
M204 S1500
G1 X120.734 Y116.619 F9000
; decel to extrusion
M204 S500
G1 X121.047 Y116.981
; end travel
G1 E0 F3000
;TYPE:Gap fill
;WIDTH:0.15812
G1 F1200
G1 X121.46 Y117.426 E0.00588
;WIDTH:0.210761
G1 X121.874 Y117.871 E0.01444
;WIDTH:0.263402
G1 X122.288 Y118.316 E0.02569
;WIDTH:0.316042
G1 X122.701 Y118.76 E0.03962
G1 X122.748 Y118.794 E0.04093
;WIDTH:0.369232
G1 X122.794 Y118.827 E0.04249
;WIDTH:0.290047
G1 X122.829 Y118.89 E0.04399
;WIDTH:0.210861
G1 X122.884 Y118.991 E0.04561
;WIDTH:0.15812
G1 X122.939 Y119.092 E0.04672
M106 S84.15
;LAYER_CHANGE
;Z:0.52
;HEIGHT:0.32
;BEFORE_LAYER_CHANGE
;0.52


G92 E0
G1 E-2.1 F3000
;WIPE_START
G1 F7200
G1 X122.884 Y118.991 E-2.14553
;WIPE_END
G1 E-3 F3000
