; generated by SuperSlicer 2.4 on 2022-12-20 at 12:43:59 UTC

; 

; external perimeters extrusion width = 0.43mm
; perimeters extrusion width = 0.48mm
; infill extrusion width = 0.46mm
; solid infill extrusion width = 0.48mm
; top infill extrusion width = 0.46mm
; first layer extrusion width = 0.58mm

; object:{"name":"Kuwait_Towers","id":"Kuwait_Towers.stl id:0 copy 0","object_center":[115.867546,116.558170,0.000000],"boundingbox_center":[115.867546,116.558170,33.033082],"boundingbox_size":[30.047794,22.277166,66.066164]}
; Total objects to print: 1
M486 T1
; plater:{"center":[115.867546,116.558170,0.000000],"boundingbox_center":[115.867546,116.558170,33.033082],"boundingbox_size":[30.047794,22.277166,66.066164]}

;TYPE:Custom
G90 ; use absolute coordinates
M83 ; extruder relative mode
M140 S60 ; set final bed temp
M104 S150 ; set temporary nozzle temp to prevent oozing during homing and auto bed leveling
G4 S10 ; allow partial nozzle warmup
G28 ; home all axis
;G29 ; auto bed levelling
G1 Z10 F240
G1 X2 Y10 F3000
G1 Z0 F240
M104 S210 ; set final nozzle temp
M190 S60 ; wait for bed temp to stabilize
M109 S210 ; wait for nozzle temp to stabilize
G1 Z0.28 F240
G92 E0
G1 Y140 E10 F1500 ; prime the nozzle
G1 X2.3 F5000
G92 E0
G1 Y10 E10 F1200 ; prime the nozzle
G92 E0
;start
M107
G21 ; set units to millimeters
G90 ; use absolute coordinates
M82 ; use absolute distances for extrusion
G92 E0
; Filament gcode
;_TOOLCHANGE 0
M107
;LAYER_CHANGE
;Z:0.2
;HEIGHT:0.2
;BEFORE_LAYER_CHANGE
;0.2


G1 E-3 F3000
G1 Z0.15 F9000
;AFTER_LAYER_CHANGE
;0.2
G92 E0
M204 S500
G1 X101.658 Y112.567
G1 E3 F3000
;TYPE:Skirt
;WIDTH:0.48
G1 F1200
G1 X99.785 Y114.361 E3.09519
G1 X98.967 Y115.529 E3.14753
G1 X97.923 Y117.902 E3.2427
G1 X97.614 Y119.294 E3.29505
G1 X97.557 Y121.887 E3.39025
G1 X97.805 Y123.293 E3.44265
G1 X98.746 Y125.711 E3.53786
G1 X99.512 Y126.913 E3.59021
G1 X101.306 Y128.786 E3.68538
G1 X102.474 Y129.603 E3.73772
G1 X104.847 Y130.648 E3.83289
G1 X106.239 Y130.956 E3.88524
G1 X108.832 Y131.013 E3.98045
G1 X110.238 Y130.765 E4.03285
G1 X128.777 Y123.29 E4.7666
G1 X129.932 Y122.543 E4.81708
G1 X131.806 Y120.749 E4.91229
G1 X132.624 Y119.58 E4.96468
G1 X133.669 Y117.206 E5.05989
G1 X133.977 Y115.814 E5.11224
G1 X134.033 Y113.222 E5.2074
G1 X133.785 Y111.818 E5.25973
G1 X132.846 Y109.401 E5.35492
G1 X132.079 Y108.198 E5.40728
G1 X130.286 Y106.324 E5.50249
G1 X129.117 Y105.506 E5.55487
G1 X126.742 Y104.461 E5.65008
G1 X125.35 Y104.153 E5.70244
G1 X124.054 Y104.125 E5.75003
G1 X122.758 Y104.097 E5.79761
G1 X121.354 Y104.344 E5.84993
G1 X102.813 Y111.82 E6.58375
G1 X101.708 Y112.535 E6.63205
G1 X101.96 Y112.883 F9000
G1 F1200
G1 X100.087 Y114.676 E6.72724
G1 X99.367 Y115.705 E6.77332
G1 X98.323 Y118.078 E6.8685
G1 X98.051 Y119.304 E6.91458
G1 X97.994 Y121.897 E7.00979
G1 X98.213 Y123.135 E7.05592
G1 X99.153 Y125.552 E7.15113
G1 X99.828 Y126.611 E7.19722
G1 X101.621 Y128.483 E7.29239
G1 X102.65 Y129.203 E7.33847
G1 X105.023 Y130.248 E7.43365
G1 X106.249 Y130.519 E7.47973
G1 X108.842 Y130.576 E7.57494
G1 X110.08 Y130.358 E7.62108
G1 X128.613 Y122.885 E8.3546
G1 X129.63 Y122.227 E8.39905
G1 X131.504 Y120.434 E8.49426
G1 X132.224 Y119.404 E8.54039
G1 X133.268 Y117.03 E8.6356
G1 X133.54 Y115.804 E8.68169
G1 X133.596 Y113.212 E8.77685
G1 X133.378 Y111.976 E8.82292
G1 X132.438 Y109.559 E8.91811
G1 X131.764 Y108.5 E8.96421
G1 X129.97 Y106.626 E9.05942
G1 X128.941 Y105.906 E9.10554
G1 X126.566 Y104.861 E9.20075
G1 X125.34 Y104.59 E9.24685
G1 X124.044 Y104.562 E9.29444
G1 X122.748 Y104.534 E9.34201
G1 X121.512 Y104.752 E9.38808
G1 X102.977 Y112.225 E10.12167
G1 X102.01 Y112.85 E10.16394
G92 E0
G1 E-2.1 F3000
;WIPE_START
G1 F7200
G1 X100.444 Y114.338 E-2.955
;WIPE_END
G1 E-3 F3000
; acceleration to travel
M204 S1500
G1 X104.062 Y115.667 F9000
; decel to extrusion
M204 S500
G1 X104.504 Y115.829
; end travel
G1 E0 F3000
;WIDTH:0.576
G1 F1200
G1 X104.726 Y115.702 E0.01145
G1 X106.659 Y114.964 E0.10409
G1 X106.911 Y114.931 E0.11549
G1 X108.863 Y114.973 E0.20287
G1 X109.224 Y115.053 E0.21943
G1 X111.117 Y115.9 E0.31225
G1 X111.319 Y116.056 E0.3237
G1 X112.741 Y117.559 E0.41634
G1 X112.868 Y117.781 E0.42779
G1 X113.607 Y119.714 E0.52043
G1 X113.639 Y119.968 E0.53187
G1 X113.582 Y122.036 E0.62451
G1 X113.515 Y122.283 E0.63597
G1 X112.67 Y124.172 E0.7286
G1 X112.514 Y124.374 E0.74004
G1 X111.011 Y125.796 E0.83267
G1 X110.789 Y125.923 E0.84412
G1 X108.856 Y126.662 E0.93677
G1 X108.603 Y126.695 E0.94822
G1 X106.534 Y126.637 E1.04087
G1 X106.287 Y126.57 E1.05232
G1 X104.398 Y125.726 E1.14495
G1 X104.196 Y125.569 E1.15639
G1 X102.774 Y124.067 E1.24902
G1 X102.647 Y123.845 E1.26046
G1 X101.908 Y121.912 E1.35312
G1 X101.875 Y121.658 E1.36458
G1 X101.933 Y119.589 E1.45722
G1 X102 Y119.342 E1.46867
G1 X102.845 Y117.454 E1.56129
G1 X103.001 Y117.251 E1.57274
G1 X104.46 Y115.87 E1.66269
G1 X104.804 Y116.276 F9000
G1 F1200
G1 X104.94 Y116.195 E1.66978
G1 X106.765 Y115.491 E1.75735
G1 X106.922 Y115.469 E1.76443
G1 X108.825 Y115.51 E1.84965
G1 X109.031 Y115.556 E1.85909
G1 X110.819 Y116.348 E1.94664
G1 X110.945 Y116.443 E1.95373
G1 X112.294 Y117.859 E2.04129
G1 X112.375 Y117.995 E2.04839
G1 X113.079 Y119.82 E2.13595
G1 X113.101 Y119.977 E2.14303
G1 X113.054 Y121.932 E2.2306
G1 X113.015 Y122.086 E2.2377
G1 X112.222 Y123.874 E2.32525
G1 X112.127 Y124.001 E2.33234
G1 X110.711 Y125.349 E2.4199
G1 X110.575 Y125.43 E2.42698
G1 X108.75 Y126.135 E2.51456
G1 X108.593 Y126.157 E2.52165
G1 X106.638 Y126.109 E2.60923
G1 X106.484 Y126.07 E2.61632
G1 X104.696 Y125.277 E2.70387
G1 X104.57 Y125.183 E2.71096
G1 X103.221 Y123.767 E2.79851
G1 X103.14 Y123.63 E2.8056
G1 X102.436 Y121.805 E2.89318
G1 X102.413 Y121.648 E2.90027
G1 X102.461 Y119.693 E2.98785
G1 X102.5 Y119.54 E2.99493
G1 X103.293 Y117.752 E3.08249
G1 X103.388 Y117.625 E3.08958
G1 X104.76 Y116.317 E3.17445
G1 X105.115 Y116.715 F9000
G1 F1200
G1 X105.16 Y116.687 E3.17682
G1 X106.884 Y116.016 E3.25967
G1 X106.937 Y116.007 E3.26204
G1 X108.787 Y116.047 E3.34489
G1 X108.838 Y116.058 E3.34726
G1 X110.532 Y116.803 E3.4301
G1 X110.575 Y116.834 E3.43247
G1 X111.855 Y118.17 E3.51531
G1 X111.884 Y118.215 E3.51768
G1 X112.554 Y119.94 E3.60053
G1 X112.564 Y119.992 E3.6029
G1 X112.524 Y121.842 E3.68575
G1 X112.512 Y121.894 E3.68813
G1 X111.767 Y123.587 E3.77097
G1 X111.737 Y123.631 E3.77333
G1 X110.4 Y124.91 E3.85618
G1 X110.356 Y124.939 E3.85854
G1 X108.631 Y125.61 E3.9414
G1 X108.579 Y125.619 E3.94377
G1 X106.728 Y125.579 E4.02663
G1 X106.677 Y125.567 E4.029
G1 X104.983 Y124.822 E4.11184
G1 X104.94 Y124.792 E4.11421
G1 X103.66 Y123.455 E4.19705
G1 X103.631 Y123.411 E4.19941
G1 X102.96 Y121.686 E4.28227
G1 X102.951 Y121.634 E4.28464
G1 X102.991 Y119.784 E4.3675
G1 X103.003 Y119.732 E4.36987
G1 X103.748 Y118.038 E4.45271
G1 X103.778 Y117.995 E4.45508
G1 X105.072 Y116.757 E4.53523
G92 E0
G1 E-2.1 F3000
;WIPE_START
G1 F7200
G1 X105.16 Y116.687 E-2.14449
G1 X106.884 Y116.016 E-2.87706
G1 X106.937 Y116.007 E-2.898
G1 X107.081 Y116.01 E-2.955
;WIPE_END
G1 E-3 F3000
; acceleration to travel
M204 S1500
G1 X116.776 Y115.347 F9000
; decel to extrusion
M204 S500
G1 X117.961 Y115.267
; end travel
G1 E0 F3000
G1 F1200
G1 X117.993 Y113.198 E0.09264
G1 X118.037 Y112.946 E0.10409
G1 X118.858 Y111.046 E0.19674
G1 X118.995 Y110.83 E0.2082
G1 X120.482 Y109.39 E0.30086
G1 X120.691 Y109.242 E0.31231
G1 X122.619 Y108.479 E0.40514
G1 X122.983 Y108.415 E0.42169
G1 X123.501 Y108.426 E0.4449
G1 X124.933 Y108.457 E0.50904
G1 X125.184 Y108.501 E0.52044
G1 X127.084 Y109.322 E0.6131
G1 X127.3 Y109.459 E0.62455
G1 X128.74 Y110.945 E0.71721
G1 X128.888 Y111.154 E0.72866
G1 X129.649 Y113.079 E0.8213
G1 X129.705 Y113.328 E0.83274
G1 X129.673 Y115.396 E0.92535
G1 X129.629 Y115.648 E0.9368
G1 X128.808 Y117.548 E1.02945
G1 X128.671 Y117.764 E1.04091
G1 X127.184 Y119.204 E1.13356
G1 X126.975 Y119.352 E1.14501
G1 X125.052 Y120.113 E1.23763
G1 X124.803 Y120.169 E1.24907
G1 X122.734 Y120.137 E1.34171
G1 X122.482 Y120.093 E1.35316
G1 X120.582 Y119.272 E1.44581
G1 X120.366 Y119.135 E1.45727
G1 X118.926 Y117.648 E1.54993
G1 X118.778 Y117.439 E1.56137
G1 X118.017 Y115.516 E1.65398
G1 X117.974 Y115.325 E1.66274
G1 X118.499 Y115.215 F9000
G1 F1200
G1 X118.493 Y115.186 E1.66407
G1 X118.53 Y113.23 E1.75163
G1 X118.559 Y113.074 E1.75872
G1 X119.342 Y111.282 E1.8463
G1 X119.428 Y111.149 E1.8534
G1 X120.838 Y109.792 E1.94098
G1 X120.969 Y109.703 E1.94807
G1 X122.79 Y108.989 E2.03564
G1 X122.997 Y108.953 E2.04507
G1 X123.489 Y108.963 E2.0671
G1 X124.9 Y108.994 E2.13026
G1 X125.056 Y109.023 E2.13735
G1 X126.848 Y109.806 E2.22493
G1 X126.981 Y109.892 E2.23202
G1 X128.337 Y111.302 E2.3196
G1 X128.427 Y111.433 E2.32669
G1 X129.141 Y113.254 E2.41426
G1 X129.173 Y113.409 E2.42135
G1 X129.136 Y115.364 E2.50888
G1 X129.107 Y115.519 E2.51597
G1 X128.324 Y117.312 E2.60355
G1 X128.237 Y117.445 E2.61065
G1 X126.828 Y118.801 E2.69823
G1 X126.697 Y118.891 E2.70532
G1 X124.877 Y119.604 E2.79286
G1 X124.722 Y119.637 E2.79994
G1 X122.766 Y119.6 E2.88751
G1 X122.611 Y119.571 E2.8946
G1 X120.818 Y118.788 E2.98218
G1 X120.685 Y118.701 E2.98927
G1 X119.328 Y117.292 E3.07686
G1 X119.239 Y117.161 E3.08394
G1 X118.525 Y115.341 E3.17148
G1 X118.511 Y115.273 E3.17456
G1 X119.036 Y115.17 F9000
G1 F1200
G1 X119.027 Y115.118 E3.17693
G1 X119.067 Y113.268 E3.25978
G1 X119.078 Y113.216 E3.26215
G1 X119.823 Y111.522 E3.34501
G1 X119.854 Y111.479 E3.34738
G1 X121.191 Y110.199 E3.43025
G1 X121.235 Y110.17 E3.43262
G1 X122.96 Y109.5 E3.51547
G1 X123.012 Y109.491 E3.51784
G1 X123.478 Y109.501 E3.53869
G1 X124.862 Y109.531 E3.60066
G1 X124.914 Y109.542 E3.60303
G1 X126.608 Y110.287 E3.6859
G1 X126.651 Y110.318 E3.68827
G1 X127.931 Y111.655 E3.77113
G1 X127.959 Y111.699 E3.7735
G1 X128.63 Y113.424 E3.85635
G1 X128.639 Y113.476 E3.85872
G1 X128.599 Y115.326 E3.94154
G1 X128.588 Y115.377 E3.94391
G1 X127.843 Y117.072 E4.02678
G1 X127.812 Y117.115 E4.02915
G1 X126.475 Y118.395 E4.11201
G1 X126.431 Y118.423 E4.11438
G1 X124.706 Y119.094 E4.19721
G1 X124.654 Y119.103 E4.19958
G1 X122.804 Y119.063 E4.28242
G1 X122.753 Y119.052 E4.28479
G1 X121.058 Y118.307 E4.36766
G1 X121.015 Y118.276 E4.37003
G1 X119.735 Y116.939 E4.45289
G1 X119.706 Y116.895 E4.45526
G1 X119.058 Y115.226 E4.5354
G92 E0
G1 E-2.1 F3000
;WIPE_START
G1 F7200
G1 X119.027 Y115.118 E-2.14448
G1 X119.067 Y113.268 E-2.87704
G1 X119.078 Y113.216 E-2.89799
G1 X119.136 Y113.085 E-2.955
;WIPE_END
G1 E-3 F3000
; printing object Kuwait_Towers.stl id:0 copy 0
M486 S0
; acceleration to travel
M204 S1500
G1 X112.238 Y117.906 F9000
; decel to extrusion
M204 S500
G1 X111.395 Y118.495
; end travel
G1 E0 F3000
;TYPE:External perimeter
G1 F1200
G1 X112.005 Y120.063 E0.07535
G1 X111.969 Y121.746 E0.15071
G1 X111.291 Y123.286 E0.22605
G1 X110.076 Y124.45 E0.30139
G1 X108.507 Y125.061 E0.37675
G1 X106.824 Y125.024 E0.4521
G1 X105.284 Y124.346 E0.52745
G1 X104.12 Y123.131 E0.60279
G1 X103.509 Y121.562 E0.67815
G1 X103.546 Y119.879 E0.7535
G1 X104.224 Y118.339 E0.82885
G1 X105.439 Y117.175 E0.90419
G1 X107.008 Y116.565 E0.97954
G1 X108.691 Y116.601 E1.05489
G1 X110.231 Y117.279 E1.13023
G1 X111.354 Y118.451 E1.20289
;WIPE_START
G1 X111.188 Y118.837 F9000
;WIPE_END
G1 X110.983 Y118.916
;TYPE:Internal perimeter
G1 F1200
G1 X111.466 Y120.159 E1.26256
G1 X111.434 Y121.628 E1.32834
G1 X110.842 Y122.972 E1.39411
G1 X109.781 Y123.988 E1.45989
G1 X108.412 Y124.521 E1.52567
G1 X106.943 Y124.489 E1.59145
G1 X105.598 Y123.897 E1.65723
G1 X104.582 Y122.836 E1.723
G1 X104.049 Y121.467 E1.78879
G1 X104.081 Y119.998 E1.85457
G1 X104.673 Y118.653 E1.92034
G1 X105.734 Y117.637 E1.98611
G1 X107.103 Y117.105 E2.0519
G1 X108.572 Y117.136 E2.11768
G1 X109.917 Y117.728 E2.18345
G1 X110.933 Y118.789 E2.24922
G1 X110.961 Y118.86 E2.25265
G1 X110.985 Y119.366 F9000
;TYPE:Solid infill
;WIDTH:0.569793
G1 F1200
G1 X109.663 Y118.045 E2.33542
G1 X108.486 Y117.527 E2.39238
G1 X108.383 Y117.525 E2.39694
G1 X111.063 Y120.204 E2.56476
G1 X111.072 Y120.228 E2.56589
G1 X111.056 Y120.958 E2.59821
G1 X107.606 Y117.508 E2.81428
G1 X107.173 Y117.498 E2.83348
G1 X106.931 Y117.593 E2.84497
G1 X110.993 Y121.655 E3.0994
G1 X110.761 Y122.183 E3.12494
G1 X106.384 Y117.805 E3.3991
G1 X105.949 Y117.974 E3.41977
G1 X105.869 Y118.051 E3.42465
G1 X110.529 Y122.71 E3.71649
G1 X110.515 Y122.743 E3.71806
G1 X110.15 Y123.092 E3.7404
G1 X105.481 Y118.422 E4.03285
G1 X105.093 Y118.794 E4.05666
G1 X109.762 Y123.464 E4.3491
G1 X109.566 Y123.651 E4.36112
G1 X109.295 Y123.757 E4.37399
G1 X104.823 Y119.285 E4.65407
G1 X104.591 Y119.813 E4.6796
G1 X108.748 Y123.97 E4.93996
G1 X108.342 Y124.128 E4.95925
G1 X108.142 Y124.123 E4.96813
G1 X104.464 Y120.445 E5.1985
G1 X104.447 Y121.189 E5.23144
G1 X107.365 Y124.106 E5.41417
G1 X107.029 Y124.099 E5.42903
G1 X106.258 Y123.759 E5.46634
G1 X104.385 Y121.886 E5.58367
G92 E0
G1 E-2.1 F3000
;WIPE_START
G1 F7200
G1 X105.912 Y123.414 E-2.955
;WIPE_END
G1 E-3 F3000
; acceleration to travel
M204 S1500
G1 X118.64 Y117.355 F9000
; decel to extrusion
M204 S500
G1 X120.195 Y116.615
; end travel
G1 E0 F3000
;TYPE:External perimeter
;WIDTH:0.576
G1 F1200
G1 X119.585 Y115.047 E0.07533
G1 X119.621 Y113.364 E0.15068
G1 X120.299 Y111.823 E0.22604
G1 X121.515 Y110.659 E0.30141
G1 X123.084 Y110.049 E0.37676
G1 X123.466 Y110.057 E0.39387
G1 X124.766 Y110.085 E0.45209
G1 X126.307 Y110.763 E0.52745
G1 X127.471 Y111.979 E0.60281
G1 X128.081 Y113.548 E0.67817
G1 X128.045 Y115.23 E0.7535
G1 X127.367 Y116.771 E0.82886
G1 X126.151 Y117.935 E0.90422
G1 X124.583 Y118.545 E0.97955
G1 X122.9 Y118.509 E1.0549
G1 X121.359 Y117.831 E1.13027
G1 X120.236 Y116.658 E1.20295
;WIPE_START
G1 X120.402 Y116.273 F9000
;WIPE_END
G1 X120.607 Y116.193
;TYPE:Internal perimeter
G1 F1200
G1 X120.125 Y114.951 E1.26259
G1 X120.156 Y113.482 E1.32838
G1 X120.748 Y112.137 E1.39416
G1 X121.809 Y111.121 E1.45995
G1 X123.179 Y110.588 E1.52574
G1 X123.454 Y110.594 E1.53806
G1 X124.648 Y110.62 E1.5915
G1 X125.993 Y111.212 E1.65729
G1 X127.009 Y112.273 E1.72308
G1 X127.541 Y113.643 E1.78886
G1 X127.51 Y115.111 E1.85462
G1 X126.918 Y116.457 E1.92041
G1 X125.857 Y117.473 E1.9862
G1 X124.487 Y118.005 E2.05197
G1 X123.018 Y117.974 E2.11775
G1 X121.673 Y117.382 E2.18354
G1 X120.657 Y116.32 E2.24933
G1 X120.629 Y116.249 E2.25276
G92 E0
G1 E-2.1 F3000
;WIPE_START
G1 F7200
G1 X120.125 Y114.951 E-2.6511
G1 X120.141 Y114.184 E-2.955
;WIPE_END
G1 E-3 F3000
; acceleration to travel
M204 S1500
G1 X126.307 Y112.995 F9000
; decel to extrusion
M204 S500
G1 X127.06 Y112.85
; end travel
G1 E0 F3000
;TYPE:Solid infill
;WIDTH:0.569812
G1 F1200
G1 X125.739 Y111.529 E0.08276
G1 X124.561 Y111.011 E0.13974
G1 X124.459 Y111.009 E0.14428
G1 X127.138 Y113.688 E0.31209
G1 X127.148 Y113.712 E0.31326
G1 X127.132 Y114.442 E0.34556
G1 X123.682 Y110.992 E0.56164
G1 X123.446 Y110.987 E0.5721
G1 X123.248 Y110.982 E0.58084
G1 X123.007 Y111.076 E0.59233
G1 X127.069 Y115.139 E0.84677
G1 X126.837 Y115.667 E0.87231
G1 X122.459 Y111.289 E1.14649
G1 X122.024 Y111.458 E1.16716
G1 X121.945 Y111.534 E1.17204
G1 X126.605 Y116.195 E1.46391
G1 X126.59 Y116.227 E1.4655
G1 X126.226 Y116.576 E1.48783
G1 X121.556 Y111.906 E1.78031
G1 X121.168 Y112.278 E1.80411
G1 X125.838 Y116.948 E2.0966
G1 X125.642 Y117.136 E2.10864
G1 X125.371 Y117.241 E2.12149
G1 X120.899 Y112.768 E2.40161
G1 X120.667 Y113.296 E2.42715
G1 X124.824 Y117.454 E2.68753
G1 X124.418 Y117.611 E2.70683
G1 X124.218 Y117.607 E2.7157
G1 X120.539 Y113.928 E2.94611
G1 X120.523 Y114.672 E2.97906
G1 X123.441 Y117.59 E3.16182
G1 X123.105 Y117.583 E3.17671
G1 X122.335 Y117.245 E3.21394
G1 X120.46 Y115.369 E3.33139
M106 S84.15
;LAYER_CHANGE
;Z:0.52
;HEIGHT:0.32
;BEFORE_LAYER_CHANGE
;0.52


G92 E0
G1 E-2.1 F3000
;WIPE_START
G1 F7200
G1 X121.987 Y116.897 E-2.955
;WIPE_END
G1 E-3 F3000
; stop printing object Kuwait_Towers.stl id:0 copy 0
M486 S-1
G1 Z0.47 F9000
;AFTER_LAYER_CHANGE
;0.52
G92 E0
; printing object Kuwait_Towers.stl id:0 copy 0
M486 S0
; acceleration to travel
M204 S1500
G1 X112.813 Y119.76
; decel to extrusion
M204 S500
G1 X111.628 Y120.13
; end travel
G1 E3 F3000
;TYPE:Internal perimeter
;WIDTH:0.476
G1 F2400
