; generated by SuperSlicer 2.4 on 2022-12-20 at 12:44:43 UTC

; 

; external perimeters extrusion width = 0.43mm
; perimeters extrusion width = 0.48mm
; infill extrusion width = 0.46mm
; solid infill extrusion width = 0.48mm
; top infill extrusion width = 0.46mm
; first layer extrusion width = 0.58mm

; object:{"name":"Kuwait_Towers","id":"Kuwait_Towers.stl id:0 copy 0","object_center":[115.950953,116.538311,0.000000],"boundingbox_center":[115.950953,116.538311,33.033082],"boundingbox_size":[29.992395,22.276603,66.065736]}
; Total objects to print: 1
M486 T1
; plater:{"center":[115.950953,116.538311,0.000000],"boundingbox_center":[115.950953,116.538311,33.033082],"boundingbox_size":[29.992395,22.276603,66.065736]}

;TYPE:Custom
G90 ; use absolute coordinates
M83 ; extruder relative mode
M140 S60 ; set final bed temp
M104 S150 ; set temporary nozzle temp to prevent oozing during homing and auto bed leveling
G4 S10 ; allow partial nozzle warmup
G28 ; home all axis
;G29 ; auto bed levelling
G1 Z10 F240
G1 X2 Y10 F3000
G1 Z0 F240
M104 S210 ; set final nozzle temp
M190 S60 ; wait for bed temp to stabilize
M109 S210 ; wait for nozzle temp to stabilize
G1 Z0.28 F240
G92 E0
G1 Y140 E10 F1500 ; prime the nozzle
G1 X2.3 F5000
G92 E0
G1 Y10 E10 F1200 ; prime the nozzle
G92 E0
;start
M107
G21 ; set units to millimeters
G90 ; use absolute coordinates
M82 ; use absolute distances for extrusion
G92 E0
; Filament gcode
;_TOOLCHANGE 0
M107
;LAYER_CHANGE
;Z:0.2
;HEIGHT:0.2
;BEFORE_LAYER_CHANGE
;0.2


G1 E-3 F3000
G1 Z0.15 F9000
;AFTER_LAYER_CHANGE
;0.2
G92 E0
M204 S500
G1 X101.77 Y112.546
G1 E3 F3000
;TYPE:Skirt
;WIDTH:0.48
G1 F1200
G1 X99.897 Y114.34 E3.09521
G1 X99.078 Y115.508 E3.14758
G1 X98.034 Y117.881 E3.24275
G1 X97.725 Y119.274 E3.2951
G1 X97.669 Y121.867 E3.39032
G1 X97.917 Y123.273 E3.44271
G1 X98.857 Y125.69 E3.53793
G1 X99.624 Y126.893 E3.59028
G1 X101.417 Y128.765 E3.68543
G1 X102.584 Y129.583 E3.73775
G1 X104.958 Y130.627 E3.83294
G1 X106.35 Y130.936 E3.88529
G1 X108.943 Y130.993 E3.98048
G1 X110.349 Y130.745 E4.03289
G1 X128.889 Y123.27 E4.76669
G1 X130.043 Y122.523 E4.81715
G1 X131.917 Y120.73 E4.91235
G1 X132.736 Y119.56 E4.96477
G1 X133.78 Y117.186 E5.05997
G1 X134.088 Y115.795 E5.11226
G1 X134.145 Y113.203 E5.20742
G1 X133.897 Y111.797 E5.25984
G1 X132.956 Y109.38 E5.35504
G1 X132.191 Y108.178 E5.40734
G1 X130.398 Y106.304 E5.50254
G1 X129.228 Y105.485 E5.55497
G1 X126.853 Y104.441 E5.65019
G1 X125.46 Y104.133 E5.70255
G1 X123.705 Y104.095 E5.76699
G1 X122.869 Y104.077 E5.79769
G1 X121.467 Y104.325 E5.84996
G1 X102.925 Y111.799 E6.58379
G1 X101.821 Y112.514 E6.63205
G1 X102.073 Y112.862 F9000
G1 F1200
G1 X100.199 Y114.655 E6.72726
G1 X99.478 Y115.684 E6.77337
G1 X98.434 Y118.058 E6.86854
G1 X98.162 Y119.283 E6.91463
G1 X98.106 Y121.877 E7.00985
G1 X98.324 Y123.114 E7.05597
G1 X99.265 Y125.532 E7.15119
G1 X99.939 Y126.591 E7.19728
G1 X101.732 Y128.463 E7.29244
G1 X102.76 Y129.183 E7.3385
G1 X105.134 Y130.227 E7.43369
G1 X106.36 Y130.499 E7.47978
G1 X108.952 Y130.556 E7.57498
G1 X110.19 Y130.338 E7.62112
G1 X128.725 Y122.865 E8.35469
G1 X129.741 Y122.207 E8.39912
G1 X131.615 Y120.414 E8.49432
G1 X132.336 Y119.384 E8.54047
G1 X133.38 Y117.01 E8.63567
G1 X133.651 Y115.785 E8.6817
G1 X133.708 Y113.193 E8.77687
G1 X133.49 Y111.955 E8.82302
G1 X132.549 Y109.538 E8.91823
G1 X131.875 Y108.48 E8.96427
G1 X130.082 Y106.606 E9.05947
G1 X129.052 Y105.885 E9.10563
G1 X126.677 Y104.841 E9.20085
G1 X125.451 Y104.57 E9.24695
G1 X123.696 Y104.532 E9.31139
G1 X122.859 Y104.514 E9.34209
G1 X121.625 Y104.732 E9.38811
G1 X103.089 Y112.204 E10.1217
G1 X102.123 Y112.829 E10.16393
G92 E0
G1 E-2.1 F3000
;WIPE_START
G1 F7200
G1 X100.556 Y114.316 E-2.955
;WIPE_END
G1 E-3 F3000
; acceleration to travel
M204 S1500
G1 X104.086 Y115.715 F9000
; decel to extrusion
M204 S500
G1 X104.518 Y115.886
; end travel
G1 E0 F3000
;WIDTH:0.576
G1 F1200
G1 X104.727 Y115.738 E0.01145
G1 X106.654 Y114.976 E0.10425
G1 X107.018 Y114.912 E0.12077
G1 X107.536 Y114.923 E0.14399
G1 X108.969 Y114.953 E0.20816
G1 X109.22 Y114.996 E0.21957
G1 X111.12 Y115.818 E0.31222
G1 X111.336 Y115.955 E0.32367
G1 X112.776 Y117.44 E0.41628
G1 X112.923 Y117.649 E0.42773
G1 X113.685 Y119.573 E0.52039
G1 X113.742 Y119.823 E0.53185
G1 X113.709 Y121.893 E0.62451
G1 X113.665 Y122.145 E0.63596
G1 X112.844 Y124.043 E0.72856
G1 X112.707 Y124.259 E0.74
G1 X111.221 Y125.7 E0.83267
G1 X111.012 Y125.847 E0.84412
G1 X109.087 Y126.609 E0.93678
G1 X108.838 Y126.665 E0.94825
G1 X106.769 Y126.632 E1.04088
G1 X106.517 Y126.589 E1.05232
G1 X104.618 Y125.766 E1.14498
G1 X104.402 Y125.63 E1.15642
G1 X102.962 Y124.144 E1.24902
G1 X102.815 Y123.936 E1.26047
G1 X102.053 Y122.011 E1.35313
G1 X101.996 Y121.762 E1.36459
G1 X102.029 Y119.692 E1.45725
G1 X102.073 Y119.44 E1.4687
G1 X102.895 Y117.542 E1.56131
G1 X103.031 Y117.325 E1.57276
G1 X104.475 Y115.927 E1.66272
G1 X104.847 Y116.314 F9000
G1 F1200
G1 X104.874 Y116.288 E1.66441
G1 X105.005 Y116.199 E1.6715
G1 X106.825 Y115.486 E1.75903
G1 X107.033 Y115.449 E1.76845
G1 X107.525 Y115.46 E1.79049
G1 X108.936 Y115.49 E1.85367
G1 X109.092 Y115.519 E1.86076
G1 X110.884 Y116.302 E1.94834
G1 X111.017 Y116.388 E1.95543
G1 X112.373 Y117.797 E2.04297
G1 X112.463 Y117.927 E2.05006
G1 X113.177 Y119.749 E2.13764
G1 X113.21 Y119.904 E2.14474
G1 X113.172 Y121.86 E2.23233
G1 X113.143 Y122.016 E2.23941
G1 X112.36 Y123.807 E2.32694
G1 X112.274 Y123.94 E2.33403
G1 X110.864 Y125.297 E2.42163
G1 X110.734 Y125.386 E2.42872
G1 X108.912 Y126.101 E2.51631
G1 X108.757 Y126.133 E2.5234
G1 X106.802 Y126.095 E2.61096
G1 X106.646 Y126.066 E2.61804
G1 X104.853 Y125.283 E2.70563
G1 X104.721 Y125.196 E2.71271
G1 X103.365 Y123.788 E2.80024
G1 X103.275 Y123.657 E2.80733
G1 X102.561 Y121.836 E2.89492
G1 X102.529 Y121.681 E2.90201
G1 X102.566 Y119.725 E2.9896
G1 X102.595 Y119.569 E2.99669
G1 X103.378 Y117.777 E3.08422
G1 X103.465 Y117.645 E3.09132
G1 X104.804 Y116.356 E3.17452
G1 X105.175 Y116.744 F9000
G1 F1200
G1 X105.227 Y116.695 E3.17771
G1 X105.271 Y116.666 E3.18008
G1 X106.996 Y115.996 E3.26289
G1 X107.048 Y115.987 E3.26526
G1 X107.513 Y115.997 E3.28612
G1 X108.898 Y116.027 E3.34812
G1 X108.95 Y116.038 E3.35049
G1 X110.644 Y116.783 E3.43335
G1 X110.687 Y116.813 E3.43572
G1 X111.967 Y118.149 E3.51854
G1 X111.995 Y118.194 E3.5209
G1 X112.667 Y119.919 E3.60377
G1 X112.676 Y119.971 E3.60614
G1 X112.635 Y121.822 E3.68902
G1 X112.624 Y121.873 E3.69138
G1 X111.879 Y123.567 E3.7742
G1 X111.849 Y123.61 E3.77657
G1 X110.512 Y124.891 E3.85945
G1 X110.467 Y124.919 E3.86182
G1 X108.742 Y125.59 E3.94469
G1 X108.69 Y125.6 E3.94706
G1 X106.84 Y125.559 E4.0299
G1 X106.788 Y125.547 E4.03227
G1 X105.094 Y124.802 E4.11514
G1 X105.051 Y124.771 E4.1175
G1 X103.771 Y123.435 E4.20032
G1 X103.743 Y123.391 E4.20269
G1 X103.072 Y121.666 E4.28556
G1 X103.062 Y121.613 E4.28793
G1 X103.103 Y119.763 E4.3708
G1 X103.114 Y119.711 E4.37317
G1 X103.859 Y118.018 E4.45599
G1 X103.89 Y117.975 E4.45836
G1 X105.132 Y116.786 E4.53534
G92 E0
G1 E-2.1 F3000
;WIPE_START
G1 F7200
G1 X105.227 Y116.695 E-2.15195
G1 X105.271 Y116.666 E-2.1729
G1 X106.996 Y115.996 E-2.90512
G1 X107.048 Y115.987 E-2.92603
G1 X107.121 Y115.989 E-2.955
;WIPE_END
G1 E-3 F3000
; acceleration to travel
M204 S1500
G1 X116.881 Y115.328 F9000
; decel to extrusion
M204 S500
G1 X118.073 Y115.247
; end travel
G1 E0 F3000
G1 F1200
G1 X118.104 Y113.178 E0.09261
G1 X118.147 Y112.926 E0.10409
G1 X118.97 Y111.026 E0.19679
G1 X119.107 Y110.809 E0.20824
G1 X120.593 Y109.37 E0.30089
G1 X120.802 Y109.222 E0.31234
G1 X122.731 Y108.46 E0.40519
G1 X123.094 Y108.395 E0.42171
G1 X123.613 Y108.406 E0.44492
G1 X125.045 Y108.437 E0.50905
G1 X125.296 Y108.481 E0.52046
G1 X127.195 Y109.302 E0.61311
G1 X127.412 Y109.439 E0.62457
G1 X128.852 Y110.925 E0.71722
G1 X128.999 Y111.134 E0.72866
G1 X129.761 Y113.058 E0.82131
G1 X129.817 Y113.308 E0.83277
G1 X129.784 Y115.377 E0.92539
G1 X129.741 Y115.628 E0.93683
G1 X128.919 Y117.528 E1.02946
G1 X128.782 Y117.744 E1.04093
G1 X127.296 Y119.184 E1.13358
G1 X127.087 Y119.331 E1.14502
G1 X125.164 Y120.093 E1.23762
G1 X124.914 Y120.149 E1.24908
G1 X122.844 Y120.116 E1.34176
G1 X122.593 Y120.073 E1.3532
G1 X120.694 Y119.252 E1.44582
G1 X120.477 Y119.115 E1.45727
G1 X119.037 Y117.629 E1.54995
G1 X118.889 Y117.419 E1.56143
G1 X118.129 Y115.495 E1.65404
G1 X118.086 Y115.305 E1.66275
G1 X118.611 Y115.195 F9000
G1 F1200
G1 X118.605 Y115.166 E1.66408
G1 X118.641 Y113.211 E1.75163
G1 X118.67 Y113.054 E1.75874
G1 X119.453 Y111.261 E1.84635
G1 X119.54 Y111.129 E1.85344
G1 X120.95 Y109.772 E1.94102
G1 X121.08 Y109.683 E1.94811
G1 X122.902 Y108.97 E2.03568
G1 X123.109 Y108.933 E2.04511
G1 X123.601 Y108.944 E2.06714
G1 X125.011 Y108.974 E2.13028
G1 X125.167 Y109.003 E2.13737
G1 X126.96 Y109.786 E2.22495
G1 X127.093 Y109.872 E2.23205
G1 X128.449 Y111.282 E2.31962
G1 X128.538 Y111.413 E2.3267
G1 X129.252 Y113.234 E2.41429
G1 X129.285 Y113.389 E2.42138
G1 X129.247 Y115.344 E2.50893
G1 X129.218 Y115.499 E2.51601
G1 X128.436 Y117.292 E2.60357
G1 X128.349 Y117.425 E2.61067
G1 X126.939 Y118.781 E2.69825
G1 X126.809 Y118.87 E2.70533
G1 X124.989 Y119.585 E2.79287
G1 X124.833 Y119.617 E2.79996
G1 X122.877 Y119.579 E2.88756
G1 X122.722 Y119.55 E2.89464
G1 X120.929 Y118.768 E2.9822
G1 X120.796 Y118.681 E2.98929
G1 X119.439 Y117.272 E3.07689
G1 X119.35 Y117.141 E3.084
G1 X118.637 Y115.32 E3.17153
G1 X118.624 Y115.254 E3.17457
G1 X119.148 Y115.15 F9000
G1 F1200
G1 X119.139 Y115.098 E3.17693
G1 X119.177 Y113.248 E3.25978
G1 X119.189 Y113.196 E3.26216
G1 X119.935 Y111.502 E3.34504
G1 X119.965 Y111.459 E3.34741
G1 X121.302 Y110.179 E3.43027
G1 X121.347 Y110.15 E3.43264
G1 X123.072 Y109.48 E3.5155
G1 X123.124 Y109.471 E3.51786
G1 X123.59 Y109.481 E3.53871
G1 X124.973 Y109.511 E3.60068
G1 X125.025 Y109.522 E3.60305
G1 X126.719 Y110.267 E3.6859
G1 X126.763 Y110.297 E3.68828
G1 X128.042 Y111.634 E3.77113
G1 X128.071 Y111.679 E3.7735
G1 X128.742 Y113.404 E3.85637
G1 X128.751 Y113.456 E3.85874
G1 X128.711 Y115.306 E3.94156
G1 X128.699 Y115.357 E3.94393
G1 X127.954 Y117.052 E4.02679
G1 X127.924 Y117.095 E4.02916
G1 X126.587 Y118.375 E4.11201
G1 X126.542 Y118.403 E4.11438
G1 X124.818 Y119.074 E4.1972
G1 X124.766 Y119.083 E4.19958
G1 X122.915 Y119.043 E4.28246
G1 X122.864 Y119.031 E4.28482
G1 X121.17 Y118.287 E4.36767
G1 X121.126 Y118.256 E4.37004
G1 X119.846 Y116.919 E4.45292
G1 X119.817 Y116.875 E4.4553
G1 X119.17 Y115.206 E4.53542
G92 E0
G1 E-2.1 F3000
;WIPE_START
G1 F7200
G1 X119.139 Y115.098 E-2.14439
G1 X119.177 Y113.248 E-2.87693
G1 X119.189 Y113.196 E-2.89795
G1 X119.247 Y113.064 E-2.955
;WIPE_END
G1 E-3 F3000
; printing object Kuwait_Towers.stl id:0 copy 0
M486 S0
; acceleration to travel
M204 S1500
G1 X112.349 Y117.885 F9000
; decel to extrusion
M204 S500
G1 X111.507 Y118.474
; end travel
G1 E0 F3000
;TYPE:External perimeter
G1 F1200
G1 X112.117 Y120.043 E0.07537
G1 X112.081 Y121.726 E0.15074
G1 X111.403 Y123.266 E0.22606
G1 X110.187 Y124.431 E0.30144
G1 X108.618 Y125.041 E0.37681
G1 X106.936 Y125.004 E0.45214
G1 X105.395 Y124.326 E0.52752
G1 X104.231 Y123.111 E0.60284
G1 X103.621 Y121.542 E0.67821
G1 X103.658 Y119.859 E0.75358
G1 X104.335 Y118.319 E0.82889
G1 X105.551 Y117.155 E0.90425
G1 X107.119 Y116.546 E0.97957
G1 X107.502 Y116.554 E0.99669
G1 X108.802 Y116.581 E1.05494
G1 X110.343 Y117.259 E1.13029
G1 X111.465 Y118.431 E1.20292
;WIPE_START
G1 X111.299 Y118.816 F9000
;WIPE_END
G1 X111.094 Y118.896
;TYPE:Internal perimeter
G1 F1200
G1 X111.578 Y120.138 E1.2626
G1 X111.546 Y121.607 E1.3284
G1 X110.954 Y122.952 E1.39415
G1 X109.892 Y123.969 E1.45997
G1 X108.523 Y124.502 E1.52576
G1 X107.055 Y124.469 E1.59152
G1 X105.709 Y123.877 E1.65733
G1 X104.693 Y122.816 E1.72308
G1 X104.16 Y121.447 E1.78888
G1 X104.192 Y119.977 E1.85467
G1 X104.784 Y118.633 E1.92042
G1 X105.845 Y117.617 E1.9862
G1 X107.215 Y117.085 E2.05196
G1 X107.49 Y117.091 E2.0643
G1 X108.684 Y117.116 E2.11776
G1 X110.029 Y117.708 E2.18354
G1 X111.045 Y118.768 E2.24929
G1 X111.073 Y118.84 E2.25272
G1 X111.097 Y119.346 F9000
;TYPE:Solid infill
;WIDTH:0.569806
G1 F1200
G1 X109.775 Y118.025 E2.33548
G1 X108.598 Y117.507 E2.39245
G1 X108.495 Y117.505 E2.39698
G1 X111.175 Y120.184 E2.5648
G1 X111.184 Y120.207 E2.56591
G1 X111.168 Y120.937 E2.59823
G1 X107.719 Y117.488 E2.81425
G1 X107.482 Y117.483 E2.82476
G1 X107.284 Y117.479 E2.83352
G1 X107.043 Y117.572 E2.84496
G1 X111.105 Y121.634 E3.09937
G1 X110.873 Y122.162 E3.1249
G1 X106.496 Y117.785 E3.39904
G1 X106.06 Y117.954 E3.41975
G1 X105.981 Y118.03 E3.4246
G1 X110.641 Y122.69 E3.71644
G1 X110.626 Y122.722 E3.71801
G1 X110.262 Y123.071 E3.74035
G1 X105.593 Y118.402 E4.03281
G1 X105.204 Y118.773 E4.05662
G1 X109.874 Y123.443 E4.34908
G1 X109.677 Y123.631 E4.36114
G1 X109.407 Y123.736 E4.37397
G1 X104.935 Y119.264 E4.6541
G1 X104.703 Y119.792 E4.67963
G1 X108.86 Y123.949 E4.94004
G1 X108.454 Y124.108 E4.95938
G1 X108.254 Y124.103 E4.9682
G1 X104.575 Y120.424 E5.19865
G1 X104.559 Y121.168 E5.23159
G1 X107.477 Y124.086 E5.41439
G1 X107.141 Y124.079 E5.42928
G1 X106.371 Y123.74 E5.46655
G1 X104.496 Y121.865 E5.58397
G92 E0
G1 E-2.1 F3000
;WIPE_START
G1 F7200
G1 X106.023 Y123.392 E-2.955
;WIPE_END
G1 E-3 F3000
; acceleration to travel
M204 S1500
G1 X118.751 Y117.335 F9000
; decel to extrusion
M204 S500
G1 X120.306 Y116.595
; end travel
G1 E0 F3000
;TYPE:External perimeter
;WIDTH:0.576
G1 F1200
G1 X119.697 Y115.027 E0.07531
G1 X119.732 Y113.344 E0.15067
G1 X120.41 Y111.803 E0.22604
G1 X121.626 Y110.639 E0.3014
G1 X123.196 Y110.029 E0.37677
G1 X123.578 Y110.038 E0.39387
G1 X124.878 Y110.065 E0.45209
G1 X126.418 Y110.743 E0.52744
G1 X127.582 Y111.959 E0.6028
G1 X128.193 Y113.528 E0.67817
G1 X128.156 Y115.21 E0.75349
G1 X127.478 Y116.751 E0.82885
G1 X126.262 Y117.915 E0.90421
G1 X124.694 Y118.525 E0.97953
G1 X123.011 Y118.488 E1.05491
G1 X121.47 Y117.811 E1.13026
G1 X120.347 Y116.638 E1.20295
;WIPE_START
G1 X120.513 Y116.253 F9000
;WIPE_END
G1 X120.719 Y116.173
;TYPE:Internal perimeter
G1 F1200
G1 X120.237 Y114.931 E1.26259
G1 X120.267 Y113.462 E1.32839
G1 X120.859 Y112.117 E1.39418
G1 X121.921 Y111.101 E1.45996
G1 X123.291 Y110.569 E1.52576
G1 X123.566 Y110.575 E1.53809
G1 X124.759 Y110.6 E1.59152
G1 X126.104 Y111.192 E1.6573
G1 X127.12 Y112.253 E1.72308
G1 X127.653 Y113.623 E1.78888
G1 X127.621 Y115.091 E1.85464
G1 X127.03 Y116.437 E1.92042
G1 X125.968 Y117.453 E1.98621
G1 X124.599 Y117.985 E2.05196
G1 X123.13 Y117.953 E2.11778
G1 X121.784 Y117.362 E2.18356
G1 X120.768 Y116.301 E2.24935
G1 X120.74 Y116.229 E2.25277
G92 E0
G1 E-2.1 F3000
;WIPE_START
G1 F7200
G1 X120.237 Y114.931 E-2.6511
G1 X120.253 Y114.164 E-2.955
;WIPE_END
G1 E-3 F3000
; acceleration to travel
M204 S1500
G1 X126.418 Y112.975 F9000
; decel to extrusion
M204 S500
G1 X127.172 Y112.83
; end travel
G1 E0 F3000
;TYPE:Solid infill
;WIDTH:0.569824
G1 F1200
G1 X125.85 Y111.508 E0.08276
G1 X124.673 Y110.991 E0.13972
G1 X124.571 Y110.989 E0.14425
G1 X127.25 Y113.668 E0.31207
G1 X127.259 Y113.692 E0.31323
G1 X127.243 Y114.421 E0.34553
G1 X123.794 Y110.972 E0.56157
G1 X123.558 Y110.967 E0.57204
G1 X123.36 Y110.963 E0.58079
G1 X123.119 Y111.057 E0.59227
G1 X127.181 Y115.119 E0.84669
G1 X126.948 Y115.646 E0.87223
G1 X122.571 Y111.269 E1.14639
G1 X122.136 Y111.439 E1.16709
G1 X122.056 Y111.514 E1.17194
G1 X126.716 Y116.174 E1.46382
G1 X126.702 Y116.207 E1.46541
G1 X126.338 Y116.556 E1.48773
G1 X121.668 Y111.886 E1.78022
G1 X121.28 Y112.258 E1.80403
G1 X125.949 Y116.927 E2.09652
G1 X125.753 Y117.115 E2.10856
G1 X125.483 Y117.221 E2.1214
G1 X121.01 Y112.748 E2.40155
G1 X120.778 Y113.276 E2.42708
G1 X124.936 Y117.434 E2.68751
G1 X124.53 Y117.592 E2.70681
G1 X124.329 Y117.587 E2.71568
G1 X120.65 Y113.908 E2.94613
G1 X120.635 Y114.652 E2.97911
G1 X123.552 Y117.57 E3.16185
G1 X123.216 Y117.563 E3.17675
G1 X122.447 Y117.225 E3.21396
G1 X120.572 Y115.349 E3.33143
M106 S84.15
;LAYER_CHANGE
;Z:0.52
;HEIGHT:0.32
;BEFORE_LAYER_CHANGE
;0.52


G92 E0
G1 E-2.1 F3000
;WIPE_START
G1 F7200
G1 X122.099 Y116.877 E-2.955
;WIPE_END
G1 E-3 F3000
; stop printing object Kuwait_Towers.stl id:0 copy 0
M486 S-1
G1 Z0.47 F9000
