; generated by SuperSlicer 2.4 on 2022-12-20 at 12:45:34 UTC

; 

; external perimeters extrusion width = 0.43mm
; perimeters extrusion width = 0.48mm
; infill extrusion width = 0.46mm
; solid infill extrusion width = 0.48mm
; top infill extrusion width = 0.46mm
; first layer extrusion width = 0.58mm

; object:{"name":"New_York_Twin_Towers","id":"New_York_Twin_Towers.stl id:0 copy 0","object_center":[115.500000,115.500000,0.000000],"boundingbox_center":[115.500000,115.500000,24.265527],"boundingbox_size":[19.238415,17.692774,48.531201]}
; Total objects to print: 1
M486 T1
; plater:{"center":[115.500000,115.500000,0.000000],"boundingbox_center":[115.500000,115.500000,24.265527],"boundingbox_size":[19.238415,17.692774,48.531201]}

;TYPE:Custom
G90 ; use absolute coordinates
M83 ; extruder relative mode
M140 S60 ; set final bed temp
M104 S150 ; set temporary nozzle temp to prevent oozing during homing and auto bed leveling
G4 S10 ; allow partial nozzle warmup
G28 ; home all axis
;G29 ; auto bed levelling
G1 Z10 F240
G1 X2 Y10 F3000
G1 Z0 F240
M104 S210 ; set final nozzle temp
M190 S60 ; wait for bed temp to stabilize
M109 S210 ; wait for nozzle temp to stabilize
G1 Z0.28 F240
G92 E0
G1 Y140 E10 F1500 ; prime the nozzle
G1 X2.3 F5000
G92 E0
G1 Y10 E10 F1200 ; prime the nozzle
G92 E0
;start
M107
G21 ; set units to millimeters
G90 ; use absolute coordinates
M82 ; use absolute distances for extrusion
G92 E0
; Filament gcode
;_TOOLCHANGE 0
M107
;LAYER_CHANGE
;Z:0.2
;HEIGHT:0.2
;BEFORE_LAYER_CHANGE
;0.2


G1 E-3 F3000
G1 Z0.15 F9000
;AFTER_LAYER_CHANGE
;0.2
G92 E0
M204 S500
G1 X100.844 Y109.725
G1 E3 F3000
;TYPE:Skirt
;WIDTH:0.48
G1 F1200
G1 X100.176 Y110.338 E3.03329
G1 X99.712 Y111.972 E3.09563
G1 X100.037 Y113.639 E3.15798
G1 X106.737 Y128.375 E3.75215
G1 X108.277 Y130.05 E3.83568
G1 X109.91 Y130.514 E3.89803
G1 X111.578 Y130.19 E3.96037
G1 X129.148 Y122.201 E4.66886
G1 X130.824 Y120.661 E4.75239
G1 X131.287 Y119.027 E4.81473
G1 X130.963 Y117.36 E4.87707
G1 X124.263 Y102.625 E5.47125
G1 X122.723 Y100.949 E5.55478
G1 X121.089 Y100.485 E5.61712
G1 X119.422 Y100.81 E5.67946
G1 X101.852 Y108.798 E6.38795
G1 X100.888 Y109.684 E6.43599
G1 X101.136 Y109.971 F9000
G1 F1200
G1 X100.66 Y110.381 E6.45905
G1 X100.155 Y111.891 E6.51749
G1 X100.435 Y113.458 E6.57593
G1 X107.135 Y128.194 E7.17011
G1 X108.32 Y129.566 E7.23666
G1 X109.829 Y130.072 E7.2951
G1 X111.397 Y129.792 E7.35354
G1 X128.967 Y121.803 E8.06203
G1 X130.339 Y120.618 E8.12859
G1 X130.845 Y119.108 E8.18703
G1 X130.565 Y117.541 E8.24547
G1 X123.865 Y102.805 E8.83964
G1 X122.68 Y101.433 E8.9062
G1 X121.17 Y100.928 E8.96464
G1 X119.603 Y101.208 E9.02308
G1 X102.033 Y109.196 E9.73157
G1 X101.181 Y109.932 E9.77286
G92 E0
G1 E-2.1 F3000
;WIPE_START
G1 F7200
G1 X100.66 Y110.381 E-2.37241
G1 X100.193 Y111.777 E-2.955
;WIPE_END
G1 E-3 F3000
; acceleration to travel
M204 S1500
G1 X104.393 Y112.246 F9000
; decel to extrusion
M204 S500
G1 X104.906 Y112.304
; end travel
G1 E0 F3000
;WIDTH:0.576
G1 F1200
G1 X105.124 Y112.07 E0.01431
G1 X105.21 Y112.008 E0.01905
G1 X119.633 Y105.451 E0.72835
G1 X119.736 Y105.427 E0.73309
G1 X120.056 Y105.416 E0.7474
G1 X120.16 Y105.433 E0.75213
G1 X120.668 Y105.623 E0.77641
G1 X120.758 Y105.679 E0.78115
G1 X120.991 Y105.897 E0.79546
G1 X121.053 Y105.983 E0.8002
G1 X126.322 Y117.571 E1.37007
G1 X126.346 Y117.674 E1.37481
G1 X126.357 Y117.993 E1.38912
G1 X126.34 Y118.098 E1.39386
G1 X126.149 Y118.606 E1.41814
G1 X126.093 Y118.696 E1.42287
G1 X125.875 Y118.929 E1.43718
G1 X125.789 Y118.991 E1.44192
G1 X111.367 Y125.548 E2.15122
G1 X111.264 Y125.573 E2.15596
G1 X110.944 Y125.584 E2.17027
G1 X110.84 Y125.566 E2.17501
G1 X110.332 Y125.376 E2.19928
G1 X110.242 Y125.32 E2.20402
G1 X110.008 Y125.102 E2.21833
G1 X109.947 Y125.016 E2.22307
G1 X104.678 Y113.428 E2.79295
G1 X104.654 Y113.325 E2.79769
G1 X104.643 Y113.006 E2.812
G1 X104.66 Y112.901 E2.81674
G1 X104.85 Y112.394 E2.84101
G1 X104.875 Y112.355 E2.84306
G1 X105.335 Y112.632 F9000
G1 F1200
G1 X105.481 Y112.476 E2.85263
G1 X119.807 Y105.962 E3.55719
G1 X120.021 Y105.955 E3.56676
G1 X120.43 Y106.108 E3.5863
G1 X120.586 Y106.254 E3.59587
G1 X125.811 Y117.745 E4.16101
G1 X125.818 Y117.959 E4.17058
G1 X125.665 Y118.367 E4.19011
G1 X125.519 Y118.524 E4.19968
G1 X111.192 Y125.037 E4.90424
G1 X110.979 Y125.045 E4.91381
G1 X110.57 Y124.891 E4.93335
G1 X110.414 Y124.746 E4.94292
G1 X105.189 Y113.254 E5.50806
G1 X105.182 Y113.04 E5.51763
G1 X105.314 Y112.688 E5.53448
G1 X105.801 Y112.921 F9000
G1 F1200
G1 X119.932 Y106.495 E6.22947
G1 X120.141 Y106.574 E6.23943
G1 X120.351 Y107.035 E6.26212
G1 X125.277 Y117.87 E6.795
G1 X125.199 Y118.079 E6.80497
G1 X111.067 Y124.504 E7.49995
G1 X110.859 Y124.426 E7.50992
G1 X105.723 Y113.129 E8.06549
G1 X105.78 Y112.977 E8.07277
; printing object New_York_Twin_Towers.stl id:0 copy 0
M486 S0
G1 X106.395 Y113.262 F9000
;TYPE:External perimeter
G1 F1200
G1 X119.799 Y107.167 E8.732
G1 X119.844 Y107.265 E8.73681
G1 X124.605 Y117.737 E9.25182
G1 X111.2 Y123.832 E9.91105
G1 X106.419 Y113.317 E10.42818
;WIPE_START
G1 X106.793 Y113.301 F9000
;WIPE_END
G1 X107.106 Y113.529
;TYPE:Internal perimeter
G1 F1200
G1 X119.533 Y107.879 E11.0393
G1 X123.894 Y117.47 E11.511
G1 X111.467 Y123.12 E12.12212
G1 X107.131 Y113.584 E12.59113
G92 E0
G1 E-2.1 F3000
;WIPE_START
G1 F7200
G1 X109.093 Y112.681 E-2.955
;WIPE_END
G1 E-3 F3000
; acceleration to travel
M204 S1500
G1 X117.656 Y108.896 F9000
; decel to extrusion
M204 S500
G1 X118.703 Y108.433
; end travel
G1 E0 F3000
;TYPE:Solid infill
;WIDTH:0.576927
G1 F1200
G1 X119.897 Y109.628 E0.07574
G1 X120.53 Y111.021 E0.14438
G1 X118.355 Y108.846 E0.28236
G1 X117.832 Y109.083 E0.30809
G1 X121.164 Y112.415 E0.51938
G1 X121.798 Y113.808 E0.58803
G1 X117.31 Y109.321 E0.87263
G1 X116.787 Y109.558 E0.89836
G1 X122.431 Y115.202 E1.25627
G1 X123.065 Y116.596 E1.32491
G1 X116.265 Y109.796 E1.75613
G1 X115.742 Y110.033 E1.78187
G1 X123.107 Y117.397 E2.24886
G1 X122.584 Y117.635 E2.2746
G1 X115.22 Y110.271 E2.7416
G1 X114.698 Y110.508 E2.76733
G1 X122.062 Y117.872 E3.23433
G1 X121.539 Y118.11 E3.26006
G1 X114.175 Y110.746 E3.72706
G1 X113.653 Y110.983 E3.75279
G1 X121.017 Y118.347 E4.21979
G1 X120.494 Y118.585 E4.24552
G1 X113.13 Y111.221 E4.71252
G1 X112.608 Y111.458 E4.73825
G1 X119.972 Y118.823 E5.20525
G1 X119.45 Y119.06 E5.23099
G1 X112.085 Y111.696 E5.69798
G1 X111.563 Y111.933 E5.72372
G1 X118.927 Y119.298 E6.19071
G1 X118.405 Y119.535 E6.21645
G1 X111.041 Y112.171 E6.68345
G1 X110.518 Y112.408 E6.70918
G1 X117.882 Y119.773 E7.17618
G1 X117.36 Y120.01 E7.20191
G1 X109.996 Y112.646 E7.66891
G1 X109.473 Y112.884 E7.69464
G1 X116.837 Y120.248 E8.16164
G1 X116.315 Y120.485 E8.18737
G1 X108.951 Y113.121 E8.65437
G1 X108.428 Y113.359 E8.6801
G1 X115.793 Y120.723 E9.1471
G1 X115.27 Y120.96 E9.17284
G1 X107.906 Y113.596 E9.63983
G1 X107.626 Y113.724 E9.65365
G1 X107.919 Y114.369 E9.68544
G1 X114.748 Y121.198 E10.11848
G1 X114.225 Y121.435 E10.14422
G1 X108.553 Y115.763 E10.50394
G1 X109.186 Y117.156 E10.57259
G1 X113.703 Y121.673 E10.85901
G1 X113.181 Y121.91 E10.88474
G1 X109.82 Y118.55 E11.09785
G1 X110.454 Y119.943 E11.16649
G1 X112.658 Y122.148 E11.30629
G1 X112.136 Y122.385 E11.33203
G1 X110.622 Y120.872 E11.42803
M106 S84.15
;LAYER_CHANGE
;Z:0.52
;HEIGHT:0.32
;BEFORE_LAYER_CHANGE
;0.52


G92 E0
G1 E-2.1 F3000
;WIPE_START
G1 F7200
G1 X112.136 Y122.385 E-2.94749
G1 X112.153 Y122.378 E-2.955
;WIPE_END
G1 E-3 F3000
; stop printing object New_York_Twin_Towers.stl id:0 copy 0
M486 S-1
G1 Z0.47 F9000
;AFTER_LAYER_CHANGE
;0.52
G92 E0
; printing object New_York_Twin_Towers.stl id:0 copy 0
M486 S0
; acceleration to travel
M204 S1500
G1 X109.46 Y117.642
; decel to extrusion
M204 S500
G1 X109.118 Y117.04
; end travel
G1 E3 F3000
;TYPE:Internal perimeter
;WIDTH:0.476
G1 F2125.7005
G1 X108.192 Y116.693 E3.05413
G1 X107.388 Y114.925 E3.1604
G1 X108.232 Y112.664 E3.29247
G1 X110.113 Y111.809 E3.4056
G1 X110.959 Y112.127 E3.45505
G1 X112.494 Y115.505 E3.65811
G1 X109.172 Y117.015 E3.85784
G92 E0
G1 E-2.1 F3000
;WIPE_START
G1 F7200
G1 X108.192 Y116.693 E-2.50859
G1 X107.725 Y115.666 E-2.955
;WIPE_END
G1 E-3 F3000
; acceleration to travel
M204 S1500
G1 X116.85 Y115.687 F9000
; decel to extrusion
M204 S500
G1 X118.005 Y115.689
; end travel
G1 E0 F3000
G1 F2056.6643
G1 X121.048 Y114.306 E0.18295
G1 X122.584 Y117.682 E0.38596
G1 X122.25 Y118.571 E0.4379
G1 X120.429 Y119.399 E0.54739
G1 X119.541 Y119.066 E0.59934
G1 X118.03 Y115.744 E0.79906
G92 E0
G1 E-2.1 F3000
;WIPE_START
G1 F7200
G1 X119.98 Y114.815 E-2.955
;WIPE_END
G1 E-3 F3000
; acceleration to travel
M204 S1500
G1 X124.302 Y117.493 F9000
; decel to extrusion
M204 S500
G1 X124.836 Y117.824
; end travel
G1 E0 F3000
;TYPE:External perimeter
;WIDTH:0.428
G1 F1500
G1 X111.114 Y124.063 E0.72779
G1 X106.164 Y113.176 E1.30523
G1 X119.886 Y106.937 E2.03301
G1 X124.811 Y117.769 E2.60755
;WIPE_START
G1 X124.438 Y117.785 F9000
;WIPE_END
G1 X124.454 Y117.224
;TYPE:Top solid infill
;WIDTH:0.465685
G1 F1800
G1 X123.578 Y118.101 E2.67341
G1 X122.567 Y118.56 E2.73244
G1 X122.571 Y118.55 E2.73299
G1 X124.152 Y116.969 E2.85185
G1 X123.978 Y116.586 E2.87423
G1 X122.898 Y117.666 E2.9554
G1 X122.723 Y117.283 E2.97778
G1 X123.803 Y116.203 E3.05895
G1 X123.629 Y115.82 E3.08132
G1 X122.549 Y116.899 E3.1625
G1 X122.375 Y116.516 E3.18487
G1 X123.455 Y115.436 E3.26605
G1 X123.281 Y115.053 E3.28842
G1 X122.201 Y116.133 E3.3696
G1 X122.026 Y115.75 E3.39197
G1 X123.106 Y114.67 E3.47315
G1 X122.932 Y114.287 E3.49552
G1 X121.852 Y115.367 E3.57669
G1 X121.678 Y114.983 E3.59907
G1 X122.758 Y113.903 E3.68024
G1 X122.584 Y113.52 E3.70262
G1 X121.504 Y114.6 E3.78379
G1 X121.33 Y114.217 E3.80617
G1 X122.409 Y113.137 E3.88734
G1 X122.235 Y112.754 E3.90972
G1 X120.968 Y114.021 E4.00494
G1 X119.946 Y114.485 E4.06463
G1 X122.061 Y112.37 E4.2236
G1 X121.887 Y111.987 E4.24597
G1 X118.582 Y115.292 E4.49435
G92 E0
G1 E-2.1 F3000
;WIPE_START
G1 F7200
G1 X120.11 Y113.764 E-2.955
;WIPE_END
G1 E-3 F3000
; acceleration to travel
M204 S1500
G1 X120.063 Y118.766 F9000
; decel to extrusion
M204 S500
G1 X120.058 Y119.391
; end travel
G1 E0 F3000
G1 F1800
G1 X119.489 Y119.96 E0.04274
G1 X118.467 Y120.425 E0.10243
G1 X119.52 Y119.371 E0.18164
G1 X119.324 Y119.297 E0.19277
G1 X119.234 Y119.099 E0.20433
G1 X117.444 Y120.889 E0.33887
G1 X116.422 Y121.354 E0.39856
G1 X119.06 Y118.716 E0.59685
G1 X118.886 Y118.333 E0.61922
G1 X115.4 Y121.819 E0.88125
G1 X114.378 Y122.284 E0.94094
G1 X118.712 Y117.95 E1.26671
G1 X118.537 Y117.566 E1.28909
G1 X113.355 Y122.748 E1.67861
G1 X112.333 Y123.213 E1.73829
G1 X118.363 Y117.183 E2.19155
G1 X118.189 Y116.8 E2.21393
G1 X111.311 Y123.678 E2.73093
G1 X111.248 Y123.707 E2.73463
G1 X111.084 Y123.347 E2.75562
G1 X118.015 Y116.417 E3.27657
G1 X117.84 Y116.034 E3.29894
G1 X110.91 Y122.964 E3.81989
G1 X110.736 Y122.581 E3.84227
G1 X121.712 Y111.604 E4.66736
G1 X121.538 Y111.221 E4.68974
G1 X110.561 Y122.198 E5.51484
G1 X110.387 Y121.814 E5.53721
G1 X121.364 Y110.838 E6.36231
G1 X121.19 Y110.454 E6.38468
G1 X110.213 Y121.431 E7.20978
G1 X110.039 Y121.048 E7.23215
G1 X121.015 Y110.071 E8.05725
G1 X120.841 Y109.688 E8.07962
G1 X109.864 Y120.665 E8.90472
G1 X109.69 Y120.281 E8.9271
G1 X120.667 Y109.305 E9.75219
G1 X120.493 Y108.921 E9.77457
G1 X109.516 Y119.898 E10.59966
G1 X109.342 Y119.515 E10.62204
G1 X120.319 Y108.538 E11.44713
G1 X120.144 Y108.155 E11.46951
G1 X109.167 Y119.132 E12.29461
G1 X108.993 Y118.749 E12.31698
G1 X111.433 Y116.309 E12.50037
G1 X110.411 Y116.774 E12.56005
G1 X108.819 Y118.365 E12.6797
G1 X108.645 Y117.982 E12.70207
G1 X109.388 Y117.238 E12.75797
G1 X109.129 Y117.357 E12.77313
G1 X108.826 Y117.243 E12.7903
G1 X108.47 Y117.599 E12.81704
G1 X108.296 Y117.216 E12.83942
G1 X108.552 Y116.959 E12.85867
G92 E0
G1 E-2.1 F3000
;WIPE_START
G1 F7200
G1 X108.296 Y117.216 E-2.2434
G1 X108.47 Y117.599 E-2.41004
G1 X108.826 Y117.243 E-2.60918
G1 X109.129 Y117.357 E-2.73704
G1 X109.388 Y117.238 E-2.84997
G1 X109.201 Y117.426 E-2.955
;WIPE_END
G1 E-3 F3000
; acceleration to travel
M204 S1500
G1 X112.14 Y115.478 F9000
; decel to extrusion
M204 S500
G1 X112.507 Y115.235
; end travel
G1 E0 F3000
G1 F1800
G1 X119.97 Y107.772 E0.56098
G1 X119.796 Y107.388 E0.58335
G1 X112.461 Y114.724 E1.13471
G1 X112.286 Y114.34 E1.15708
G1 X118.985 Y107.642 E1.66059
G1 X117.963 Y108.107 E1.72028
G1 X112.112 Y113.957 E2.16005
G1 X111.938 Y113.574 E2.18242
G1 X116.941 Y108.571 E2.55845
G1 X115.918 Y109.036 E2.61814
G1 X111.764 Y113.191 E2.93042
G1 X111.589 Y112.807 E2.9528
G1 X114.896 Y109.501 E3.20134
G1 X113.874 Y109.966 E3.26102
G1 X111.415 Y112.424 E3.44582
G1 X111.241 Y112.041 E3.46819
G1 X112.851 Y110.43 E3.58925
G1 X111.829 Y110.895 E3.64893
G1 X110.923 Y111.801 E3.71703
G1 X110.771 Y111.744 E3.72567
G1 X110.518 Y111.649 E3.74003
G1 X111.148 Y111.019 E3.78738
G92 E0
G1 E-2.1 F3000
;WIPE_START
G1 F7200
G1 X110.518 Y111.649 E-2.45268
G1 X110.771 Y111.744 E-2.55961
G1 X110.923 Y111.801 E-2.62396
G1 X111.515 Y111.21 E-2.955
;WIPE_END
G1 E-3 F3000
; acceleration to travel
M204 S1500
G1 X108.069 Y113.604 F9000
; decel to extrusion
M204 S500
G1 X107.638 Y113.903
; end travel
G1 E0 F3000
;WIDTH:0.487445
G1 F1800
G1 X107.055 Y114.486 E0.04584
G1 X106.881 Y114.103 E0.06926
G1 X107.681 Y113.303 E0.13221
G1 X107.915 Y112.675 E0.1695
G1 X107.615 Y112.811 E0.18786
G1 X106.707 Y113.72 E0.25932
G1 X106.532 Y113.336 E0.28274
G1 X106.934 Y112.935 E0.31434
G92 E0
G1 E-2.1 F3000
;WIPE_START
G1 F7200
G1 X106.532 Y113.336 E-2.32485
G1 X106.707 Y113.72 E-2.49149
G1 X107.535 Y112.892 E-2.955
;WIPE_END
G1 E-3 F3000
; acceleration to travel
M204 S1500
G1 X108.834 Y116.421 F9000
; decel to extrusion
M204 S500
G1 X108.997 Y116.863
; end travel
G1 E0 F3000
;WIDTH:0.552213
G1 F1800
G1 X109.283 Y116.576 E0.02558
G1 X109.109 Y116.193 E0.05211
G1 X108.723 Y116.579 E0.08657
G1 X108.408 Y116.461 E0.10774
G1 X108.369 Y116.375 E0.11369
G1 X108.827 Y115.917 E0.15454
G1 X108.787 Y115.879 E0.158
G1 X108.438 Y115.749 E0.18149
G1 X108.195 Y115.992 E0.20319
G1 X108.021 Y115.609 E0.22972
G1 X108.257 Y115.372 E0.25082
G1 X108.392 Y115.01 E0.2752
G1 X108.381 Y114.69 E0.29533
G1 X107.846 Y115.226 E0.34302
G1 X107.705 Y114.914 E0.36458
G1 X107.767 Y114.748 E0.37578
G1 X108.366 Y114.148 E0.42919
G92 E0
G1 E-2.1 F3000
;WIPE_START
G1 F7200
G1 X107.767 Y114.748 E-2.43541
G1 X107.705 Y114.914 E-2.50577
G1 X107.846 Y115.226 E-2.6412
G1 X108.381 Y114.69 E-2.94071
G1 X108.383 Y114.727 E-2.955
;WIPE_END
G1 E-3 F3000
; acceleration to travel
M204 S1500
G1 X109.931 Y113.145 F9000
; decel to extrusion
M204 S500
G1 X110.125 Y112.947
; end travel
G1 E0 F3000
G1 F1800
G1 X110.721 Y112.351 E0.05317
G1 X110.316 Y112.198 E0.08045
G1 X109.659 Y112.856 E0.13907
G92 E0
G1 E-2.1 F3000
;WIPE_START
G1 F7200
G1 X110.316 Y112.198 E-2.46816
G1 X110.721 Y112.351 E-2.63944
G1 X110.157 Y112.914 E-2.955
;WIPE_END
G1 E-3 F3000
; acceleration to travel
M204 S1500
G1 X108.071 Y114.01 F9000
; decel to extrusion
M204 S500
G1 X107.81 Y114.147
; end travel
G1 E0 F3000
G1 F1800
G1 X109.587 Y112.37 E0.15842
G1 X108.565 Y112.834 E0.22919
G1 X108.142 Y113.258 E0.26692
G1 X108.46 Y114.258 F9000
;TYPE:Solid infill
;WIDTH:0.556086
G1 F2400
G1 X109.637 Y113.081 E0.37334
G1 X109.883 Y113.174 E0.39015
G1 X110.139 Y113.165 E0.4065
G1 X108.764 Y114.54 E0.53078
G1 X108.783 Y115.073 E0.5649
G1 X108.763 Y115.127 E0.56859
G1 X110.935 Y112.955 E0.76499
G1 X111.118 Y113.358 E0.79327
G1 X108.95 Y115.526 E0.98933
G1 X108.996 Y115.543 E0.99247
G1 X109.266 Y115.796 E1.01611
G1 X111.301 Y113.76 E1.20013
G1 X111.484 Y114.163 E1.22841
G1 X109.51 Y116.137 E1.4069
G1 X109.632 Y116.406 E1.42576
G1 X109.99 Y116.243 E1.45088
G1 X111.667 Y114.566 E1.60254
G1 X111.85 Y114.969 E1.63082
G1 X110.705 Y116.113 E1.73435
G92 E0
G1 E-2.1 F3000
;WIPE_START
G1 F7200
G1 X111.85 Y114.969 E-2.74087
G1 X111.667 Y114.566 E-2.91596
G1 X111.597 Y114.636 E-2.955
;WIPE_END
G1 E-3 F3000
; acceleration to travel
M204 S1500
G1 X117.62 Y115.934 F9000
; decel to extrusion
M204 S500
G1 X118.398 Y116.102
; end travel
G1 E0 F3000
;WIDTH:0.560093
G1 F2400
G1 X118.748 Y115.752 E0.03186
