; generated by SuperSlicer 2.4 on 2022-12-20 at 12:46:01 UTC

; 

; external perimeters extrusion width = 0.43mm
; perimeters extrusion width = 0.48mm
; infill extrusion width = 0.46mm
; solid infill extrusion width = 0.48mm
; top infill extrusion width = 0.46mm
; first layer extrusion width = 0.58mm

; object:{"name":"Stringing_sdfTest","id":"Stringing_sdfTest.stl id:0 copy 0","object_center":[115.500000,115.500000,0.000000],"boundingbox_center":[115.500000,115.500000,9.410574],"boundingbox_size":[41.242988,41.242988,18.820000]}
; Total objects to print: 1
M486 T1
; plater:{"center":[115.500000,115.500000,0.000000],"boundingbox_center":[115.500000,115.500000,9.410574],"boundingbox_size":[41.242988,41.242988,18.820000]}

;TYPE:Custom
G90 ; use absolute coordinates
M83 ; extruder relative mode
M140 S60 ; set final bed temp
M104 S150 ; set temporary nozzle temp to prevent oozing during homing and auto bed leveling
G4 S10 ; allow partial nozzle warmup
G28 ; home all axis
;G29 ; auto bed levelling
G1 Z10 F240
G1 X2 Y10 F3000
G1 Z0 F240
M104 S210 ; set final nozzle temp
M190 S60 ; wait for bed temp to stabilize
M109 S210 ; wait for nozzle temp to stabilize
G1 Z0.28 F240
G92 E0
G1 Y140 E10 F1500 ; prime the nozzle
G1 X2.3 F5000
G92 E0
G1 Y10 E10 F1200 ; prime the nozzle
G92 E0
;start
M107
G21 ; set units to millimeters
G90 ; use absolute coordinates
M82 ; use absolute distances for extrusion
G92 E0
; Filament gcode
;_TOOLCHANGE 0
M107
;LAYER_CHANGE
;Z:0.2
;HEIGHT:0.2
;BEFORE_LAYER_CHANGE
;0.2


G1 E-3 F3000
G1 Z0.15 F9000
;AFTER_LAYER_CHANGE
;0.2
G92 E0
M204 S500
G1 X107.156 Y90.587
G1 E3 F3000
;TYPE:Skirt
;WIDTH:0.48
G1 F1200
G1 X89.521 Y119.419 E4.24062
G1 X89.049 Y121.17 E4.30717
G1 X89.476 Y122.704 E4.36561
G1 X90.587 Y123.844 E4.42405
G1 X119.419 Y141.479 E5.66467
G1 X121.17 Y141.951 E5.73122
G1 X122.704 Y141.524 E5.78967
G1 X123.844 Y140.413 E5.84811
G1 X141.479 Y111.581 E7.08872
G1 X141.951 Y109.83 E7.15528
G1 X141.524 Y108.296 E7.21372
G1 X140.413 Y107.156 E7.27216
G1 X111.581 Y89.521 E8.51278
G1 X109.83 Y89.049 E8.57933
G1 X108.296 Y89.476 E8.63777
G1 X107.199 Y90.545 E8.69401
G92 E0
G1 E-2.1 F3000
;WIPE_START
G1 F7200
G1 X106.071 Y92.387 E-2.955
;WIPE_END
G1 E-3 F3000
; acceleration to travel
M204 S1500
G1 X109.294 Y93.793 F9000
; decel to extrusion
M204 S500
G1 X109.688 Y93.965
; end travel
G1 E0 F3000
;WIDTH:0.576
G1 F1200
G1 X109.889 Y93.818 E0.01118
G1 X109.986 Y93.773 E0.01592
G1 X110.513 Y93.646 E0.04019
G1 X110.618 Y93.642 E0.04493
G1 X110.934 Y93.692 E0.05924
G1 X111.034 Y93.728 E0.06398
G1 X136.916 Y109.559 E1.42228
G1 X136.994 Y109.631 E1.42702
G1 X137.182 Y109.889 E1.44133
G1 X137.227 Y109.986 E1.44607
G1 X137.354 Y110.513 E1.47035
G1 X137.358 Y110.618 E1.47509
G1 X137.308 Y110.934 E1.48939
G1 X137.272 Y111.034 E1.49413
G1 X121.441 Y136.916 E2.85244
G1 X121.369 Y136.994 E2.85718
G1 X121.111 Y137.182 E2.87149
G1 X121.014 Y137.227 E2.87622
G1 X120.487 Y137.354 E2.9005
G1 X120.382 Y137.358 E2.90524
G1 X120.066 Y137.308 E2.91955
G1 X119.966 Y137.272 E2.92429
G1 X94.084 Y121.441 E4.28259
G1 X94.006 Y121.369 E4.28733
G1 X93.818 Y121.111 E4.30164
G1 X93.773 Y121.014 E4.30638
G1 X93.646 Y120.487 E4.33065
G1 X93.642 Y120.382 E4.33539
G1 X93.692 Y120.066 E4.3497
G1 X93.728 Y119.966 E4.35444
G1 X109.559 Y94.084 E5.71274
G1 X109.639 Y94 E5.71792
G1 X109.99 Y94.409 F9000
G1 F1200
G1 X110.163 Y94.283 E5.72749
G1 X110.587 Y94.181 E5.74702
G1 X110.798 Y94.215 E5.75659
G1 X136.591 Y109.99 E7.11016
G1 X136.717 Y110.163 E7.11973
G1 X136.819 Y110.587 E7.13926
G1 X136.786 Y110.798 E7.14883
G1 X121.01 Y136.591 E8.5024
G1 X120.837 Y136.717 E8.51197
G1 X120.413 Y136.819 E8.5315
G1 X120.202 Y136.786 E8.54107
G1 X94.409 Y121.01 E9.89464
G1 X94.283 Y120.837 E9.90421
G1 X94.181 Y120.413 E9.92374
G1 X94.215 Y120.202 E9.93332
G1 X109.959 Y94.46 E11.28419
G1 X110.393 Y94.781 F9000
G1 F1200
G1 X110.609 Y94.729 E11.29416
G1 X111.045 Y94.995 E11.31705
G1 X136.219 Y110.393 E12.63815
G1 X136.271 Y110.609 E12.64812
G1 X120.607 Y136.219 E13.99211
G1 X120.391 Y136.271 E14.00207
G1 X94.781 Y120.607 E15.34607
G1 X94.729 Y120.391 E15.35603
G1 X110.361 Y94.832 E16.69734
; printing object Stringing_sdfTest.stl id:0 copy 0
M486 S0
G1 X110.659 Y95.412 F9000
;TYPE:External perimeter
G1 F1200
G1 X110.755 Y95.47 E16.70235
G1 X135.588 Y110.659 E18.00558
G1 X120.341 Y135.588 E19.31382
G1 X95.412 Y120.341 E20.62206
G1 X110.628 Y95.463 E21.92761
;WIPE_START
G1 X110.85 Y95.763 F9000
;WIPE_END
G1 X110.837 Y96.151
;TYPE:Internal perimeter
G1 F1200
G1 X134.849 Y110.837 E23.18774
G1 X120.163 Y134.849 E24.44786
G1 X96.151 Y120.163 E25.70799
G1 X110.806 Y96.202 E26.96543
G92 E0
G1 E-2.1 F3000
;WIPE_START
G1 F7200
G1 X112.651 Y97.325 E-2.955
;WIPE_END
G1 E-3 F3000
; acceleration to travel
M204 S1500
G1 X129.724 Y107.878 F9000
; decel to extrusion
M204 S500
G1 X131.81 Y109.167
; end travel
G1 E0 F3000
;TYPE:Solid infill
;WIDTH:0.578213
G1 F1200
G1 X134.044 Y111.402 E0.14199
G1 X133.756 Y111.873 E0.16683
G1 X130.551 Y108.668 E0.37052
G1 X128.594 Y107.471 E0.47361
G1 X133.467 Y112.345 E0.78334
G1 X133.179 Y112.816 E0.80818
G1 X126.637 Y106.274 E1.22395
G1 X124.681 Y105.078 E1.32704
G1 X132.891 Y113.288 E1.84885
G1 X132.602 Y113.759 E1.87369
G1 X122.724 Y103.881 E2.50153
G1 X120.767 Y102.684 E2.60462
G1 X132.314 Y114.231 E3.33849
G1 X132.025 Y114.702 E3.36334
G1 X118.81 Y101.487 E4.20325
G1 X116.853 Y100.29 E4.30634
G1 X131.737 Y115.174 E5.25229
G1 X131.449 Y115.645 E5.27713
G1 X114.896 Y99.093 E6.32912
G1 X112.94 Y97.896 E6.43221
G1 X131.16 Y116.117 E7.59023
G1 X130.872 Y116.589 E7.61507
G1 X110.983 Y96.7 E8.87913
G1 X110.967 Y96.69 E8.87996
G1 X110.681 Y97.158 E8.9046
G1 X130.583 Y117.06 E10.16951
G1 X130.295 Y117.532 E10.19435
G1 X110.393 Y97.629 E11.45926
G1 X110.104 Y98.101 E11.4841
G1 X130.007 Y118.003 E12.74901
G1 X129.718 Y118.475 E12.77386
G1 X109.816 Y98.572 E14.03877
G1 X109.527 Y99.044 E14.06361
G1 X129.43 Y118.946 E15.32852
G1 X129.141 Y119.418 E15.35336
G1 X109.239 Y99.516 E16.61827
G1 X108.951 Y99.987 E16.64311
G1 X128.853 Y119.889 E17.90802
G1 X128.564 Y120.361 E17.93286
G1 X108.662 Y100.459 E19.19777
G1 X108.374 Y100.93 E19.22261
G1 X128.276 Y120.832 E20.48752
G1 X127.988 Y121.304 E20.51236
G1 X108.085 Y101.402 E21.77727
G1 X107.797 Y101.873 E21.80211
G1 X127.699 Y121.776 E23.06703
G1 X127.411 Y122.247 E23.09187
G1 X107.509 Y102.345 E24.35678
G1 X107.22 Y102.816 E24.38162
G1 X127.122 Y122.719 E25.64653
G1 X126.834 Y123.19 E25.67137
G1 X106.932 Y103.288 E26.93628
G1 X106.643 Y103.759 E26.96112
G1 X126.546 Y123.662 E28.22603
G1 X126.257 Y124.133 E28.25087
G1 X106.355 Y104.231 E29.51578
G1 X106.067 Y104.703 E29.54062
G1 X125.969 Y124.605 E30.80553
G1 X125.68 Y125.076 E30.83037
G1 X105.778 Y105.174 E32.09528
G1 X105.49 Y105.646 E32.12013
G1 X125.392 Y125.548 E33.38504
G1 X125.104 Y126.019 E33.40988
G1 X105.201 Y106.117 E34.67479
G1 X104.913 Y106.589 E34.69963
G1 X124.815 Y126.491 E35.96454
G1 X124.527 Y126.963 E35.98938
G1 X104.624 Y107.06 E37.25429
G1 X104.336 Y107.532 E37.27913
G1 X124.238 Y127.434 E38.54404
G1 X123.95 Y127.906 E38.56888
G1 X104.048 Y108.003 E39.83379
G1 X103.759 Y108.475 E39.85863
G1 X123.661 Y128.377 E41.12354
G1 X123.373 Y128.849 E41.14839
G1 X103.471 Y108.946 E42.4133
G1 X103.182 Y109.418 E42.43814
G1 X123.085 Y129.32 E43.70305
G1 X122.796 Y129.792 E43.72789
G1 X102.894 Y109.89 E44.9928
G1 X102.606 Y110.361 E45.01764
G1 X122.508 Y130.263 E46.28255
G1 X122.219 Y130.735 E46.30739
G1 X102.317 Y110.833 E47.5723
G1 X102.029 Y111.304 E47.59714
G1 X121.931 Y131.206 E48.86205
G1 X121.643 Y131.678 E48.88689
G1 X101.74 Y111.776 E50.1518
G1 X101.452 Y112.247 E50.17664
G1 X121.354 Y132.15 E51.44155
G1 X121.066 Y132.621 E51.4664
G1 X101.164 Y112.719 E52.73131
G1 X100.875 Y113.19 E52.75615
G1 X120.777 Y133.093 E54.02106
G1 X120.489 Y133.564 E54.0459
G1 X100.587 Y113.662 E55.31081
G1 X100.298 Y114.133 E55.33565
G1 X120.201 Y134.036 E56.60056
G1 X120.033 Y134.31 E56.61501
G1 X119.214 Y133.809 E56.65814
G1 X100.01 Y114.605 E57.87868
G1 X99.721 Y115.077 E57.90352
G1 X117.257 Y132.612 E59.01804
G1 X115.3 Y131.416 E59.12112
G1 X99.433 Y115.548 E60.12959
G1 X99.145 Y116.02 E60.15444
G1 X113.344 Y130.219 E61.05687
G1 X111.387 Y129.022 E61.15996
G1 X98.856 Y116.491 E61.95636
G1 X98.568 Y116.963 E61.9812
G1 X109.43 Y127.825 E62.67156
G1 X107.473 Y126.628 E62.77465
G1 X98.279 Y117.434 E63.35898
G1 X97.991 Y117.906 E63.38382
G1 X105.516 Y125.431 E63.86211
G1 X103.56 Y124.234 E63.9652
G1 X97.703 Y118.377 E64.33745
G1 X97.414 Y118.849 E64.36229
G1 X101.603 Y123.038 E64.62851
G1 X99.646 Y121.841 E64.73159
G1 X97.126 Y119.32 E64.89178
G1 X96.837 Y119.792 E64.91662
G1 X98.387 Y121.341 E65.01509
M106 S84.15
;LAYER_CHANGE
;Z:0.52
;HEIGHT:0.32
;BEFORE_LAYER_CHANGE
;0.52


G92 E0
G1 E-2.1 F3000
;WIPE_START
G1 F7200
G1 X96.859 Y119.814 E-2.955
;WIPE_END
G1 E-3 F3000
; stop printing object Stringing_sdfTest.stl id:0 copy 0
M486 S-1
G1 Z0.47 F9000
;AFTER_LAYER_CHANGE
;0.52
; printing object Stringing_sdfTest.stl id:0 copy 0
M486 S0
G1 X95.709 Y120.269
G1 E0 F3000
;TYPE:Internal perimeter
;WIDTH:0.476
G1 F2400
G1 X110.731 Y95.709 E1.57574
G1 X135.291 Y110.731 E3.15148
G1 X120.269 Y135.291 E4.72722
G1 X95.76 Y120.3 E6.29968
G1 X95.173 Y120.398 F9000
;TYPE:External perimeter
;WIDTH:0.428
G1 F1500
G1 X110.602 Y95.173 E7.72741
G1 X135.827 Y110.602 E9.15515
G1 X120.398 Y135.827 E10.58288
G1 X95.224 Y120.43 E12.00772
;WIPE_START
G1 X95.524 Y120.207 F9000
;WIPE_END
G92 E0
G1 E-2.1 F3000
;WIPE_START
G1 F7200
G1 X96.651 Y118.365 E-2.955
;WIPE_END
G1 E-3 F3000
; acceleration to travel
M204 S1500
G1 X108.59 Y99.378 F9000
; decel to extrusion
M204 S500
G1 X110.132 Y96.926
; end travel
G1 E0 F3000
;TYPE:Solid infill
;WIDTH:0.483728
G1 F2400
G1 X110.894 Y96.164 E0.05994
G1 X111.258 Y96.386 E0.08363
G1 X109.748 Y97.896 E0.20244
G1 X108.825 Y99.405 E0.30078
G1 X111.621 Y96.608 E0.52074
G1 X111.985 Y96.831 E0.54444
G1 X107.903 Y100.913 E0.86555
G1 X106.98 Y102.421 E0.96389
G1 X112.348 Y97.053 E1.38616
G1 X112.712 Y97.275 E1.40986
G1 X106.058 Y103.929 E1.93328
G1 X105.135 Y105.438 E2.03162
G1 X113.075 Y97.497 E2.6562
G1 X113.439 Y97.72 E2.6799
G1 X104.213 Y106.946 E3.40563
G1 X103.29 Y108.454 E3.50397
G1 X113.802 Y97.942 E4.33086
G1 X114.166 Y98.164 E4.35455
G1 X102.368 Y109.962 E5.28259
G1 X101.445 Y111.471 E5.38093
G1 X114.529 Y98.387 E6.41013
G1 X114.892 Y98.609 E6.43383
G1 X100.523 Y112.979 E7.56418
G1 X99.6 Y114.487 E7.66252
G1 X115.256 Y98.831 E8.89402
G1 X115.619 Y99.054 E8.91772
G1 X98.678 Y115.995 E10.25038
G1 X97.755 Y117.504 E10.34872
G1 X115.983 Y99.276 E11.78253
G1 X116.346 Y99.498 E11.80623
G1 X96.833 Y119.012 E13.3412
G1 X96.125 Y120.169 E13.41663
G1 X96.21 Y120.221 E13.42215
G1 X116.71 Y99.721 E15.03472
G1 X117.073 Y99.943 E15.05842
G1 X96.573 Y120.443 E16.67098
G1 X96.936 Y120.665 E16.69468
G1 X117.437 Y100.165 E18.30724
G1 X117.8 Y100.387 E18.33094
G1 X97.3 Y120.888 E19.9435
G1 X97.663 Y121.11 E19.9672
G1 X118.164 Y100.61 E21.57976
G1 X118.527 Y100.832 E21.60346
G1 X98.027 Y121.332 E23.21602
G1 X98.39 Y121.555 E23.23972
G1 X118.891 Y101.054 E24.85228
G1 X119.254 Y101.277 E24.87598
G1 X98.754 Y121.777 E26.48855
G1 X99.117 Y121.999 E26.51224
G1 X119.617 Y101.499 E28.12481
G1 X119.981 Y101.721 E28.1485
G1 X99.481 Y122.221 E29.76107
G1 X99.844 Y122.444 E29.78477
G1 X120.344 Y101.944 E31.39733
G1 X120.708 Y102.166 E31.42103
G1 X100.208 Y122.666 E33.03359
G1 X100.571 Y122.888 E33.05729
G1 X121.071 Y102.388 E34.66985
G1 X121.435 Y102.61 E34.69355
G1 X100.934 Y123.111 E36.30611
G1 X101.298 Y123.333 E36.32981
G1 X121.798 Y102.833 E37.94237
G1 X122.162 Y103.055 E37.96607
G1 X101.661 Y123.555 E39.57863
G1 X102.025 Y123.778 E39.60233
G1 X122.525 Y103.277 E41.2149
G1 X122.889 Y103.5 E41.23859
G1 X102.388 Y124 E42.85116
G1 X102.752 Y124.222 E42.87485
G1 X123.252 Y103.722 E44.48742
G1 X123.615 Y103.944 E44.51112
G1 X103.115 Y124.444 E46.12368
G1 X103.479 Y124.667 E46.14738
G1 X123.979 Y104.167 E47.75994
G1 X124.342 Y104.389 E47.78364
G1 X103.842 Y124.889 E49.3962
G1 X104.206 Y125.111 E49.4199
G1 X124.706 Y104.611 E51.03246
G1 X125.069 Y104.833 E51.05616
G1 X104.569 Y125.334 E52.66872
G1 X104.932 Y125.556 E52.69242
G1 X125.433 Y105.056 E54.30498
G1 X125.796 Y105.278 E54.32868
G1 X105.296 Y125.778 E55.94125
G1 X105.659 Y126.001 E55.96494
G1 X126.16 Y105.5 E57.57751
G1 X126.523 Y105.723 E57.6012
G1 X106.023 Y126.223 E59.21377
G1 X106.386 Y126.445 E59.23747
G1 X126.887 Y105.945 E60.85003
G1 X127.25 Y106.167 E60.87373
G1 X106.75 Y126.667 E62.48629
G1 X107.113 Y126.89 E62.50999
G1 X127.613 Y106.39 E64.12255
G1 X127.977 Y106.612 E64.14625
G1 X107.477 Y127.112 E65.75881
G1 X107.84 Y127.334 E65.78251
G1 X128.34 Y106.834 E67.39507
G1 X128.704 Y107.056 E67.41877
G1 X108.204 Y127.557 E69.03133
G1 X108.567 Y127.779 E69.05503
G1 X129.067 Y107.279 E70.6676
G1 X129.431 Y107.501 E70.69129
G1 X108.931 Y128.001 E72.30386
G1 X109.294 Y128.224 E72.32755
G1 X129.794 Y107.723 E73.94012
G1 X130.158 Y107.946 E73.96382
G1 X109.657 Y128.446 E75.57638
G1 X110.021 Y128.668 E75.60008
G1 X130.521 Y108.168 E77.21264
G1 X130.885 Y108.39 E77.23634
G1 X110.384 Y128.891 E78.8489
G1 X110.748 Y129.113 E78.8726
G1 X131.248 Y108.613 E80.48516
G1 X131.611 Y108.835 E80.50886
G1 X111.111 Y129.335 E82.12142
G1 X111.475 Y129.557 E82.14512
G1 X131.975 Y109.057 E83.75768
G1 X132.338 Y109.279 E83.78138
G1 X111.838 Y129.78 E85.39395
G1 X112.202 Y130.002 E85.41764
G1 X132.702 Y109.502 E87.03021
G1 X133.065 Y109.724 E87.0539
G1 X112.565 Y130.224 E88.66647
G1 X112.929 Y130.447 E88.69017
G1 X133.429 Y109.946 E90.30273
G1 X133.792 Y110.169 E90.32643
G1 X113.292 Y130.669 E91.93899
G1 X113.655 Y130.891 E91.96269
G1 X134.156 Y110.391 E93.57525
G1 X134.519 Y110.613 E93.59895
G1 X114.019 Y131.114 E95.21151
G1 X114.382 Y131.336 E95.23521
G1 X134.856 Y110.862 E96.84569
G1 X133.934 Y112.37 E96.94403
G1 X114.746 Y131.558 E98.45336
G1 X115.109 Y131.78 E98.47706
G1 X133.011 Y113.879 E99.88523
G1 X132.089 Y115.387 E99.98357
G1 X115.473 Y132.003 E101.29059
G1 X115.836 Y132.225 E101.31429
G1 X131.166 Y116.895 E102.52016
G1 X130.244 Y118.403 E102.61849
G1 X116.2 Y132.447 E103.72321
G1 X116.563 Y132.67 E103.7469
G1 X129.321 Y119.912 E104.75046
G1 X128.399 Y121.42 E104.8488
G1 X116.927 Y132.892 E105.7512
G1 X117.29 Y133.114 E105.7749
G1 X127.476 Y122.928 E106.57615
G1 X126.554 Y124.436 E106.67449
G1 X117.653 Y133.337 E107.37458
G1 X118.017 Y133.559 E107.39828
G1 X125.631 Y125.945 E107.99721
G1 X124.709 Y127.453 E108.09555
G1 X118.38 Y133.781 E108.59334
G1 X118.744 Y134.003 E108.61703
G1 X123.786 Y128.961 E109.01366
G1 X122.864 Y130.469 E109.112
G1 X119.107 Y134.226 E109.40748
G1 X119.471 Y134.448 E109.43118
G1 X121.941 Y131.978 E109.6255
G1 X121.019 Y133.486 E109.72384
G1 X119.705 Y134.8 E109.82719
M106 S170.85
;LAYER_CHANGE
;Z:0.84
;HEIGHT:0.32
;BEFORE_LAYER_CHANGE
;0.84


G92 E0
G1 E-2.1 F3000
;WIPE_START
G1 F7200
G1 X121.019 Y133.486 E-2.83554
G1 X121.176 Y133.229 E-2.955
;WIPE_END
G1 E-3 F3000
; stop printing object Stringing_sdfTest.stl id:0 copy 0
M486 S-1
G1 Z0.79 F9000
;AFTER_LAYER_CHANGE
;0.84
G92 E0
; printing object Stringing_sdfTest.stl id:0 copy 0
M486 S0
; acceleration to travel
M204 S1500
G1 X120.373 Y135.055
; decel to extrusion
M204 S500
G1 X120.269 Y135.291
; end travel
G1 E3 F3000
;TYPE:Internal perimeter
;WIDTH:0.476
G1 F2400
G1 X95.709 Y120.269 E4.57574
G1 X110.731 Y95.709 E6.15148
G1 X135.291 Y110.731 E7.72722
G1 X120.3 Y135.24 E9.29968
G1 X120.398 Y135.827 F9000
;TYPE:External perimeter
;WIDTH:0.428
G1 F1500
G1 X95.173 Y120.398 E10.72741
G1 X110.602 Y95.173 E12.15515
G1 X135.827 Y110.602 E13.58288
G1 X120.43 Y135.776 E15.00772
;WIPE_START
G1 X120.207 Y135.476 F9000
;WIPE_END
G92 E0
G1 E-2.1 F3000
;WIPE_START
G1 F7200
G1 X118.365 Y134.349 E-2.955
;WIPE_END
G1 E-3 F3000
; acceleration to travel
M204 S1500
G1 X99.378 Y122.41 F9000
; decel to extrusion
M204 S500
G1 X96.926 Y120.868
; end travel
G1 E0 F3000
;TYPE:Solid infill
;WIDTH:0.483728
G1 F2400
G1 X96.164 Y120.106 E0.05994
G1 X96.386 Y119.742 E0.08363
G1 X97.896 Y121.252 E0.20244
G1 X99.405 Y122.175 E0.30078
G1 X96.608 Y119.379 E0.52074
