; generated by SuperSlicer 2.4 on 2022-12-20 at 12:46:44 UTC

; 

; external perimeters extrusion width = 0.43mm
; perimeters extrusion width = 0.48mm
; infill extrusion width = 0.46mm
; solid infill extrusion width = 0.48mm
; top infill extrusion width = 0.46mm
; first layer extrusion width = 0.58mm

; object:{"name":"stringing-test","id":"stringing-test.stl id:0 copy 0","object_center":[115.500000,115.500000,0.000000],"boundingbox_center":[115.500000,115.500000,9.013778],"boundingbox_size":[35.210069,7.042014,18.027555]}
; Total objects to print: 1
M486 T1
; plater:{"center":[115.500000,115.500000,0.000000],"boundingbox_center":[115.500000,115.500000,9.013778],"boundingbox_size":[35.210069,7.042014,18.027555]}

;TYPE:Custom
G90 ; use absolute coordinates
M83 ; extruder relative mode
M140 S60 ; set final bed temp
M104 S150 ; set temporary nozzle temp to prevent oozing during homing and auto bed leveling
G4 S10 ; allow partial nozzle warmup
G28 ; home all axis
;G29 ; auto bed levelling
G1 Z10 F240
G1 X2 Y10 F3000
G1 Z0 F240
M104 S210 ; set final nozzle temp
M190 S60 ; wait for bed temp to stabilize
M109 S210 ; wait for nozzle temp to stabilize
G1 Z0.28 F240
G92 E0
G1 Y140 E10 F1500 ; prime the nozzle
G1 X2.3 F5000
G92 E0
G1 Y10 E10 F1200 ; prime the nozzle
G92 E0
;start
M107
G21 ; set units to millimeters
G90 ; use absolute coordinates
M82 ; use absolute distances for extrusion
G92 E0
; Filament gcode
;_TOOLCHANGE 0
M107
;LAYER_CHANGE
;Z:0.2
;HEIGHT:0.2
;BEFORE_LAYER_CHANGE
;0.2


G1 E-3 F3000
G1 Z0.15 F9000
;AFTER_LAYER_CHANGE
;0.2
G92 E0
M204 S500
G1 X94.255 Y107.371
G1 E3 F3000
;TYPE:Skirt
;WIDTH:0.48
G1 F1200
G1 X93.17 Y108.536 E3.05844
G1 X92.776 Y110.079 E3.11688
G1 X92.776 Y120.921 E3.51486
G1 X93.287 Y122.661 E3.58141
G1 X94.452 Y123.746 E3.63985
G1 X95.995 Y124.14 E3.6983
G1 X135.005 Y124.14 E5.13023
G1 X136.745 Y123.629 E5.19678
G1 X137.83 Y122.464 E5.25523
G1 X138.224 Y120.921 E5.31367
G1 X138.224 Y110.079 E5.71164
G1 X137.713 Y108.339 E5.7782
G1 X136.548 Y107.254 E5.83664
G1 X135.005 Y106.86 E5.89508
G1 X95.995 Y106.86 E7.32701
G1 X94.313 Y107.354 E7.39137
G92 E0
G1 E-2.1 F3000
;WIPE_START
G1 F7200
G1 X93.17 Y108.536 E-2.75075
G1 X93.043 Y109.036 E-2.955
;WIPE_END
G1 E-3 F3000
; acceleration to travel
M204 S1500
G1 X96.78 Y110.73 F9000
; decel to extrusion
M204 S500
G1 X97.237 Y110.937
; end travel
G1 E0 F3000
;WIDTH:0.576
G1 F1200
G1 X97.325 Y110.879 E0.00474
G1 X97.62 Y110.756 E0.01905
G1 X97.724 Y110.736 E0.02379
G1 X133.276 Y110.736 E1.61543
G1 X133.38 Y110.756 E1.62017
G1 X133.675 Y110.879 E1.63448
G1 X133.763 Y110.937 E1.63922
G1 X134.147 Y111.321 E1.66349
G1 X134.206 Y111.409 E1.66823
G1 X134.328 Y111.704 E1.68254
G1 X134.348 Y111.808 E1.68728
G1 X134.348 Y119.192 E2.01786
G1 X134.328 Y119.296 E2.0226
G1 X134.206 Y119.591 E2.03691
G1 X134.147 Y119.679 E2.04165
G1 X133.763 Y120.063 E2.06593
G1 X133.675 Y120.121 E2.07067
G1 X133.38 Y120.244 E2.08498
G1 X133.276 Y120.264 E2.08971
G1 X97.724 Y120.264 E3.68136
G1 X97.62 Y120.244 E3.68609
G1 X97.325 Y120.121 E3.7004
G1 X97.237 Y120.063 E3.70514
G1 X96.853 Y119.679 E3.72942
G1 X96.794 Y119.591 E3.73416
G1 X96.672 Y119.296 E3.74847
G1 X96.652 Y119.192 E3.75321
G1 X96.652 Y111.808 E4.08379
G1 X96.672 Y111.704 E4.08853
G1 X96.794 Y111.409 E4.10284
G1 X96.853 Y111.321 E4.10758
G1 X97.194 Y110.98 E4.12917
G1 X97.574 Y111.36 F9000
G1 F1200
G1 X97.777 Y111.273 E4.13903
G1 X133.223 Y111.273 E5.72593
G1 X133.421 Y111.355 E5.7355
G1 X133.729 Y111.663 E5.75504
G1 X133.811 Y111.861 E5.76461
G1 X133.811 Y119.139 E6.09046
G1 X133.729 Y119.337 E6.10003
G1 X133.421 Y119.645 E6.11956
G1 X133.223 Y119.727 E6.12913
G1 X97.777 Y119.727 E7.71604
G1 X97.579 Y119.645 E7.72561
G1 X97.271 Y119.337 E7.74514
G1 X97.189 Y119.139 E7.75471
G1 X97.189 Y111.861 E8.08056
G1 X97.271 Y111.663 E8.09013
G1 X97.532 Y111.402 E8.10666
G1 X97.884 Y111.81 F9000
G1 F1200
G1 X133.116 Y111.81 E9.684
G1 X133.274 Y111.968 E9.69396
G1 X133.274 Y119.032 E10.01024
G1 X133.116 Y119.19 E10.0202
G1 X97.884 Y119.19 E11.59754
G1 X97.726 Y119.032 E11.6075
G1 X97.726 Y111.968 E11.92378
G1 X97.841 Y111.853 E11.93106
; printing object stringing-test.stl id:0 copy 0
M486 S0
G1 X98.283 Y112.367 F9000
;TYPE:External perimeter
G1 F1200
G1 X132.717 Y112.367 E13.47263
G1 X132.717 Y118.633 E13.75316
G1 X98.283 Y118.633 E15.29474
G1 X98.283 Y112.427 E15.57257
;WIPE_START
G1 X98.629 Y112.567 F9000
;WIPE_END
G1 X98.82 Y112.904
;TYPE:Internal perimeter
G1 F1200
G1 X132.18 Y112.904 E17.06604
G1 X132.18 Y118.096 E17.29845
G1 X98.82 Y118.096 E18.79191
G1 X98.82 Y112.964 E19.02163
G92 E0
G1 E-2.1 F3000
;WIPE_START
G1 F7200
G1 X100.98 Y112.96 E-2.955
;WIPE_END
G1 E-3 F3000
; acceleration to travel
M204 S1500
G1 X127.671 Y113.054 F9000
; decel to extrusion
M204 S500
G1 X130.932 Y113.066
; end travel
G1 E0 F3000
;TYPE:Solid infill
;WIDTH:0.572223
G1 F1200
G1 X131.787 Y113.921 E0.05379
G1 X131.787 Y114.681 E0.08759
G1 X130.403 Y113.297 E0.17465
G1 X129.643 Y113.297 E0.20845
G1 X131.787 Y115.441 E0.3433
G1 X131.787 Y116.201 E0.3771
G1 X128.883 Y113.297 E0.55976
G1 X128.123 Y113.297 E0.59356
G1 X131.787 Y116.961 E0.82401
G1 X131.787 Y117.703 E0.85705
G1 X131.77 Y117.703 E0.85781
G1 X127.363 Y113.297 E1.13498
G1 X126.604 Y113.297 E1.16878
G1 X131.01 Y117.703 E1.44596
G1 X130.25 Y117.703 E1.47976
G1 X125.844 Y113.297 E1.75693
G1 X125.084 Y113.297 E1.79073
G1 X129.49 Y117.703 E2.06791
G1 X128.73 Y117.703 E2.10171
G1 X124.324 Y113.297 E2.37888
G1 X123.564 Y113.297 E2.41268
G1 X127.97 Y117.703 E2.68986
G1 X127.21 Y117.703 E2.72366
G1 X122.804 Y113.297 E3.00083
G1 X122.044 Y113.297 E3.03463
G1 X126.451 Y117.703 E3.31181
G1 X125.691 Y117.703 E3.34561
G1 X121.284 Y113.297 E3.62278
G1 X120.524 Y113.297 E3.65658
G1 X124.931 Y117.703 E3.93375
G1 X124.171 Y117.703 E3.96755
G1 X119.764 Y113.297 E4.24473
G1 X119.004 Y113.297 E4.27853
G1 X123.411 Y117.703 E4.5557
G1 X122.651 Y117.703 E4.5895
G1 X118.244 Y113.297 E4.86668
G1 X117.484 Y113.297 E4.90048
G1 X121.891 Y117.703 E5.17765
G1 X121.131 Y117.703 E5.21145
G1 X116.724 Y113.297 E5.48863
G1 X115.964 Y113.297 E5.52243
G1 X120.371 Y117.703 E5.7996
G1 X119.611 Y117.703 E5.8334
G1 X115.204 Y113.297 E6.11058
G1 X114.444 Y113.297 E6.14438
G1 X118.851 Y117.703 E6.42155
G1 X118.091 Y117.703 E6.45535
G1 X113.684 Y113.297 E6.73252
G1 X112.924 Y113.297 E6.76632
G1 X117.331 Y117.703 E7.0435
G1 X116.571 Y117.703 E7.0773
G1 X112.164 Y113.297 E7.35447
G1 X111.404 Y113.297 E7.38827
G1 X115.811 Y117.703 E7.66545
G1 X115.051 Y117.703 E7.69925
G1 X110.644 Y113.297 E7.97642
G1 X109.884 Y113.297 E8.01022
G1 X114.291 Y117.703 E8.2874
G1 X113.531 Y117.703 E8.3212
G1 X109.125 Y113.297 E8.59837
G1 X108.365 Y113.297 E8.63217
G1 X112.771 Y117.703 E8.90935
G1 X112.011 Y117.703 E8.94315
G1 X107.605 Y113.297 E9.22032
G1 X106.845 Y113.297 E9.25412
G1 X111.251 Y117.703 E9.53129
G1 X110.491 Y117.703 E9.56509
G1 X106.085 Y113.297 E9.84227
G1 X105.325 Y113.297 E9.87607
G1 X109.731 Y117.703 E10.15324
G1 X108.972 Y117.703 E10.18704
G1 X104.565 Y113.297 E10.46422
G1 X103.805 Y113.297 E10.49802
G1 X108.212 Y117.703 E10.77519
G1 X107.452 Y117.703 E10.80899
G1 X103.045 Y113.297 E11.08617
G1 X102.285 Y113.297 E11.11997
G1 X106.692 Y117.703 E11.39714
G1 X105.932 Y117.703 E11.43094
G1 X101.525 Y113.297 E11.70812
G1 X100.765 Y113.297 E11.74192
G1 X105.172 Y117.703 E12.01909
G1 X104.412 Y117.703 E12.05289
G1 X100.005 Y113.297 E12.33006
G1 X99.245 Y113.297 E12.36386
G1 X103.652 Y117.703 E12.64104
G1 X102.892 Y117.703 E12.67484
G1 X99.213 Y114.024 E12.90626
G1 X99.213 Y114.784 E12.94006
G1 X102.132 Y117.703 E13.12367
G1 X101.372 Y117.703 E13.15747
G1 X99.213 Y115.544 E13.29329
G1 X99.213 Y116.304 E13.32709
G1 X100.612 Y117.703 E13.41511
G1 X99.852 Y117.703 E13.44891
G1 X98.982 Y116.833 E13.50366
M106 S84.15
;LAYER_CHANGE
;Z:0.52
;HEIGHT:0.32
;BEFORE_LAYER_CHANGE
;0.52


G92 E0
G1 E-2.1 F3000
;WIPE_START
G1 F7200
G1 X99.852 Y117.703 E-2.5873
G1 X100.612 Y117.703 E-2.88812
G1 X100.493 Y117.584 E-2.955
;WIPE_END
G1 E-3 F3000
; stop printing object stringing-test.stl id:0 copy 0
M486 S-1
G1 Z0.47 F9000
;AFTER_LAYER_CHANGE
;0.52
G92 E0
; printing object stringing-test.stl id:0 copy 0
M486 S0
; acceleration to travel
M204 S1500
G1 X98.371 Y118.673
; decel to extrusion
M204 S500
G1 X98.109 Y118.807
; end travel
G1 E3 F3000
;TYPE:External perimeter
;WIDTH:0.428
G1 F1500
G1 X98.109 Y112.193 E3.31935
G1 X132.891 Y112.193 E4.99873
G1 X132.891 Y118.807 E5.31808
G1 X98.169 Y118.807 E6.99457
;WIPE_START
G1 X98.309 Y118.461 F9000
;WIPE_END
G92 E0
G1 E-2.1 F3000
;WIPE_START
G1 F7200
G1 X98.309 Y116.301 E-2.955
;WIPE_END
G1 E-3 F3000
; acceleration to travel
M204 S1500
G1 X128.96 Y117.732 F9000
; decel to extrusion
M204 S500
G1 X132.792 Y117.911
; end travel
G1 E0 F3000
;TYPE:Top solid infill
;WIDTH:0.463789
G1 F1800
G1 X132.164 Y118.538 E0.04696
G1 X131.607 Y118.538 E0.07647
G1 X132.622 Y117.523 E0.15248
G1 X132.622 Y116.965 E0.18199
G1 X131.049 Y118.538 E0.29973
G1 X130.492 Y118.538 E0.32924
G1 X132.622 Y116.408 E0.48872
G1 X132.622 Y115.851 E0.51823
G1 X129.935 Y118.538 E0.71944
G1 X129.377 Y118.538 E0.74895
G1 X132.622 Y115.293 E0.99189
G1 X132.622 Y114.736 E1.0214
G1 X128.82 Y118.538 E1.30607
G1 X128.262 Y118.538 E1.33558
G1 X132.622 Y114.178 E1.66198
G1 X132.622 Y113.621 E1.69149
G1 X127.705 Y118.538 E2.05963
G1 X127.147 Y118.538 E2.08914
G1 X132.622 Y113.063 E2.49902
G1 X132.622 Y112.506 E2.52853
G1 X126.59 Y118.538 E2.98013
G1 X126.032 Y118.538 E3.00964
G1 X132.109 Y112.462 E3.46453
G1 X131.551 Y112.462 E3.49404
G1 X125.475 Y118.538 E3.94894
G1 X124.917 Y118.538 E3.97845
G1 X130.994 Y112.462 E4.43334
G1 X130.436 Y112.462 E4.46285
G1 X124.36 Y118.538 E4.91774
G1 X123.802 Y118.538 E4.94725
G1 X129.879 Y112.462 E5.40215
G1 X129.321 Y112.462 E5.43166
G1 X123.245 Y118.538 E5.88655
G1 X122.687 Y118.538 E5.91606
G1 X128.764 Y112.462 E6.37095
G1 X128.206 Y112.462 E6.40046
G1 X122.13 Y118.538 E6.85536
G1 X121.572 Y118.538 E6.88487
G1 X127.649 Y112.462 E7.33976
G1 X127.091 Y112.462 E7.36927
G1 X121.015 Y118.538 E7.82416
G1 X120.457 Y118.538 E7.85367
G1 X126.534 Y112.462 E8.30857
G1 X125.977 Y112.462 E8.33808
G1 X119.9 Y118.538 E8.79297
G1 X119.343 Y118.538 E8.82248
G1 X125.419 Y112.462 E9.27737
G1 X124.862 Y112.462 E9.30688
G1 X118.785 Y118.538 E9.76178
G1 X118.228 Y118.538 E9.79129
G1 X124.304 Y112.462 E10.24618
G1 X123.747 Y112.462 E10.27569
G1 X117.67 Y118.538 E10.73058
G1 X117.113 Y118.538 E10.76009
G1 X123.189 Y112.462 E11.21499
G1 X122.632 Y112.462 E11.2445
G1 X116.555 Y118.538 E11.69939
G1 X115.998 Y118.538 E11.7289
G1 X122.074 Y112.462 E12.1838
G1 X121.517 Y112.462 E12.21331
G1 X115.44 Y118.538 E12.6682
G1 X114.883 Y118.538 E12.69771
G1 X120.959 Y112.462 E13.1526
G1 X120.402 Y112.462 E13.18211
G1 X114.325 Y118.538 E13.63701
G1 X113.768 Y118.538 E13.66652
G1 X119.844 Y112.462 E14.12141
G1 X119.287 Y112.462 E14.15092
G1 X113.21 Y118.538 E14.60581
G1 X112.653 Y118.538 E14.63532
G1 X118.729 Y112.462 E15.09022
G1 X118.172 Y112.462 E15.11973
G1 X112.095 Y118.538 E15.57462
G1 X111.538 Y118.538 E15.60413
G1 X117.614 Y112.462 E16.05902
G1 X117.057 Y112.462 E16.08853
G1 X110.98 Y118.538 E16.54343
G1 X110.423 Y118.538 E16.57294
G1 X116.499 Y112.462 E17.02783
G1 X115.942 Y112.462 E17.05734
G1 X109.865 Y118.538 E17.51223
G1 X109.308 Y118.538 E17.54174
G1 X115.385 Y112.462 E17.99664
G1 X114.827 Y112.462 E18.02615
G1 X108.751 Y118.538 E18.48104
G1 X108.193 Y118.538 E18.51055
G1 X114.27 Y112.462 E18.96544
G1 X113.712 Y112.462 E18.99495
G1 X107.636 Y118.538 E19.44985
G1 X107.078 Y118.538 E19.47936
G1 X113.155 Y112.462 E19.93425
G1 X112.597 Y112.462 E19.96376
G1 X106.521 Y118.538 E20.41865
G1 X105.963 Y118.538 E20.44816
G1 X112.04 Y112.462 E20.90306
G1 X111.482 Y112.462 E20.93257
G1 X105.406 Y118.538 E21.38746
G1 X104.848 Y118.538 E21.41697
G1 X110.925 Y112.462 E21.87186
G1 X110.367 Y112.462 E21.90137
G1 X104.291 Y118.538 E22.35627
G1 X103.733 Y118.538 E22.38578
G1 X109.81 Y112.462 E22.84067
G1 X109.252 Y112.462 E22.87018
G1 X103.176 Y118.538 E23.32507
G1 X102.618 Y118.538 E23.35458
G1 X108.695 Y112.462 E23.80948
G1 X108.137 Y112.462 E23.83899
G1 X102.061 Y118.538 E24.29388
G1 X101.503 Y118.538 E24.32339
G1 X107.58 Y112.462 E24.77828
G1 X107.022 Y112.462 E24.80779
G1 X100.946 Y118.538 E25.26269
G1 X100.388 Y118.538 E25.2922
G1 X106.465 Y112.462 E25.74709
G1 X105.907 Y112.462 E25.7766
G1 X99.831 Y118.538 E26.23149
G1 X99.273 Y118.538 E26.261
G1 X105.35 Y112.462 E26.7159
G1 X104.792 Y112.462 E26.74541
G1 X98.716 Y118.538 E27.2003
G1 X98.378 Y118.538 E27.21821
G1 X98.378 Y118.319 E27.22981
G1 X104.235 Y112.462 E27.66829
G1 X103.678 Y112.462 E27.6978
G1 X98.378 Y117.762 E28.09455
G1 X98.378 Y117.204 E28.12406
G1 X103.12 Y112.462 E28.47908
G1 X102.563 Y112.462 E28.50859
G1 X98.378 Y116.647 E28.82187
G1 X98.378 Y116.089 E28.85138
G1 X102.005 Y112.462 E29.12293
G1 X101.448 Y112.462 E29.15244
G1 X98.378 Y115.532 E29.38226
G1 X98.378 Y114.974 E29.41177
G1 X100.89 Y112.462 E29.59985
G1 X100.333 Y112.462 E29.62936
G1 X98.378 Y114.417 E29.77572
G1 X98.378 Y113.859 E29.80522
G1 X99.775 Y112.462 E29.90984
G1 X99.218 Y112.462 E29.93935
G1 X98.378 Y113.302 E30.00224
G1 X98.378 Y112.744 E30.03175
G1 X98.83 Y112.292 E30.06559
M106 S170.85
;LAYER_CHANGE
;Z:0.84
;HEIGHT:0.32
;BEFORE_LAYER_CHANGE
;0.84


G92 E0
G1 E-2.1 F3000
;WIPE_START
G1 F7200
G1 X98.378 Y112.744 E-2.35306
G1 X98.378 Y113.302 E-2.57373
G1 X99.059 Y112.621 E-2.955
;WIPE_END
G1 E-3 F3000
; stop printing object stringing-test.stl id:0 copy 0
M486 S-1
G1 Z0.79 F9000
;AFTER_LAYER_CHANGE
;0.84
; printing object stringing-test.stl id:0 copy 0
M486 S0
G1 X99.907 Y113.733
G1 E0 F3000
;TYPE:External perimeter
;WIDTH:0.428
G1 F900
M106 S255
G1 X99.868 Y113.763 E0.00237
G1 X99.621 Y114.019 E0.01957
G1 X99.416 Y114.311 E0.03677
G1 X99.257 Y114.63 E0.05398
G1 X99.15 Y114.97 E0.07118
G1 X99.096 Y115.322 E0.08838
G1 X99.096 Y115.678 E0.10559
G1 X99.15 Y116.03 E0.12279
G1 X99.257 Y116.37 E0.13999
G1 X99.416 Y116.689 E0.15719
G1 X99.621 Y116.981 E0.1744
G1 X99.868 Y117.237 E0.1916
G1 X100.151 Y117.453 E0.2088
G1 X100.464 Y117.624 E0.22601
G1 X100.799 Y117.744 E0.24321
G1 X101.149 Y117.812 E0.26041
G1 X101.505 Y117.826 E0.27762
G1 X101.859 Y117.785 E0.29482
G1 X102.203 Y117.69 E0.31202
G1 X102.528 Y117.545 E0.32923
G1 X102.827 Y117.351 E0.34643
G1 X103.093 Y117.114 E0.36363
G1 X103.319 Y116.839 E0.38084
G1 X103.502 Y116.533 E0.39804
G1 X103.635 Y116.202 E0.41524
G1 X103.716 Y115.855 E0.43244
G1 X103.743 Y115.5 E0.44965
G1 X103.716 Y115.145 E0.46685
G1 X103.635 Y114.798 E0.48405
G1 X103.502 Y114.467 E0.50126
G1 X103.319 Y114.161 E0.51846
G1 X103.093 Y113.886 E0.53566
G1 X102.827 Y113.649 E0.55287
G1 X102.528 Y113.455 E0.57007
G1 X102.203 Y113.31 E0.58727
G1 X101.859 Y113.215 E0.60448
G1 X101.505 Y113.174 E0.62168
G1 X101.149 Y113.188 E0.63888
G1 X100.799 Y113.256 E0.65608
G1 X100.464 Y113.376 E0.67329
G1 X100.151 Y113.547 E0.69049
G1 X99.954 Y113.697 E0.70243
M106 S170.85
;WIPE_START
G1 X99.538 Y113.579 F9000
;WIPE_END
G1 X99.634 Y113.422
G1 F900
M106 S255
G1 X99.746 Y113.324 E0.70963
G1 X100.044 Y113.124 E0.72695
G1 X100.366 Y112.966 E0.74428
G1 X100.706 Y112.85 E0.7616
G1 X101.058 Y112.78 E0.77893
G1 X101.416 Y112.757 E0.79625
G1 X101.774 Y112.78 E0.81358
G1 X102.126 Y112.85 E0.83091
G1 X102.466 Y112.966 E0.84823
G1 X102.788 Y113.124 E0.86556
G1 X103.086 Y113.324 E0.88288
G1 X103.356 Y113.56 E0.90021
G1 X103.592 Y113.83 E0.91753
G1 X103.792 Y114.128 E0.93486
G1 X103.95 Y114.45 E0.95218
G1 X104.066 Y114.79 E0.96951
G1 X104.136 Y115.142 E0.98683
G1 X104.159 Y115.5 E1.00416
G1 X104.136 Y115.858 E1.02148
G1 X104.066 Y116.21 E1.03881
G1 X103.95 Y116.55 E1.05613
G1 X103.792 Y116.872 E1.07346
G1 X103.592 Y117.17 E1.09078
G1 X103.356 Y117.44 E1.10811
G1 X103.086 Y117.676 E1.12543
G1 X102.788 Y117.876 E1.14276
G1 X102.466 Y118.034 E1.16009
G1 X102.126 Y118.15 E1.17741
G1 X101.774 Y118.22 E1.19474
G1 X101.416 Y118.243 E1.21206
G1 X101.058 Y118.22 E1.22939
G1 X100.706 Y118.15 E1.24671
G1 X100.366 Y118.034 E1.26404
G1 X100.044 Y117.876 E1.28136
G1 X99.746 Y117.676 E1.29869
G1 X99.476 Y117.44 E1.31601
G1 X99.24 Y117.17 E1.33334
