; generated by SuperSlicer 2.4 on 2022-12-20 at 12:46:19 UTC

; 

; external perimeters extrusion width = 0.43mm
; perimeters extrusion width = 0.48mm
; infill extrusion width = 0.46mm
; solid infill extrusion width = 0.48mm
; top infill extrusion width = 0.46mm
; first layer extrusion width = 0.58mm

; object:{"name":"Stringing_Testingfff","id":"Stringing_Testingfff.stl id:0 copy 0","object_center":[116.071074,115.736924,0.000000],"boundingbox_center":[116.071074,115.736924,16.851486],"boundingbox_size":[43.076404,29.296639,33.702973]}
; Total objects to print: 1
M486 T1
; plater:{"center":[116.071074,115.736924,0.000000],"boundingbox_center":[116.071074,115.736924,16.851486],"boundingbox_size":[43.076404,29.296639,33.702973]}

;TYPE:Custom
G90 ; use absolute coordinates
M83 ; extruder relative mode
M140 S60 ; set final bed temp
M104 S150 ; set temporary nozzle temp to prevent oozing during homing and auto bed leveling
G4 S10 ; allow partial nozzle warmup
G28 ; home all axis
;G29 ; auto bed levelling
G1 Z10 F240
G1 X2 Y10 F3000
G1 Z0 F240
M104 S210 ; set final nozzle temp
M190 S60 ; wait for bed temp to stabilize
M109 S210 ; wait for nozzle temp to stabilize
G1 Z0.28 F240
G92 E0
G1 Y140 E10 F1500 ; prime the nozzle
G1 X2.3 F5000
G92 E0
G1 Y10 E10 F1200 ; prime the nozzle
G92 E0
;start
M107
G21 ; set units to millimeters
G90 ; use absolute coordinates
M82 ; use absolute distances for extrusion
G92 E0
; Filament gcode
;_TOOLCHANGE 0
M107
;LAYER_CHANGE
;Z:0.2
;HEIGHT:0.2
;BEFORE_LAYER_CHANGE
;0.2


G1 E-3 F3000
G1 Z0.15 F9000
;AFTER_LAYER_CHANGE
;0.2
G92 E0
M204 S500
G1 X97.796 Y97.319
G1 E3 F3000
;TYPE:Skirt
;WIDTH:0.48
G1 F1200
G1 X97.294 Y98.83 E3.05844
G1 X95.118 Y129.401 E4.18346
G1 X95.504 Y131.173 E4.25002
G1 X96.589 Y132.338 E4.30846
G1 X98.1 Y132.84 E4.3669
G1 X137.235 Y135.626 E5.80704
G1 X139.007 Y135.24 E5.8736
G1 X140.172 Y134.155 E5.93204
G1 X140.674 Y132.644 E5.99048
G1 X142.85 Y102.072 E7.1155
G1 X142.464 Y100.301 E7.18206
G1 X141.379 Y99.136 E7.2405
G1 X139.868 Y98.633 E7.29894
G1 X100.733 Y95.848 E8.73908
G1 X98.961 Y96.234 E8.80564
G1 X97.84 Y97.278 E8.86188
G92 E0
G1 E-2.1 F3000
;WIPE_START
G1 F7200
G1 X97.294 Y98.83 E-2.75116
G1 X97.258 Y99.344 E-2.955
;WIPE_END
G1 E-3 F3000
; acceleration to travel
M204 S1500
G1 X100.835 Y100.248 F9000
; decel to extrusion
M204 S500
G1 X101.273 Y100.358
; end travel
G1 E0 F3000
;WIDTH:0.576
G1 F1200
G1 X101.682 Y100.003 E0.02427
G1 X101.774 Y99.95 E0.02901
G1 X102.077 Y99.849 E0.04332
G1 X102.182 Y99.836 E0.04806
G1 X102.851 Y99.884 E0.07807
G1 X137.868 Y102.376 E1.64972
G1 X137.97 Y102.404 E1.65446
G1 X138.256 Y102.547 E1.66877
G1 X138.34 Y102.612 E1.67351
G1 X138.695 Y103.022 E1.69778
G1 X138.747 Y103.114 E1.70252
G1 X138.848 Y103.417 E1.71683
G1 X138.862 Y103.522 E1.72157
G1 X136.931 Y130.644 E2.93889
G1 X136.903 Y130.746 E2.94362
G1 X136.76 Y131.032 E2.95793
G1 X136.695 Y131.116 E2.96267
G1 X136.286 Y131.471 E2.98695
G1 X136.194 Y131.523 E2.99169
G1 X135.891 Y131.624 E3.006
G1 X135.786 Y131.638 E3.01074
G1 X100.1 Y129.098 E4.61239
G1 X99.998 Y129.07 E4.61713
G1 X99.712 Y128.927 E4.63144
G1 X99.628 Y128.862 E4.63618
G1 X99.273 Y128.452 E4.66045
G1 X99.221 Y128.36 E4.66519
G1 X99.12 Y128.057 E4.6795
G1 X99.106 Y127.952 E4.68424
G1 X101.037 Y100.83 E5.90156
G1 X101.065 Y100.728 E5.9063
G1 X101.208 Y100.442 E5.92061
G1 X101.236 Y100.405 E5.92266
G1 X101.665 Y100.729 F9000
G1 F1200
G1 X101.994 Y100.444 E5.9422
G1 X102.197 Y100.376 E5.95177
G1 X102.813 Y100.42 E5.9794
G1 X137.777 Y102.908 E7.54869
G1 X137.968 Y103.004 E7.55826
G1 X138.254 Y103.334 E7.57779
G1 X138.322 Y103.536 E7.58736
G1 X136.399 Y130.553 E8.79994
G1 X136.303 Y130.744 E8.80951
G1 X135.974 Y131.03 E8.82905
G1 X135.771 Y131.098 E8.83862
G1 X100.191 Y128.566 E10.43554
G1 X100 Y128.47 E10.44511
G1 X99.714 Y128.14 E10.46464
G1 X99.646 Y127.937 E10.47421
G1 X101.569 Y100.921 E11.68679
G1 X101.638 Y100.783 E11.69367
G1 X102.097 Y101.065 F9000
G1 F1200
G1 X102.266 Y100.92 E11.70364
G1 X102.775 Y100.956 E11.72649
G1 X137.633 Y103.437 E13.29099
G1 X137.778 Y103.605 E13.30095
G1 X135.871 Y130.408 E14.50396
G1 X135.702 Y130.554 E14.51392
G1 X100.336 Y128.037 E16.10127
G1 X100.19 Y127.869 E16.11124
G1 X102.093 Y101.125 E17.31156
; printing object Stringing_Testingfff.stl id:0 copy 0
M486 S0
G1 X102.624 Y101.503 F9000
;TYPE:External perimeter
G1 F1200
G1 X102.735 Y101.511 E17.31653
G1 X137.195 Y103.964 E18.86315
G1 X135.344 Y129.971 E20.03041
G1 X100.773 Y127.51 E21.582
G1 X102.62 Y101.563 E22.74657
;WIPE_START
G1 X102.956 Y101.727 F9000
;WIPE_END
G1 X103.122 Y102.077
;TYPE:Internal perimeter
G1 F1200
G1 X136.621 Y104.462 E24.25005
G1 X134.846 Y129.397 E25.36919
G1 X101.348 Y127.012 E26.87267
G1 X103.118 Y102.137 E27.98912
G92 E0
G1 E-2.1 F3000
;WIPE_START
G1 F7200
G1 X105.273 Y102.287 E-2.955
;WIPE_END
G1 E-3 F3000
; acceleration to travel
M204 S1500
G1 X132.012 Y104.284 F9000
; decel to extrusion
M204 S500
G1 X135.279 Y104.528
; end travel
G1 E0 F3000
;TYPE:Solid infill
;WIDTH:0.577781
G1 F1200
G1 X136.16 Y105.409 E0.05596
G1 X136.109 Y106.118 E0.08791
G1 X134.71 Y104.719 E0.17679
G1 X133.892 Y104.661 E0.21362
G1 X136.059 Y106.828 E0.35126
G1 X136.008 Y107.537 E0.3832
G1 X133.073 Y104.602 E0.56959
G1 X132.255 Y104.544 E0.60642
G1 X135.958 Y108.247 E0.84157
G1 X135.907 Y108.956 E0.87351
G1 X131.437 Y104.486 E1.15741
G1 X130.619 Y104.428 E1.19425
G1 X135.857 Y109.666 E1.52691
G1 X135.806 Y110.375 E1.55885
G1 X129.801 Y104.369 E1.94026
G1 X128.983 Y104.311 E1.97709
G1 X135.756 Y111.085 E2.40726
G1 X135.705 Y111.794 E2.4392
G1 X128.164 Y104.253 E2.91813
G1 X127.346 Y104.195 E2.95496
G1 X135.655 Y112.503 E3.48264
G1 X135.604 Y113.213 E3.51458
G1 X126.528 Y104.136 E4.09101
G1 X125.71 Y104.078 E4.12785
G1 X135.554 Y113.922 E4.75304
G1 X135.503 Y114.632 E4.78498
G1 X124.892 Y104.02 E5.45892
G1 X124.073 Y103.962 E5.49576
G1 X135.453 Y115.341 E6.21846
G1 X135.402 Y116.051 E6.2504
G1 X123.255 Y103.904 E7.02186
G1 X122.437 Y103.845 E7.05869
G1 X135.352 Y116.76 E7.8789
G1 X135.301 Y117.47 E7.91084
G1 X121.619 Y103.787 E8.77981
G1 X120.801 Y103.729 E8.81665
G1 X135.251 Y118.179 E9.73437
G1 X135.2 Y118.889 E9.76631
G1 X119.982 Y103.671 E10.73278
G1 X119.164 Y103.612 E10.76962
G1 X135.15 Y119.598 E11.78485
G1 X135.099 Y120.308 E11.81679
G1 X118.346 Y103.554 E12.88078
G1 X117.528 Y103.496 E12.91762
G1 X135.049 Y121.017 E14.03036
G1 X134.998 Y121.726 E14.0623
G1 X116.71 Y103.438 E15.2238
G1 X115.891 Y103.379 E15.26063
G1 X134.948 Y122.436 E16.47089
G1 X134.897 Y123.145 E16.50283
G1 X115.073 Y103.321 E17.76184
G1 X114.255 Y103.263 E17.79867
G1 X134.847 Y123.855 E19.10644
G1 X134.797 Y124.564 E19.13838
G1 X113.437 Y103.205 E20.4949
G1 X112.619 Y103.146 E20.53173
G1 X134.746 Y125.274 E21.93701
G1 X134.696 Y125.983 E21.96895
G1 X111.801 Y103.088 E23.42298
G1 X110.982 Y103.03 E23.45981
G1 X134.645 Y126.693 E24.9626
G1 X134.595 Y127.402 E24.99454
G1 X110.164 Y102.972 E26.54608
G1 X109.346 Y102.914 E26.58292
G1 X134.544 Y128.112 E28.18321
G1 X134.494 Y128.821 E28.21516
G1 X108.528 Y102.855 E29.86421
G1 X107.71 Y102.797 E29.90104
G1 X133.844 Y128.932 E31.56084
G1 X133.026 Y128.874 E31.59767
G1 X106.891 Y102.739 E33.25747
G1 X106.073 Y102.681 E33.2943
G1 X132.208 Y128.816 E34.95409
G1 X131.39 Y128.757 E34.99093
G1 X105.255 Y102.622 E36.65072
G1 X104.437 Y102.564 E36.68756
G1 X130.572 Y128.699 E38.34735
G1 X129.754 Y128.641 E38.38419
G1 X103.619 Y102.506 E40.04398
G1 X103.486 Y102.496 E40.04997
G1 X103.443 Y103.091 E40.07672
G1 X128.935 Y128.583 E41.69568
G1 X128.117 Y128.524 E41.73252
G1 X103.393 Y103.8 E43.30272
G1 X103.342 Y104.51 E43.33466
G1 X127.299 Y128.466 E44.85612
G1 X126.481 Y128.408 E44.89295
G1 X103.292 Y105.219 E46.36565
G1 X103.241 Y105.928 E46.39759
G1 X125.663 Y128.35 E47.82153
G1 X124.844 Y128.291 E47.85836
G1 X103.191 Y106.638 E49.23355
G1 X103.14 Y107.347 E49.26549
G1 X124.026 Y128.233 E50.59192
G1 X123.208 Y128.175 E50.62876
G1 X103.09 Y108.057 E51.90643
G1 X103.039 Y108.766 E51.93837
G1 X122.39 Y128.117 E53.16729
G1 X121.572 Y128.058 E53.20413
G1 X102.989 Y109.476 E54.38429
G1 X102.938 Y110.185 E54.41623
G1 X120.753 Y128 E55.54764
G1 X119.935 Y127.942 E55.58448
G1 X102.888 Y110.895 E56.66713
G1 X102.837 Y111.604 E56.69907
G1 X119.117 Y127.884 E57.73297
G1 X118.299 Y127.826 E57.7698
G1 X102.787 Y112.314 E58.75495
G1 X102.736 Y113.023 E58.78689
G1 X117.481 Y127.767 E59.72327
G1 X116.662 Y127.709 E59.76011
G1 X102.686 Y113.733 E60.64774
G1 X102.635 Y114.442 E60.67968
G1 X115.844 Y127.651 E61.51856
G1 X115.026 Y127.593 E61.55539
G1 X102.585 Y115.151 E62.34551
G1 X102.534 Y115.861 E62.37746
G1 X114.208 Y127.534 E63.11882
G1 X113.39 Y127.476 E63.15566
G1 X102.484 Y116.57 E63.84827
G1 X102.433 Y117.28 E63.88021
G1 X112.572 Y127.418 E64.52406
G1 X111.753 Y127.36 E64.5609
G1 X102.383 Y117.989 E65.156
G1 X102.332 Y118.699 E65.18794
G1 X110.935 Y127.301 E65.73428
G1 X110.117 Y127.243 E65.77112
G1 X102.282 Y119.408 E66.26871
G1 X102.231 Y120.118 E66.30065
G1 X109.299 Y127.185 E66.74948
G1 X108.481 Y127.127 E66.78632
G1 X102.181 Y120.827 E67.1864
G1 X102.13 Y121.537 E67.21834
G1 X107.662 Y127.069 E67.56966
G1 X106.844 Y127.01 E67.60649
G1 X102.08 Y122.246 E67.90906
G1 X102.03 Y122.956 E67.941
G1 X106.026 Y126.952 E68.19481
G1 X105.208 Y126.894 E68.23165
G1 X101.979 Y123.665 E68.43671
G1 X101.929 Y124.374 E68.46865
G1 X104.39 Y126.836 E68.62495
G1 X103.571 Y126.777 E68.66179
G1 X101.878 Y125.084 E68.76933
G1 X101.828 Y125.793 E68.80127
G1 X102.753 Y126.719 E68.86006
G1 X101.935 Y126.661 E68.8969
G1 X101.561 Y126.287 E68.92067
M106 S84.15
;LAYER_CHANGE
;Z:0.52
;HEIGHT:0.32
;BEFORE_LAYER_CHANGE
;0.52


G92 E0
G1 E-2.1 F3000
;WIPE_START
G1 F7200
G1 X101.935 Y126.661 E-2.30952
G1 X102.753 Y126.719 E-2.6342
G1 X102.18 Y126.146 E-2.955
;WIPE_END
G1 E-3 F3000
; stop printing object Stringing_Testingfff.stl id:0 copy 0
M486 S-1
G1 Z0.47 F9000
;AFTER_LAYER_CHANGE
;0.52
G92 E0
; printing object Stringing_Testingfff.stl id:0 copy 0
M486 S0
; acceleration to travel
M204 S1500
G1 X105.237 Y123.609
; decel to extrusion
M204 S500
G1 X105.624 Y123.289
; end travel
G1 E3 F3000
;TYPE:Internal perimeter
;WIDTH:0.476
G1 F2031.0878
G1 X105.417 Y123.042 E3.01761
G1 X105.342 Y122.932 E3.02491
G1 X105.274 Y122.817 E3.03222
G1 X105.133 Y122.507 E3.05083
G1 X105.095 Y122.399 E3.05713
G1 X105.018 Y122.067 E3.07574
G1 X105.003 Y121.953 E3.08204
G1 X104.993 Y121.613 E3.10066
G1 X105.001 Y121.499 E3.10696
G1 X105.059 Y121.164 E3.12557
G1 X105.09 Y121.053 E3.13187
G1 X105.214 Y120.736 E3.15048
G1 X105.266 Y120.633 E3.15678
G1 X105.44 Y120.363 E3.17439
G1 X105.649 Y120.118 E3.19199
G1 X105.745 Y120.026 E3.1993
G1 X105.848 Y119.94 E3.20661
G1 X106.114 Y119.759 E3.22421
G1 X106.401 Y119.615 E3.24182
G1 X106.509 Y119.574 E3.24812
G1 X106.837 Y119.486 E3.26673
G1 X106.951 Y119.467 E3.27303
G1 X107.29 Y119.446 E3.29164
G1 X107.424 Y119.451 E3.29895
G1 X107.556 Y119.465 E3.30625
G1 X107.889 Y119.534 E3.32487
G1 X107.999 Y119.569 E3.33117
G1 X108.312 Y119.703 E3.34978
G1 X108.412 Y119.758 E3.35608
G1 X108.677 Y119.941 E3.37369
G1 X108.901 Y120.146 E3.39028
G1 X109.107 Y120.392 E3.40789
G1 X109.182 Y120.503 E3.4152
G1 X109.25 Y120.618 E3.4225
G1 X109.392 Y120.927 E3.44111
G1 X109.429 Y121.036 E3.44741
G1 X109.507 Y121.367 E3.46603
G1 X109.521 Y121.481 E3.47233
G1 X109.531 Y121.821 E3.49094
G1 X109.523 Y121.936 E3.49724
G1 X109.465 Y122.271 E3.51585
G1 X109.434 Y122.382 E3.52215
G1 X109.311 Y122.699 E3.54077
G1 X109.258 Y122.801 E3.54707
G1 X109.084 Y123.072 E3.56467
G1 X108.876 Y123.316 E3.58228
G1 X108.779 Y123.409 E3.58958
G1 X108.677 Y123.494 E3.59689
G1 X108.411 Y123.675 E3.61449
G1 X108.123 Y123.819 E3.6321
G1 X108.016 Y123.86 E3.6384
G1 X107.687 Y123.949 E3.65701
G1 X107.574 Y123.967 E3.66331
G1 X107.234 Y123.989 E3.68193
G1 X107.101 Y123.984 E3.68923
G1 X106.968 Y123.97 E3.69654
G1 X106.635 Y123.9 E3.71515
G1 X106.525 Y123.866 E3.72145
G1 X106.213 Y123.732 E3.74006
G1 X106.112 Y123.676 E3.74636
G1 X105.848 Y123.493 E3.76397
G1 X105.668 Y123.329 E3.77728
G92 E0
G1 E-2.1 F3000
;WIPE_START
G1 F7200
G1 X105.417 Y123.042 E-2.25091
G1 X105.342 Y122.932 E-2.30374
G1 X105.274 Y122.817 E-2.35658
G1 X105.133 Y122.507 E-2.49118
G1 X105.095 Y122.399 E-2.53674
G1 X105.018 Y122.067 E-2.67135
G1 X105.003 Y121.953 E-2.71691
G1 X104.993 Y121.613 E-2.85153
G1 X105.001 Y121.499 E-2.89709
G1 X105.026 Y121.354 E-2.955
;WIPE_END
G1 E-3 F3000
; acceleration to travel
M204 S1500
G1 X125.888 Y123.071 F9000
; decel to extrusion
M204 S500
G1 X128.526 Y123.288
; end travel
G1 E0 F3000
G1 F2031.0879
G1 X128.534 Y123.173 E0.0063
G1 X128.592 Y122.838 E0.02491
G1 X128.623 Y122.728 E0.03121
G1 X128.746 Y122.411 E0.04983
G1 X128.799 Y122.308 E0.05612
G1 X128.973 Y122.038 E0.07373
G1 X129.181 Y121.793 E0.09134
G1 X129.278 Y121.701 E0.09864
G1 X129.38 Y121.615 E0.10595
G1 X129.646 Y121.434 E0.12355
G1 X129.934 Y121.29 E0.14116
G1 X130.041 Y121.249 E0.14746
G1 X130.37 Y121.161 E0.16607
G1 X130.483 Y121.142 E0.17237
G1 X130.823 Y121.121 E0.19099
G1 X130.956 Y121.126 E0.19829
G1 X131.089 Y121.14 E0.2056
G1 X131.422 Y121.209 E0.22421
G1 X131.532 Y121.243 E0.23051
G1 X131.844 Y121.377 E0.24912
G1 X131.945 Y121.433 E0.25542
G1 X132.209 Y121.616 E0.27303
G1 X132.447 Y121.833 E0.29063
G1 X132.536 Y121.933 E0.29794
G1 X132.618 Y122.038 E0.30524
G1 X132.79 Y122.309 E0.32285
G1 X132.924 Y122.602 E0.34046
G1 X132.962 Y122.711 E0.34676
G1 X133.039 Y123.042 E0.36537
G1 X133.054 Y123.156 E0.37167
G1 X133.064 Y123.496 E0.39028
G1 X133.056 Y123.611 E0.39658
G1 X132.998 Y123.946 E0.4152
G1 X132.967 Y124.057 E0.4215
G1 X132.843 Y124.374 E0.44011
G1 X132.791 Y124.476 E0.44641
G1 X132.607 Y124.762 E0.46502
G1 X132.524 Y124.866 E0.47233
G1 X132.434 Y124.965 E0.47963
G1 X132.194 Y125.18 E0.49724
G1 X131.943 Y125.35 E0.51384
G1 X131.656 Y125.494 E0.53144
G1 X131.548 Y125.535 E0.53774
G1 X131.22 Y125.624 E0.55636
G1 X131.106 Y125.642 E0.56266
G1 X130.767 Y125.663 E0.58127
G1 X130.633 Y125.658 E0.58857
G1 X130.501 Y125.645 E0.59588
G1 X130.168 Y125.575 E0.61449
G1 X130.058 Y125.541 E0.62079
G1 X129.745 Y125.407 E0.63941
G1 X129.645 Y125.351 E0.64571
G1 X129.38 Y125.168 E0.66331
G1 X129.156 Y124.963 E0.67991
G1 X128.95 Y124.717 E0.69752
G1 X128.875 Y124.607 E0.70482
G1 X128.807 Y124.491 E0.71213
G1 X128.665 Y124.182 E0.73074
G1 X128.628 Y124.073 E0.73704
G1 X128.55 Y123.742 E0.75565
G1 X128.536 Y123.628 E0.76195
G1 X128.527 Y123.348 E0.77728
G92 E0
G1 E-2.1 F3000
;WIPE_START
G1 F7200
G1 X128.534 Y123.173 E-2.16923
G1 X128.592 Y122.838 E-2.30384
G1 X128.623 Y122.728 E-2.3494
G1 X128.746 Y122.411 E-2.48401
G1 X128.799 Y122.308 E-2.52957
G1 X128.973 Y122.038 E-2.6569
G1 X129.181 Y121.793 E-2.78423
G1 X129.278 Y121.701 E-2.83706
G1 X129.38 Y121.615 E-2.8899
G1 X129.516 Y121.522 E-2.955
;WIPE_END
G1 E-3 F3000
; acceleration to travel
M204 S1500
G1 X129.353 Y113.135 F9000
; decel to extrusion
M204 S500
G1 X129.331 Y112.051
; end travel
G1 E0 F3000
G1 F2400
G1 X127.754 Y111.939 E0.08656
G1 X108.881 Y110.596 E1.12212
G1 X109.204 Y106.062 E1.3709
G1 X128.416 Y107.429 E2.42507
G1 X134.18 Y107.839 E2.74137
G1 X133.857 Y112.373 E2.99015
G1 X129.391 Y112.055 E3.23521
G92 E0
G1 E-2.1 F3000
;WIPE_START
G1 F7200
G1 X127.754 Y111.939 E-2.74976
G1 X127.237 Y111.902 E-2.955
;WIPE_END
G1 E-3 F3000
; acceleration to travel
M204 S1500
G1 X136.266 Y104.692 F9000
; decel to extrusion
M204 S500
G1 X137.381 Y103.802
; end travel
G1 E0 F3000
;TYPE:External perimeter
;WIDTH:0.428
G1 F1500
G1 X135.505 Y130.157 E1.27568
G1 X100.587 Y127.671 E2.96587
G1 X102.463 Y101.317 E4.24155
G1 X137.321 Y103.798 E5.92884
;WIPE_START
G1 X137.157 Y104.134 F9000
;WIPE_END
G92 E0
G1 E-2.1 F3000
;WIPE_START
G1 F7200
G1 X137.003 Y106.288 E-2.955
;WIPE_END
G1 E-3 F3000
; acceleration to travel
M204 S1500
G1 X131.019 Y107.579 F9000
; decel to extrusion
M204 S500
G1 X130.246 Y107.746
; end travel
G1 E0 F3000
;TYPE:Solid infill
;WIDTH:0.520273
G1 F2400
G1 X129.976 Y108.016 E0.02286
G1 X129.931 Y108.647 E0.06068
G1 X130.626 Y107.952 E0.1195
G1 X131.173 Y107.991 E0.1523
G1 X129.886 Y109.278 E0.26117
G1 X129.841 Y109.908 E0.299
