; generated by SuperSlicer 2.4 on 2022-12-20 at 12:47:05 UTC

; 

; external perimeters extrusion width = 0.43mm
; perimeters extrusion width = 0.48mm
; infill extrusion width = 0.46mm
; solid infill extrusion width = 0.48mm
; top infill extrusion width = 0.46mm
; first layer extrusion width = 0.58mm

; object:{"name":"variable_size_ooze_test","id":"variable_size_ooze_test.stl id:0 copy 0","object_center":[115.500000,115.500000,0.000000],"boundingbox_center":[115.500000,115.500000,12.876347],"boundingbox_size":[49.017912,49.017912,25.752693]}
; Total objects to print: 1
M486 T1
; plater:{"center":[115.500000,115.500000,0.000000],"boundingbox_center":[115.500000,115.500000,12.876347],"boundingbox_size":[49.017912,49.017912,25.752693]}

;TYPE:Custom
G90 ; use absolute coordinates
M83 ; extruder relative mode
M140 S60 ; set final bed temp
M104 S150 ; set temporary nozzle temp to prevent oozing during homing and auto bed leveling
G4 S10 ; allow partial nozzle warmup
G28 ; home all axis
;G29 ; auto bed levelling
G1 Z10 F240
G1 X2 Y10 F3000
G1 Z0 F240
M104 S210 ; set final nozzle temp
M190 S60 ; wait for bed temp to stabilize
M109 S210 ; wait for nozzle temp to stabilize
G1 Z0.28 F240
G92 E0
G1 Y140 E10 F1500 ; prime the nozzle
G1 X2.3 F5000
G92 E0
G1 Y10 E10 F1200 ; prime the nozzle
G92 E0
;start
M107
G21 ; set units to millimeters
G90 ; use absolute coordinates
M82 ; use absolute distances for extrusion
G92 E0
; Filament gcode
;_TOOLCHANGE 0
M107
;LAYER_CHANGE
;Z:0.2
;HEIGHT:0.2
;BEFORE_LAYER_CHANGE
;0.2


G1 E-3 F3000
G1 Z0.15 F9000
;AFTER_LAYER_CHANGE
;0.2
G92 E0
M204 S500
G1 X86.267 Y98.014
G1 E3 F3000
;TYPE:Skirt
;WIDTH:0.48
G1 F1200
G1 X85.527 Y99.423 E3.05844
G1 X85.553 Y101.015 E3.11688
G1 X97.063 Y143.19 E4.72158
G1 X98.014 Y144.733 E4.78814
G1 X99.423 Y145.473 E4.84658
G1 X101.015 Y145.447 E4.90502
G1 X143.19 Y133.937 E6.50972
G1 X144.733 Y132.986 E6.57627
G1 X145.473 Y131.577 E6.63471
G1 X145.447 Y129.985 E6.69315
G1 X133.937 Y87.81 E8.29785
G1 X132.986 Y86.267 E8.36441
G1 X131.577 Y85.527 E8.42285
G1 X129.985 Y85.553 E8.48129
G1 X87.81 Y97.063 E10.08599
G1 X86.318 Y97.982 E10.15034
G92 E0
G1 E-2.1 F3000
;WIPE_START
G1 F7200
G1 X85.527 Y99.423 E-2.75075
G1 X85.535 Y99.939 E-2.955
;WIPE_END
G1 E-3 F3000
; acceleration to travel
M204 S1500
G1 X89.587 Y100.59 F9000
; decel to extrusion
M204 S500
G1 X90.082 Y100.669
; end travel
G1 E0 F3000
;WIDTH:0.576
G1 F1200
G1 X90.151 Y100.589 E0.00474
G1 X90.404 Y100.393 E0.01905
G1 X90.499 Y100.346 E0.02379
G1 X129.337 Y89.746 E1.82614
G1 X129.443 Y89.739 E1.83088
G1 X129.76 Y89.779 E1.84519
G1 X129.86 Y89.813 E1.84993
G1 X130.331 Y90.082 E1.8742
G1 X130.411 Y90.151 E1.87894
G1 X130.607 Y90.404 E1.89325
G1 X130.654 Y90.499 E1.89799
G1 X141.254 Y129.337 E3.70034
G1 X141.261 Y129.443 E3.70508
G1 X141.221 Y129.76 E3.71939
G1 X141.187 Y129.86 E3.72413
G1 X140.918 Y130.331 E3.7484
G1 X140.849 Y130.411 E3.75314
G1 X140.596 Y130.607 E3.76745
G1 X140.501 Y130.654 E3.77219
G1 X101.663 Y141.254 E5.57454
G1 X101.557 Y141.261 E5.57928
G1 X101.24 Y141.221 E5.59359
G1 X101.14 Y141.187 E5.59833
G1 X100.669 Y140.918 E5.6226
G1 X100.589 Y140.849 E5.62734
G1 X100.393 Y140.596 E5.64165
G1 X100.346 Y140.501 E5.64639
G1 X89.746 Y101.663 E7.44874
G1 X89.739 Y101.557 E7.45348
G1 X89.779 Y101.24 E7.46779
G1 X89.813 Y101.14 E7.47253
G1 X90.052 Y100.721 E7.49412
G1 X90.519 Y100.988 F9000
G1 F1200
G1 X90.691 Y100.851 E7.50398
G1 X129.427 Y90.279 E9.3016
G1 X129.64 Y90.306 E9.31117
G1 X130.018 Y90.522 E9.3307
G1 X130.149 Y90.691 E9.34027
G1 X140.721 Y129.427 E11.13789
G1 X140.694 Y129.64 E11.14746
G1 X140.478 Y130.018 E11.16699
G1 X140.309 Y130.149 E11.17656
G1 X101.573 Y140.721 E12.97418
G1 X101.36 Y140.694 E12.98375
G1 X100.982 Y140.478 E13.00328
G1 X100.851 Y140.309 E13.01285
G1 X90.279 Y101.573 E14.81047
G1 X90.306 Y101.36 E14.82004
G1 X90.489 Y101.04 E14.83657
G1 X90.936 Y101.341 F9000
G1 F1200
G1 X129.466 Y90.825 E16.62461
G1 X129.659 Y90.936 E16.63458
G1 X130.056 Y92.391 E16.7021
G1 X140.175 Y129.466 E18.42262
G1 X140.064 Y129.659 E18.43258
G1 X101.534 Y140.175 E20.22063
G1 X101.341 Y140.064 E20.23059
G1 X90.825 Y101.534 E22.01863
G1 X90.906 Y101.393 E22.02591
; printing object variable_size_ooze_test.stl id:0 copy 0
M486 S0
G1 X91.468 Y101.773 F9000
;TYPE:External perimeter
G1 F1200
G1 X129.227 Y91.468 E23.7782
G1 X129.519 Y92.537 E23.82784
G1 X139.532 Y129.227 E25.53049
G1 X101.773 Y139.532 E27.28278
G1 X91.483 Y101.831 E29.03238
;WIPE_START
G1 X91.854 Y101.875 F9000
;WIPE_END
G1 X92.127 Y102.15
;TYPE:Internal perimeter
G1 F1200
G1 X128.85 Y92.127 E30.73656
G1 X129.001 Y92.679 E30.76214
G1 X138.873 Y128.85 E32.44073
G1 X102.15 Y138.873 E34.14491
G1 X92.143 Y102.208 E35.84639
G92 E0
G1 E-2.1 F3000
;WIPE_START
G1 F7200
G1 X94.226 Y101.636 E-2.955
;WIPE_END
G1 E-3 F3000
; acceleration to travel
M204 S1500
G1 X125.344 Y94.673 F9000
; decel to extrusion
M204 S500
G1 X129.146 Y93.822
; end travel
G1 E0 F3000
;TYPE:Solid infill
;WIDTH:0.578591
G1 F1200
G1 X128.071 Y92.747 E0.06838
G1 X127.473 Y92.91 E0.09621
G1 X129.101 Y94.538 E0.19974
G1 X129.387 Y95.583 E0.24847
G1 X126.876 Y93.073 E0.40811
G1 X126.279 Y93.236 E0.43595
G1 X129.672 Y96.628 E0.6517
G1 X129.957 Y97.673 E0.70043
G1 X125.682 Y93.399 E0.9723
G1 X125.085 Y93.562 E1.00013
G1 X130.243 Y98.719 E1.32811
G1 X130.528 Y99.764 E1.37683
G1 X124.488 Y93.724 E1.76092
G1 X123.891 Y93.887 E1.78875
G1 X130.813 Y100.809 E2.22895
G1 X131.098 Y101.854 E2.27768
G1 X123.294 Y94.05 E2.77399
G1 X122.697 Y94.213 E2.80182
G1 X131.384 Y102.899 E3.35425
G1 X131.669 Y103.945 E3.40297
G1 X122.1 Y94.376 E4.0115
G1 X121.503 Y94.539 E4.03933
G1 X131.954 Y104.99 E4.70398
G1 X132.239 Y106.035 E4.7527
G1 X120.906 Y94.702 E5.47346
G1 X120.309 Y94.865 E5.50129
G1 X132.525 Y107.08 E6.27816
G1 X132.81 Y108.126 E6.32688
G1 X119.712 Y95.028 E7.15986
G1 X119.115 Y95.191 E7.18769
G1 X133.095 Y109.171 E8.07678
G1 X133.38 Y110.216 E8.1255
G1 X118.518 Y95.354 E9.0707
G1 X117.921 Y95.517 E9.09853
G1 X133.666 Y111.261 E10.09984
G1 X133.951 Y112.306 E10.14857
G1 X117.324 Y95.68 E11.20599
G1 X116.727 Y95.843 E11.23382
G1 X134.236 Y113.352 E12.34735
G1 X134.521 Y114.397 E12.39607
G1 X116.13 Y96.006 E13.56572
G1 X115.533 Y96.169 E13.59355
G1 X134.807 Y115.442 E14.8193
G1 X135.092 Y116.487 E14.86803
G1 X114.936 Y96.331 E16.14989
G1 X114.339 Y96.494 E16.17772
G1 X135.377 Y117.533 E17.5157
G1 X135.662 Y118.578 E17.56442
G1 X113.742 Y96.657 E18.95851
G1 X113.145 Y96.82 E18.98634
G1 X135.948 Y119.623 E20.43654
G1 X136.233 Y120.668 E20.48526
G1 X112.548 Y96.983 E21.99157
G1 X111.951 Y97.146 E22.0194
G1 X136.518 Y121.713 E23.58182
G1 X136.803 Y122.759 E23.63054
G1 X111.354 Y97.309 E25.24908
G1 X110.757 Y97.472 E25.27691
G1 X137.089 Y123.804 E26.95155
G1 X137.374 Y124.849 E27.00027
G1 X110.16 Y97.635 E28.73102
G1 X109.563 Y97.798 E28.75885
G1 X137.659 Y125.894 E30.54572
G1 X137.944 Y126.939 E30.59444
G1 X108.966 Y97.961 E32.43742
G1 X108.369 Y98.124 E32.46525
G1 X138.23 Y127.985 E34.36433
G1 X138.391 Y128.575 E34.39186
G1 X138.131 Y128.646 E34.40396
G1 X107.772 Y98.287 E36.33475
G1 X107.175 Y98.45 E36.36258
G1 X137.534 Y128.809 E38.29336
G1 X136.937 Y128.972 E38.32119
G1 X106.578 Y98.613 E40.25197
G1 X105.981 Y98.776 E40.2798
G1 X136.34 Y129.135 E42.21059
G1 X135.743 Y129.298 E42.23842
G1 X105.384 Y98.938 E44.1692
G1 X104.787 Y99.101 E44.19703
G1 X135.146 Y129.461 E46.12781
G1 X134.549 Y129.624 E46.15564
G1 X104.19 Y99.264 E48.08643
G1 X103.593 Y99.427 E48.11426
G1 X133.952 Y129.787 E50.04504
G1 X133.355 Y129.95 E50.07287
G1 X102.996 Y99.59 E52.00365
G1 X102.399 Y99.753 E52.03148
G1 X132.758 Y130.112 E53.96227
G1 X132.161 Y130.275 E53.9901
G1 X101.802 Y99.916 E55.92088
G1 X101.205 Y100.079 E55.94871
G1 X131.564 Y130.438 E57.87949
G1 X130.967 Y130.601 E57.90732
G1 X100.608 Y100.242 E59.83811
G1 X100.011 Y100.405 E59.86594
G1 X130.37 Y130.764 E61.79672
G1 X129.773 Y130.927 E61.82455
G1 X99.414 Y100.568 E63.75533
G1 X98.817 Y100.731 E63.78316
G1 X129.176 Y131.09 E65.71395
G1 X128.579 Y131.253 E65.74178
G1 X98.22 Y100.894 E67.67256
G1 X97.622 Y101.057 E67.70039
G1 X127.982 Y131.416 E69.63117
G1 X127.385 Y131.579 E69.659
G1 X97.025 Y101.22 E71.58979
G1 X96.428 Y101.383 E71.61762
G1 X126.788 Y131.742 E73.5484
G1 X126.191 Y131.905 E73.57623
G1 X95.831 Y101.545 E75.50701
G1 X95.234 Y101.708 E75.53485
G1 X125.594 Y132.068 E77.46563
G1 X124.997 Y132.231 E77.49346
G1 X94.637 Y101.871 E79.42424
G1 X94.04 Y102.034 E79.45207
G1 X124.4 Y132.394 E81.38286
G1 X123.803 Y132.557 E81.41069
G1 X93.443 Y102.197 E83.34147
G1 X92.846 Y102.36 E83.3693
G1 X123.206 Y132.719 E85.30008
G1 X122.609 Y132.882 E85.32791
G1 X92.781 Y103.055 E87.22488
G1 X93.066 Y104.1 E87.2736
G1 X122.012 Y133.045 E89.11446
G1 X121.415 Y133.208 E89.14229
G1 X93.352 Y105.145 E90.92704
G1 X93.637 Y106.19 E90.97576
G1 X120.818 Y133.371 E92.7044
G1 X120.221 Y133.534 E92.73223
G1 X93.922 Y107.236 E94.40475
G1 X94.207 Y108.281 E94.45348
G1 X119.624 Y133.697 E96.06989
G1 X119.027 Y133.86 E96.09772
G1 X94.493 Y109.326 E97.65802
G1 X94.778 Y110.371 E97.70675
G1 X118.429 Y134.023 E99.21094
G1 X117.832 Y134.186 E99.23877
G1 X95.063 Y111.416 E100.68685
G1 X95.348 Y112.462 E100.73557
G1 X117.235 Y134.349 E102.12754
G1 X116.638 Y134.512 E102.15537
G1 X95.634 Y113.507 E103.49123
G1 X95.919 Y114.552 E103.53996
G1 X116.041 Y134.675 E104.81971
G1 X115.444 Y134.838 E104.84754
G1 X96.204 Y115.597 E106.07117
G1 X96.489 Y116.643 E106.1199
G1 X114.847 Y135.001 E107.28742
G1 X114.25 Y135.164 E107.31525
G1 X96.775 Y117.688 E108.42667
G1 X97.06 Y118.733 E108.47539
G1 X113.653 Y135.326 E109.5307
G1 X113.056 Y135.489 E109.55853
G1 X97.345 Y119.778 E110.55772
G1 X97.63 Y120.823 E110.60644
G1 X112.459 Y135.652 E111.54953
G1 X111.862 Y135.815 E111.57736
G1 X97.916 Y121.869 E112.46433
G1 X98.201 Y122.914 E112.51305
G1 X111.265 Y135.978 E113.34392
G1 X110.668 Y136.141 E113.37175
G1 X98.486 Y123.959 E114.1465
G1 X98.771 Y125.004 E114.19522
G1 X110.071 Y136.304 E114.91386
G1 X109.474 Y136.467 E114.94169
G1 X99.057 Y126.05 E115.60422
G1 X99.342 Y127.095 E115.65294
G1 X108.877 Y136.63 E116.25936
G1 X108.28 Y136.793 E116.28719
G1 X99.627 Y128.14 E116.8375
G1 X99.912 Y129.185 E116.88622
G1 X107.683 Y136.956 E117.38042
G1 X107.086 Y137.119 E117.40825
G1 X100.198 Y130.23 E117.84633
G1 X100.483 Y131.276 E117.89505
G1 X106.489 Y137.282 E118.27703
G1 X105.892 Y137.445 E118.30486
G1 X100.768 Y132.321 E118.63072
G1 X101.054 Y133.366 E118.67945
G1 X105.295 Y137.608 E118.9492
G1 X104.698 Y137.771 E118.97703
G1 X101.339 Y134.411 E119.19067
G1 X101.624 Y135.456 E119.23939
G1 X104.101 Y137.933 E119.39692
G1 X103.504 Y138.096 E119.42475
G1 X101.909 Y136.502 E119.52617
G1 X102.195 Y137.547 E119.5749
G1 X103.095 Y138.447 E119.63217
M106 S84.15
;LAYER_CHANGE
;Z:0.52
;HEIGHT:0.32
;BEFORE_LAYER_CHANGE
;0.52


G92 E0
G1 E-2.1 F3000
;WIPE_START
G1 F7200
G1 X102.195 Y137.547 E-2.60415
G1 X101.961 Y136.692 E-2.955
;WIPE_END
G1 E-3 F3000
; stop printing object variable_size_ooze_test.stl id:0 copy 0
M486 S-1
G1 Z0.47 F9000
;AFTER_LAYER_CHANGE
;0.52
G92 E0
; printing object variable_size_ooze_test.stl id:0 copy 0
M486 S0
; acceleration to travel
M204 S1500
G1 X101.929 Y138.972
; decel to extrusion
M204 S500
G1 X101.924 Y139.267
; end travel
G1 E3 F3000
;TYPE:Internal perimeter
;WIDTH:0.476
G1 F2400
G1 X91.733 Y101.924 E5.11862
G1 X129.076 Y91.733 E7.23724
G1 X139.267 Y129.076 E9.35586
G1 X101.982 Y139.251 E11.47119
G1 X101.651 Y139.746 F9000
;TYPE:External perimeter
;WIDTH:0.428
G1 F1500
G1 X91.254 Y101.651 E13.37783
G1 X129.349 Y91.254 E15.28447
G1 X139.746 Y129.349 E17.19111
G1 X101.709 Y139.73 E19.09485
;WIPE_START
G1 X101.753 Y139.359 F9000
;WIPE_END
G92 E0
G1 E-2.1 F3000
;WIPE_START
G1 F7200
G1 X101.184 Y137.276 E-2.955
;WIPE_END
G1 E-3 F3000
; acceleration to travel
M204 S1500
G1 X133.753 Y130.215 F9000
; decel to extrusion
M204 S500
G1 X137.961 Y129.303
; end travel
G1 E0 F3000
;TYPE:Solid infill
;WIDTH:0.483906
G1 F2400
G1 X138.79 Y128.475 E0.06521
G1 X138.664 Y128.014 E0.09175
G1 X137.409 Y129.269 E0.1905
G1 X136.603 Y129.489 E0.23696
G1 X138.538 Y127.554 E0.38922
G1 X138.413 Y127.094 E0.41576
G1 X135.798 Y129.709 E0.62153
G1 X134.992 Y129.929 E0.668
G1 X138.287 Y126.634 E0.92728
G1 X138.162 Y126.174 E0.95382
G1 X134.187 Y130.149 E1.26661
G1 X133.381 Y130.369 E1.31308
G1 X138.036 Y125.713 E1.67938
G1 X137.91 Y125.253 E1.70592
G1 X132.575 Y130.588 E2.12574
G1 X131.77 Y130.808 E2.17221
G1 X137.785 Y124.793 E2.64554
G1 X137.659 Y124.333 E2.67208
G1 X130.964 Y131.028 E3.19892
G1 X130.158 Y131.248 E3.24539
G1 X137.534 Y123.873 E3.82574
G1 X137.408 Y123.413 E3.85228
G1 X129.353 Y131.468 E4.48615
G1 X128.547 Y131.688 E4.53261
G1 X137.282 Y122.952 E5.21999
G1 X137.157 Y122.492 E5.24653
G1 X127.742 Y131.908 E5.98742
G1 X126.936 Y132.128 E6.03389
G1 X137.031 Y122.032 E6.82829
G1 X136.906 Y121.572 E6.85484
G1 X126.13 Y132.347 E7.70275
G1 X125.325 Y132.567 E7.74922
G1 X136.78 Y121.112 E8.65065
G1 X136.655 Y120.652 E8.67719
G1 X124.519 Y132.787 E9.63213
G1 X123.713 Y133.007 E9.67859
G1 X136.529 Y120.191 E10.68705
G1 X136.403 Y119.731 E10.71359
G1 X122.908 Y133.227 E11.77555
G1 X122.102 Y133.447 E11.82202
G1 X136.278 Y119.271 E12.9375
G1 X136.152 Y118.811 E12.96404
G1 X121.297 Y133.667 E14.13303
G1 X120.491 Y133.886 E14.17949
G1 X136.027 Y118.351 E15.40199
G1 X135.901 Y117.891 E15.42854
G1 X119.685 Y134.106 E16.70455
G1 X118.88 Y134.326 E16.75102
G1 X135.775 Y117.43 E18.08054
G1 X135.65 Y116.97 E18.10708
G1 X118.074 Y134.546 E19.49012
G1 X117.268 Y134.766 E19.53659
G1 X135.524 Y116.51 E20.97314
G1 X135.399 Y116.05 E20.99968
G1 X116.463 Y134.986 E22.48974
G1 X115.657 Y135.206 E22.53621
G1 X135.273 Y115.59 E24.07979
G1 X135.147 Y115.13 E24.10633
G1 X114.851 Y135.426 E25.70341
G1 X114.046 Y135.645 E25.74988
G1 X135.022 Y114.669 E27.40048
G1 X134.896 Y114.209 E27.42702
G1 X113.24 Y135.865 E29.13113
G1 X112.435 Y136.085 E29.1776
G1 X134.771 Y113.749 E30.93523
G1 X134.645 Y113.289 E30.96177
G1 X111.629 Y136.305 E32.7729
G1 X110.823 Y136.525 E32.81937
G1 X134.52 Y112.829 E34.68402
G1 X134.394 Y112.369 E34.71056
G1 X110.018 Y136.745 E36.62872
G1 X109.212 Y136.965 E36.67519
G1 X134.268 Y111.908 E38.64686
G1 X134.143 Y111.448 E38.6734
G1 X108.406 Y137.185 E40.69859
G1 X107.601 Y137.404 E40.74506
G1 X134.017 Y110.988 E42.82375
G1 X133.892 Y110.528 E42.8503
G1 X106.795 Y137.624 E44.98251
G1 X105.99 Y137.844 E45.02897
G1 X133.766 Y110.068 E47.2147
G1 X133.64 Y109.608 E47.24124
G1 X105.184 Y138.064 E49.48047
G1 X104.378 Y138.284 E49.52694
G1 X133.515 Y109.147 E51.81969
G1 X133.389 Y108.687 E51.84623
G1 X103.573 Y138.504 E54.19249
G1 X102.767 Y138.724 E54.23895
G1 X133.264 Y108.227 E56.63872
G1 X133.138 Y107.767 E56.66527
G1 X102.109 Y138.796 E59.10692
G1 X101.984 Y138.336 E59.13346
G1 X133.012 Y107.307 E61.57511
G1 X132.887 Y106.847 E61.60165
G1 X101.858 Y137.875 E64.0433
G1 X101.732 Y137.415 E64.06984
G1 X132.761 Y106.386 E66.5115
G1 X132.636 Y105.926 E66.53804
G1 X101.607 Y136.955 E68.97969
G1 X101.481 Y136.495 E69.00623
G1 X132.51 Y105.466 E71.44788
G1 X132.385 Y105.006 E71.47442
G1 X101.356 Y136.035 E73.91607
G1 X101.23 Y135.574 E73.94261
G1 X132.259 Y104.546 E76.38426
G1 X132.133 Y104.085 E76.41081
G1 X101.105 Y135.114 E78.85246
G1 X100.979 Y134.654 E78.879
G1 X132.008 Y103.625 E81.32065
G1 X131.882 Y103.165 E81.34719
G1 X100.853 Y134.194 E83.78884
G1 X100.728 Y133.734 E83.81538
G1 X131.757 Y102.705 E86.25704
G1 X131.631 Y102.245 E86.28358
G1 X100.602 Y133.274 E88.72523
G1 X100.477 Y132.813 E88.75177
G1 X131.505 Y101.785 E91.19342
G1 X131.38 Y101.324 E91.21996
G1 X100.351 Y132.353 E93.66161
G1 X100.225 Y131.893 E93.68815
G1 X131.254 Y100.864 E96.12981
G1 X131.129 Y100.404 E96.15635
G1 X100.1 Y131.433 E98.598
G1 X99.974 Y130.973 E98.62454
G1 X131.003 Y99.944 E101.06619
G1 X130.877 Y99.484 E101.09273
G1 X99.849 Y130.513 E103.53438
G1 X99.723 Y130.052 E103.56092
G1 X130.752 Y99.024 E106.00258
G1 X130.626 Y98.563 E106.02912
G1 X99.597 Y129.592 E108.47077
G1 X99.472 Y129.132 E108.49731
G1 X130.501 Y98.103 E110.93896
G1 X130.375 Y97.643 E110.9655
G1 X99.346 Y128.672 E113.40715
