; generated by SuperSlicer 2.4 on 2023-02-23 at 13:25:47 UTC

; 

; external perimeters extrusion width = 0.43mm
; perimeters extrusion width = 0.48mm
; infill extrusion width = 0.46mm
; solid infill extrusion width = 0.48mm
; top infill extrusion width = 0.46mm
; first layer extrusion width = 0.58mm

; object:{"name":"cube","id":"cube.stl id:0 copy 0","object_center":[115.500000,115.500000,0.000000],"boundingbox_center":[115.500000,115.500000,10.000000],"boundingbox_size":[20.000000,20.000002,20.000000]}
; Total objects to print: 1
M486 T1
; plater:{"center":[115.500000,115.500000,0.000000],"boundingbox_center":[115.500000,115.500000,10.000000],"boundingbox_size":[20.000000,20.000002,20.000000]}

;TYPE:Custom
G90 ; use absolute coordinates
M83 ; extruder relative mode
M140 S60 ; set final bed temp
M104 S150 ; set temporary nozzle temp to prevent oozing during homing and auto bed leveling
G4 S10 ; allow partial nozzle warmup
G28 ; home all axis
;G29 ; auto bed levelling
G1 Z10 F240
G1 X2 Y10 F3000
G1 Z0 F240
M104 S210 ; set final nozzle temp
M190 S60 ; wait for bed temp to stabilize
M109 S210 ; wait for nozzle temp to stabilize
G1 Z0.28 F240
G92 E0
G1 Y100 E7.1 F1500 ; prime the nozzle
G1 X2.3 F5000
G92 E0
G1 Y10 E10 F1200 ; prime the nozzle
G92 E0
;start
M107
G21 ; set units to millimeters
G90 ; use absolute coordinates
M82 ; use absolute distances for extrusion
G92 E0
; Filament gcode
;_TOOLCHANGE 0
M107
;LAYER_CHANGE
;Z:0.2
;HEIGHT:0.2
;BEFORE_LAYER_CHANGE
;0.2


G1 E-6 F3000
G1 Z0.15 F9000
;AFTER_LAYER_CHANGE
;0.2
G92 E0
M204 S500
G1 X103.437 Y102.653
G1 E6 F3000
;TYPE:Skirt
;WIDTH:0.48
G1 F1200
G1 X102.339 Y103.948 E6.06172
G1 X101.944 Y105.6 E6.12345
G1 X101.944 Y125.4 E6.84305
G1 X102.653 Y127.563 E6.92575
G1 X103.948 Y128.661 E6.98748
G1 X105.6 Y129.056 E7.0492
G1 X125.4 Y129.056 E7.7688
G1 X127.563 Y128.347 E7.85151
G1 X128.661 Y127.052 E7.91323
G1 X129.056 Y125.4 E7.97496
G1 X129.056 Y105.6 E8.69456
G1 X128.347 Y103.437 E8.77726
G1 X127.052 Y102.339 E8.83899
G1 X125.4 Y101.944 E8.90071
G1 X105.6 Y101.944 E9.62031
G1 X103.494 Y102.634 E9.70084
G1 X103.819 Y102.936 F9000
G1 F1200
G1 X102.775 Y104.057 E9.7565
G1 X102.381 Y105.6 E9.81437
G1 X102.381 Y125.4 E10.53396
G1 X102.892 Y127.14 E10.59986
G1 X104.057 Y128.225 E10.65772
G1 X105.6 Y128.619 E10.71559
G1 X125.4 Y128.619 E11.43518
G1 X127.14 Y128.108 E11.50108
G1 X128.225 Y126.943 E11.55894
G1 X128.619 Y125.4 E11.6168
G1 X128.619 Y105.6 E12.3364
G1 X128.108 Y103.86 E12.4023
G1 X126.943 Y102.775 E12.46016
G1 X125.4 Y102.381 E12.51802
G1 X105.6 Y102.381 E13.23762
G1 X103.86 Y102.892 E13.30353
G92 E0
G1 E-4.2 F3000
;WIPE_START
G1 F7200
G1 X102.775 Y104.057 E-4.83004
G1 X102.381 Y105.6 E-5.46025
G1 X102.381 Y106.736 E-5.91
;WIPE_END
G1 E-6 F3000
; printing object cube.stl id:0 copy 0
M486 S0
; acceleration to travel
M204 S1500
G1 X105.985 Y106.459 F9000
; decel to extrusion
M204 S500
G1 X106.425 Y106.425
; end travel
G1 E0 F3000
;TYPE:Internal perimeter
;WIDTH:0.576
G1 F1200
G1 X124.575 Y106.425 E0.80448
G1 X124.575 Y124.575 E1.60896
G1 X106.425 Y124.575 E2.41344
G1 X106.425 Y106.485 E3.21526
G1 X105.888 Y105.888 F9000
;TYPE:External perimeter
G1 F1200
G1 X125.112 Y105.888 E4.06738
G1 X125.112 Y125.112 E4.9195
G1 X105.888 Y125.112 E5.77161
G1 X105.888 Y105.948 E6.62107
;WIPE_START
G1 X106.234 Y106.088 F9000
;WIPE_END
G92 E0
G1 E-4.2 F3000
;WIPE_START
G1 F7200
G1 X110.554 Y106.088 E-5.91
;WIPE_END
G1 E-6 F3000
; acceleration to travel
M204 S1500
G1 X121.937 Y106.532 F9000
; decel to extrusion
M204 S500
G1 X123.327 Y106.587
; end travel
G1 E0 F3000
;TYPE:Solid infill
;WIDTH:0.576692
G1 F1200
G1 X124.182 Y107.442 E0.05367
G1 X124.182 Y108.202 E0.0874
G1 X122.798 Y106.818 E0.17427
G1 X122.038 Y106.818 E0.20799
G1 X124.182 Y108.962 E0.34256
G1 X124.182 Y109.722 E0.37628
G1 X121.278 Y106.818 E0.55854
G1 X120.518 Y106.818 E0.59227
G1 X124.182 Y110.482 E0.82222
G1 X124.182 Y111.242 E0.85595
G1 X119.758 Y106.818 E1.1336
G1 X118.998 Y106.818 E1.16733
G1 X124.182 Y112.002 E1.49267
G1 X124.182 Y112.761 E1.5264
G1 X118.239 Y106.818 E1.89944
G1 X117.479 Y106.818 E1.93317
G1 X124.182 Y113.521 E2.35391
G1 X124.182 Y114.281 E2.38763
G1 X116.719 Y106.818 E2.85607
G1 X115.959 Y106.818 E2.88979
G1 X124.182 Y115.041 E3.40592
G1 X124.182 Y115.801 E3.43965
G1 X115.199 Y106.818 E4.00348
G1 X114.439 Y106.818 E4.0372
G1 X124.182 Y116.561 E4.64873
G1 X124.182 Y117.321 E4.68245
G1 X113.679 Y106.818 E5.34167
G1 X112.919 Y106.818 E5.3754
G1 X124.182 Y118.081 E6.08231
G1 X124.182 Y118.841 E6.11604
G1 X112.159 Y106.818 E6.87065
G1 X111.399 Y106.818 E6.90437
G1 X124.182 Y119.601 E7.70668
G1 X124.182 Y120.361 E7.74041
G1 X110.639 Y106.818 E8.59041
G1 X109.879 Y106.818 E8.62414
G1 X124.182 Y121.121 E9.52183
G1 X124.182 Y121.881 E9.55556
G1 X109.119 Y106.818 E10.50096
G1 X108.359 Y106.818 E10.53468
G1 X124.182 Y122.641 E11.52777
G1 X124.182 Y123.401 E11.5615
G1 X107.599 Y106.818 E12.60228
G1 X106.839 Y106.818 E12.63601
G1 X124.182 Y124.161 E13.72449
G1 X124.182 Y124.182 E13.72545
G1 X123.444 Y124.182 E13.75822
G1 X106.818 Y107.556 E14.80171
G1 X106.818 Y108.316 E14.83544
G1 X122.684 Y124.182 E15.83123
G1 X121.924 Y124.182 E15.86496
G1 X106.818 Y109.076 E16.81306
G1 X106.818 Y109.836 E16.84678
G1 X121.164 Y124.182 E17.74719
G1 X120.404 Y124.182 E17.78091
G1 X106.818 Y110.596 E18.63362
G1 X106.818 Y111.356 E18.66735
G1 X119.644 Y124.182 E19.47236
G1 X118.884 Y124.182 E19.50608
G1 X106.818 Y112.116 E20.2634
G1 X106.818 Y112.876 E20.29712
G1 X118.124 Y124.182 E21.00674
G1 X117.364 Y124.182 E21.04047
G1 X106.818 Y113.636 E21.70239
G1 X106.818 Y114.396 E21.73612
G1 X116.604 Y124.182 E22.35035
G1 X115.844 Y124.182 E22.38407
G1 X106.818 Y115.156 E22.9506
G1 X106.818 Y115.916 E22.98433
G1 X115.084 Y124.182 E23.50316
G1 X114.324 Y124.182 E23.53689
G1 X106.818 Y116.676 E24.00803
G1 X106.818 Y117.435 E24.04176
G1 X113.565 Y124.182 E24.4652
G1 X112.805 Y124.182 E24.49893
G1 X106.818 Y118.195 E24.87467
G1 X106.818 Y118.955 E24.9084
G1 X112.045 Y124.182 E25.23645
G1 X111.285 Y124.182 E25.27018
G1 X106.818 Y119.715 E25.55053
G1 X106.818 Y120.475 E25.58426
G1 X110.525 Y124.182 E25.81692
G1 X109.765 Y124.182 E25.85065
G1 X106.818 Y121.235 E26.03561
G1 X106.818 Y121.995 E26.06934
G1 X109.005 Y124.182 E26.2066
G1 X108.245 Y124.182 E26.24033
G1 X106.818 Y122.755 E26.3299
G1 X106.818 Y123.515 E26.36363
G1 X107.716 Y124.413 E26.42001
M106 S84.15
;LAYER_CHANGE
;Z:0.52
;HEIGHT:0.32
;BEFORE_LAYER_CHANGE
;0.52


G92 E0
G1 E-4.2 F3000
;WIPE_START
G1 F7200
G1 X106.818 Y123.515 E-4.70286
G1 X106.818 Y122.755 E-5.00367
G1 X108.245 Y124.182 E-5.8026
G1 X108.516 Y124.182 E-5.91
;WIPE_END
G1 E-6 F3000
; stop printing object cube.stl id:0 copy 0
M486 S-1
G1 Z0.47 F9000
;AFTER_LAYER_CHANGE
;0.52
G92 E0
; printing object cube.stl id:0 copy 0
M486 S0
; acceleration to travel
M204 S1500
G1 X106.38 Y124.814
; decel to extrusion
M204 S500
G1 X106.104 Y124.896
; end travel
G1 E6 F3000
;TYPE:Internal perimeter
;WIDTH:0.476
G1 F2400
G1 X106.104 Y106.104 E7.01834
G1 X124.896 Y106.104 E8.03667
G1 X124.896 Y124.896 E9.05501
G1 X106.164 Y124.896 E10.0701
G1 X105.714 Y125.286 F9000
;TYPE:External perimeter
;WIDTH:0.428
G1 F1500
G1 X105.714 Y105.714 E11.00574
G1 X125.286 Y105.714 E11.94138
G1 X125.286 Y125.286 E12.87702
G1 X105.774 Y125.286 E13.8098
;WIPE_START
G1 X105.914 Y124.94 F9000
;WIPE_END
G92 E0
G1 E-4.2 F3000
;WIPE_START
G1 F7200
G1 X105.914 Y120.62 E-5.91
;WIPE_END
G1 E-6 F3000
; acceleration to travel
M204 S1500
G1 X121.873 Y124.297 F9000
; decel to extrusion
M204 S500
G1 X123.934 Y124.772
; end travel
G1 E0 F3000
;TYPE:Solid infill
;WIDTH:0.483809
G1 F2400
G1 X124.593 Y124.112 E0.05135
G1 X124.593 Y123.527 E0.08361
G1 X123.527 Y124.593 E0.16671
G1 X122.941 Y124.593 E0.19898
G1 X124.593 Y122.941 E0.32771
G1 X124.593 Y122.355 E0.35997
G1 X122.355 Y124.593 E0.53433
G1 X121.769 Y124.593 E0.56659
G1 X124.593 Y121.769 E0.78657
G1 X124.593 Y121.184 E0.81884
G1 X121.184 Y124.593 E1.08445
G1 X120.598 Y124.593 E1.11671
G1 X124.593 Y120.598 E1.42795
G1 X124.593 Y120.012 E1.46022
G1 X120.012 Y124.593 E1.81708
G1 X119.426 Y124.593 E1.84935
G1 X124.593 Y119.426 E2.25184
G1 X124.593 Y118.841 E2.28411
G1 X118.841 Y124.593 E2.73223
G1 X118.255 Y124.593 E2.76449
G1 X124.593 Y118.255 E3.25824
G1 X124.593 Y117.669 E3.29051
G1 X117.669 Y124.593 E3.82989
G1 X117.083 Y124.593 E3.86215
G1 X124.593 Y117.083 E4.44715
G1 X124.593 Y116.498 E4.47942
G1 X116.498 Y124.593 E5.11005
G1 X115.912 Y124.593 E5.14232
G1 X124.593 Y115.912 E5.81858
G1 X124.593 Y115.326 E5.85084
G1 X115.326 Y124.593 E6.57273
G1 X114.74 Y124.593 E6.60499
G1 X124.593 Y114.74 E7.37251
G1 X124.593 Y114.154 E7.40477
G1 X114.154 Y124.593 E8.21792
G1 X113.569 Y124.593 E8.25018
G1 X124.593 Y113.569 E9.10895
G1 X124.593 Y112.983 E9.14122
G1 X112.983 Y124.593 E10.04561
G1 X112.397 Y124.593 E10.07788
G1 X124.593 Y112.397 E11.0279
G1 X124.593 Y111.811 E11.06017
G1 X111.811 Y124.593 E12.05582
G1 X111.226 Y124.593 E12.08809
G1 X124.593 Y111.226 E13.12937
G1 X124.593 Y110.64 E13.16163
G1 X110.64 Y124.593 E14.24854
G1 X110.054 Y124.593 E14.28081
G1 X124.593 Y110.054 E15.41334
G1 X124.593 Y109.468 E15.44561
G1 X109.468 Y124.593 E16.62377
G1 X108.883 Y124.593 E16.65604
G1 X124.593 Y108.883 E17.87983
G1 X124.593 Y108.297 E17.91209
G1 X108.297 Y124.593 E19.18151
G1 X107.711 Y124.593 E19.21378
G1 X124.593 Y107.711 E20.52882
G1 X124.593 Y107.125 E20.56109
G1 X107.125 Y124.593 E21.92176
G1 X106.54 Y124.593 E21.95403
G1 X124.593 Y106.54 E23.36033
G1 X124.593 Y106.407 E23.36766
G1 X124.141 Y106.407 E23.39259
G1 X106.407 Y124.141 E24.774
G1 X106.407 Y123.555 E24.80626
G1 X123.555 Y106.407 E26.14204
G1 X122.969 Y106.407 E26.17431
G1 X106.407 Y122.969 E27.46446
G1 X106.407 Y122.383 E27.49672
G1 X122.383 Y106.407 E28.74124
G1 X121.798 Y106.407 E28.77351
G1 X106.407 Y121.798 E29.9724
G1 X106.407 Y121.212 E30.00466
G1 X121.212 Y106.407 E31.15793
G1 X120.626 Y106.407 E31.1902
G1 X106.407 Y120.626 E32.29784
G1 X106.407 Y120.04 E32.3301
G1 X120.04 Y106.407 E33.39211
G1 X119.455 Y106.407 E33.42437
G1 X106.407 Y119.455 E34.44076
G1 X106.407 Y118.869 E34.47302
G1 X118.869 Y106.407 E35.44378
G1 X118.283 Y106.407 E35.47604
G1 X106.407 Y118.283 E36.40117
G1 X106.407 Y117.697 E36.43344
G1 X117.697 Y106.407 E37.31294
G1 X117.112 Y106.407 E37.3452
G1 X106.407 Y117.112 E38.17908
G1 X106.407 Y116.526 E38.21134
G1 X116.526 Y106.407 E38.99959
G1 X115.94 Y106.407 E39.03185
G1 X106.407 Y115.94 E39.77447
G1 X106.407 Y115.354 E39.80673
G1 X115.354 Y106.407 E40.50372
G1 X114.769 Y106.407 E40.53599
G1 X106.407 Y114.769 E41.18735
G1 X106.407 Y114.183 E41.21961
G1 X114.183 Y106.407 E41.82535
G1 X113.597 Y106.407 E41.85761
G1 X106.407 Y113.597 E42.41772
G1 X106.407 Y113.011 E42.44998
G1 X113.011 Y106.407 E42.96446
G1 X112.426 Y106.407 E42.99673
G1 X106.407 Y112.426 E43.46558
G1 X106.407 Y111.84 E43.49784
G1 X111.84 Y106.407 E43.92107
G1 X111.254 Y106.407 E43.95333
G1 X106.407 Y111.254 E44.33093
G1 X106.407 Y110.668 E44.36319
G1 X110.668 Y106.407 E44.69516
G1 X110.083 Y106.407 E44.72743
G1 X106.407 Y110.083 E45.01377
G1 X106.407 Y109.497 E45.04603
G1 X109.497 Y106.407 E45.28675
G1 X108.911 Y106.407 E45.31901
G1 X106.407 Y108.911 E45.5141
G1 X106.407 Y108.325 E45.54636
G1 X108.325 Y106.407 E45.69582
G1 X107.74 Y106.407 E45.72808
G1 X106.407 Y107.74 E45.83192
G1 X106.407 Y107.154 E45.86418
G1 X107.154 Y106.407 E45.92238
G1 X106.568 Y106.407 E45.95465
G1 X106.228 Y106.746 E45.9811
M106 S170.85
;LAYER_CHANGE
;Z:0.84
;HEIGHT:0.32
;BEFORE_LAYER_CHANGE
;0.84


G92 E0
G1 E-4.2 F3000
;WIPE_START
G1 F7200
G1 X106.568 Y106.407 E-4.39008
G1 X107.154 Y106.407 E-4.62194
G1 X106.407 Y107.154 E-5.04023
G1 X106.407 Y107.74 E-5.27209
G1 X107.546 Y106.6 E-5.91
;WIPE_END
G1 E-6 F3000
; stop printing object cube.stl id:0 copy 0
M486 S-1
G1 Z0.79 F9000
;AFTER_LAYER_CHANGE
;0.84
; printing object cube.stl id:0 copy 0
M486 S0
G1 X106.104 Y106.104
G1 E0 F3000
;TYPE:Internal perimeter
;WIDTH:0.476
G1 F2400
G1 X124.896 Y106.104 E1.01834
G1 X124.896 Y124.896 E2.03667
G1 X106.104 Y124.896 E3.05501
G1 X106.104 Y106.164 E4.0701
G1 X105.714 Y105.714 F9000
;TYPE:External perimeter
;WIDTH:0.428
G1 F1500
G1 X125.286 Y105.714 E5.00574
G1 X125.286 Y125.286 E5.94138
G1 X105.714 Y125.286 E6.87702
G1 X105.714 Y105.774 E7.8098
;WIPE_START
G1 X106.06 Y105.914 F9000
;WIPE_END
G92 E0
G1 E-4.2 F3000
;WIPE_START
G1 F7200
G1 X110.38 Y105.914 E-5.91
;WIPE_END
G1 E-6 F3000
; acceleration to travel
M204 S1500
G1 X123.125 Y106.934 F9000
; decel to extrusion
M204 S500
G1 X124.772 Y107.066
; end travel
G1 E0 F3000
;TYPE:Solid infill
;WIDTH:0.483809
G1 F2400
G1 X124.112 Y106.407 E0.05135
G1 X123.527 Y106.407 E0.08361
G1 X124.593 Y107.473 E0.16671
G1 X124.593 Y108.059 E0.19898
G1 X122.941 Y106.407 E0.32771
G1 X122.355 Y106.407 E0.35997
G1 X124.593 Y108.645 E0.53433
G1 X124.593 Y109.231 E0.56659
G1 X121.769 Y106.407 E0.78657
G1 X121.184 Y106.407 E0.81884
G1 X124.593 Y109.816 E1.08445
G1 X124.593 Y110.402 E1.11671
G1 X120.598 Y106.407 E1.42795
G1 X120.012 Y106.407 E1.46022
G1 X124.593 Y110.988 E1.81708
G1 X124.593 Y111.574 E1.84935
G1 X119.426 Y106.407 E2.25184
G1 X118.841 Y106.407 E2.28411
G1 X124.593 Y112.159 E2.73223
G1 X124.593 Y112.745 E2.76449
G1 X118.255 Y106.407 E3.25824
G1 X117.669 Y106.407 E3.29051
G1 X124.593 Y113.331 E3.82989
G1 X124.593 Y113.917 E3.86215
G1 X117.083 Y106.407 E4.44715
G1 X116.498 Y106.407 E4.47942
G1 X124.593 Y114.502 E5.11005
G1 X124.593 Y115.088 E5.14232
G1 X115.912 Y106.407 E5.81858
G1 X115.326 Y106.407 E5.85084
G1 X124.593 Y115.674 E6.57273
G1 X124.593 Y116.26 E6.60499
G1 X114.74 Y106.407 E7.37251
G1 X114.154 Y106.407 E7.40477
G1 X124.593 Y116.846 E8.21792
G1 X124.593 Y117.431 E8.25018
G1 X113.569 Y106.407 E9.10895
G1 X112.983 Y106.407 E9.14121
G1 X124.593 Y118.017 E10.04561
G1 X124.593 Y118.603 E10.07788
G1 X112.397 Y106.407 E11.0279
G1 X111.811 Y106.407 E11.06017
G1 X124.593 Y119.189 E12.05582
G1 X124.593 Y119.774 E12.08809
G1 X111.226 Y106.407 E13.12937
G1 X110.64 Y106.407 E13.16163
G1 X124.593 Y120.36 E14.24854
G1 X124.593 Y120.946 E14.28081
G1 X110.054 Y106.407 E15.41334
G1 X109.468 Y106.407 E15.44561
G1 X124.593 Y121.532 E16.62377
G1 X124.593 Y122.117 E16.65604
G1 X108.883 Y106.407 E17.87983
G1 X108.297 Y106.407 E17.91209
G1 X124.593 Y122.703 E19.18151
G1 X124.593 Y123.289 E19.21378
G1 X107.711 Y106.407 E20.52882
G1 X107.125 Y106.407 E20.56109
G1 X124.593 Y123.875 E21.92176
G1 X124.593 Y124.46 E21.95403
G1 X106.54 Y106.407 E23.36033
G1 X106.407 Y106.407 E23.36766
G1 X106.407 Y106.859 E23.39259
G1 X124.141 Y124.593 E24.774
G1 X123.555 Y124.593 E24.80626
G1 X106.407 Y107.445 E26.14204
G1 X106.407 Y108.031 E26.17431
G1 X122.969 Y124.593 E27.46446
G1 X122.383 Y124.593 E27.49672
G1 X106.407 Y108.617 E28.74124
G1 X106.407 Y109.202 E28.77351
G1 X121.798 Y124.593 E29.9724
G1 X121.212 Y124.593 E30.00466
G1 X106.407 Y109.788 E31.15793
G1 X106.407 Y110.374 E31.1902
G1 X120.626 Y124.593 E32.29784
G1 X120.04 Y124.593 E32.3301
G1 X106.407 Y110.96 E33.39211
G1 X106.407 Y111.545 E33.42437
G1 X119.455 Y124.593 E34.44076
G1 X118.869 Y124.593 E34.47302
G1 X106.407 Y112.131 E35.44378
G1 X106.407 Y112.717 E35.47604
G1 X118.283 Y124.593 E36.40117
G1 X117.697 Y124.593 E36.43344
G1 X106.407 Y113.303 E37.31294
G1 X106.407 Y113.888 E37.3452
G1 X117.112 Y124.593 E38.17908
G1 X116.526 Y124.593 E38.21134
G1 X106.407 Y114.474 E38.99959
G1 X106.407 Y115.06 E39.03185
G1 X115.94 Y124.593 E39.77447
G1 X115.354 Y124.593 E39.80673
G1 X106.407 Y115.646 E40.50372
G1 X106.407 Y116.231 E40.53599
G1 X114.769 Y124.593 E41.18735
G1 X114.183 Y124.593 E41.21961
G1 X106.407 Y116.817 E41.82535
G1 X106.407 Y117.403 E41.85761
G1 X113.597 Y124.593 E42.41772
G1 X113.011 Y124.593 E42.44998
G1 X106.407 Y117.989 E42.96446
G1 X106.407 Y118.574 E42.99673
G1 X112.426 Y124.593 E43.46558
G1 X111.84 Y124.593 E43.49784
G1 X106.407 Y119.16 E43.92107
G1 X106.407 Y119.746 E43.95333
G1 X111.254 Y124.593 E44.33093
G1 X110.668 Y124.593 E44.36319
G1 X106.407 Y120.332 E44.69516
G1 X106.407 Y120.917 E44.72743
G1 X110.083 Y124.593 E45.01377
G1 X109.497 Y124.593 E45.04603
G1 X106.407 Y121.503 E45.28675
