; generated by SuperSlicer 2.4 on 2023-02-23 at 13:25:23 UTC

; 

; external perimeters extrusion width = 0.43mm
; perimeters extrusion width = 0.48mm
; infill extrusion width = 0.46mm
; solid infill extrusion width = 0.48mm
; top infill extrusion width = 0.46mm
; first layer extrusion width = 0.58mm

; object:{"name":"diamond_1_thick","id":"diamond_1_thick.stl id:0 copy 0","object_center":[115.532718,115.473496,0.000000],"boundingbox_center":[115.532718,115.473496,13.020378],"boundingbox_size":[33.881421,32.852506,26.040755]}
; Total objects to print: 1
M486 T1
; plater:{"center":[115.532718,115.473496,0.000000],"boundingbox_center":[115.532718,115.473496,13.020378],"boundingbox_size":[33.881421,32.852506,26.040755]}

;TYPE:Custom
G90 ; use absolute coordinates
M83 ; extruder relative mode
M140 S60 ; set final bed temp
M104 S150 ; set temporary nozzle temp to prevent oozing during homing and auto bed leveling
G4 S10 ; allow partial nozzle warmup
G28 ; home all axis
;G29 ; auto bed levelling
G1 Z10 F240
G1 X2 Y10 F3000
G1 Z0 F240
M104 S210 ; set final nozzle temp
M190 S60 ; wait for bed temp to stabilize
M109 S210 ; wait for nozzle temp to stabilize
G1 Z0.28 F240
G92 E0
G1 Y100 E7.1 F1500 ; prime the nozzle
G1 X2.3 F5000
G92 E0
G1 Y10 E10 F1200 ; prime the nozzle
G92 E0
;start
M107
G21 ; set units to millimeters
G90 ; use absolute coordinates
M82 ; use absolute distances for extrusion
G92 E0
; Filament gcode
;_TOOLCHANGE 0
M107
;LAYER_CHANGE
;Z:0.2
;HEIGHT:0.2
;BEFORE_LAYER_CHANGE
;0.2


G1 E-6 F3000
G1 Z0.15 F9000
;AFTER_LAYER_CHANGE
;0.2
G92 E0
M204 S500
G1 X107.439 Y100.996
G1 E6 F3000
;TYPE:Skirt
;WIDTH:0.48
G1 F1117
G1 X106.83 Y102.154 E6.04755
G1 X97.441 Y126.398 E6.9924
G1 X96.691 Y128.7 E7.0804
G1 X96.51 Y129.868 E7.12334
G1 X96.619 Y130.949 E7.16285
G1 X97.459 Y132.59 E7.22984
G1 X98.781 Y133.595 E7.29019
G1 X100.133 Y133.954 E7.34103
G1 X101.123 Y133.93 E7.37702
G1 X101.923 Y133.767 E7.4067
G1 X103.949 Y133.147 E7.48373
G1 X127.822 Y124.882 E8.40187
G1 X128.912 Y124.445 E8.44454
G1 X130 Y123.762 E8.49122
G1 X130.609 Y123.186 E8.52171
G1 X131.229 Y122.297 E8.56111
G1 X131.639 Y120.954 E8.6121
G1 X131.515 Y119.331 E8.67129
G1 X131.008 Y118.245 E8.71483
G1 X130.442 Y117.473 E8.74961
G1 X128.731 Y115.573 E8.84254
G1 X114.534 Y100.935 E9.58365
G1 X113.789 Y100.315 E9.6189
G1 X113.032 Y99.809 E9.65197
G1 X112.118 Y99.365 E9.6889
G1 X110.38 Y99.189 E9.7524
G1 X108.479 Y99.936 E9.8266
G1 X107.481 Y100.954 E9.87841
G1 X107.805 Y101.235 F9000
G1 F1117
G1 X107.237 Y102.313 E9.92268
G1 X97.849 Y126.555 E10.86747
G1 X97.115 Y128.806 E10.95353
G1 X96.947 Y129.869 E10.99263
G1 X97.045 Y130.855 E11.02864
G1 X97.785 Y132.299 E11.08763
G1 X98.971 Y133.201 E11.14177
G1 X100.181 Y133.52 E11.18727
G1 X101.053 Y133.499 E11.21895
G1 X101.795 Y133.349 E11.24648
G1 X103.807 Y132.734 E11.32293
G1 X127.679 Y124.469 E12.24105
G1 X128.71 Y124.057 E12.2814
G1 X129.717 Y123.429 E12.32453
G1 X130.292 Y122.886 E12.35326
G1 X130.843 Y122.093 E12.38838
G1 X131.206 Y120.89 E12.43405
G1 X131.098 Y119.46 E12.48615
G1 X130.647 Y118.492 E12.52495
G1 X130.116 Y117.764 E12.55769
G1 X128.416 Y115.877 E12.65001
G1 X114.225 Y101.244 E13.39083
G1 X112.789 Y100.172 E13.45595
G1 X111.972 Y99.778 E13.48893
G1 X110.42 Y99.624 E13.54563
G1 X108.747 Y100.282 E13.61097
G1 X107.847 Y101.193 E13.65748
G92 E0
G1 E-4.2 F3000
;WIPE_START
G1 F7200
G1 X107.237 Y102.313 E-4.70488
G1 X106.138 Y105.152 E-5.91
;WIPE_END
G1 E-6 F3000
; printing object diamond_1_thick.stl id:0 copy 0
M486 S0
; acceleration to travel
M204 S1500
G1 X104.004 Y119.649 F9000
; decel to extrusion
M204 S500
G1 X103.744 Y121.42
; end travel
G1 E0 F3000
;TYPE:Thin wall
;WIDTH:0.739786
G1 F1117
G1 X103.696 Y121.464 E0.00372
;WIDTH:0.675242
G1 X103.624 Y121.543 E0.00938
;WIDTH:0.604148
G1 X103.538 Y121.652 E0.01587
;WIDTH:0.552785
G1 X103.489 Y121.725 E0.01956
G1 X103.447 Y121.799 E0.0232
;WIDTH:0.500673
G1 X103.383 Y121.92 E0.02839
G1 X103.346 Y122.004 E0.0319
G1 X103.302 Y122.107 E0.03615
G1 X103.218 Y122.323 E0.04499
;WIDTH:0.530615
G1 X103.134 Y122.54 E0.05441
G1 X102.947 Y123.05 E0.07644
G1 X102.602 Y123.92 E0.11439
G1 X102.469 Y124.277 E0.12985
G1 X102.341 Y124.623 E0.14481
G1 X101.978 Y125.543 E0.18489
G1 X101.971 Y125.562 E0.18572
G1 X101.918 Y125.712 E0.19216
G1 X101.866 Y125.861 E0.1986
G1 X101.521 Y126.732 E0.23657
G1 X101.428 Y126.986 E0.24754
G1 X101.339 Y127.227 E0.25797
G1 X101.115 Y127.802 E0.28298
G1 X101.002 Y128.115 E0.2965
G1 X100.888 Y128.429 E0.31002
G1 X100.783 Y128.687 E0.32131
;WIDTH:0.435168
G1 X100.677 Y128.945 E0.3304
G1 X100.663 Y128.987 E0.33186
G1 X100.608 Y129.172 E0.33814
G1 X100.596 Y129.227 E0.33998
;WIDTH:0.476822
G1 X100.575 Y129.357 E0.34475
;WIDTH:0.521341
G1 X100.568 Y129.454 E0.34861
G1 X100.57 Y129.531 E0.35169
;WIDTH:0.647928
G1 X100.572 Y129.609 E0.35558
;WIDTH:0.677118
G1 X100.577 Y129.685 E0.35962
;WIDTH:0.746515
G1 X100.597 Y129.773 E0.36489
;WIDTH:0.832838
G1 X100.622 Y129.863 E0.37104
G92 E0
G1 E-4.2 F3000
;WIPE_START
G1 F7200
G1 X100.597 Y129.773 E-4.23706
;WIPE_END
G1 E-6 F3000
; acceleration to travel
M204 S1500
G1 X108.212 Y127.295 F9000
; decel to extrusion
M204 S500
G1 X109.142 Y126.993
; end travel
G1 E0 F3000
;WIDTH:0.68352
G1 F1117
G1 X109.109 Y126.905 E0.00499
;WIDTH:0.566116
G1 X109.055 Y126.783 E0.0108
;WIDTH:0.479438
G1 X109.027 Y126.726 E0.01309
;WIDTH:0.436848
G1 X108.987 Y126.64 E0.01619
;WIDTH:0.406841
G1 X108.958 Y126.587 E0.01804
G1 X108.887 Y126.48 E0.02192
G1 X108.794 Y126.371 E0.02626
G1 X108.734 Y126.299 E0.02909
G1 X108.672 Y126.24 E0.03168
G1 X108.611 Y126.194 E0.03399
G1 X108.461 Y126.044 E0.04042
G1 X108.31 Y125.894 E0.04684
G1 X108.262 Y125.839 E0.04905
G1 X108.165 Y125.737 E0.05332
G1 X108.127 Y125.706 E0.0548
G1 X107.942 Y125.513 E0.0629
G1 X107.756 Y125.32 E0.07101
G1 X107.665 Y125.217 E0.07518
G1 X107.624 Y125.184 E0.07676
G1 X107.251 Y124.797 E0.09301
G1 X107.159 Y124.695 E0.09717
G1 X107.118 Y124.662 E0.09877
G1 X106.933 Y124.47 E0.10685
G1 X106.748 Y124.277 E0.11492
G1 X106.658 Y124.176 E0.11904
G1 X106.617 Y124.143 E0.12064
G1 X106.248 Y123.76 E0.1367
G1 X106.158 Y123.658 E0.14083
G1 X106.116 Y123.625 E0.14243
G1 X105.931 Y123.431 E0.15056
G1 X105.745 Y123.237 E0.15869
G1 X105.652 Y123.133 E0.16291
G1 X105.606 Y123.096 E0.16469
G1 X105.425 Y122.908 E0.17259
G1 X105.244 Y122.72 E0.1805
G1 X105.152 Y122.616 E0.18469
G1 X105.109 Y122.582 E0.18636
G1 X104.928 Y122.392 E0.19428
G1 X104.748 Y122.203 E0.20219
G1 X104.663 Y122.102 E0.20619
G1 X104.609 Y122.055 E0.20833
G1 X104.372 Y121.789 E0.21912
G1 X104.293 Y121.719 E0.22231
G1 X104.115 Y121.597 E0.22886
G1 X104.001 Y121.535 E0.23279
;WIDTH:0.516544
G1 X103.9 Y121.487 E0.23718
;WIDTH:0.639539
G1 X103.795 Y121.443 E0.24281
;WIDTH:0.829274
G1 X103.742 Y121.335 E0.25072
;WIDTH:0.694639
G1 X103.746 Y121.215 E0.25724
;WIDTH:0.609178
G1 X103.75 Y121.094 E0.2629
;WIDTH:0.566609
G1 X103.768 Y120.971 E0.26834
G1 X103.796 Y120.874 E0.27271
;WIDTH:0.496697
G1 X103.824 Y120.778 E0.2765
G1 X103.838 Y120.735 E0.27821
G1 X103.933 Y120.494 E0.28796
G1 X103.943 Y120.47 E0.28894
G1 X103.991 Y120.365 E0.29332
G1 X104.049 Y120.234 E0.29871
G1 X104.225 Y119.772 E0.31737
G1 X104.4 Y119.31 E0.33603
G1 X104.444 Y119.215 E0.33997
G1 X104.616 Y118.749 E0.35869
G1 X104.788 Y118.284 E0.37741
G1 X104.795 Y118.267 E0.37811
G1 X104.88 Y118.062 E0.38648
G1 X104.965 Y117.857 E0.39486
G1 X105.1 Y117.482 E0.40989
G1 X105.236 Y117.107 E0.42493
G1 X105.327 Y116.879 E0.4342
G1 X105.412 Y116.667 E0.44283
G1 X105.468 Y116.506 E0.44927
G1 X105.525 Y116.345 E0.45571
G1 X105.531 Y116.328 E0.45638
G1 X105.668 Y115.975 E0.47066
G1 X105.805 Y115.622 E0.48494
G1 X105.902 Y115.384 E0.49466
G1 X106 Y115.146 E0.50439
G1 X106.032 Y115.065 E0.50765
G1 X106.126 Y114.806 E0.51806
G1 X106.226 Y114.53 E0.5291
G1 X106.396 Y114.107 E0.54633
G1 X106.566 Y113.683 E0.56355
G1 X106.786 Y113.078 E0.58784
G1 X106.857 Y112.893 E0.59532
;WIDTH:0.466908
G1 X106.928 Y112.708 E0.60232
G1 X106.948 Y112.664 E0.60404
G1 X106.992 Y112.579 E0.6074
G1 X107.035 Y112.494 E0.61076
;WIDTH:0.503462
G1 X107.07 Y112.436 E0.61333
;WIDTH:0.540017
G1 X107.148 Y112.323 E0.61904
;WIDTH:0.599183
G1 X107.219 Y112.238 E0.62413
;WIDTH:0.682804
G1 X107.318 Y112.138 E0.63162
;WIDTH:0.788572
G1 X107.329 Y112.095 E0.63438
;WIDTH:0.679654
G1 X107.327 Y111.973 E0.64087
;WIDTH:0.606534
G1 X107.333 Y111.867 E0.64585
;WIDTH:0.577034
G1 X107.348 Y111.764 E0.65046
;WIDTH:0.496843
G1 X107.364 Y111.661 E0.65438
G1 X107.382 Y111.583 E0.65742
G1 X107.431 Y111.431 E0.66343
;WIDTH:0.459965
G1 X107.48 Y111.28 E0.66896
G1 X107.491 Y111.251 E0.67002
G1 X107.565 Y111.066 E0.67693
;WIDTH:0.48982
G1 X107.639 Y110.881 E0.68433
G1 X107.792 Y110.452 E0.70125
G1 X107.832 Y110.351 E0.70529
G1 X107.921 Y110.141 E0.71374
G1 X108.009 Y109.932 E0.7222
G1 X108.062 Y109.803 E0.72736
G1 X108.112 Y109.681 E0.73229
G1 X108.366 Y109.001 E0.75924
G1 X108.62 Y108.322 E0.7862
G1 X108.87 Y107.682 E0.81174
G1 X109.118 Y107.049 E0.837
G1 X109.246 Y106.704 E0.85066
G1 X109.379 Y106.347 E0.86482
G1 X109.644 Y105.691 E0.89111
G1 X109.704 Y105.52 E0.89783
G1 X109.764 Y105.35 E0.90454
G1 X109.771 Y105.332 E0.90526
G1 X109.939 Y104.911 E0.92209
G1 X110.107 Y104.49 E0.93893
G1 X110.274 Y104.028 E0.9572
;WIDTH:0.44242
G1 X110.441 Y103.566 E0.97352
G1 X110.486 Y103.465 E0.97719
G1 X110.537 Y103.378 E0.98055
G1 X110.587 Y103.29 E0.98391
G1 X110.632 Y103.223 E0.98659
G1 X110.709 Y103.12 E0.99087
;WIDTH:0.339358
G1 X110.788 Y103.05 E0.99346
;WIDTH:0.140146
G1 X110.842 Y103.025 E0.99394
G92 E0
G1 E-4.2 F3000
;WIPE_START
G1 F7200
G1 X110.788 Y103.05 E-4.22381
;WIPE_END
G1 E-6 F3000
; acceleration to travel
M204 S1500
G1 X101.391 Y127.261 F9000
; decel to extrusion
M204 S500
G1 X100.242 Y130.219
; end travel
G1 E0 F3000
;WIDTH:0.332126
G1 F1117
G1 X100.345 Y130.123 E0.00337
;WIDTH:0.557222
G1 X100.448 Y130.026 E0.00944
;WIDTH:0.649533
G1 X100.531 Y129.952 E0.01507
;WIDTH:0.77358
G1 X100.622 Y129.863 E0.02275
G1 X100.69 Y129.885 E0.02714
G1 X100.773 Y129.908 E0.03232
;WIDTH:0.708784
G1 X100.864 Y129.916 E0.03741
;WIDTH:0.674587
G1 X100.946 Y129.918 E0.04171
;WIDTH:0.571498
G1 X101.028 Y129.92 E0.04531
G1 X101.154 Y129.908 E0.05087
;WIDTH:0.519227
G1 X101.266 Y129.885 E0.0554
;WIDTH:0.477764
G1 X101.378 Y129.862 E0.05954
G1 X101.438 Y129.845 E0.06178
G1 X101.741 Y129.74 E0.07338
;WIDTH:0.525858
G1 X102.043 Y129.634 E0.08626
G1 X102.672 Y129.429 E0.11279
G1 X105.215 Y128.55 E0.22085
;WIDTH:0.556389
G1 X107.758 Y127.671 E0.33573
G1 X107.929 Y127.615 E0.34341
G1 X108.057 Y127.572 E0.34919
G1 X108.185 Y127.528 E0.35496
G1 X108.342 Y127.469 E0.36209
;WIDTH:0.495538
G1 X108.498 Y127.411 E0.36837
G1 X108.516 Y127.403 E0.36911
G1 X108.589 Y127.373 E0.37209
G1 X108.709 Y127.319 E0.37702
G1 X108.828 Y127.253 E0.38217
;WIDTH:0.527864
G1 X108.895 Y127.209 E0.38541
;WIDTH:0.573949
G1 X109.007 Y127.123 E0.39162
;WIDTH:0.65226
G1 X109.11 Y127.026 E0.39879
;WIDTH:0.781204
G1 X109.168 Y126.994 E0.40284
;WIDTH:0.672782
G1 X109.289 Y126.999 E0.40922
;WIDTH:0.565206
G1 X109.418 Y126.999 E0.41479
;WIDTH:0.525934
G1 X109.498 Y126.99 E0.41804
;WIDTH:0.43624
G1 X109.631 Y126.973 E0.42242
G1 X109.729 Y126.95 E0.42572
;WIDTH:0.4
G1 X109.827 Y126.928 E0.42872
G1 X109.878 Y126.912 E0.43029
G1 X110.154 Y126.803 E0.4391
G1 X110.171 Y126.797 E0.43963
G1 X110.541 Y126.672 E0.45122
;WIDTH:0.435956
G1 X110.911 Y126.547 E0.46398
G1 X111.434 Y126.38 E0.48194
;WIDTH:0.516655
G1 X111.958 Y126.212 E0.50359
G1 X112.458 Y126.036 E0.5245
G1 X112.959 Y125.86 E0.5454
G1 X113.206 Y125.78 E0.55564
G1 X113.464 Y125.696 E0.5663
G1 X115.234 Y125.082 E0.64012
G1 X117.004 Y124.468 E0.71393
G1 X117.044 Y124.455 E0.71558
G1 X117.444 Y124.316 E0.73225
;WIDTH:0.436409
G1 X117.844 Y124.177 E0.7461
G1 X117.877 Y124.164 E0.74725
G1 X118.019 Y124.101 E0.75235
G1 X118.161 Y124.038 E0.75744
G1 X118.242 Y123.993 E0.76048
;WIDTH:0.503907
G1 X118.356 Y123.912 E0.76582
;WIDTH:0.566094
G1 X118.437 Y123.844 E0.77042
;WIDTH:0.643574
G1 X118.514 Y123.777 E0.77554
;WIDTH:0.743362
G1 X118.636 Y123.745 E0.78289
;WIDTH:0.647035
G1 X118.73 Y123.749 E0.78759
;WIDTH:0.617242
G1 X118.82 Y123.746 E0.79188
;WIDTH:0.526912
G1 X118.91 Y123.742 E0.7955
G1 X118.979 Y123.736 E0.79828
G1 X119.052 Y123.723 E0.80127
;WIDTH:0.464086
G1 X119.169 Y123.701 E0.80543
G1 X119.289 Y123.668 E0.80982
G1 X119.41 Y123.636 E0.81421
G1 X119.435 Y123.628 E0.81511
G1 X119.888 Y123.477 E0.83182
;WIDTH:0.510914
G1 X120.34 Y123.326 E0.85039
G1 X120.698 Y123.194 E0.8652
G1 X121.055 Y123.063 E0.88002
G1 X121.127 Y123.039 E0.883
G1 X121.389 Y122.955 E0.8937
G1 X121.651 Y122.871 E0.9044
G1 X121.881 Y122.792 E0.91384
G1 X122.102 Y122.717 E0.92295
G1 X124.08 Y122.031 E1.0044
G1 X126.057 Y121.344 E1.08585
G1 X126.301 Y121.264 E1.09586
G1 X126.54 Y121.185 E1.10566
G1 X126.835 Y121.086 E1.11775
;WIDTH:0.467025
G1 X127.13 Y120.988 E1.1287
G1 X127.207 Y120.956 E1.13163
G1 X127.3 Y120.911 E1.13528
G1 X127.393 Y120.866 E1.13893
;WIDTH:0.430481
G1 X127.509 Y120.805 E1.14316
G1 X127.556 Y120.77 E1.14503
G1 X127.612 Y120.722 E1.14742
G1 X127.669 Y120.672 E1.14985
G1 X127.752 Y120.566 E1.1542
;WIDTH:0.26149
G1 X127.81 Y120.44 E1.15673
G92 E0
G1 E-4.2 F3000
;WIPE_START
G1 F7200
G1 X127.752 Y120.566 E-4.25518
;WIPE_END
G1 E-6 F3000
; acceleration to travel
M204 S1500
G1 X109.553 Y113.046 F9000
; decel to extrusion
M204 S500
G1 X107.329 Y112.127
; end travel
G1 E0 F3000
;WIDTH:0.652948
G1 F1117
G1 X107.457 Y112.193 E0.00729
;WIDTH:0.516797
G1 X107.544 Y112.237 E0.01113
;WIDTH:0.424927
G1 X107.661 Y112.313 E0.01557
G1 X107.745 Y112.361 E0.01864
G1 X107.797 Y112.398 E0.02067
G1 X107.95 Y112.53 E0.02708
G1 X107.967 Y112.547 E0.02785
G1 X108.239 Y112.827 E0.04026
G1 X108.619 Y113.239 E0.05806
G1 X108.633 Y113.254 E0.0587
G1 X115.474 Y120.329 E0.37132
G1 X116.618 Y121.52 E0.42377
G1 X117.779 Y122.721 E0.47681
G1 X117.955 Y122.892 E0.48462
G1 X118.136 Y123.076 E0.49283
G1 X118.155 Y123.097 E0.49372
G1 X118.307 Y123.283 E0.50135
G1 X118.36 Y123.364 E0.5044
G1 X118.428 Y123.469 E0.50841
;WIDTH:0.481873
G1 X118.481 Y123.574 E0.51269
;WIDTH:0.59652
G1 X118.533 Y123.683 E0.51824
;WIDTH:0.701489
G1 X118.557 Y123.737 E0.5215
G92 E0
G1 E-4.2 F3000
;WIPE_START
G1 F7200
G1 X118.533 Y123.683 E-4.22357
;WIPE_END
G1 E-6 F3000
; acceleration to travel
M204 S1500
G1 X112.499 Y105.689 F9000
; decel to extrusion
M204 S500
G1 X111.762 Y103.491
; end travel
G1 E0 F3000
;WIDTH:0.22
G1 F1117
G1 X111.857 Y103.594 E0.00206
;WIDTH:0.400037
G1 X111.941 Y103.692 E0.0059
G1 X112.135 Y103.893 E0.01419
G1 X112.239 Y103.989 E0.0184
G1 X112.268 Y104.028 E0.01986
G1 X113.349 Y105.155 E0.06622
G1 X113.392 Y105.2 E0.06806
G1 X113.483 Y105.283 E0.07173
G1 X113.857 Y105.701 E0.0884
G1 X113.996 Y105.84 E0.09424
G1 X114.253 Y106.09 E0.10486
G1 X114.334 Y106.155 E0.10795
G1 X114.414 Y106.248 E0.11159
G1 X115.253 Y107.121 E0.14755
G1 X115.435 Y107.296 E0.15505
G1 X115.484 Y107.346 E0.15713
G1 X115.685 Y107.576 E0.16618
G1 X116.295 Y108.214 E0.19239
G1 X116.466 Y108.362 E0.19911
G1 X116.548 Y108.458 E0.20287
G1 X117.191 Y109.136 E0.23061
G1 X117.263 Y109.207 E0.23361
G1 X117.478 Y109.409 E0.24238
G1 X117.534 Y109.477 E0.24499
G1 X117.616 Y109.553 E0.24832
G1 X118.068 Y110.039 E0.26803
G1 X118.408 Y110.418 E0.28315
G1 X118.458 Y110.469 E0.28527
G1 X119.49 Y111.492 E0.32841
G1 X119.543 Y111.557 E0.33091
G1 X119.639 Y111.648 E0.33482
G1 X119.697 Y111.718 E0.33754
G1 X120.324 Y112.379 E0.36458
G1 X120.611 Y112.698 E0.37733
G1 X120.73 Y112.82 E0.3824
G1 X121.473 Y113.547 E0.41324
G1 X121.525 Y113.604 E0.41554
G1 X121.604 Y113.686 E0.41893
G1 X121.637 Y113.718 E0.4203
G1 X121.874 Y113.976 E0.4307
G1 X122.522 Y114.648 E0.4584
G1 X122.796 Y114.956 E0.47066
G1 X123.091 Y115.257 E0.48317
G1 X123.623 Y115.778 E0.50529
G1 X123.642 Y115.797 E0.50607
G1 X124.029 Y116.21 E0.52289
G1 X124.84 Y117.039 E0.55734
G1 X124.852 Y117.053 E0.55787
G1 X125.068 Y117.299 E0.56759
G1 X125.237 Y117.474 E0.5748
G1 X125.617 Y117.851 E0.59071
G1 X125.678 Y117.925 E0.59356
G1 X125.975 Y118.229 E0.60617
G1 X126.519 Y118.806 E0.62972
G1 X126.719 Y119.005 E0.63811
G1 X127.002 Y119.296 E0.65016
