; generated by SuperSlicer 2.4 on 2023-02-23 at 13:24:49 UTC

; 

; external perimeters extrusion width = 0.43mm
; perimeters extrusion width = 0.48mm
; infill extrusion width = 0.46mm
; solid infill extrusion width = 0.48mm
; top infill extrusion width = 0.46mm
; first layer extrusion width = 0.58mm

; object:{"name":"Stringing_sdfTest","id":"Stringing_sdfTest.stl id:0 copy 0","object_center":[115.500000,115.500000,0.000000],"boundingbox_center":[115.500000,115.500000,9.410574],"boundingbox_size":[29.998001,29.998001,18.820000]}
; Total objects to print: 1
M486 T1
; plater:{"center":[115.500000,115.500000,0.000000],"boundingbox_center":[115.500000,115.500000,9.410574],"boundingbox_size":[29.998001,29.998001,18.820000]}

;TYPE:Custom
G90 ; use absolute coordinates
M83 ; extruder relative mode
M140 S60 ; set final bed temp
M104 S150 ; set temporary nozzle temp to prevent oozing during homing and auto bed leveling
G4 S10 ; allow partial nozzle warmup
G28 ; home all axis
;G29 ; auto bed levelling
G1 Z10 F240
G1 X2 Y10 F3000
G1 Z0 F240
M104 S210 ; set final nozzle temp
M190 S60 ; wait for bed temp to stabilize
M109 S210 ; wait for nozzle temp to stabilize
G1 Z0.28 F240
G92 E0
G1 Y100 E7.1 F1500 ; prime the nozzle
G1 X2.3 F5000
G92 E0
G1 Y10 E10 F1200 ; prime the nozzle
G92 E0
;start
M107
G21 ; set units to millimeters
G90 ; use absolute coordinates
M82 ; use absolute distances for extrusion
G92 E0
; Filament gcode
;_TOOLCHANGE 0
M107
;LAYER_CHANGE
;Z:0.2
;HEIGHT:0.2
;BEFORE_LAYER_CHANGE
;0.2


G1 E-6 F3000
G1 Z0.15 F9000
;AFTER_LAYER_CHANGE
;0.2
G92 E0
M204 S500
G1 X98.861 Y97.893
G1 E6 F3000
;TYPE:Skirt
;WIDTH:0.48
G1 F1200
G1 X97.776 Y99.058 E6.05786
G1 X97.382 Y100.601 E6.11573
G1 X97.382 Y130.399 E7.19868
G1 X97.893 Y132.139 E7.26458
G1 X99.058 Y133.224 E7.32244
G1 X100.601 Y133.618 E7.38031
G1 X130.399 Y133.618 E8.46326
G1 X132.139 Y133.107 E8.52916
G1 X133.224 Y131.942 E8.58702
G1 X133.618 Y130.399 E8.64489
G1 X133.618 Y100.601 E9.72784
G1 X133.107 Y98.861 E9.79374
G1 X131.942 Y97.776 E9.8516
G1 X130.399 Y97.382 E9.90947
G1 X100.601 Y97.382 E10.99243
G1 X98.919 Y97.876 E11.05614
G92 E0
G1 E-4.2 F3000
;WIPE_START
G1 F7200
G1 X97.776 Y99.058 E-4.85075
G1 X97.382 Y100.601 E-5.48096
G1 X97.382 Y101.685 E-5.91
;WIPE_END
G1 E-6 F3000
; printing object Stringing_sdfTest.stl id:0 copy 0
M486 S0
; acceleration to travel
M204 S1500
G1 X100.986 Y101.455 F9000
; decel to extrusion
M204 S500
G1 X101.426 Y101.426
; end travel
G1 E0 F3000
;TYPE:Internal perimeter
;WIDTH:0.576
G1 F1200
G1 X129.574 Y101.426 E1.24765
G1 X129.574 Y129.574 E2.4953
G1 X101.426 Y129.574 E3.74295
G1 X101.426 Y101.486 E4.98794
G1 X100.889 Y100.889 F9000
;TYPE:External perimeter
G1 F1200
G1 X130.111 Y100.889 E6.28322
G1 X130.111 Y130.111 E7.57851
G1 X100.889 Y130.111 E8.8738
G1 X100.889 Y100.949 E10.16642
;WIPE_START
G1 X101.235 Y101.089 F9000
;WIPE_END
G92 E0
G1 E-4.2 F3000
;WIPE_START
G1 F7200
G1 X105.555 Y101.089 E-5.91
;WIPE_END
G1 E-6 F3000
; acceleration to travel
M204 S1500
G1 X125.847 Y101.533 F9000
; decel to extrusion
M204 S500
G1 X128.326 Y101.588
; end travel
G1 E0 F3000
;TYPE:Solid infill
;WIDTH:0.57772
G1 F1200
G1 X129.181 Y102.443 E0.05377
G1 X129.181 Y103.203 E0.08756
G1 X127.797 Y101.819 E0.17458
G1 X127.037 Y101.819 E0.20836
G1 X129.181 Y103.963 E0.34317
G1 X129.181 Y104.723 E0.37695
G1 X126.277 Y101.819 E0.55954
G1 X125.517 Y101.819 E0.59332
G1 X129.181 Y105.483 E0.82369
G1 X129.181 Y106.243 E0.85747
G1 X124.757 Y101.819 E1.13562
G1 X123.997 Y101.819 E1.16941
G1 X129.181 Y107.003 E1.49533
G1 X129.181 Y107.762 E1.52912
G1 X123.238 Y101.819 E1.90283
G1 X122.478 Y101.819 E1.93661
G1 X129.181 Y108.522 E2.3581
G1 X129.181 Y109.282 E2.39189
G1 X121.718 Y101.819 E2.86116
G1 X120.958 Y101.819 E2.89494
G1 X129.181 Y110.042 E3.412
G1 X129.181 Y110.802 E3.44578
G1 X120.198 Y101.819 E4.01061
G1 X119.438 Y101.819 E4.0444
G1 X129.181 Y111.562 E4.65701
G1 X129.181 Y112.322 E4.6908
G1 X118.678 Y101.819 E5.35119
G1 X117.918 Y101.819 E5.38498
G1 X129.181 Y113.082 E6.09315
G1 X129.181 Y113.842 E6.12694
G1 X117.158 Y101.819 E6.88289
G1 X116.398 Y101.819 E6.91668
G1 X129.181 Y114.602 E7.72042
G1 X129.181 Y115.362 E7.7542
G1 X115.638 Y101.819 E8.60572
G1 X114.878 Y101.819 E8.63951
G1 X129.181 Y116.122 E9.53881
G1 X129.181 Y116.882 E9.57259
G1 X114.118 Y101.819 E10.51967
G1 X113.358 Y101.819 E10.55346
G1 X129.181 Y117.642 E11.54832
G1 X129.181 Y118.402 E11.5821
G1 X112.598 Y101.819 E12.62475
G1 X111.838 Y101.819 E12.65853
G1 X129.181 Y119.162 E13.74896
G1 X129.181 Y119.922 E13.78274
G1 X111.078 Y101.819 E14.92094
G1 X110.318 Y101.819 E14.95473
G1 X129.181 Y120.682 E16.14072
G1 X129.181 Y121.442 E16.1745
G1 X109.558 Y101.819 E17.40827
G1 X108.798 Y101.819 E17.44205
G1 X129.181 Y122.202 E18.7236
G1 X129.181 Y122.962 E18.75739
G1 X108.038 Y101.819 E20.08671
G1 X107.278 Y101.819 E20.1205
G1 X129.181 Y123.722 E21.49761
G1 X129.181 Y124.482 E21.53139
G1 X106.518 Y101.819 E22.95628
G1 X105.759 Y101.819 E22.99007
G1 X129.181 Y125.241 E24.46274
G1 X129.181 Y126.001 E24.49653
G1 X104.999 Y101.819 E26.01698
G1 X104.239 Y101.819 E26.05076
G1 X129.181 Y126.761 E27.619
G1 X129.181 Y127.521 E27.65278
G1 X103.479 Y101.819 E29.26879
G1 X102.719 Y101.819 E29.30258
G1 X129.181 Y128.281 E30.96638
G1 X129.181 Y129.041 E31.00016
G1 X101.959 Y101.819 E32.71174
G1 X101.819 Y101.819 E32.71796
G1 X101.819 Y102.438 E32.74552
G1 X128.562 Y129.181 E34.42693
G1 X127.802 Y129.181 E34.46072
G1 X101.819 Y103.198 E36.09435
G1 X101.819 Y103.958 E36.12814
G1 X127.042 Y129.181 E37.71399
G1 X126.282 Y129.181 E37.74777
G1 X101.819 Y104.718 E39.28584
G1 X101.819 Y105.478 E39.31963
G1 X125.522 Y129.181 E40.80992
G1 X124.762 Y129.181 E40.8437
G1 X101.819 Y106.238 E42.28621
G1 X101.819 Y106.998 E42.31999
G1 X124.002 Y129.181 E43.71472
G1 X123.242 Y129.181 E43.74851
G1 X101.819 Y107.758 E45.09545
G1 X101.819 Y108.518 E45.12924
G1 X122.482 Y129.181 E46.4284
G1 X121.722 Y129.181 E46.46219
G1 X101.819 Y109.278 E47.71357
G1 X101.819 Y110.038 E47.74736
G1 X120.962 Y129.181 E48.95096
G1 X120.202 Y129.181 E48.98474
G1 X101.819 Y110.798 E50.14056
G1 X101.819 Y111.558 E50.17435
G1 X119.442 Y129.181 E51.28239
G1 X118.682 Y129.181 E51.31618
G1 X101.819 Y112.318 E52.37644
G1 X101.819 Y113.078 E52.41022
G1 X117.922 Y129.181 E53.4227
G1 X117.162 Y129.181 E53.45649
G1 X101.819 Y113.838 E54.42118
G1 X101.819 Y114.598 E54.45497
G1 X116.402 Y129.181 E55.37188
G1 X115.642 Y129.181 E55.40567
G1 X101.819 Y115.358 E56.27481
G1 X101.819 Y116.118 E56.30859
G1 X114.882 Y129.181 E57.12995
G1 X114.122 Y129.181 E57.16373
G1 X101.819 Y116.878 E57.9373
G1 X101.819 Y117.638 E57.97109
G1 X113.362 Y129.181 E58.69688
G1 X112.602 Y129.181 E58.73067
G1 X101.819 Y118.398 E59.40868
G1 X101.819 Y119.158 E59.44247
G1 X111.842 Y129.181 E60.0727
G1 X111.082 Y129.181 E60.10648
G1 X101.819 Y119.918 E60.68893
G1 X101.819 Y120.677 E60.72272
G1 X110.323 Y129.181 E61.25739
G1 X109.563 Y129.181 E61.29117
G1 X101.819 Y121.437 E61.77806
G1 X101.819 Y122.197 E61.81185
G1 X108.803 Y129.181 E62.25095
G1 X108.043 Y129.181 E62.28474
G1 X101.819 Y122.957 E62.67606
G1 X101.819 Y123.717 E62.70985
G1 X107.283 Y129.181 E63.05339
G1 X106.523 Y129.181 E63.08718
G1 X101.819 Y124.477 E63.38294
G1 X101.819 Y125.237 E63.41673
G1 X105.763 Y129.181 E63.66471
G1 X105.003 Y129.181 E63.6985
G1 X101.819 Y125.997 E63.8987
G1 X101.819 Y126.757 E63.93249
G1 X104.243 Y129.181 E64.08491
G1 X103.483 Y129.181 E64.11869
G1 X101.819 Y127.517 E64.22333
G1 X101.819 Y128.277 E64.25712
G1 X102.723 Y129.181 E64.31398
G1 X101.963 Y129.181 E64.34776
G1 X101.588 Y128.806 E64.37137
M106 S84.15
;LAYER_CHANGE
;Z:0.52
;HEIGHT:0.32
;BEFORE_LAYER_CHANGE
;0.52


G92 E0
G1 E-4.2 F3000
;WIPE_START
G1 F7200
G1 X101.963 Y129.181 E-4.41017
G1 X102.723 Y129.181 E-4.71099
G1 X101.819 Y128.277 E-5.21723
G1 X101.819 Y127.517 E-5.51804
G1 X102.519 Y128.217 E-5.91
;WIPE_END
G1 E-6 F3000
; stop printing object Stringing_sdfTest.stl id:0 copy 0
M486 S-1
G1 Z0.47 F9000
;AFTER_LAYER_CHANGE
;0.52
G92 E0
; printing object Stringing_sdfTest.stl id:0 copy 0
M486 S0
; acceleration to travel
M204 S1500
G1 X101.267 Y129.703
; decel to extrusion
M204 S500
G1 X101.105 Y129.895
; end travel
G1 E6 F3000
;TYPE:Internal perimeter
;WIDTH:0.476
G1 F2400
G1 X101.105 Y101.105 E7.56014
G1 X129.895 Y101.105 E9.12028
G1 X129.895 Y129.895 E10.68042
G1 X101.165 Y129.895 E12.23731
G1 X100.715 Y130.285 F9000
;TYPE:External perimeter
;WIDTH:0.428
G1 F1500
G1 X100.715 Y100.715 E13.6509
G1 X130.285 Y100.715 E15.0645
G1 X130.285 Y130.285 E16.4781
G1 X100.775 Y130.285 E17.88883
;WIPE_START
G1 X100.915 Y129.939 F9000
;WIPE_END
G92 E0
G1 E-4.2 F3000
;WIPE_START
G1 F7200
G1 X100.915 Y125.619 E-5.91
;WIPE_END
G1 E-6 F3000
; acceleration to travel
M204 S1500
G1 X125.728 Y129.296 F9000
; decel to extrusion
M204 S500
G1 X128.933 Y129.771
; end travel
G1 E0 F3000
;TYPE:Solid infill
;WIDTH:0.483848
G1 F2400
G1 X129.592 Y129.111 E0.05135
G1 X129.592 Y128.526 E0.08362
G1 X128.526 Y129.592 E0.16673
G1 X127.94 Y129.592 E0.19899
G1 X129.592 Y127.94 E0.32773
G1 X129.592 Y127.354 E0.36
G1 X127.354 Y129.592 E0.53437
G1 X126.768 Y129.592 E0.56664
G1 X129.592 Y126.768 E0.78664
G1 X129.592 Y126.183 E0.8189
G1 X126.183 Y129.592 E1.08454
G1 X125.597 Y129.592 E1.1168
G1 X129.592 Y125.597 E1.42807
G1 X129.592 Y125.011 E1.46033
G1 X125.011 Y129.592 E1.81723
G1 X124.425 Y129.592 E1.8495
G1 X129.592 Y124.425 E2.25202
G1 X129.592 Y123.84 E2.28429
G1 X123.84 Y129.592 E2.73245
G1 X123.254 Y129.592 E2.76472
G1 X129.592 Y123.254 E3.25851
G1 X129.592 Y122.668 E3.29077
G1 X122.668 Y129.592 E3.83019
G1 X122.082 Y129.592 E3.86246
G1 X129.592 Y122.082 E4.44751
G1 X129.592 Y121.497 E4.47978
G1 X121.497 Y129.592 E5.11046
G1 X120.911 Y129.592 E5.14273
G1 X129.592 Y120.911 E5.81904
G1 X129.592 Y120.325 E5.85131
G1 X120.325 Y129.592 E6.57326
G1 X119.739 Y129.592 E6.60552
G1 X129.592 Y119.739 E7.3731
G1 X129.592 Y119.153 E7.40537
G1 X119.153 Y129.592 E8.21858
G1 X118.568 Y129.592 E8.25084
G1 X129.592 Y118.568 E9.10968
G1 X129.592 Y117.982 E9.14195
G1 X117.982 Y129.592 E10.04642
G1 X117.396 Y129.592 E10.07869
G1 X129.592 Y117.396 E11.02879
G1 X129.592 Y116.81 E11.06106
G1 X116.81 Y129.592 E12.05679
G1 X116.225 Y129.592 E12.08906
G1 X129.592 Y116.225 E13.13042
G1 X129.592 Y115.639 E13.16269
G1 X115.639 Y129.592 E14.24969
G1 X115.053 Y129.592 E14.28195
G1 X129.592 Y115.053 E15.41458
G1 X129.592 Y114.467 E15.44685
G1 X114.467 Y129.592 E16.62511
G1 X113.882 Y129.592 E16.65737
G1 X129.592 Y113.882 E17.88127
G1 X129.592 Y113.296 E17.91353
G1 X113.296 Y129.592 E19.18305
G1 X112.71 Y129.592 E19.21532
G1 X129.592 Y112.71 E20.53047
G1 X129.592 Y112.124 E20.56274
G1 X112.124 Y129.592 E21.92353
G1 X111.539 Y129.592 E21.95579
G1 X129.592 Y111.539 E23.36221
G1 X129.592 Y110.953 E23.39448
G1 X110.953 Y129.592 E24.84652
G1 X110.367 Y129.592 E24.87879
G1 X129.592 Y110.367 E26.37647
G1 X129.592 Y109.781 E26.40873
G1 X109.781 Y129.592 E27.95204
G1 X109.196 Y129.592 E27.98431
G1 X129.592 Y109.196 E29.57325
G1 X129.592 Y108.61 E29.60552
G1 X108.61 Y129.592 E31.24009
G1 X108.024 Y129.592 E31.27236
G1 X129.592 Y108.024 E32.95256
G1 X129.592 Y107.438 E32.98483
G1 X107.438 Y129.592 E34.71066
G1 X106.853 Y129.592 E34.74293
G1 X129.592 Y106.853 E36.5144
G1 X129.592 Y106.267 E36.54666
G1 X106.267 Y129.592 E38.36376
G1 X105.681 Y129.592 E38.39603
G1 X129.592 Y105.681 E40.25876
G1 X129.592 Y105.095 E40.29102
G1 X105.095 Y129.592 E42.19939
G1 X104.51 Y129.592 E42.23165
G1 X129.592 Y104.51 E44.18564
G1 X129.592 Y103.924 E44.21791
G1 X103.924 Y129.592 E46.21753
G1 X103.338 Y129.592 E46.2498
G1 X129.592 Y103.338 E48.29506
G1 X129.592 Y102.752 E48.32732
G1 X102.752 Y129.592 E50.41821
G1 X102.166 Y129.592 E50.45047
G1 X129.592 Y102.166 E52.58699
G1 X129.592 Y101.581 E52.61926
G1 X101.581 Y129.592 E54.80141
G1 X101.408 Y129.592 E54.81094
G1 X101.408 Y129.18 E54.83367
G1 X129.18 Y101.408 E56.99717
G1 X128.594 Y101.408 E57.02944
G1 X101.408 Y128.594 E59.1473
G1 X101.408 Y128.008 E59.17957
G1 X128.008 Y101.408 E61.2518
G1 X127.423 Y101.408 E61.28407
G1 X101.408 Y127.423 E63.31067
G1 X101.408 Y126.837 E63.34294
G1 X126.837 Y101.408 E65.32391
G1 X126.251 Y101.408 E65.35618
G1 X101.408 Y126.251 E67.29152
G1 X101.408 Y125.665 E67.32378
G1 X125.665 Y101.408 E69.21349
G1 X125.08 Y101.408 E69.24576
G1 X101.408 Y125.08 E71.08984
G1 X101.408 Y124.494 E71.1221
G1 X124.494 Y101.408 E72.92055
G1 X123.908 Y101.408 E72.95281
G1 X101.408 Y123.908 E74.70563
G1 X101.408 Y123.322 E74.7379
G1 X123.322 Y101.408 E76.44508
G1 X122.737 Y101.408 E76.47735
G1 X101.408 Y122.737 E78.1389
G1 X101.408 Y122.151 E78.17116
G1 X122.151 Y101.408 E79.78709
G1 X121.565 Y101.408 E79.81935
G1 X101.408 Y121.565 E81.38964
G1 X101.408 Y120.979 E81.42191
G1 X120.979 Y101.408 E82.94657
G1 X120.393 Y101.408 E82.97883
G1 X101.408 Y120.393 E84.45786
G1 X101.408 Y119.808 E84.49013
G1 X119.808 Y101.408 E85.92352
G1 X119.222 Y101.408 E85.95579
G1 X101.408 Y119.222 E87.34355
G1 X101.408 Y118.636 E87.37582
G1 X118.636 Y101.408 E88.71795
G1 X118.05 Y101.408 E88.75022
G1 X101.408 Y118.05 E90.04672
G1 X101.408 Y117.465 E90.07899
G1 X117.465 Y101.408 E91.32986
G1 X116.879 Y101.408 E91.36212
G1 X101.408 Y116.879 E92.56736
G1 X101.408 Y116.293 E92.59963
G1 X116.293 Y101.408 E93.75924
G1 X115.707 Y101.408 E93.7915
G1 X101.408 Y115.707 E94.90548
G1 X101.408 Y115.122 E94.93775
G1 X115.122 Y101.408 E96.00609
G1 X114.536 Y101.408 E96.03836
G1 X101.408 Y114.536 E97.06107
G1 X101.408 Y113.95 E97.09334
G1 X113.95 Y101.408 E98.07042
G1 X113.364 Y101.408 E98.10269
G1 X101.408 Y113.364 E99.03414
G1 X101.408 Y112.779 E99.06641
G1 X112.779 Y101.408 E99.95223
G1 X112.193 Y101.408 E99.98449
G1 X101.408 Y112.193 E100.82468
G1 X101.408 Y111.607 E100.85695
G1 X111.607 Y101.408 E101.6515
G1 X111.021 Y101.408 E101.68377
G1 X101.408 Y111.021 E102.4327
G1 X101.408 Y110.436 E102.46496
G1 X110.436 Y101.408 E103.16826
G1 X109.85 Y101.408 E103.20052
G1 X101.408 Y109.85 E103.85819
G1 X101.408 Y109.264 E103.89045
G1 X109.264 Y101.408 E104.50249
G1 X108.678 Y101.408 E104.53475
G1 X101.408 Y108.678 E105.10115
G1 X101.408 Y108.093 E105.13342
G1 X108.093 Y101.408 E105.65419
G1 X107.507 Y101.408 E105.68646
G1 X101.408 Y107.507 E106.16159
G1 X101.408 Y106.921 E106.19386
G1 X106.921 Y101.408 E106.62337
G1 X106.335 Y101.408 E106.65563
G1 X101.408 Y106.335 E107.03951
G1 X101.408 Y105.75 E107.07178
G1 X105.75 Y101.408 E107.41002
G1 X105.164 Y101.408 E107.44229
G1 X101.408 Y105.164 E107.7349
G1 X101.408 Y104.578 E107.76716
G1 X104.578 Y101.408 E108.01415
G1 X103.992 Y101.408 E108.04641
G1 X101.408 Y103.992 E108.24776
G1 X101.408 Y103.406 E108.28003
G1 X103.406 Y101.408 E108.43575
G1 X102.821 Y101.408 E108.46801
G1 X101.408 Y102.821 E108.5781
G1 X101.408 Y102.235 E108.61037
G1 X102.235 Y101.408 E108.67483
G1 X101.649 Y101.408 E108.70709
G1 X101.229 Y101.827 E108.73979
M106 S170.85
;LAYER_CHANGE
;Z:0.84
;HEIGHT:0.32
;BEFORE_LAYER_CHANGE
;0.84


G92 E0
G1 E-4.2 F3000
;WIPE_START
G1 F7200
G1 X101.649 Y101.408 E-4.43498
G1 X102.235 Y101.408 E-4.66684
G1 X101.408 Y102.235 E-5.13002
G1 X101.408 Y102.821 E-5.36188
G1 X102.387 Y101.842 E-5.91
;WIPE_END
G1 E-6 F3000
; stop printing object Stringing_sdfTest.stl id:0 copy 0
M486 S-1
G1 Z0.79 F9000
;AFTER_LAYER_CHANGE
;0.84
; printing object Stringing_sdfTest.stl id:0 copy 0
M486 S0
G1 X101.105 Y101.105
G1 E0 F3000
;TYPE:Internal perimeter
;WIDTH:0.476
G1 F2400
G1 X129.895 Y101.105 E1.56014
G1 X129.895 Y129.895 E3.12028
G1 X101.105 Y129.895 E4.68042
G1 X101.105 Y101.165 E6.23731
G1 X100.715 Y100.715 F9000
;TYPE:External perimeter
;WIDTH:0.428
G1 F1500
G1 X130.285 Y100.715 E7.6509
G1 X130.285 Y130.285 E9.0645
G1 X100.715 Y130.285 E10.4781
G1 X100.715 Y100.775 E11.88883
;WIPE_START
G1 X101.061 Y100.915 F9000
;WIPE_END
G92 E0
G1 E-4.2 F3000
;WIPE_START
G1 F7200
G1 X105.381 Y100.915 E-5.91
;WIPE_END
G1 E-6 F3000
; acceleration to travel
M204 S1500
G1 X126.98 Y101.935 F9000
; decel to extrusion
M204 S500
G1 X129.771 Y102.067
; end travel
G1 E0 F3000
;TYPE:Solid infill
;WIDTH:0.483848
G1 F2400
G1 X129.111 Y101.408 E0.05135
G1 X128.526 Y101.408 E0.08362
