; generated by SuperSlicer 2.4 on 2023-02-23 at 13:23:58 UTC

; 

; external perimeters extrusion width = 0.43mm
; perimeters extrusion width = 0.48mm
; infill extrusion width = 0.46mm
; solid infill extrusion width = 0.48mm
; top infill extrusion width = 0.46mm
; first layer extrusion width = 0.58mm

; object:{"name":"stringing-test","id":"stringing-test.stl id:0 copy 0","object_center":[115.719208,110.212512,0.000000],"boundingbox_center":[115.719208,110.212512,8.186871],"boundingbox_size":[32.346008,16.287099,16.373742]}
; Total objects to print: 1
M486 T1
; plater:{"center":[115.719208,110.212512,0.000000],"boundingbox_center":[115.719208,110.212512,8.186871],"boundingbox_size":[32.346008,16.287099,16.373742]}

;TYPE:Custom
G90 ; use absolute coordinates
M83 ; extruder relative mode
M140 S60 ; set final bed temp
M104 S150 ; set temporary nozzle temp to prevent oozing during homing and auto bed leveling
G4 S10 ; allow partial nozzle warmup
G28 ; home all axis
;G29 ; auto bed levelling
G1 Z10 F240
G1 X2 Y10 F3000
G1 Z0 F240
M104 S210 ; set final nozzle temp
M190 S60 ; wait for bed temp to stabilize
M109 S210 ; wait for nozzle temp to stabilize
G1 Z0.28 F240
G92 E0
G1 Y100 E7.1 F1500 ; prime the nozzle
G1 X2.3 F5000
G92 E0
G1 Y10 E10 F1200 ; prime the nozzle
G92 E0
;start
M107
G21 ; set units to millimeters
G90 ; use absolute coordinates
M82 ; use absolute distances for extrusion
G92 E0
; Filament gcode
;_TOOLCHANGE 0
M107
;LAYER_CHANGE
;Z:0.2
;HEIGHT:0.2
;BEFORE_LAYER_CHANGE
;0.2


G1 E-6 F3000
G1 Z0.15 F9000
;AFTER_LAYER_CHANGE
;0.2
G92 E0
M204 S500
G1 X99.093 Y99.588
G1 E6 F3000
;TYPE:Skirt
;WIDTH:0.48
G1 F1200
G1 X98.191 Y101.027 E6.06172
G1 X96.209 Y106.897 E6.28691
G1 X96.189 Y109.173 E6.36961
G1 X97.065 Y110.628 E6.43134
G1 X98.504 Y111.53 E6.49306
G1 X128.615 Y121.693 E7.64805
G1 X130.891 Y121.713 E7.73076
G1 X132.346 Y120.837 E7.79248
G1 X133.248 Y119.398 E7.85421
G1 X135.229 Y113.528 E8.07939
G1 X135.25 Y111.252 E8.1621
G1 X134.374 Y109.797 E8.22382
G1 X132.935 Y108.895 E8.28555
G1 X102.823 Y98.732 E9.44054
G1 X100.548 Y98.712 E9.52324
G1 X99.144 Y99.557 E9.58279
G1 X99.471 Y99.831 F9000
G1 F1200
G1 X98.605 Y101.166 E9.64065
G1 X96.623 Y107.037 E9.86583
G1 X96.551 Y108.849 E9.93173
G1 X97.308 Y110.249 E9.98959
G1 X98.644 Y111.116 E10.04746
G1 X128.755 Y121.279 E11.20245
G1 X130.566 Y121.351 E11.26834
G1 X131.967 Y120.594 E11.32621
G1 X132.834 Y119.259 E11.38407
G1 X134.815 Y113.388 E11.60925
G1 X134.887 Y111.576 E11.67515
G1 X134.13 Y110.176 E11.73301
G1 X132.795 Y109.309 E11.79087
G1 X102.684 Y99.146 E12.94586
G1 X100.872 Y99.074 E13.01176
G1 X99.524 Y99.802 E13.06744
G92 E0
G1 E-4.2 F3000
;WIPE_START
G1 F7200
G1 X98.605 Y101.166 E-4.85116
G1 X97.749 Y103.701 E-5.91
;WIPE_END
G1 E-6 F3000
; printing object stringing-test.stl id:0 copy 0
M486 S0
; acceleration to travel
M204 S1500
G1 X101.691 Y103.292 F9000
; decel to extrusion
M204 S500
G1 X102.172 Y103.242
; end travel
G1 E0 F3000
;TYPE:Internal perimeter
;WIDTH:0.576
G1 F1200
G1 X130.72 Y112.877 E1.3355
G1 X129.266 Y117.183 E1.53697
G1 X100.719 Y107.548 E2.87247
G1 X102.153 Y103.299 E3.07129
G1 X101.835 Y102.561 F9000
;TYPE:External perimeter
G1 F1200
G1 X101.941 Y102.596 E3.07624
G1 X131.401 Y112.539 E4.45442
G1 X129.603 Y117.864 E4.70353
G1 X100.038 Y107.886 E6.08667
G1 X101.816 Y102.618 E6.33312
;WIPE_START
G1 X102.099 Y102.861 F9000
;WIPE_END
G92 E0
G1 E-4.2 F3000
;WIPE_START
G1 F7200
G1 X106.193 Y104.242 E-5.91
;WIPE_END
G1 E-6 F3000
; acceleration to travel
M204 S1500
G1 X126.402 Y111.532 F9000
; decel to extrusion
M204 S500
G1 X128.871 Y112.423
; end travel
G1 E0 F3000
;TYPE:Solid infill
;WIDTH:0.571818
G1 F1200
G1 X130.058 Y113.61 E0.07386
G1 X129.866 Y114.178 E0.10024
G1 X128.092 Y112.404 E0.21064
G1 X126.945 Y112.017 E0.26392
G1 X129.675 Y114.746 E0.43377
G1 X129.483 Y115.314 E0.46016
G1 X125.798 Y111.63 E0.68947
G1 X124.651 Y111.243 E0.74274
G1 X129.291 Y115.883 E1.0315
G1 X129.099 Y116.451 E1.05789
G1 X123.504 Y110.855 E1.4061
G1 X122.357 Y110.468 E1.45938
G1 X128.348 Y116.46 E1.83223
G1 X127.201 Y116.072 E1.8855
G1 X121.209 Y110.081 E2.25835
G1 X120.062 Y109.694 E2.31163
G1 X126.054 Y115.685 E2.68447
G1 X124.907 Y115.298 E2.73775
G1 X118.915 Y109.307 E3.1106
G1 X117.768 Y108.919 E3.16387
G1 X123.759 Y114.911 E3.53672
G1 X122.612 Y114.524 E3.59
G1 X116.621 Y108.532 E3.96285
G1 X115.474 Y108.145 E4.01612
G1 X121.465 Y114.136 E4.38897
G1 X120.318 Y113.749 E4.44225
G1 X114.327 Y107.758 E4.81509
G1 X113.18 Y107.371 E4.86837
G1 X119.171 Y113.362 E5.24122
G1 X118.024 Y112.975 E5.29449
G1 X112.032 Y106.984 E5.66734
G1 X110.885 Y106.596 E5.72062
G1 X116.877 Y112.588 E6.09347
G1 X115.729 Y112.201 E6.14674
G1 X109.738 Y106.209 E6.51959
G1 X108.591 Y105.822 E6.57287
G1 X114.582 Y111.813 E6.94571
G1 X113.435 Y111.426 E6.99899
G1 X107.444 Y105.435 E7.37184
G1 X106.297 Y105.048 E7.42511
G1 X112.288 Y111.039 E7.79796
G1 X111.141 Y110.652 E7.85124
G1 X105.15 Y104.66 E8.22409
G1 X104.002 Y104.273 E8.27736
G1 X109.994 Y110.265 E8.65021
G1 X108.847 Y109.877 E8.70349
G1 X102.855 Y103.886 E9.07633
G1 X102.419 Y103.739 E9.09661
G1 X102.3 Y104.091 E9.11296
G1 X107.7 Y109.49 E9.44898
G1 X106.552 Y109.103 E9.50226
G1 X102.108 Y104.659 E9.77883
G1 X101.916 Y105.227 E9.80521
G1 X105.405 Y108.716 E10.02233
G1 X104.258 Y108.329 E10.07561
G1 X101.725 Y105.795 E10.23327
G1 X101.533 Y106.363 E10.25966
G1 X103.111 Y107.942 E10.35787
G1 X101.964 Y107.554 E10.41115
G1 X101.159 Y106.749 E10.46125
M106 S84.15
;LAYER_CHANGE
;Z:0.52
;HEIGHT:0.32
;BEFORE_LAYER_CHANGE
;0.52


G92 E0
G1 E-4.2 F3000
;WIPE_START
G1 F7200
G1 X101.964 Y107.554 E-4.65071
G1 X103.111 Y107.942 E-5.12995
G1 X101.717 Y106.548 E-5.91
;WIPE_END
G1 E-6 F3000
; stop printing object stringing-test.stl id:0 copy 0
M486 S-1
G1 Z0.47 F9000
;AFTER_LAYER_CHANGE
;0.52
G92 E0
; printing object stringing-test.stl id:0 copy 0
M486 S0
; acceleration to travel
M204 S1500
G1 X100.026 Y107.836
; decel to extrusion
M204 S500
G1 X99.817 Y107.995
; end travel
G1 E6 F3000
;TYPE:External perimeter
;WIDTH:0.428
G1 F1500
G1 X101.726 Y102.34 E6.2853
G1 X131.621 Y112.43 E7.79365
G1 X129.712 Y118.085 E8.07895
G1 X99.874 Y108.014 E9.58442
;WIPE_START
G1 X100.118 Y107.73 F9000
;WIPE_END
G92 E0
G1 E-4.2 F3000
;WIPE_START
G1 F7200
G1 X101.499 Y103.637 E-5.91
;WIPE_END
G1 E-6 F3000
; acceleration to travel
M204 S1500
G1 X126.884 Y115.296 F9000
; decel to extrusion
M204 S500
G1 X130.057 Y116.753
; end travel
G1 E0 F3000
;TYPE:Top solid infill
;WIDTH:0.46416
G1 F1800
G1 X129.187 Y117.624 E0.06458
G1 X128.77 Y117.483 E0.08765
G1 X130.071 Y116.182 E0.18419
G1 X130.355 Y115.34 E0.23077
G1 X128.353 Y117.342 E0.37929
G1 X127.936 Y117.202 E0.40237
G1 X130.639 Y114.499 E0.60287
G1 X130.923 Y113.657 E0.64946
G1 X127.519 Y117.061 E0.90195
G1 X127.103 Y116.92 E0.92503
G1 X131.207 Y112.816 E1.2295
G1 X131.28 Y112.599 E1.2415
G1 X130.971 Y112.495 E1.25863
G1 X126.686 Y116.78 E1.5765
G1 X126.269 Y116.639 E1.59958
G1 X130.554 Y112.354 E1.91744
G1 X130.137 Y112.213 E1.94052
G1 X125.852 Y116.498 E2.25839
G1 X125.435 Y116.358 E2.28146
G1 X129.721 Y112.072 E2.59933
G1 X129.304 Y111.932 E2.6224
G1 X125.019 Y116.217 E2.94027
G1 X124.602 Y116.076 E2.96334
G1 X128.887 Y111.791 E3.28121
G1 X128.47 Y111.65 E3.30429
G1 X124.185 Y115.936 E3.62215
G1 X123.768 Y115.795 E3.64523
G1 X128.053 Y111.51 E3.9631
G1 X127.637 Y111.369 E3.98617
G1 X123.351 Y115.654 E4.30404
G1 X122.935 Y115.514 E4.32711
G1 X127.22 Y111.228 E4.64498
G1 X126.803 Y111.088 E4.66805
G1 X122.518 Y115.373 E4.98592
G1 X122.101 Y115.232 E5.009
G1 X126.386 Y110.947 E5.32687
G1 X125.969 Y110.806 E5.34994
G1 X121.684 Y115.092 E5.66781
G1 X121.267 Y114.951 E5.69088
G1 X125.553 Y110.666 E6.00875
G1 X125.136 Y110.525 E6.03182
G1 X120.851 Y114.81 E6.34969
G1 X120.434 Y114.67 E6.37277
G1 X124.719 Y110.384 E6.69063
G1 X124.302 Y110.244 E6.71371
G1 X120.017 Y114.529 E7.03158
G1 X119.6 Y114.388 E7.05465
G1 X123.885 Y110.103 E7.37252
G1 X123.469 Y109.962 E7.39559
G1 X119.183 Y114.248 E7.71346
G1 X118.767 Y114.107 E7.73653
G1 X123.052 Y109.822 E8.0544
G1 X122.635 Y109.681 E8.07748
G1 X118.35 Y113.966 E8.39535
G1 X117.933 Y113.825 E8.41842
G1 X122.218 Y109.54 E8.73629
G1 X121.801 Y109.4 E8.75936
G1 X117.516 Y113.685 E9.07723
G1 X117.099 Y113.544 E9.1003
G1 X121.385 Y109.259 E9.41817
G1 X120.968 Y109.118 E9.44125
G1 X116.683 Y113.403 E9.75911
G1 X116.266 Y113.263 E9.78219
G1 X120.551 Y108.978 E10.10006
G1 X120.134 Y108.837 E10.12313
G1 X115.849 Y113.122 E10.441
G1 X115.432 Y112.981 E10.46407
G1 X119.717 Y108.696 E10.78194
G1 X119.301 Y108.556 E10.80501
G1 X115.015 Y112.841 E11.12288
G1 X114.599 Y112.7 E11.14596
G1 X118.884 Y108.415 E11.46383
G1 X118.467 Y108.274 E11.4869
G1 X114.182 Y112.559 E11.80477
G1 X113.765 Y112.419 E11.82784
G1 X118.05 Y108.134 E12.14571
G1 X117.633 Y107.993 E12.16878
G1 X113.348 Y112.278 E12.48665
G1 X112.931 Y112.137 E12.50973
G1 X117.217 Y107.852 E12.82759
G1 X116.8 Y107.712 E12.85067
G1 X112.515 Y111.997 E13.16854
G1 X112.098 Y111.856 E13.19161
G1 X116.383 Y107.571 E13.50948
G1 X115.966 Y107.43 E13.53255
G1 X111.681 Y111.715 E13.85042
G1 X111.264 Y111.575 E13.87349
G1 X115.549 Y107.289 E14.19136
G1 X115.133 Y107.149 E14.21444
G1 X110.848 Y111.434 E14.5323
G1 X110.431 Y111.293 E14.55538
G1 X114.716 Y107.008 E14.87325
G1 X114.299 Y106.867 E14.89632
G1 X110.014 Y111.153 E15.21419
G1 X109.597 Y111.012 E15.23726
G1 X113.882 Y106.727 E15.55513
G1 X113.465 Y106.586 E15.57821
G1 X109.18 Y110.871 E15.89607
G1 X108.764 Y110.731 E15.91915
G1 X113.049 Y106.445 E16.23702
G1 X112.632 Y106.305 E16.26009
G1 X108.347 Y110.59 E16.57796
G1 X107.93 Y110.449 E16.60103
G1 X112.215 Y106.164 E16.9189
G1 X111.798 Y106.023 E16.94197
G1 X107.513 Y110.309 E17.25984
G1 X107.096 Y110.168 E17.28292
G1 X111.381 Y105.883 E17.60078
G1 X110.965 Y105.742 E17.62386
G1 X106.68 Y110.027 E17.94173
G1 X106.263 Y109.887 E17.9648
G1 X110.548 Y105.601 E18.28267
G1 X110.131 Y105.461 E18.30574
G1 X105.846 Y109.746 E18.62361
G1 X105.429 Y109.605 E18.64669
G1 X109.714 Y105.32 E18.96455
G1 X109.298 Y105.179 E18.98763
G1 X105.012 Y109.464 E19.3055
G1 X104.596 Y109.324 E19.32857
G1 X108.881 Y105.039 E19.64644
G1 X108.464 Y104.898 E19.66951
G1 X104.179 Y109.183 E19.98738
G1 X103.762 Y109.042 E20.01045
G1 X108.047 Y104.757 E20.32832
G1 X107.63 Y104.617 E20.3514
G1 X103.345 Y108.902 E20.66926
G1 X102.928 Y108.761 E20.69234
G1 X107.214 Y104.476 E21.01021
G1 X106.797 Y104.335 E21.03328
G1 X102.512 Y108.62 E21.35115
G1 X102.095 Y108.48 E21.37422
G1 X106.38 Y104.195 E21.69209
G1 X105.963 Y104.054 E21.71516
G1 X101.678 Y108.339 E22.03303
G1 X101.261 Y108.198 E22.05611
G1 X105.546 Y103.913 E22.37398
G1 X105.13 Y103.773 E22.39705
G1 X100.844 Y108.058 E22.71492
G1 X100.428 Y107.917 E22.73799
G1 X104.713 Y103.632 E23.05586
G1 X104.296 Y103.491 E23.07893
G1 X100.258 Y107.529 E23.37844
G1 X100.542 Y106.687 E23.42503
G1 X103.879 Y103.351 E23.67255
G1 X103.462 Y103.21 E23.69562
G1 X100.826 Y105.846 E23.89116
G1 X101.11 Y105.004 E23.93774
G1 X103.046 Y103.069 E24.08129
G1 X102.629 Y102.929 E24.10437
G1 X101.394 Y104.163 E24.19593
G1 X101.678 Y103.321 E24.24251
G1 X102.346 Y102.654 E24.29201
M106 S170.85
;LAYER_CHANGE
;Z:0.84
;HEIGHT:0.32
;BEFORE_LAYER_CHANGE
;0.84


G92 E0
G1 E-4.2 F3000
;WIPE_START
G1 F7200
G1 X101.678 Y103.321 E-4.57356
G1 X101.394 Y104.163 E-4.92511
G1 X102.629 Y102.929 E-5.6161
G1 X103.046 Y103.069 E-5.79023
G1 X102.832 Y103.283 E-5.91
;WIPE_END
G1 E-6 F3000
; stop printing object stringing-test.stl id:0 copy 0
M486 S-1
G1 Z0.79 F9000
;AFTER_LAYER_CHANGE
;0.84
G92 E0
; printing object stringing-test.stl id:0 copy 0
M486 S0
; acceleration to travel
M204 S1500
G1 X123.344 Y112.349
; decel to extrusion
M204 S500
G1 X125.876 Y113.468
; end travel
G1 E6 F3000
;TYPE:External perimeter
;WIDTH:0.428
G1 F900
M106 S255
G1 X125.772 Y113.778 E6.01561
G1 X125.716 Y114.1 E6.03123
G1 X125.71 Y114.426 E6.04684
G1 X125.753 Y114.75 E6.06246
G1 X125.846 Y115.063 E6.07807
G1 X125.985 Y115.358 E6.09369
G1 X126.168 Y115.629 E6.1093
G1 X126.39 Y115.869 E6.12491
G1 X126.646 Y116.072 E6.14053
G1 X126.93 Y116.233 E6.15614
G1 X127.235 Y116.349 E6.17176
G1 X127.555 Y116.418 E6.18737
G1 X127.881 Y116.436 E6.20299
G1 X128.206 Y116.405 E6.2186
G1 X128.522 Y116.325 E6.23421
G1 X128.823 Y116.197 E6.24983
G1 X129.1 Y116.024 E6.26544
G1 X129.348 Y115.812 E6.28106
G1 X129.561 Y115.564 E6.29667
G1 X129.733 Y115.286 E6.31229
G1 X129.861 Y114.986 E6.3279
G1 X129.941 Y114.669 E6.34352
G1 X129.972 Y114.344 E6.35913
G1 X129.954 Y114.018 E6.37474
G1 X129.885 Y113.698 E6.39036
G1 X129.769 Y113.393 E6.40597
G1 X129.607 Y113.109 E6.42159
G1 X129.404 Y112.853 E6.4372
G1 X129.165 Y112.631 E6.45282
G1 X128.894 Y112.449 E6.46843
G1 X128.599 Y112.31 E6.48404
G1 X128.285 Y112.217 E6.49966
G1 X127.962 Y112.173 E6.51527
G1 X127.635 Y112.18 E6.53089
G1 X127.313 Y112.236 E6.5465
G1 X127.004 Y112.34 E6.56212
G1 X126.714 Y112.491 E6.57773
G1 X126.451 Y112.684 E6.59334
G1 X126.22 Y112.915 E6.60896
G1 X126.027 Y113.178 E6.62457
G1 X125.904 Y113.415 E6.63732
M106 S170.85
;WIPE_START
G1 X125.481 Y113.527 F9000
;WIPE_END
G1 X125.568 Y113.341
G1 F900
M106 S255
G1 X125.621 Y113.214 E6.64391
G1 X125.782 Y112.934 E6.65936
G1 X125.978 Y112.677 E6.67482
G1 X126.206 Y112.448 E6.69028
G1 X126.463 Y112.25 E6.70574
G1 X126.742 Y112.088 E6.72119
G1 X127.041 Y111.964 E6.73665
G1 X127.353 Y111.88 E6.75211
G1 X127.673 Y111.837 E6.76756
G1 X127.997 Y111.836 E6.78302
G1 X128.317 Y111.878 E6.79848
G1 X128.63 Y111.961 E6.81394
G1 X128.929 Y112.084 E6.82939
G1 X129.209 Y112.246 E6.84485
G1 X129.466 Y112.442 E6.86031
G1 X129.695 Y112.67 E6.87576
G1 X129.892 Y112.926 E6.89122
G1 X130.054 Y113.206 E6.90668
G1 X130.179 Y113.505 E6.92213
G1 X130.263 Y113.817 E6.93759
G1 X130.306 Y114.137 E6.95305
G1 X130.306 Y114.461 E6.96851
G1 X130.265 Y114.781 E6.98396
G1 X130.182 Y115.094 E6.99942
G1 X130.058 Y115.393 E7.01488
G1 X129.897 Y115.673 E7.03033
G1 X129.701 Y115.93 E7.04579
G1 X129.472 Y116.159 E7.06125
G1 X129.216 Y116.356 E7.07671
G1 X128.937 Y116.518 E7.09216
G1 X128.638 Y116.643 E7.10762
G1 X128.326 Y116.727 E7.12308
G1 X128.005 Y116.77 E7.13853
G1 X127.682 Y116.77 E7.15399
G1 X127.361 Y116.728 E7.16945
G1 X127.049 Y116.645 E7.1849
G1 X126.75 Y116.522 E7.20036
G1 X126.47 Y116.361 E7.21582
G1 X126.213 Y116.165 E7.23128
G1 X125.984 Y115.936 E7.24673
G1 X125.787 Y115.68 E7.26219
G1 X125.624 Y115.4 E7.27765
G1 X125.5 Y115.102 E7.2931
G1 X125.416 Y114.79 E7.30856
G1 X125.373 Y114.469 E7.32402
G1 X125.373 Y114.146 E7.33947
G1 X125.414 Y113.825 E7.35493
G1 X125.497 Y113.513 E7.37039
G1 X125.545 Y113.397 E7.37639
M106 S170.85
;WIPE_START
G1 X125.965 Y113.288 F9000
;WIPE_END
G92 E0
G1 E-4.2 F3000
;WIPE_START
G1 F7200
G1 X125.949 Y113.045 E-4.29669
G1 X126.129 Y112.809 E-4.4143
G1 X126.339 Y112.598 E-4.53191
G1 X126.574 Y112.417 E-4.64952
G1 X126.831 Y112.268 E-4.76713
G1 X127.106 Y112.154 E-4.88474
G1 X127.392 Y112.076 E-5.00235
G1 X127.687 Y112.037 E-5.11995
G1 X127.984 Y112.036 E-5.23757
G1 X128.279 Y112.075 E-5.35518
G1 X128.566 Y112.151 E-5.47278
G1 X128.841 Y112.264 E-5.59039
G1 X129.098 Y112.412 E-5.708
G1 X129.334 Y112.593 E-5.82561
G1 X129.485 Y112.743 E-5.91
;WIPE_END
G1 E-6 F3000
; acceleration to travel
M204 S1500
G1 X108.242 Y107.457 F9000
; decel to extrusion
M204 S500
G1 X105.62 Y106.804
; end travel
G1 E0 F3000
G1 F900
M106 S255
G1 X105.701 Y106.487 E0.01561
G1 X105.732 Y106.162 E0.03123
G1 X105.713 Y105.836 E0.04684
G1 X105.645 Y105.517 E0.06246
G1 X105.529 Y105.212 E0.07807
G1 X105.367 Y104.928 E0.09369
G1 X105.164 Y104.672 E0.1093
G1 X104.924 Y104.45 E0.12491
G1 X104.654 Y104.267 E0.14053
G1 X104.358 Y104.128 E0.15614
G1 X104.045 Y104.035 E0.17176
G1 X103.721 Y103.992 E0.18737
G1 X103.395 Y103.998 E0.20299
G1 X103.073 Y104.054 E0.2186
G1 X102.763 Y104.159 E0.23421
G1 X102.474 Y104.309 E0.24983
G1 X102.21 Y104.502 E0.26544
G1 X101.979 Y104.733 E0.28106
G1 X101.786 Y104.997 E0.29667
G1 X101.636 Y105.287 E0.31229
G1 X101.531 Y105.596 E0.3279
G1 X101.475 Y105.918 E0.34352
G1 X101.469 Y106.245 E0.35913
G1 X101.513 Y106.568 E0.37474
G1 X101.605 Y106.881 E0.39036
G1 X101.745 Y107.177 E0.40597
