; generated by SuperSlicer 2.4 on 2023-02-23 at 13:22:47 UTC

; 

; external perimeters extrusion width = 0.43mm
; perimeters extrusion width = 0.48mm
; infill extrusion width = 0.46mm
; solid infill extrusion width = 0.48mm
; top infill extrusion width = 0.46mm
; first layer extrusion width = 0.58mm

; object:{"name":"variable_size_ooze_test","id":"variable_size_ooze_test.stl id:0 copy 0","object_center":[115.500000,115.500000,0.000000],"boundingbox_center":[115.500000,115.500000,13.511807],"boundingbox_size":[58.629810,58.629810,27.023613]}
; Total objects to print: 1
M486 T1
; plater:{"center":[115.500000,115.500000,0.000000],"boundingbox_center":[115.500000,115.500000,13.511807],"boundingbox_size":[58.629810,58.629810,27.023613]}

;TYPE:Custom
G90 ; use absolute coordinates
M83 ; extruder relative mode
M140 S60 ; set final bed temp
M104 S150 ; set temporary nozzle temp to prevent oozing during homing and auto bed leveling
G4 S10 ; allow partial nozzle warmup
G28 ; home all axis
;G29 ; auto bed levelling
G1 Z10 F240
G1 X2 Y10 F3000
G1 Z0 F240
M104 S210 ; set final nozzle temp
M190 S60 ; wait for bed temp to stabilize
M109 S210 ; wait for nozzle temp to stabilize
G1 Z0.28 F240
G92 E0
G1 Y100 E7.1 F1500 ; prime the nozzle
G1 X2.3 F5000
G92 E0
G1 Y10 E10 F1200 ; prime the nozzle
G92 E0
;start
M107
G21 ; set units to millimeters
G90 ; use absolute coordinates
M82 ; use absolute distances for extrusion
G92 E0
; Filament gcode
;_TOOLCHANGE 0
M107
;LAYER_CHANGE
;Z:0.2
;HEIGHT:0.2
;BEFORE_LAYER_CHANGE
;0.2


G1 E-6 F3000
G1 Z0.15 F9000
;AFTER_LAYER_CHANGE
;0.2
G92 E0
M204 S500
G1 X84.397 Y108.714
G1 E6 F3000
;TYPE:Skirt
;WIDTH:0.48
G1 F1200
G1 X83.31 Y110.165 E6.0659
G1 X83.139 Y111.748 E6.12376
G1 X83.748 Y113.219 E6.18162
G1 X108.714 Y146.603 E7.69665
G1 X110.165 Y147.69 E7.76255
G1 X111.748 Y147.861 E7.82041
G1 X113.219 Y147.252 E7.87827
G1 X146.603 Y122.286 E9.3933
G1 X147.69 Y120.835 E9.4592
G1 X147.861 Y119.252 E9.51706
G1 X147.252 Y117.781 E9.57493
G1 X122.286 Y84.397 E11.08996
G1 X120.835 Y83.31 E11.15585
G1 X119.252 Y83.139 E11.21371
G1 X117.781 Y83.748 E11.27158
G1 X84.445 Y108.678 E12.78443
G92 E0
G1 E-4.2 F3000
;WIPE_START
G1 F7200
G1 X83.31 Y110.165 E-4.94053
G1 X83.139 Y111.748 E-5.57074
G1 X83.467 Y112.54 E-5.91
;WIPE_END
G1 E-6 F3000
; printing object variable_size_ooze_test.stl id:0 copy 0
M486 S0
; acceleration to travel
M204 S1500
G1 X87.043 Y111.576 F9000
; decel to extrusion
M204 S500
G1 X87.48 Y111.458
; end travel
G1 E0 F3000
;TYPE:Internal perimeter
;WIDTH:0.576
G1 F1200
G1 X119.542 Y87.48 E1.77462
G1 X143.52 Y119.542 E3.54924
G1 X111.458 Y143.52 E5.32386
G1 X87.516 Y111.506 E7.09582
G1 X86.728 Y111.35 F9000
;TYPE:External perimeter
G1 F1200
G1 X119.65 Y86.728 E8.91808
G1 X119.716 Y86.817 E8.92298
G1 X144.272 Y119.65 E10.74034
G1 X111.35 Y144.272 E12.5626
G1 X86.764 Y111.398 E14.38219
;WIPE_START
G1 X87.125 Y111.303 F9000
;WIPE_END
G92 E0
G1 E-4.2 F3000
;WIPE_START
G1 F7200
G1 X90.585 Y108.715 E-5.91
;WIPE_END
G1 E-6 F3000
; acceleration to travel
M204 S1500
G1 X119.26 Y93.871 F9000
; decel to extrusion
M204 S500
G1 X122.763 Y92.057
; end travel
G1 E0 F3000
;TYPE:Solid infill
;WIDTH:0.579041
G1 F1200
G1 X119.047 Y88.34 E0.23421
G1 X118.612 Y88.666 E0.2584
G1 X123.873 Y93.927 E0.58994
G1 X126.127 Y96.941 E0.75766
G1 X118.177 Y88.991 E1.25867
G1 X117.742 Y89.316 E1.28286
G1 X128.382 Y99.955 E1.95332
G1 X130.636 Y102.97 E2.12104
G1 X117.307 Y89.641 E2.96096
G1 X116.873 Y89.966 E2.98516
G1 X132.89 Y105.984 E3.99454
G1 X135.145 Y108.998 E4.16226
G1 X116.438 Y90.291 E5.3411
G1 X116.003 Y90.617 E5.36529
G1 X137.399 Y112.012 E6.71359
G1 X139.653 Y115.027 E6.88131
G1 X115.568 Y90.942 E8.39907
G1 X115.133 Y91.267 E8.42326
G1 X141.907 Y118.041 E10.11048
G1 X142.971 Y119.462 E10.18957
G1 X142.741 Y119.634 E10.20236
G1 X114.699 Y91.592 E11.96949
G1 X114.264 Y91.917 E11.99368
G1 X142.306 Y119.959 E13.76081
G1 X141.871 Y120.285 E13.78501
G1 X113.829 Y92.242 E15.55214
G1 X113.394 Y92.568 E15.57633
G1 X141.436 Y120.61 E17.34346
G1 X141.002 Y120.935 E17.36765
G1 X112.96 Y92.893 E19.13478
G1 X112.525 Y93.218 E19.15898
G1 X140.567 Y121.26 E20.92611
G1 X140.132 Y121.585 E20.9503
G1 X112.09 Y93.543 E22.71743
G1 X111.655 Y93.868 E22.74163
G1 X139.697 Y121.91 E24.50876
G1 X139.263 Y122.236 E24.53295
G1 X111.22 Y94.193 E26.30008
G1 X110.786 Y94.519 E26.32427
G1 X138.828 Y122.561 E28.0914
G1 X138.393 Y122.886 E28.1156
G1 X110.351 Y94.844 E29.88273
G1 X109.916 Y95.169 E29.90692
G1 X137.958 Y123.211 E31.67405
G1 X137.523 Y123.536 E31.69824
G1 X109.481 Y95.494 E33.46538
G1 X109.046 Y95.819 E33.48957
G1 X137.089 Y123.861 E35.2567
G1 X136.654 Y124.187 E35.28089
G1 X108.612 Y96.144 E37.04802
G1 X108.177 Y96.47 E37.07222
G1 X136.219 Y124.512 E38.83935
G1 X135.784 Y124.837 E38.86354
G1 X107.742 Y96.795 E40.63067
G1 X107.307 Y97.12 E40.65486
G1 X135.349 Y125.162 E42.422
G1 X134.915 Y125.487 E42.44619
G1 X106.873 Y97.445 E44.21332
G1 X106.438 Y97.77 E44.23751
G1 X134.48 Y125.812 E46.00464
G1 X134.045 Y126.138 E46.02884
G1 X106.003 Y98.096 E47.79597
G1 X105.568 Y98.421 E47.82016
G1 X133.61 Y126.463 E49.58729
G1 X133.175 Y126.788 E49.61148
G1 X105.133 Y98.746 E51.37862
G1 X104.699 Y99.071 E51.40281
G1 X132.741 Y127.113 E53.16994
G1 X132.306 Y127.438 E53.19413
G1 X104.264 Y99.396 E54.96126
G1 X103.829 Y99.721 E54.98546
G1 X131.871 Y127.764 E56.75259
G1 X131.436 Y128.089 E56.77678
G1 X103.394 Y100.047 E58.54391
G1 X102.959 Y100.372 E58.5681
G1 X131.002 Y128.414 E60.33523
G1 X130.567 Y128.739 E60.35943
G1 X102.525 Y100.697 E62.12656
G1 X102.09 Y101.022 E62.15075
G1 X130.132 Y129.064 E63.91788
G1 X129.697 Y129.389 E63.94208
G1 X101.655 Y101.347 E65.70921
G1 X101.22 Y101.672 E65.7334
G1 X129.262 Y129.715 E67.50053
G1 X128.828 Y130.04 E67.52472
G1 X100.785 Y101.998 E69.29185
G1 X100.351 Y102.323 E69.31605
G1 X128.393 Y130.365 E71.08318
G1 X127.958 Y130.69 E71.10737
G1 X99.916 Y102.648 E72.8745
G1 X99.481 Y102.973 E72.8987
G1 X127.523 Y131.015 E74.66583
G1 X127.088 Y131.34 E74.69002
G1 X99.046 Y103.298 E76.45715
G1 X98.612 Y103.623 E76.48134
G1 X126.654 Y131.666 E78.24847
G1 X126.219 Y131.991 E78.27267
G1 X98.177 Y103.949 E80.0398
G1 X97.742 Y104.274 E80.06399
G1 X125.784 Y132.316 E81.83112
G1 X125.349 Y132.641 E81.85532
G1 X97.307 Y104.599 E83.62245
G1 X96.872 Y104.924 E83.64664
G1 X124.915 Y132.966 E85.41377
G1 X124.48 Y133.291 E85.43796
G1 X96.438 Y105.249 E87.20509
G1 X96.003 Y105.574 E87.22929
G1 X124.045 Y133.617 E88.99642
G1 X123.61 Y133.942 E89.02061
G1 X95.568 Y105.9 E90.78774
G1 X95.133 Y106.225 E90.81193
G1 X123.175 Y134.267 E92.57907
G1 X122.741 Y134.592 E92.60326
G1 X94.698 Y106.55 E94.37039
G1 X94.264 Y106.875 E94.39458
G1 X122.306 Y134.917 E96.16171
G1 X121.871 Y135.242 E96.18591
G1 X93.829 Y107.2 E97.95304
G1 X93.394 Y107.525 E97.97723
G1 X121.436 Y135.568 E99.74436
G1 X121.001 Y135.893 E99.76855
G1 X92.959 Y107.851 E101.53569
G1 X92.525 Y108.176 E101.55988
G1 X120.567 Y136.218 E103.32701
G1 X120.132 Y136.543 E103.3512
G1 X92.09 Y108.501 E105.11833
G1 X91.655 Y108.826 E105.14253
G1 X119.697 Y136.868 E106.90966
G1 X119.262 Y137.193 E106.93385
G1 X91.22 Y109.151 E108.70098
G1 X90.785 Y109.476 E108.72517
G1 X118.827 Y137.519 E110.49231
G1 X118.393 Y137.844 E110.5165
G1 X90.351 Y109.802 E112.28363
G1 X89.916 Y110.127 E112.30782
G1 X117.958 Y138.169 E114.07495
G1 X117.523 Y138.494 E114.09915
G1 X89.481 Y110.452 E115.86628
G1 X89.046 Y110.777 E115.89047
G1 X117.088 Y138.819 E117.6576
G1 X116.654 Y139.144 E117.68179
G1 X88.611 Y111.102 E119.44893
G1 X88.177 Y111.427 E119.47312
G1 X116.219 Y139.47 E121.24025
G1 X115.784 Y139.795 E121.26444
G1 X89.52 Y113.531 E122.91949
G1 X91.775 Y116.546 E123.08721
G1 X115.349 Y140.12 E124.5728
G1 X114.914 Y140.445 E124.59699
G1 X94.029 Y119.56 E125.91312
G1 X96.283 Y122.574 E126.08085
G1 X114.48 Y140.77 E127.22752
G1 X114.045 Y141.095 E127.25171
G1 X98.538 Y125.588 E128.22892
G1 X100.792 Y128.603 E128.39664
G1 X113.61 Y141.421 E129.2044
G1 X113.175 Y141.746 E129.22859
G1 X103.046 Y131.617 E129.86688
G1 X105.301 Y134.631 E130.03461
G1 X112.74 Y142.071 E130.50344
G1 X112.306 Y142.396 E130.52763
G1 X107.555 Y137.645 E130.82701
G1 X109.809 Y140.66 E130.99473
G1 X112.036 Y142.886 E131.13505
G92 E0
G1 E-4.2 F3000
;WIPE_START
G1 F7200
G1 X109.809 Y140.66 E-5.44648
G1 X109.108 Y139.722 E-5.91
;WIPE_END
G1 E-6 F3000
; acceleration to travel
M204 S1500
G1 X107.617 Y137.648 F9000
; decel to extrusion
M204 S500
G1 X107.435 Y137.395
; end travel
G1 E0 F3000
;TYPE:Gap fill
;WIDTH:0.398335
G1 F1200
G1 X107.381 Y137.332 E0.00244
G1 X107.326 Y137.27 E0.00489
G1 X107.112 Y137.022 E0.01459
;WIDTH:0.319844
G1 X106.897 Y136.774 E0.02214
;WIDTH:0.265936
G1 X106.682 Y136.526 E0.02823
;WIDTH:0.212028
G1 X106.467 Y136.278 E0.03284
;WIDTH:0.15812
G1 X106.252 Y136.03 E0.03598
G92 E0
G1 E-4.2 F3000
;WIPE_START
G1 F7200
G1 X106.467 Y136.278 E-4.32988
;WIPE_END
G1 E-6 F3000
; acceleration to travel
M204 S1500
G1 X103.312 Y131.901 F9000
; decel to extrusion
M204 S500
G1 X102.926 Y131.366
; end travel
G1 E0 F3000
;WIDTH:0.398337
G1 F1200
G1 X102.872 Y131.304 E0.00244
G1 X102.818 Y131.241 E0.00489
G1 X102.603 Y130.993 E0.01459
;WIDTH:0.319843
G1 X102.388 Y130.745 E0.02214
;WIDTH:0.265935
G1 X102.173 Y130.497 E0.02823
;WIDTH:0.212028
G1 X101.958 Y130.249 E0.03284
;WIDTH:0.15812
G1 X101.744 Y130.001 E0.03598
G92 E0
G1 E-4.2 F3000
;WIPE_START
G1 F7200
G1 X101.958 Y130.249 E-4.32988
;WIPE_END
G1 E-6 F3000
; acceleration to travel
M204 S1500
G1 X98.803 Y125.873 F9000
; decel to extrusion
M204 S500
G1 X98.417 Y125.338
; end travel
G1 E0 F3000
;WIDTH:0.398337
G1 F1200
G1 X98.363 Y125.275 E0.00244
G1 X98.309 Y125.213 E0.00489
G1 X98.094 Y124.965 E0.01459
;WIDTH:0.319843
G1 X97.879 Y124.717 E0.02214
;WIDTH:0.265935
G1 X97.665 Y124.469 E0.02823
;WIDTH:0.212028
G1 X97.45 Y124.221 E0.03284
;WIDTH:0.15812
G1 X97.235 Y123.973 E0.03598
G92 E0
G1 E-4.2 F3000
;WIPE_START
G1 F7200
G1 X97.45 Y124.221 E-4.32988
;WIPE_END
G1 E-6 F3000
; acceleration to travel
M204 S1500
G1 X94.294 Y119.844 F9000
; decel to extrusion
M204 S500
G1 X93.909 Y119.309
; end travel
G1 E0 F3000
;WIDTH:0.398337
G1 F1200
G1 X93.855 Y119.247 E0.00244
G1 X93.801 Y119.184 E0.00489
G1 X93.586 Y118.936 E0.01459
;WIDTH:0.319843
G1 X93.371 Y118.688 E0.02214
;WIDTH:0.265935
G1 X93.156 Y118.44 E0.02823
;WIDTH:0.212028
G1 X92.941 Y118.192 E0.03284
;WIDTH:0.15812
G1 X92.726 Y117.944 E0.03598
G92 E0
G1 E-4.2 F3000
;WIPE_START
G1 F7200
G1 X92.941 Y118.192 E-4.32989
;WIPE_END
G1 E-6 F3000
; acceleration to travel
M204 S1500
G1 X89.786 Y113.816 F9000
; decel to extrusion
M204 S500
G1 X89.4 Y113.281
; end travel
G1 E0 F3000
;WIDTH:0.398337
G1 F1200
G1 X89.292 Y113.156 E0.00489
G1 X89.077 Y112.908 E0.01459
;WIDTH:0.319843
G1 X88.862 Y112.66 E0.02214
;WIDTH:0.265935
G1 X88.647 Y112.412 E0.02823
;WIDTH:0.212028
G1 X88.433 Y112.164 E0.03284
;WIDTH:0.15812
G1 X88.218 Y111.916 E0.03598
G92 E0
G1 E-4.2 F3000
;WIPE_START
G1 F7200
G1 X88.433 Y112.164 E-4.32988
;WIPE_END
G1 E-6 F3000
; acceleration to travel
M204 S1500
G1 X115.974 Y90.602 F9000
; decel to extrusion
M204 S500
G1 X119.338 Y87.968
; end travel
G1 E0 F3000
;WIDTH:0.434943
G1 F1200
G1 X119.395 Y88.039 E0.00295
;WIDTH:0.404809
G1 X119.451 Y88.11 E0.00567
G1 X119.654 Y88.344 E0.01499
;WIDTH:0.355472
G1 X119.856 Y88.578 E0.02304
;WIDTH:0.306134
G1 X120.059 Y88.812 E0.02981
;WIDTH:0.256796
G1 X120.262 Y89.046 E0.03532
;WIDTH:0.207458
G1 X120.464 Y89.28 E0.03955
;WIDTH:0.15812
G1 X120.667 Y89.514 E0.04252
G92 E0
G1 E-4.2 F3000
;WIPE_START
G1 F7200
G1 X120.464 Y89.28 E-4.32255
;WIPE_END
G1 E-6 F3000
; acceleration to travel
M204 S1500
G1 X125.618 Y96.33 F9000
; decel to extrusion
M204 S500
G1 X126.248 Y97.192
; end travel
G1 E0 F3000
;WIDTH:0.398343
G1 F1200
G1 X126.302 Y97.254 E0.00244
G1 X126.356 Y97.317 E0.00489
G1 X126.571 Y97.565 E0.01459
;WIDTH:0.319845
G1 X126.786 Y97.813 E0.02214
;WIDTH:0.265937
G1 X127 Y98.061 E0.02823
;WIDTH:0.212029
G1 X127.215 Y98.309 E0.03284
;WIDTH:0.15812
G1 X127.43 Y98.557 E0.03598
G92 E0
G1 E-4.2 F3000
;WIPE_START
G1 F7200
G1 X127.215 Y98.309 E-4.32989
;WIPE_END
G1 E-6 F3000
; acceleration to travel
M204 S1500
G1 X130.371 Y102.685 F9000
; decel to extrusion
M204 S500
G1 X130.756 Y103.22
; end travel
G1 E0 F3000
;WIDTH:0.39834
G1 F1200
G1 X130.81 Y103.283 E0.00244
G1 X130.864 Y103.345 E0.00489
G1 X131.079 Y103.593 E0.01459
;WIDTH:0.319844
G1 X131.294 Y103.841 E0.02214
;WIDTH:0.265936
G1 X131.509 Y104.089 E0.02823
;WIDTH:0.212028
G1 X131.724 Y104.337 E0.03284
;WIDTH:0.15812
G1 X131.939 Y104.585 E0.03598
G92 E0
G1 E-4.2 F3000
;WIPE_START
G1 F7200
G1 X131.724 Y104.337 E-4.32989
;WIPE_END
G1 E-6 F3000
; acceleration to travel
M204 S1500
G1 X134.879 Y108.714 F9000
; decel to extrusion
M204 S500
G1 X135.265 Y109.249
; end travel
G1 E0 F3000
;WIDTH:0.398337
G1 F1200
G1 X135.319 Y109.311 E0.00244
G1 X135.373 Y109.374 E0.00489
G1 X135.588 Y109.622 E0.01459
;WIDTH:0.319843
G1 X135.803 Y109.87 E0.02214
;WIDTH:0.265935
G1 X136.018 Y110.118 E0.02823
;WIDTH:0.212028
G1 X136.232 Y110.366 E0.03284
;WIDTH:0.15812
G1 X136.447 Y110.614 E0.03598
G92 E0
G1 E-4.2 F3000
;WIPE_START
G1 F7200
G1 X136.232 Y110.366 E-4.32989
;WIPE_END
G1 E-6 F3000
; acceleration to travel
M204 S1500
G1 X139.388 Y114.742 F9000
; decel to extrusion
M204 S500
G1 X139.773 Y115.277
; end travel
G1 E0 F3000
;WIDTH:0.398337
G1 F1200
G1 X139.828 Y115.34 E0.00244
G1 X139.882 Y115.402 E0.00489
G1 X140.097 Y115.65 E0.01459
;WIDTH:0.319843
G1 X140.311 Y115.898 E0.02214
;WIDTH:0.265935
G1 X140.526 Y116.146 E0.02823
;WIDTH:0.212028
G1 X140.741 Y116.394 E0.03284
;WIDTH:0.15812
G1 X140.956 Y116.642 E0.03598
M106 S84.15
;LAYER_CHANGE
;Z:0.52
;HEIGHT:0.32
;BEFORE_LAYER_CHANGE
;0.52


G92 E0
G1 E-4.2 F3000
;WIPE_START
G1 F7200
G1 X140.741 Y116.394 E-4.32989
;WIPE_END
G1 E-6 F3000
; stop printing object variable_size_ooze_test.stl id:0 copy 0
M486 S-1
G1 Z0.47 F9000
;AFTER_LAYER_CHANGE
;0.52
G92 E0
; printing object variable_size_ooze_test.stl id:0 copy 0
M486 S0
; acceleration to travel
M204 S1500
G1 X143.6 Y119.239
; decel to extrusion
M204 S500
G1 X143.969 Y119.606
; end travel
G1 E6 F3000
;TYPE:Internal perimeter
;WIDTH:0.476
G1 F2400
G1 X111.394 Y143.969 E8.2044
G1 X87.031 Y111.394 E10.40879
G1 X119.606 Y87.031 E12.61319
G1 X143.933 Y119.558 E14.81433
G1 X144.515 Y119.685 F9000
;TYPE:External perimeter
;WIDTH:0.428
G1 F1500
G1 X111.315 Y144.515 E16.79626
G1 X86.485 Y111.315 E18.7782
G1 X119.685 Y86.485 E20.76013
G1 X144.479 Y119.637 E22.7392
;WIPE_START
G1 X144.118 Y119.733 F9000
;WIPE_END
G92 E0
G1 E-4.2 F3000
;WIPE_START
G1 F7200
G1 X140.659 Y122.32 E-5.91
;WIPE_END
G1 E-6 F3000
G1 X140.442 Y122.09 F9000
G1 E0 F3000
;TYPE:Solid infill
;WIDTH:0.484111
G1 F2400
G1 X143.306 Y119.225 E0.22328
G1 X143.056 Y118.89 E0.24635
G1 X139 Y122.945 E0.56243
G1 X136.677 Y124.683 E0.72233
G1 X142.805 Y118.555 E1.19997
G1 X142.554 Y118.22 E1.22303
G1 X134.354 Y126.42 E1.86222
G1 X132.03 Y128.158 E2.02212
G1 X142.304 Y117.884 E2.82286
G1 X142.053 Y117.549 E2.84593
G1 X129.707 Y129.895 E3.80822
G1 X127.384 Y131.633 E3.96812
G1 X141.802 Y117.214 E5.09197
G1 X141.552 Y116.879 E5.11504
G1 X125.06 Y133.37 E6.40044
G1 X122.737 Y135.108 E6.56034
G1 X141.301 Y116.544 E8.0073
G1 X141.051 Y116.209 E8.03036
G1 X120.414 Y136.846 E9.63888
G1 X118.09 Y138.583 E9.79878
G1 X140.8 Y115.874 E11.56884
G1 X140.549 Y115.539 E11.59191
G1 X115.767 Y140.321 E13.52353
G1 X113.444 Y142.058 E13.68343
G1 X140.299 Y115.203 E15.7766
G1 X140.048 Y114.868 E15.79967
G1 X111.418 Y143.498 E18.03115
G1 X111.168 Y143.163 E18.05422
G1 X139.797 Y114.533 E20.28571
G1 X139.547 Y114.198 E20.30877
G1 X110.917 Y142.828 E22.54026
G1 X110.667 Y142.492 E22.56332
G1 X139.296 Y113.863 E24.79481
G1 X139.045 Y113.528 E24.81787
G1 X110.416 Y142.157 E27.04936
G1 X110.165 Y141.822 E27.07242
G1 X138.795 Y113.193 E29.30391
G1 X138.544 Y112.858 E29.32698
G1 X109.915 Y141.487 E31.55846
G1 X109.664 Y141.152 E31.58153
G1 X138.294 Y112.522 E33.81301
G1 X138.043 Y112.187 E33.83608
G1 X109.413 Y140.817 E36.06757
G1 X109.163 Y140.482 E36.09063
G1 X137.792 Y111.852 E38.32212
G1 X137.542 Y111.517 E38.34518
