; generated by SuperSlicer 2.4 on 2023-02-16 at 16:30:33 UTC

; 

; external perimeters extrusion width = 0.43mm
; perimeters extrusion width = 0.48mm
; infill extrusion width = 0.46mm
; solid infill extrusion width = 0.48mm
; top infill extrusion width = 0.46mm
; first layer extrusion width = 0.58mm

; object:{"name":"4_tofwer_ver","id":"4_tofwer_ver.stl id:0 copy 0","object_center":[115.484320,115.488764,0.000000],"boundingbox_center":[115.484320,115.488764,11.000000],"boundingbox_size":[24.660730,24.599441,22.000000]}
; Total objects to print: 1
M486 T1
; plater:{"center":[115.484320,115.488764,0.000000],"boundingbox_center":[115.484320,115.488764,11.000000],"boundingbox_size":[24.660730,24.599441,22.000000]}

;TYPE:Custom
G90 ; use absolute coordinates
M83 ; extruder relative mode
M140 S60 ; set final bed temp
M104 S150 ; set temporary nozzle temp to prevent oozing during homing and auto bed leveling
G4 S10 ; allow partial nozzle warmup
G28 ; home all axis
;G29 ; auto bed levelling
G1 Z10 F240
G1 X2 Y10 F3000
G1 Z0 F240
M104 S210 ; set final nozzle temp
M190 S60 ; wait for bed temp to stabilize
M109 S210 ; wait for nozzle temp to stabilize
G1 Z0.28 F240
G92 E0
G1 Y100 E7.1 F1500 ; prime the nozzle
G1 X2.3 F5000
G92 E0
G1 Y10 E10 F1200 ; prime the nozzle
G92 E0
;start
M107
G21 ; set units to millimeters
G90 ; use absolute coordinates
M82 ; use absolute distances for extrusion
G92 E0
; Filament gcode
;_TOOLCHANGE 0
M107
;LAYER_CHANGE
;Z:0.2
;HEIGHT:0.2
;BEFORE_LAYER_CHANGE
;0.2


G1 E-6 F3000
G1 Z0.15 F9000
;AFTER_LAYER_CHANGE
;0.2
G92 E0
M204 S500
G1 X104.653 Y102.269
G1 E6 F3000
;TYPE:Skirt
;WIDTH:0.48
G1 F1200
G1 X103.943 Y103.17 E6.04166
G1 X103.342 Y104.218 E6.08557
G1 X102.762 Y105.866 E6.14906
G1 X99.693 Y119.169 E6.64525
G1 X99.6 Y120.309 E6.68683
G1 X99.679 Y121.508 E6.73047
G1 X99.831 Y122.296 E6.75965
G1 X100.171 Y123.353 E6.8
G1 X100.913 Y124.779 E6.85845
G1 X101.655 Y125.741 E6.90258
G1 X102.21 Y126.299 E6.93119
G1 X103.075 Y126.985 E6.97132
G1 X103.745 Y127.398 E6.99994
G1 X105.191 Y128.017 E7.05709
G1 X119.077 Y131.249 E7.57523
G1 X120.231 Y131.343 E7.61732
G1 X121.031 Y131.313 E7.64641
G1 X122.255 Y131.11 E7.69152
G1 X123.357 Y130.756 E7.73355
G1 X124.456 Y130.214 E7.77811
G1 X125.146 Y129.759 E7.80814
G1 X126.337 Y128.688 E7.86635
G1 X126.846 Y128.074 E7.89534
G1 X127.469 Y127.104 E7.93723
G1 X128.094 Y125.636 E7.99524
G1 X131.275 Y111.965 E8.50535
G1 X131.359 Y111.133 E8.53574
G1 X131.339 Y110.014 E8.57643
G1 X131.128 Y108.756 E8.62277
G1 X130.784 Y107.69 E8.6635
G1 X130.047 Y106.274 E8.72151
G1 X129.049 Y105.029 E8.77951
G1 X127.803 Y103.985 E8.83855
G1 X126.408 Y103.223 E8.89634
G1 X125.063 Y102.782 E8.94778
G1 X112.383 Y99.831 E9.42093
G1 X110.965 Y99.644 E9.47289
G1 X109.815 Y99.675 E9.51472
G1 X108.621 Y99.885 E9.5588
G1 X107.541 Y100.243 E9.60012
G1 X106.458 Y100.788 E9.64421
G1 X105.534 Y101.436 E9.6852
G1 X104.696 Y102.228 E9.72711
G1 X105.02 Y102.539 F9000
G1 F1200
G1 X104.762 Y102.808 E9.74067
G1 X104.076 Y103.774 E9.7837
G1 X103.603 Y104.702 E9.82156
G1 X103.188 Y105.965 E9.86988
G1 X100.123 Y119.247 E10.36529
G1 X100.037 Y120.302 E10.40376
G1 X100.113 Y121.459 E10.44589
G1 X100.258 Y122.203 E10.47344
G1 X100.572 Y123.18 E10.51072
G1 X101.272 Y124.53 E10.566
G1 X101.987 Y125.457 E10.60857
G1 X102.513 Y125.984 E10.63562
G1 X103.313 Y126.618 E10.67271
G1 X103.946 Y127.01 E10.69976
G1 X105.312 Y127.597 E10.75379
G1 X119.155 Y130.819 E11.27035
G1 X120.224 Y130.906 E11.30933
G1 X120.981 Y130.878 E11.33686
G1 X122.163 Y130.683 E11.38041
G1 X123.183 Y130.355 E11.41934
G1 X124.245 Y129.832 E11.46236
G1 X124.897 Y129.4 E11.4908
G1 X126.022 Y128.385 E11.54587
G1 X126.503 Y127.803 E11.57331
G1 X127.08 Y126.905 E11.6121
G1 X127.674 Y125.516 E11.667
G1 X130.845 Y111.887 E12.17555
G1 X130.923 Y111.099 E12.20432
G1 X130.905 Y110.064 E12.24197
G1 X130.701 Y108.85 E12.28669
G1 X130.383 Y107.863 E12.32437
G1 X129.687 Y106.522 E12.37927
G1 X128.745 Y105.342 E12.43416
G1 X127.567 Y104.353 E12.49004
G1 X126.248 Y103.63 E12.54474
G1 X124.964 Y103.208 E12.59384
G1 X112.284 Y100.257 E13.067
G1 X110.935 Y100.08 E13.11645
G1 X109.87 Y100.109 E13.15517
G1 X108.717 Y100.312 E13.1977
G1 X107.718 Y100.643 E13.23595
G1 X106.673 Y101.169 E13.27849
G1 X105.493 Y102.047 E13.33194
G1 X105.062 Y102.496 E13.35456
G92 E0
G1 E-4.2 F3000
;WIPE_START
G1 F7200
G1 X104.762 Y102.808 E-4.37149
G1 X104.076 Y103.774 E-4.84018
G1 X103.603 Y104.702 E-5.25253
G1 X103.188 Y105.965 E-5.77872
G1 X103.113 Y106.288 E-5.91
;WIPE_END
G1 E-6 F3000
; printing object 4_tofwer_ver.stl id:0 copy 0
M486 S0
; acceleration to travel
M204 S1500
G1 X107.44 Y105.395 F9000
; decel to extrusion
M204 S500
G1 X107.968 Y105.286
; end travel
G1 E0 F3000
;TYPE:Internal perimeter
;WIDTH:0.576
G1 F1200
G1 X108.154 Y105.092 E0.01191
G1 X108.419 Y104.865 E0.02736
G1 X108.698 Y104.67 E0.04244
G1 X109.008 Y104.494 E0.05826
G1 X109.319 Y104.356 E0.07333
G1 X109.65 Y104.247 E0.08879
G1 X109.99 Y104.17 E0.10423
G1 X110.335 Y104.126 E0.11964
G1 X110.691 Y104.117 E0.13545
G1 X111.031 Y104.141 E0.15053
G1 X111.392 Y104.201 E0.16677
G1 X124.028 Y107.142 E0.74183
G1 X124.395 Y107.246 E0.75873
G1 X124.728 Y107.378 E0.77462
G1 X125.047 Y107.541 E0.79051
G1 X125.348 Y107.734 E0.80637
G1 X125.644 Y107.968 E0.82308
G1 X125.9 Y108.217 E0.83892
G1 X126.133 Y108.492 E0.85488
G1 X126.338 Y108.788 E0.87084
G1 X126.513 Y109.103 E0.8868
G1 X126.656 Y109.434 E0.90277
G1 X126.76 Y109.757 E0.91783
G1 X126.842 Y110.13 E0.93475
G1 X126.883 Y110.486 E0.95063
G1 X126.888 Y110.826 E0.9657
G1 X126.859 Y111.206 E0.98262
G1 X126.791 Y111.581 E0.9995
G1 X123.901 Y124.002 E1.56477
G1 X123.796 Y124.367 E1.58163
G1 X123.656 Y124.721 E1.59848
G1 X123.5 Y125.023 E1.61355
G1 X123.306 Y125.326 E1.62949
G1 X123.083 Y125.608 E1.64543
G1 X122.834 Y125.866 E1.66135
G1 X122.561 Y126.099 E1.67724
G1 X122.25 Y126.314 E1.69402
G1 X121.936 Y126.488 E1.70993
G1 X121.612 Y126.628 E1.72556
G1 X121.268 Y126.739 E1.74156
G1 X120.916 Y126.815 E1.75754
G1 X120.558 Y126.856 E1.77353
G1 X120.197 Y126.862 E1.78951
G1 X119.838 Y126.833 E1.8055
G1 X119.462 Y126.765 E1.82244
G1 X106.82 Y123.823 E2.39775
G1 X106.466 Y123.721 E2.41409
G1 X106.144 Y123.593 E2.42945
G1 X105.836 Y123.435 E2.44481
G1 X105.544 Y123.246 E2.46023
G1 X105.288 Y123.043 E2.47469
G1 X105.038 Y122.802 E2.49011
G1 X104.813 Y122.538 E2.50547
G1 X104.615 Y122.254 E2.52083
G1 X104.447 Y121.953 E2.53611
G1 X104.301 Y121.614 E2.55246
G1 X104.201 Y121.304 E2.56688
G1 X104.128 Y120.967 E2.58218
G1 X104.086 Y120.6 E2.59854
G1 X104.081 Y120.274 E2.61298
G1 X104.109 Y119.929 E2.62835
G1 X104.175 Y119.565 E2.64472
G1 X107.122 Y106.901 E3.22109
G1 X107.224 Y106.544 E3.23753
G1 X107.351 Y106.22 E3.25297
G1 X107.506 Y105.917 E3.26806
G1 X107.698 Y105.616 E3.28387
G1 X107.913 Y105.343 E3.29928
G1 X107.927 Y105.329 E3.30015
G1 X107.581 Y104.914 F9000
;TYPE:External perimeter
G1 F1200
G1 X107.785 Y104.701 E3.31322
G1 X108.089 Y104.44 E3.33099
G1 X108.41 Y104.215 E3.34837
G1 X108.767 Y104.013 E3.36652
G1 X109.125 Y103.854 E3.38391
G1 X109.506 Y103.728 E3.40168
G1 X109.897 Y103.64 E3.41944
G1 X110.294 Y103.59 E3.43719
G1 X110.703 Y103.579 E3.45533
G1 X111.095 Y103.606 E3.47272
G1 X111.498 Y103.674 E3.49085
G1 X124.162 Y106.621 E4.06722
G1 X124.567 Y106.737 E4.08586
G1 X124.95 Y106.887 E4.10409
G1 X125.316 Y107.075 E4.12231
G1 X125.661 Y107.297 E4.14052
G1 X125.999 Y107.564 E4.1596
G1 X126.293 Y107.85 E4.1778
G1 X126.56 Y108.165 E4.1961
G1 X126.795 Y108.504 E4.21439
G1 X126.995 Y108.865 E4.23269
G1 X127.159 Y109.244 E4.25099
G1 X127.279 Y109.617 E4.26835
G1 X127.373 Y110.041 E4.28761
G1 X127.42 Y110.45 E4.30587
G1 X127.426 Y110.842 E4.32323
G1 X127.393 Y111.275 E4.34249
G1 X127.317 Y111.69 E4.36117
G1 X124.421 Y124.136 E4.9276
G1 X124.306 Y124.541 E4.94626
G1 X124.145 Y124.943 E4.96546
G1 X123.967 Y125.292 E4.98281
G1 X123.744 Y125.638 E5.00108
G1 X123.488 Y125.962 E5.01935
G1 X123.202 Y126.258 E5.03761
G1 X122.889 Y126.525 E5.05585
G1 X122.533 Y126.771 E5.07502
G1 X122.173 Y126.971 E5.09328
G1 X121.802 Y127.132 E5.11122
G1 X121.408 Y127.259 E5.12956
G1 X121.004 Y127.346 E5.14788
G1 X120.593 Y127.393 E5.16621
G1 X120.18 Y127.4 E5.18453
G1 X119.768 Y127.366 E5.20286
G1 X119.353 Y127.291 E5.22156
G1 X106.685 Y124.343 E5.79805
G1 X106.292 Y124.231 E5.81617
G1 X105.921 Y124.083 E5.83388
G1 X105.566 Y123.9 E5.85159
G1 X105.23 Y123.683 E5.86932
G1 X104.934 Y123.448 E5.88606
G1 X104.646 Y123.171 E5.90379
G1 X104.387 Y122.867 E5.92149
G1 X104.159 Y122.539 E5.9392
G1 X103.964 Y122.191 E5.95688
G1 X103.797 Y121.803 E5.97558
G1 X103.681 Y121.444 E5.99231
G1 X103.597 Y121.054 E6.00999
G1 X103.55 Y120.635 E6.0287
G1 X103.543 Y120.257 E6.04543
G1 X103.576 Y119.859 E6.06315
G1 X103.649 Y119.456 E6.08128
G1 X106.602 Y106.766 E6.65881
G1 X106.714 Y106.372 E6.67699
G1 X106.861 Y105.999 E6.69476
G1 X107.039 Y105.649 E6.71215
G1 X107.259 Y105.304 E6.73029
G1 X107.507 Y104.99 E6.74804
G1 X107.539 Y104.957 E6.75007
;WIPE_START
G1 X107.969 Y105.009 F9000
;WIPE_END
G92 E0
G1 E-4.2 F3000
;WIPE_START
G1 F7200
G1 X108.212 Y104.598 E-4.38897
G1 X108.517 Y104.384 E-4.53654
G1 X108.857 Y104.192 E-4.6909
G1 X109.198 Y104.041 E-4.83845
G1 X109.56 Y103.921 E-4.98946
G1 X109.931 Y103.837 E-5.14036
G1 X110.309 Y103.789 E-5.29108
G1 X110.699 Y103.779 E-5.44534
G1 X111.071 Y103.805 E-5.59296
G1 X111.458 Y103.871 E-5.74855
G1 X111.856 Y103.963 E-5.91
;WIPE_END
G1 E-6 F3000
; acceleration to travel
M204 S1500
G1 X124.835 Y108.733 F9000
; decel to extrusion
M204 S500
G1 X126.421 Y109.316
; end travel
G1 E0 F3000
;TYPE:Solid infill
;WIDTH:0.57615
G1 F1200
G1 X125.333 Y108.229 E0.06817
G1 X124.851 Y107.883 E0.09451
G1 X124.268 Y107.62 E0.12284
G1 X123.873 Y107.528 E0.14085
G1 X126.43 Y110.086 E0.30123
G1 X126.452 Y110.185 E0.30576
G1 X126.495 Y110.824 E0.33413
G1 X126.489 Y110.904 E0.3377
G1 X122.883 Y107.298 E0.56382
G1 X121.893 Y107.068 E0.60889
G1 X126.377 Y111.552 E0.89005
G1 X126.234 Y112.169 E0.91814
G1 X120.902 Y106.837 E1.25243
G1 X119.912 Y106.607 E1.29749
G1 X126.091 Y112.786 E1.68491
G1 X125.948 Y113.403 E1.713
G1 X118.922 Y106.377 E2.15355
G1 X117.932 Y106.147 E2.19861
G1 X125.806 Y114.021 E2.69229
G1 X125.663 Y114.638 E2.72038
G1 X116.942 Y105.917 E3.26719
G1 X115.952 Y105.687 E3.31226
G1 X125.52 Y115.255 E3.9122
G1 X125.378 Y115.872 E3.94029
G1 X114.962 Y105.457 E4.59336
G1 X113.972 Y105.227 E4.63842
G1 X125.235 Y116.49 E5.34462
G1 X125.092 Y117.107 E5.37271
G1 X112.982 Y104.997 E6.13204
G1 X111.992 Y104.767 E6.17711
G1 X124.949 Y117.724 E6.98957
G1 X124.807 Y118.341 E7.01766
G1 X111.002 Y104.537 E7.88325
G1 X110.982 Y104.532 E7.88417
G1 X110.365 Y104.519 E7.91152
G1 X110.246 Y104.54 E7.9169
G1 X124.664 Y118.959 E8.82097
G1 X124.521 Y119.576 E8.84906
G1 X109.623 Y104.677 E9.78322
G1 X109.176 Y104.85 E9.80445
G1 X109.086 Y104.901 E9.80904
G1 X124.379 Y120.193 E10.76791
G1 X124.236 Y120.81 E10.796
G1 X108.638 Y105.213 E11.77401
G1 X108.425 Y105.378 E11.78597
G1 X108.248 Y105.582 E11.79795
G1 X124.093 Y121.428 E12.7915
G1 X123.95 Y122.045 E12.81959
G1 X107.913 Y106.008 E13.82516
G1 X107.852 Y106.104 E13.83021
G1 X107.665 Y106.519 E13.85041
G1 X123.808 Y122.662 E14.8626
G1 X123.665 Y123.279 E14.89069
G1 X107.495 Y107.109 E15.9046
G1 X107.351 Y107.726 E15.93266
G1 X123.522 Y123.896 E16.9466
G1 X123.329 Y124.463 E16.97315
G1 X107.208 Y108.342 E17.98397
G1 X107.065 Y108.959 E18.01204
G1 X123.065 Y124.959 E19.0153
G1 X122.981 Y125.105 E19.02276
G1 X122.793 Y125.342 E19.03616
G1 X122.739 Y125.393 E19.03947
G1 X106.921 Y109.575 E20.03128
G1 X106.778 Y110.192 E20.05934
G1 X122.347 Y125.761 E21.03559
G1 X122.32 Y125.786 E21.03722
G1 X121.884 Y126.058 E21.06001
G1 X106.634 Y110.808 E22.01622
G1 X106.491 Y111.425 E22.04428
G1 X121.354 Y126.288 E22.97624
G1 X121.157 Y126.362 E22.98554
G1 X120.861 Y126.426 E22.99897
G1 X120.74 Y126.434 E23.00437
G1 X106.347 Y112.041 E23.90682
G1 X106.204 Y112.658 E23.93488
G1 X119.999 Y126.453 E24.79986
G1 X119.898 Y126.444 E24.80434
G1 X119.03 Y126.244 E24.84385
G1 X106.06 Y113.274 E25.65707
G1 X105.917 Y113.891 E25.68514
G1 X118.041 Y126.015 E26.44537
G1 X117.053 Y125.786 E26.49035
G1 X105.773 Y114.507 E27.1976
G1 X105.63 Y115.124 E27.22566
G1 X116.064 Y125.558 E27.87991
G1 X115.076 Y125.329 E27.9249
G1 X105.487 Y115.74 E28.52616
G1 X105.343 Y116.357 E28.55423
G1 X114.087 Y125.101 E29.1025
G1 X113.099 Y124.872 E29.14749
G1 X105.2 Y116.973 E29.64277
G1 X105.056 Y117.59 E29.67084
G1 X112.11 Y124.644 E30.11314
G1 X111.122 Y124.415 E30.15812
G1 X104.913 Y118.206 E30.54743
G1 X104.769 Y118.823 E30.57549
G1 X110.133 Y124.186 E30.91181
G1 X109.144 Y123.958 E30.9568
G1 X104.626 Y119.439 E31.24013
G1 X104.5 Y119.98 E31.26477
G1 X104.497 Y120.07 E31.26875
G1 X108.156 Y123.729 E31.49818
G1 X107.167 Y123.501 E31.54317
G1 X104.508 Y120.841 E31.7099
G1 X104.514 Y120.894 E31.71225
G1 X104.672 Y121.485 E31.73937
G1 X104.795 Y121.77 E31.75312
G1 X104.993 Y122.086 E31.76965
G1 X106.426 Y123.519 E31.8595
M106 S84.15
;LAYER_CHANGE
;Z:0.52
;HEIGHT:0.32
;BEFORE_LAYER_CHANGE
;0.52


G92 E0
G1 E-4.2 F3000
;WIPE_START
G1 F7200
G1 X104.993 Y122.086 E-5.00215
G1 X104.795 Y121.77 E-5.14972
G1 X104.672 Y121.485 E-5.27253
G1 X104.514 Y120.894 E-5.51464
G1 X104.508 Y120.841 E-5.53558
G1 X105.177 Y121.51 E-5.91
;WIPE_END
G1 E-6 F3000
; stop printing object 4_tofwer_ver.stl id:0 copy 0
M486 S-1
G1 Z0.47 F9000
;AFTER_LAYER_CHANGE
;0.52
; printing object 4_tofwer_ver.stl id:0 copy 0
M486 S0
G1 X104.105 Y121.967
G1 E0 F3000
;TYPE:Internal perimeter
;WIDTH:0.476
G1 F2400
G1 X103.986 Y121.687 E0.01648
G1 X103.894 Y121.4 E0.03284
G1 X103.812 Y121.031 E0.0533
G1 X103.765 Y120.572 E0.07833
G1 X103.759 Y120.269 E0.09472
G1 X103.79 Y119.889 E0.11537
G1 X103.86 Y119.5 E0.1368
G1 X106.811 Y106.82 E0.84228
G1 X106.919 Y106.44 E0.86371
G1 X107.059 Y106.086 E0.88436
G1 X107.219 Y105.773 E0.90339
G1 X107.439 Y105.425 E0.92569
G1 X107.674 Y105.128 E0.94623
G1 X107.938 Y104.854 E0.96685
G1 X108.228 Y104.606 E0.98753
G1 X108.515 Y104.405 E1.00653
G1 X108.874 Y104.202 E1.02886
G1 X109.195 Y104.06 E1.04785
G1 X109.557 Y103.939 E1.06854
G1 X109.928 Y103.854 E1.08917
G1 X110.304 Y103.806 E1.10971
G1 X110.715 Y103.796 E1.132
G1 X111.065 Y103.821 E1.15103
G1 X111.452 Y103.886 E1.17226
G1 X124.109 Y106.831 E1.87648
G1 X124.493 Y106.94 E1.89812
G1 X124.851 Y107.08 E1.91896
G1 X125.193 Y107.254 E1.9398
G1 X125.516 Y107.46 E1.96052
G1 X125.871 Y107.741 E1.98506
G1 X126.145 Y108.008 E2.00577
G1 X126.396 Y108.306 E2.02691
G1 X126.617 Y108.628 E2.04805
G1 X126.805 Y108.969 E2.0692
G1 X126.96 Y109.329 E2.09038
G1 X127.056 Y109.628 E2.10745
G1 X127.16 Y110.085 E2.13282
G1 X127.204 Y110.469 E2.15377
G1 X127.209 Y110.784 E2.17086
G1 X127.177 Y111.252 E2.19625
G1 X127.106 Y111.646 E2.21797
G1 X124.212 Y124.082 E2.9099
G1 X124.103 Y124.466 E2.93151
G1 X123.928 Y124.895 E2.95661
G1 X123.784 Y125.175 E2.97369
G1 X123.575 Y125.503 E2.99475
G1 X123.335 Y125.807 E3.01576
G1 X123.067 Y126.088 E3.03678
G1 X122.775 Y126.339 E3.05766
G1 X122.397 Y126.6 E3.08255
G1 X122.058 Y126.786 E3.10349
G1 X121.725 Y126.929 E3.12315
G1 X121.367 Y127.045 E3.14352
G1 X120.966 Y127.133 E3.16579
G1 X120.577 Y127.177 E3.18701
G1 X120.202 Y127.184 E3.20733
G1 X119.792 Y127.151 E3.22961
G1 X119.397 Y127.079 E3.2514
G1 X106.724 Y124.13 E3.95651
G1 X106.346 Y124.02 E3.97784
G1 X105.993 Y123.878 E3.99845
G1 X105.656 Y123.701 E4.01907
G1 X105.335 Y123.491 E4.03983
G1 X105.097 Y123.302 E4.05631
G1 X104.819 Y123.038 E4.07708
G1 X104.571 Y122.75 E4.09769
G1 X104.352 Y122.439 E4.11831
G1 X104.167 Y122.111 E4.13872
G1 X104.129 Y122.022 E4.14397
G1 X103.746 Y122.12 F9000
;TYPE:External perimeter
;WIDTH:0.428
G1 F1500
G1 X103.62 Y121.823 E4.15936
G1 X103.517 Y121.501 E4.17553
G1 X103.427 Y121.093 E4.19552
G1 X103.375 Y120.595 E4.21946
G1 X103.369 Y120.257 E4.23563
G1 X103.403 Y119.839 E4.25568
G1 X103.478 Y119.421 E4.27597
G1 X106.433 Y106.723 E4.89924
G1 X106.549 Y106.315 E4.91951
G1 X106.703 Y105.925 E4.93954
G1 X106.879 Y105.579 E4.9581
G1 X107.12 Y105.199 E4.97961
G1 X107.38 Y104.871 E4.9996
G1 X107.67 Y104.569 E5.01963
G1 X107.989 Y104.297 E5.03967
