; generated by SuperSlicer 2.4 on 2023-02-16 at 16:43:35 UTC

; 

; external perimeters extrusion width = 0.43mm
; perimeters extrusion width = 0.48mm
; infill extrusion width = 0.46mm
; solid infill extrusion width = 0.48mm
; top infill extrusion width = 0.46mm
; first layer extrusion width = 0.58mm

; object:{"name":"Carlos_Nippel v1","id":"Carlos_Nippel v1.stl id:0 copy 0","object_center":[115.500000,115.500000,0.000000],"boundingbox_center":[115.500000,115.500000,9.500000],"boundingbox_size":[29.998840,29.997690,19.000000]}
; Total objects to print: 1
M486 T1
; plater:{"center":[115.500000,115.500000,0.000000],"boundingbox_center":[115.500000,115.500000,9.500000],"boundingbox_size":[29.998840,29.997690,19.000000]}

;TYPE:Custom
G90 ; use absolute coordinates
M83 ; extruder relative mode
M140 S60 ; set final bed temp
M104 S150 ; set temporary nozzle temp to prevent oozing during homing and auto bed leveling
G4 S10 ; allow partial nozzle warmup
G28 ; home all axis
;G29 ; auto bed levelling
G1 Z10 F240
G1 X2 Y10 F3000
G1 Z0 F240
M104 S210 ; set final nozzle temp
M190 S60 ; wait for bed temp to stabilize
M109 S210 ; wait for nozzle temp to stabilize
G1 Z0.28 F240
G92 E0
G1 Y100 E7.1 F1500 ; prime the nozzle
G1 X2.3 F5000
G92 E0
G1 Y10 E10 F1200 ; prime the nozzle
G92 E0
;start
M107
G21 ; set units to millimeters
G90 ; use absolute coordinates
M82 ; use absolute distances for extrusion
G92 E0
; Filament gcode
;_TOOLCHANGE 0
M107
;LAYER_CHANGE
;Z:0.2
;HEIGHT:0.2
;BEFORE_LAYER_CHANGE
;0.2


G1 E-6 F3000
G1 Z0.15 F9000
;AFTER_LAYER_CHANGE
;0.2
G92 E0
M204 S500
G1 X103.171 Y102.224
G1 E6 F3000
;TYPE:Skirt
;WIDTH:0.48
G1 F1200
G1 X101.732 Y103.721 E6.07545
G1 X100.668 Y105.095 E6.13861
G1 X99.657 Y106.711 E6.20788
G1 X99.007 Y107.998 E6.26028
G1 X98.366 Y109.612 E6.32341
G1 X97.939 Y111.047 E6.37782
G1 X97.592 Y112.749 E6.44095
G1 X97.402 Y114.648 E6.51029
G1 X97.411 Y116.498 E6.57755
G1 X97.555 Y117.989 E6.63196
G1 X97.875 Y119.696 E6.69509
G1 X98.413 Y121.525 E6.76439
G1 X99.142 Y123.288 E6.8337
G1 X99.814 Y124.563 E6.8861
G1 X100.753 Y126.024 E6.94923
G1 X102.017 Y127.601 E7.02267
G1 X103.239 Y128.836 E7.08582
G1 X104.754 Y130.086 E7.15718
G1 X106.298 Y131.105 E7.22444
G1 X107.568 Y131.788 E7.27684
G1 X109.377 Y132.55 E7.34816
G1 X111.037 Y133.059 E7.41129
G1 X112.909 Y133.431 E7.48062
G1 X114.751 Y133.6 E7.54788
G1 X116.249 Y133.6 E7.6023
G1 X118.091 Y133.431 E7.66956
G1 X119.963 Y133.059 E7.73889
G1 X121.835 Y132.472 E7.81022
G1 X123.432 Y131.788 E7.87334
G1 X124.702 Y131.105 E7.92574
G1 X126.246 Y130.086 E7.993
G1 X127.761 Y128.836 E8.06436
G1 X129.059 Y127.517 E8.13161
G1 X130.147 Y126.161 E8.1948
G1 X131.186 Y124.563 E8.26407
G1 X131.881 Y123.237 E8.31849
G1 X132.586 Y121.526 E8.38575
G1 X133.084 Y119.86 E8.44893
G1 X133.445 Y117.989 E8.5182
G1 X133.589 Y116.498 E8.57262
G1 X133.598 Y114.648 E8.63988
G1 X133.432 Y112.917 E8.70307
G1 X133.061 Y111.047 E8.77234
G1 X132.634 Y109.612 E8.82676
G1 X132.179 Y108.425 E8.87297
G1 X131.343 Y106.712 E8.94224
G1 X130.43 Y105.234 E9.0054
G1 X129.156 Y103.594 E9.08085
G1 X127.954 Y102.339 E9.14401
G1 X126.502 Y101.103 E9.21332
G1 X124.927 Y100.026 E9.28266
G1 X123.299 Y99.146 E9.34991
G1 X121.974 Y98.577 E9.40231
G1 X120.159 Y97.99 E9.47162
G1 X118.238 Y97.59 E9.54295
G1 X116.342 Y97.402 E9.61222
G1 X115.069 Y97.387 E9.65846
G1 X113.169 Y97.533 E9.72774
G1 X111.347 Y97.863 E9.79502
G1 X109.515 Y98.398 E9.86436
G1 X107.701 Y99.146 E9.93569
G1 X106.17 Y99.968 E9.99884
G1 X104.498 Y101.103 E10.07228
G1 X103.217 Y102.186 E10.13326
G92 E0
G1 E-4.2 F3000
;WIPE_START
G1 F7200
G1 X101.732 Y103.721 E-5.04543
G1 X100.668 Y105.095 E-5.7333
G1 X100.431 Y105.474 E-5.91
;WIPE_END
G1 E-6 F3000
; printing object Carlos_Nippel v1.stl id:0 copy 0
M486 S0
; acceleration to travel
M204 S1500
G1 X105.288 Y105.253 F9000
; decel to extrusion
M204 S500
G1 X105.881 Y105.226
; end travel
G1 E0 F3000
;TYPE:Internal perimeter
;WIDTH:0.576
G1 F1200
G1 X106.607 Y104.59 E0.04281
G1 X106.983 Y104.294 E0.06399
G1 X107.798 Y103.72 E0.10818
G1 X108.641 Y103.209 E0.15188
G1 X109.521 Y102.758 E0.19571
G1 X110.437 Y102.367 E0.23986
G1 X110.886 Y102.202 E0.26103
G1 X111.838 Y101.909 E0.30522
G1 X112.799 Y101.686 E0.34893
G1 X113.783 Y101.53 E0.39311
G1 X114.258 Y101.479 E0.41429
G1 X115.253 Y101.427 E0.45844
G1 X115.909 Y101.438 E0.48753
G1 X116.734 Y101.479 E0.52414
G1 X117.714 Y101.6 E0.5679
G1 X118.691 Y101.791 E0.61204
G1 X119.155 Y101.907 E0.63322
G1 X120.114 Y102.202 E0.67773
G1 X120.563 Y102.367 E0.6989
G1 X121.479 Y102.758 E0.74305
G1 X122.365 Y103.212 E0.7872
G1 X122.785 Y103.457 E0.80874
G1 X123.197 Y103.715 E0.83027
G1 X124.017 Y104.294 E0.87478
G1 X124.393 Y104.59 E0.89596
G1 X125.148 Y105.251 E0.94047
G1 X125.49 Y105.585 E0.96164
G1 X126.171 Y106.322 E1.00615
G1 X126.477 Y106.69 E1.02733
G1 X127.077 Y107.495 E1.07184
G1 X127.342 Y107.892 E1.09301
G1 X127.854 Y108.756 E1.13752
G1 X128.076 Y109.179 E1.1587
G1 X128.491 Y110.084 E1.20285
G1 X128.839 Y111.009 E1.24663
G1 X129.121 Y111.956 E1.29042
G1 X129.338 Y112.928 E1.33457
G1 X129.417 Y113.399 E1.35574
G1 X129.531 Y114.397 E1.40025
G1 X129.561 Y114.882 E1.42179
G1 X129.574 Y115.367 E1.44333
G1 X129.548 Y116.363 E1.48747
G1 X129.452 Y117.346 E1.53126
G1 X129.287 Y118.328 E1.5754
G1 X129.183 Y118.795 E1.59658
G1 X128.913 Y119.762 E1.64109
G1 X128.758 Y120.222 E1.66263
G1 X128.587 Y120.677 E1.68417
G1 X128.188 Y121.589 E1.72831
G1 X127.729 Y122.464 E1.7721
G1 X127.206 Y123.312 E1.81625
G1 X126.935 Y123.705 E1.83742
G1 X126.32 Y124.499 E1.88193
G1 X126.003 Y124.867 E1.90347
G1 X125.674 Y125.224 E1.92501
G1 X124.96 Y125.919 E1.96915
G1 X124.2 Y126.562 E2.0133
G1 X123.813 Y126.856 E2.03483
G1 X123.416 Y127.136 E2.05638
G1 X122.573 Y127.667 E2.10052
G1 X121.695 Y128.137 E2.14467
G1 X121.262 Y128.34 E2.16585
G1 X120.339 Y128.715 E2.20999
G1 X119.393 Y129.024 E2.25414
G1 X118.931 Y129.148 E2.27532
G1 X117.95 Y129.358 E2.31982
G1 X117.47 Y129.435 E2.34136
G1 X116.987 Y129.494 E2.3629
G1 X115.994 Y129.564 E2.40705
G1 X115.006 Y129.564 E2.45083
G1 X114.013 Y129.494 E2.49498
G1 X113.53 Y129.435 E2.51652
G1 X113.05 Y129.358 E2.53806
G1 X112.069 Y129.148 E2.58256
G1 X111.607 Y129.024 E2.60374
G1 X110.661 Y128.715 E2.64789
G1 X109.738 Y128.34 E2.69203
G1 X109.305 Y128.137 E2.71321
G1 X108.427 Y127.667 E2.75736
G1 X107.584 Y127.136 E2.8015
G1 X107.187 Y126.856 E2.82304
G1 X106.8 Y126.562 E2.84458
G1 X106.04 Y125.919 E2.88873
G1 X105.33 Y125.228 E2.93266
G1 X104.677 Y124.496 E2.97615
G1 X104.065 Y123.705 E3.02045
G1 X103.794 Y123.312 E3.04162
G1 X103.271 Y122.464 E3.08577
G1 X102.808 Y121.582 E3.12992
G1 X102.609 Y121.148 E3.1511
G1 X102.239 Y120.215 E3.1956
G1 X102.087 Y119.762 E3.21678
G1 X101.817 Y118.795 E3.26129
G1 X101.713 Y118.328 E3.28247
G1 X101.548 Y117.346 E3.32661
G1 X101.452 Y116.363 E3.3704
G1 X101.426 Y115.367 E3.41455
G1 X101.439 Y114.882 E3.43608
G1 X101.469 Y114.397 E3.45762
G1 X101.583 Y113.399 E3.50213
G1 X101.662 Y112.928 E3.5233
G1 X101.879 Y111.956 E3.56745
G1 X102.161 Y111.009 E3.61124
G1 X102.512 Y110.077 E3.65539
G1 X102.703 Y109.639 E3.67656
G1 X103.15 Y108.749 E3.72071
G1 X103.658 Y107.892 E3.76486
G1 X103.923 Y107.495 E3.78604
G1 X104.523 Y106.69 E3.83054
G1 X104.829 Y106.322 E3.85172
G1 X105.51 Y105.585 E3.89623
G1 X105.837 Y105.267 E3.91644
G1 X105.527 Y104.822 F9000
;TYPE:External perimeter
G1 F1200
G1 X106.264 Y104.176 E3.95988
G1 X106.662 Y103.863 E3.98231
G1 X107.503 Y103.27 E4.02796
G1 X108.379 Y102.74 E4.07334
G1 X109.293 Y102.271 E4.11884
G1 X110.239 Y101.867 E4.16445
G1 X110.714 Y101.693 E4.18688
G1 X111.698 Y101.39 E4.23253
G1 X112.696 Y101.159 E4.27792
G1 X113.713 Y100.997 E4.32356
G1 X114.216 Y100.943 E4.346
G1 X115.244 Y100.889 E4.39161
G1 X115.927 Y100.901 E4.42191
G1 X116.78 Y100.943 E4.45977
G1 X117.798 Y101.069 E4.50525
G1 X118.808 Y101.266 E4.55086
G1 X119.299 Y101.39 E4.57329
G1 X120.286 Y101.693 E4.61905
G1 X120.761 Y101.867 E4.64148
G1 X121.707 Y102.271 E4.68709
G1 X122.623 Y102.741 E4.7327
G1 X123.064 Y102.997 E4.75529
G1 X123.495 Y103.268 E4.77787
G1 X124.338 Y103.863 E4.82363
G1 X124.736 Y104.176 E4.84606
G1 X125.512 Y104.857 E4.89183
G1 X125.875 Y105.21 E4.91426
G1 X126.576 Y105.968 E4.96002
G1 X126.899 Y106.357 E4.98245
G1 X127.516 Y107.185 E5.02821
G1 X127.797 Y107.606 E5.05064
G1 X128.323 Y108.494 E5.0964
G1 X128.558 Y108.942 E5.11884
G1 X128.987 Y109.878 E5.16445
G1 X129.348 Y110.838 E5.20991
G1 X129.641 Y111.82 E5.25537
G1 X129.865 Y112.825 E5.30098
G1 X129.949 Y113.324 E5.32341
G1 X130.067 Y114.349 E5.36917
G1 X130.098 Y114.858 E5.39175
G1 X130.111 Y115.367 E5.41434
G1 X130.084 Y116.396 E5.45995
G1 X129.985 Y117.417 E5.50541
G1 X129.815 Y118.431 E5.55102
G1 X129.704 Y118.925 E5.57345
G1 X129.427 Y119.92 E5.61921
G1 X129.265 Y120.403 E5.64179
G1 X129.085 Y120.879 E5.66438
G1 X128.673 Y121.822 E5.70999
G1 X128.197 Y122.731 E5.75545
G1 X127.656 Y123.606 E5.80106
G1 X127.368 Y124.022 E5.82349
G1 X126.737 Y124.839 E5.86925
G1 X126.404 Y125.225 E5.89183
G1 X126.059 Y125.599 E5.91442
G1 X125.322 Y126.317 E5.96003
G1 X124.536 Y126.982 E6.00564
G1 X124.13 Y127.29 E6.02822
G1 X123.714 Y127.584 E6.0508
G1 X122.843 Y128.132 E6.09641
G1 X121.936 Y128.617 E6.14202
G1 X121.478 Y128.832 E6.16446
G1 X120.524 Y129.22 E6.21007
G1 X119.546 Y129.539 E6.25568
G1 X119.058 Y129.671 E6.27811
G1 X118.048 Y129.887 E6.32387
G1 X117.545 Y129.967 E6.34645
G1 X117.039 Y130.029 E6.36904
G1 X116.013 Y130.102 E6.41465
G1 X114.987 Y130.102 E6.46011
G1 X113.961 Y130.029 E6.50572
G1 X113.455 Y129.967 E6.5283
G1 X112.952 Y129.887 E6.55088
G1 X111.942 Y129.671 E6.59664
G1 X111.454 Y129.539 E6.61908
G1 X110.476 Y129.22 E6.66469
G1 X109.522 Y128.832 E6.7103
G1 X109.064 Y128.617 E6.73273
G1 X108.157 Y128.132 E6.77834
G1 X107.286 Y127.584 E6.82395
G1 X106.87 Y127.29 E6.84653
G1 X106.464 Y126.982 E6.86912
G1 X105.678 Y126.317 E6.91473
G1 X104.941 Y125.599 E6.96034
G1 X104.263 Y124.839 E7.0055
G1 X103.632 Y124.022 E7.05126
G1 X103.344 Y123.606 E7.07369
G1 X102.803 Y122.731 E7.1193
G1 X102.326 Y121.819 E7.16491
G1 X102.115 Y121.359 E7.18734
G1 X101.734 Y120.399 E7.23311
G1 X101.573 Y119.92 E7.25554
G1 X101.296 Y118.925 E7.3013
G1 X101.185 Y118.431 E7.32373
G1 X101.015 Y117.417 E7.36934
G1 X100.916 Y116.396 E7.4148
G1 X100.889 Y115.367 E7.46041
G1 X100.902 Y114.858 E7.48299
G1 X100.933 Y114.349 E7.50558
G1 X101.051 Y113.324 E7.55134
G1 X101.135 Y112.825 E7.57377
G1 X101.359 Y111.82 E7.61938
G1 X101.652 Y110.838 E7.66484
G1 X102.014 Y109.874 E7.71045
G1 X102.217 Y109.411 E7.73288
G1 X102.678 Y108.491 E7.77849
G1 X103.203 Y107.606 E7.8241
G1 X103.484 Y107.185 E7.84654
G1 X104.101 Y106.357 E7.8923
G1 X104.424 Y105.968 E7.91473
G1 X105.125 Y105.21 E7.96049
G1 X105.482 Y104.862 E7.98259
;WIPE_START
G1 X105.908 Y104.945 F9000
;WIPE_END
G92 E0
G1 E-4.2 F3000
;WIPE_START
G1 F7200
G1 X106.392 Y104.33 E-4.50971
G1 X106.781 Y104.024 E-4.70586
G1 X107.613 Y103.437 E-5.10866
G1 X108.477 Y102.914 E-5.50836
G1 X109.378 Y102.452 E-5.90911
G1 X109.38 Y102.451 E-5.91
;WIPE_END
G1 E-6 F3000
; acceleration to travel
M204 S1500
G1 X125.077 Y107.1 F9000
; decel to extrusion
M204 S500
G1 X126.994 Y107.668
; end travel
G1 E0 F3000
;TYPE:Solid infill
;WIDTH:0.579119
G1 F1200
G1 X124.781 Y105.455 E0.1395
G1 X123.779 Y104.607 E0.19799
G1 X122.582 Y103.793 E0.26252
G1 X122.102 Y103.536 E0.28677
G1 X127.507 Y108.941 E0.62744
G1 X128.13 Y110.239 E0.69156
G1 X128.181 Y110.375 E0.69805
G1 X120.65 Y102.844 E1.17269
G1 X119.986 Y102.574 E1.20466
G1 X119.471 Y102.425 E1.22854
G1 X128.588 Y111.542 E1.80316
G1 X128.74 Y112.051 E1.82684
G1 X128.844 Y112.558 E1.84988
G1 X118.425 Y102.139 E2.50653
G1 X117.652 Y101.988 E2.54162
G1 X117.494 Y101.968 E2.5487
G1 X129.033 Y113.507 E3.27594
G1 X129.115 Y114.349 E3.31363
G1 X116.633 Y101.867 E4.10032
G1 X115.896 Y101.831 E4.1332
G1 X115.836 Y101.83 E4.13589
G1 X129.166 Y115.16 E4.97603
G1 X129.159 Y115.913 E5.0096
G1 X115.076 Y101.829 E5.89724
G1 X114.354 Y101.867 E5.92946
G1 X129.127 Y116.64 E6.86053
G1 X129.064 Y117.291 E6.88968
G1 X129.056 Y117.33 E6.89143
G1 X113.684 Y101.957 E7.86031
G1 X113.018 Y102.051 E7.89027
G1 X128.937 Y117.971 E8.89359
G1 X128.818 Y118.612 E8.92263
G1 X112.39 Y102.184 E9.95799
G1 X111.944 Y102.288 E9.97843
G1 X111.786 Y102.339 E9.98584
G1 X128.652 Y119.205 E11.04881
G1 X128.477 Y119.791 E11.07605
G1 X111.213 Y102.526 E12.16416
G1 X110.64 Y102.713 E12.19102
G1 X128.279 Y120.352 E13.30273
G1 X128.055 Y120.889 E13.32863
G1 X110.103 Y102.936 E14.4601
G1 X109.688 Y103.113 E14.48021
G1 X109.577 Y103.17 E14.48576
G1 X127.831 Y121.425 E15.63626
G1 X127.57 Y121.923 E15.66135
G1 X109.075 Y103.428 E16.82705
G1 X108.832 Y103.552 E16.83917
G1 X108.587 Y103.7 E16.85195
G1 X127.298 Y122.411 E18.0312
G1 X127.001 Y122.874 E18.05572
G1 X108.114 Y103.987 E19.2461
G1 X108.015 Y104.046 E19.25123
G1 X107.667 Y104.301 E19.27043
G1 X126.704 Y123.337 E20.47023
G1 X126.615 Y123.476 E20.47756
G1 X126.379 Y123.772 E20.49445
G1 X107.229 Y104.622 E21.70139
G1 X106.853 Y104.896 E21.72212
G1 X106.794 Y104.947 E21.72559
G1 X126.041 Y124.194 E22.93859
G1 X125.702 Y124.615 E22.96268
G1 X106.389 Y105.302 E24.17984
G1 X106.124 Y105.535 E24.19558
G1 X105.996 Y105.669 E24.20383
G1 X125.323 Y124.996 E25.42194
G1 X124.945 Y125.378 E25.44589
G1 X105.625 Y106.057 E26.66356
G1 X105.253 Y106.446 E26.68752
G1 X124.553 Y125.746 E27.90389
G1 X124.134 Y126.087 E27.92796
G1 X104.908 Y106.861 E29.13969
G1 X104.577 Y107.29 E29.16384
G1 X123.716 Y126.429 E30.37008
G1 X123.581 Y126.539 E30.37787
G1 X123.27 Y126.742 E30.39442
G1 X104.246 Y107.719 E31.59341
G1 X103.956 Y108.189 E31.61802
G1 X122.81 Y127.043 E32.8063
G1 X122.375 Y127.327 E32.82946
G1 X122.348 Y127.341 E32.83081
G1 X103.666 Y108.659 E34.00825
G1 X103.493 Y108.94 E34.02297
G1 X103.391 Y109.144 E34.03311
G1 X121.846 Y127.599 E35.19626
G1 X121.344 Y127.857 E35.22142
G1 X103.137 Y109.65 E36.36892
G1 X103.062 Y109.8 E36.3764
G1 X102.91 Y110.183 E36.39476
G1 X120.822 Y128.095 E37.52369
G1 X120.282 Y128.315 E37.54968
G1 X102.695 Y110.727 E38.65814
G1 X102.532 Y111.137 E38.67781
G1 X102.489 Y111.282 E38.68452
G1 X119.707 Y128.499 E39.76965
G1 X119.126 Y128.678 E39.79675
G1 X102.315 Y111.867 E40.85626
G1 X102.26 Y112.051 E40.86482
G1 X102.171 Y112.484 E40.88449
G1 X118.518 Y128.83 E41.91472
G1 X117.882 Y128.954 E41.94358
G1 X102.042 Y113.114 E42.94191
G1 X101.972 Y113.458 E42.95753
G1 X101.941 Y113.773 E42.97166
G1 X117.23 Y129.062 E43.93526
G1 X116.531 Y129.123 E43.96651
G1 X101.874 Y114.466 E44.89032
G1 X101.831 Y114.899 E44.90971
G1 X101.834 Y115.186 E44.92252
G1 X115.82 Y129.172 E45.80398
G1 X115.06 Y129.172 E45.83785
G1 X101.841 Y115.953 E46.67097
G1 X101.845 Y116.342 E46.68831
G1 X101.885 Y116.757 E46.70687
G1 X114.23 Y129.102 E47.48497
G1 X113.585 Y129.046 E47.51383
G1 X113.372 Y129.004 E47.52351
G1 X102 Y117.632 E48.24026
G1 X102.173 Y118.565 E48.28258
G1 X112.427 Y128.819 E48.92882
G1 X112.164 Y128.768 E48.94076
G1 X111.371 Y128.523 E48.97773
G1 X102.473 Y119.625 E49.53855
G1 X102.61 Y120.086 E49.55999
G1 X102.896 Y120.808 E49.59461
G1 X110.187 Y128.099 E50.05409
G1 X109.902 Y127.983 E50.06781
G1 X108.688 Y127.359 E50.12863
G1 X103.106 Y121.778 E50.48042
G1 X104.184 Y123.303 F9000
;TYPE:Gap fill
;WIDTH:0.15812
G1 F1200
G1 X104.266 Y123.404 E50.48167
;WIDTH:0.195041
G1 X104.348 Y123.506 E50.48332
G1 X104.508 Y123.688 E50.48639
;WIDTH:0.236233
G1 X104.669 Y123.871 E50.4903
;WIDTH:0.277425
G1 X104.829 Y124.053 E50.49504
;WIDTH:0.318616
G1 X104.99 Y124.236 E50.50061
G1 X105.316 Y124.582 E50.51152
;WIDTH:0.360303
G1 X105.643 Y124.928 E50.52408
G1 X105.984 Y125.264 E50.53671
G1 X106.325 Y125.6 E50.54934
G1 X106.593 Y125.842 E50.55888
;WIDTH:0.311831
G1 X106.861 Y126.085 E50.56696
;WIDTH:0.263358
G1 X107.129 Y126.327 E50.57359
;WIDTH:0.214885
G1 X107.397 Y126.57 E50.57876
G1 X107.54 Y126.686 E50.58139
;WIDTH:0.15812
G1 X107.683 Y126.802 E50.58316
M106 S84.15
;LAYER_CHANGE
;Z:0.52
;HEIGHT:0.32
;BEFORE_LAYER_CHANGE
;0.52


G92 E0
G1 E-4.2 F3000
;WIPE_START
G1 F7200
G1 X107.54 Y126.686 E-4.27294
;WIPE_END
G1 E-6 F3000
; stop printing object Carlos_Nippel v1.stl id:0 copy 0
M486 S-1
G1 Z0.47 F9000
