; generated by SuperSlicer 2.4 on 2023-02-16 at 16:39:37 UTC

; 

; external perimeters extrusion width = 0.43mm
; perimeters extrusion width = 0.48mm
; infill extrusion width = 0.46mm
; solid infill extrusion width = 0.48mm
; top infill extrusion width = 0.46mm
; first layer extrusion width = 0.58mm

; object:{"name":"Christmas_Tree_Twist_1","id":"Christmas_Tree_Twist_1.stl id:0 copy 0","object_center":[115.500000,115.500000,0.000000],"boundingbox_center":[115.500000,115.500000,14.659396],"boundingbox_size":[20.037057,20.037055,29.318791]}
; Total objects to print: 1
M486 T1
; plater:{"center":[115.500000,115.500000,0.000000],"boundingbox_center":[115.500000,115.500000,14.659396],"boundingbox_size":[20.037057,20.037055,29.318791]}

;TYPE:Custom
G90 ; use absolute coordinates
M83 ; extruder relative mode
M140 S60 ; set final bed temp
M104 S150 ; set temporary nozzle temp to prevent oozing during homing and auto bed leveling
G4 S10 ; allow partial nozzle warmup
G28 ; home all axis
;G29 ; auto bed levelling
G1 Z10 F240
G1 X2 Y10 F3000
G1 Z0 F240
M104 S210 ; set final nozzle temp
M190 S60 ; wait for bed temp to stabilize
M109 S210 ; wait for nozzle temp to stabilize
G1 Z0.28 F240
G92 E0
G1 Y100 E7.1 F1500 ; prime the nozzle
G1 X2.3 F5000
G92 E0
G1 Y10 E10 F1200 ; prime the nozzle
G92 E0
;start
M107
G21 ; set units to millimeters
G90 ; use absolute coordinates
M82 ; use absolute distances for extrusion
G92 E0
; Filament gcode
;_TOOLCHANGE 0
M107
;LAYER_CHANGE
;Z:0.2
;HEIGHT:0.2
;BEFORE_LAYER_CHANGE
;0.2


G1 E-6 F3000
G1 Z0.15 F9000
;AFTER_LAYER_CHANGE
;0.2
G92 E0
M204 S500
G1 X109.269 Y106.903
G1 E6 F3000
;TYPE:Skirt
;WIDTH:0.48
G1 F1200
G1 X106.728 Y109.518 E6.13251
G1 X105.806 Y111.171 E6.20128
G1 X104.913 Y114.706 E6.3338
G1 X104.94 Y116.598 E6.40257
G1 X105.934 Y120.106 E6.53508
G1 X106.903 Y121.731 E6.60385
G1 X109.518 Y124.272 E6.73637
G1 X111.17 Y125.194 E6.80514
G1 X114.706 Y126.087 E6.93765
G1 X116.598 Y126.06 E7.00642
G1 X120.106 Y125.066 E7.13894
G1 X121.731 Y124.097 E7.20771
G1 X124.272 Y121.482 E7.34022
G1 X125.194 Y119.829 E7.40899
G1 X126.087 Y116.294 E7.54151
G1 X126.06 Y114.402 E7.61028
G1 X125.066 Y110.894 E7.74279
G1 X124.097 Y109.269 E7.81156
G1 X121.482 Y106.728 E7.94407
G1 X119.83 Y105.806 E8.01284
G1 X116.295 Y104.913 E8.14535
G1 X114.402 Y104.94 E8.21413
G1 X110.894 Y105.934 E8.34665
G1 X109.321 Y106.873 E8.41324
G1 X109.583 Y107.208 F9000
G1 F1200
G1 X107.042 Y109.823 E8.54575
G1 X106.23 Y111.278 E8.6063
G1 X105.336 Y114.813 E8.73881
G1 X105.36 Y116.478 E8.79936
G1 X106.354 Y119.986 E8.93187
G1 X107.208 Y121.417 E8.99242
G1 X109.823 Y123.958 E9.12494
G1 X111.278 Y124.77 E9.18549
G1 X114.813 Y125.664 E9.318
G1 X116.478 Y125.64 E9.37855
G1 X119.986 Y124.646 E9.51106
G1 X121.417 Y123.792 E9.57161
G1 X123.958 Y121.177 E9.70412
G1 X124.77 Y119.722 E9.76467
G1 X125.664 Y116.187 E9.89718
G1 X125.64 Y114.522 E9.95773
G1 X124.646 Y111.014 E10.09025
G1 X123.792 Y109.583 E10.1508
G1 X121.177 Y107.042 E10.28331
G1 X119.723 Y106.23 E10.34385
G1 X116.188 Y105.336 E10.47636
G1 X114.522 Y105.36 E10.53692
G1 X111.013 Y106.354 E10.66944
G1 X109.634 Y107.177 E10.7278
G92 E0
G1 E-4.2 F3000
;WIPE_START
G1 F7200
G1 X107.042 Y109.823 E-5.66622
G1 X106.742 Y110.361 E-5.91
;WIPE_END
G1 E-6 F3000
; printing object Christmas_Tree_Twist_1.stl id:0 copy 0
M486 S0
; acceleration to travel
M204 S1500
G1 X111.895 Y110.508 F9000
; decel to extrusion
M204 S500
G1 X112.525 Y110.526
; end travel
G1 E0 F3000
;TYPE:Internal perimeter
;WIDTH:0.576
G1 F1200
G1 X114.222 Y111.079 E0.0791
G1 X115.411 Y109.705 E0.15965
G1 X116.604 Y111.032 E0.23875
G1 X118.32 Y110.437 E0.31929
G1 X118.69 Y112.182 E0.39839
G1 X120.474 Y112.525 E0.47894
G1 X119.921 Y114.222 E0.55803
G1 X121.295 Y115.411 E0.63858
G1 X119.968 Y116.604 E0.71768
G1 X120.563 Y118.32 E0.79822
G1 X118.818 Y118.69 E0.87732
G1 X118.475 Y120.474 E0.95786
G1 X116.778 Y119.921 E1.03696
G1 X115.589 Y121.295 E1.11751
G1 X114.396 Y119.968 E1.19661
G1 X112.68 Y120.563 E1.27715
G1 X112.31 Y118.818 E1.35625
G1 X110.526 Y118.475 E1.43679
G1 X111.079 Y116.778 E1.51589
G1 X109.705 Y115.589 E1.59644
G1 X111.032 Y114.396 E1.67554
G1 X110.437 Y112.68 E1.75608
G1 X112.182 Y112.31 E1.83518
G1 X112.514 Y110.585 E1.91306
G1 X112.112 Y109.826 F9000
;TYPE:External perimeter
G1 F1200
G1 X114.049 Y110.457 E2.00335
G1 X115.403 Y108.892 E2.09509
G1 X115.432 Y108.924 E2.097
G1 X116.765 Y110.407 E2.18538
G1 X118.72 Y109.729 E2.27711
G1 X119.142 Y111.722 E2.3674
G1 X121.174 Y112.112 E2.45913
G1 X120.543 Y114.049 E2.54942
G1 X122.108 Y115.403 E2.64115
G1 X120.593 Y116.765 E2.73144
G1 X121.271 Y118.72 E2.82318
G1 X119.278 Y119.142 E2.91346
G1 X118.888 Y121.174 E3.0052
G1 X116.951 Y120.543 E3.09549
G1 X115.597 Y122.108 E3.18722
G1 X114.235 Y120.593 E3.27751
G1 X112.28 Y121.271 E3.36924
G1 X111.858 Y119.278 E3.45953
G1 X109.826 Y118.888 E3.55126
G1 X110.457 Y116.951 E3.64155
G1 X108.892 Y115.597 E3.73328
G1 X110.407 Y114.235 E3.82357
G1 X109.729 Y112.28 E3.9153
G1 X111.722 Y111.858 E4.00559
G1 X112.101 Y109.885 E4.09466
;WIPE_START
G1 X112.392 Y110.112 F9000
;WIPE_END
G92 E0
G1 E-4.2 F3000
;WIPE_START
G1 F7200
G1 X114.113 Y110.689 E-4.91858
G1 X115.406 Y109.195 E-5.70062
G1 X115.76 Y109.588 E-5.91
;WIPE_END
G1 E-6 F3000
; acceleration to travel
M204 S1500
G1 X119.536 Y113.044 F9000
; decel to extrusion
M204 S500
G1 X119.998 Y113.467
; end travel
G1 E0 F3000
;TYPE:Solid infill
;WIDTH:0.566128
G1 F1200
G1 X119.213 Y112.682 E0.04832
G1 X118.36 Y112.518 E0.08619
G1 X118.175 Y111.644 E0.12514
G1 X117.624 Y111.093 E0.15906
G1 X117.06 Y111.289 E0.18508
G1 X119.628 Y113.857 E0.34328
G1 X119.468 Y114.348 E0.36579
G1 X120.702 Y115.416 E0.43693
G1 X120.558 Y115.546 E0.44541
G1 X115.366 Y110.355 E0.76524
G1 X115.014 Y110.763 E0.78871
G1 X120.157 Y115.906 E1.1056
G1 X119.757 Y116.266 E1.12904
G1 X114.661 Y111.17 E1.44299
G1 X114.348 Y111.532 E1.46387
G1 X114.223 Y111.492 E1.46959
G1 X119.669 Y116.937 E1.80509
G1 X120.047 Y118.029 E1.85542
G1 X120.008 Y118.037 E1.85715
G1 X113.096 Y111.124 E2.28305
G1 X112.826 Y111.037 E2.29538
G1 X112.733 Y111.522 E2.31691
G1 X119.381 Y118.17 E2.72649
G1 X118.754 Y118.302 E2.75442
G1 X112.611 Y112.159 E3.1329
G1 X112.518 Y112.64 E3.15422
G1 X112.364 Y112.673 E3.16109
G1 X118.412 Y118.721 E3.53373
G1 X118.29 Y119.358 E3.56201
G1 X111.737 Y112.805 E3.96574
G1 X111.11 Y112.938 E3.99367
G1 X118.116 Y119.945 E4.42536
G1 X116.989 Y119.577 E4.47702
G1 X111.256 Y113.844 E4.83026
G1 X111.488 Y114.514 E4.86116
G1 X111.318 Y114.667 E4.8711
G1 X116.405 Y119.753 E5.1845
G1 X116.052 Y120.161 E5.20797
G1 X110.918 Y115.026 E5.52431
G1 X110.518 Y115.386 E5.54775
G1 X115.7 Y120.568 E5.86703
G1 X115.584 Y120.702 E5.87476
G1 X114.514 Y119.512 E5.94448
G1 X114.046 Y119.674 E5.96605
G1 X111.407 Y117.036 E6.12862
G1 X111.221 Y117.609 E6.15489
G1 X111.963 Y118.352 E6.20065
G1 X112.64 Y118.482 E6.23067
G1 X112.787 Y119.175 E6.26155
G1 X113.663 Y120.052 E6.31556
M106 S84.15
;LAYER_CHANGE
;Z:0.52
;HEIGHT:0.32
;BEFORE_LAYER_CHANGE
;0.52


G92 E0
G1 E-4.2 F3000
;WIPE_START
G1 F7200
G1 X112.787 Y119.175 E-4.69072
G1 X112.64 Y118.482 E-4.97131
G1 X111.963 Y118.352 E-5.24407
G1 X111.221 Y117.609 E-5.65984
G1 X111.407 Y117.036 E-5.89846
G1 X111.428 Y117.056 E-5.91
;WIPE_END
G1 E-6 F3000
; stop printing object Christmas_Tree_Twist_1.stl id:0 copy 0
M486 S-1
G1 Z0.47 F9000
;AFTER_LAYER_CHANGE
;0.52
; printing object Christmas_Tree_Twist_1.stl id:0 copy 0
M486 S0
G1 X110.638 Y117.093
G1 E0 F3000
;TYPE:Internal perimeter
;WIDTH:0.476
G1 F1442
G1 X109.065 Y115.827 E0.10939
G1 X110.493 Y114.448 E0.21697
G1 X109.763 Y112.566 E0.32636
G1 X111.69 Y112.086 E0.43395
G1 X111.999 Y110.091 E0.54334
G1 X113.907 Y110.638 E0.65092
G1 X115.17 Y109.068 E0.76007
G1 X116.553 Y110.493 E0.86765
G1 X118.434 Y109.763 E0.97698
G1 X118.914 Y111.69 E1.08456
G1 X120.909 Y111.999 E1.19395
G1 X120.362 Y113.907 E1.30154
G1 X121.935 Y115.173 E1.41092
G1 X120.507 Y116.552 E1.51851
G1 X121.237 Y118.434 E1.6279
G1 X119.31 Y118.914 E1.73548
G1 X119.001 Y120.909 E1.84487
G1 X117.093 Y120.362 E1.95246
G1 X115.827 Y121.935 E2.06184
G1 X114.448 Y120.507 E2.16943
G1 X112.566 Y121.237 E2.27882
G1 X112.086 Y119.31 E2.3864
G1 X110.091 Y119.001 E2.49579
G1 X110.621 Y117.15 E2.60012
G1 X110.191 Y117.234 F9000
;TYPE:External perimeter
;WIDTH:0.428
G1 F1442
G1 X110.135 Y117.189 E2.60356
G1 X110.114 Y117.172 E2.60487
G1 X110.003 Y117.083 E2.61166
G1 X109.02 Y116.292 E2.67202
G1 X108.476 Y115.854 E2.70538
G1 X108.494 Y115.837 E2.70659
G1 X108.531 Y115.801 E2.70904
G1 X108.627 Y115.708 E2.71542
G1 X108.645 Y115.69 E2.71665
G1 X110.036 Y114.347 E2.80905
G1 X110.01 Y114.28 E2.81249
G1 X110 Y114.255 E2.8138
G1 X109.948 Y114.122 E2.82059
G1 X109.492 Y112.945 E2.88094
G1 X109.24 Y112.294 E2.91431
G1 X109.264 Y112.288 E2.91552
G1 X109.314 Y112.276 E2.91797
G1 X109.443 Y112.244 E2.92435
G1 X109.468 Y112.237 E2.92558
G1 X111.344 Y111.77 E3.01798
G1 X111.355 Y111.699 E3.02142
G1 X111.359 Y111.671 E3.02273
G1 X111.381 Y111.531 E3.02952
G1 X111.574 Y110.284 E3.08987
G1 X111.681 Y109.594 E3.12324
G1 X111.705 Y109.601 E3.12445
G1 X111.755 Y109.615 E3.1269
G1 X111.883 Y109.652 E3.13328
G1 X111.908 Y109.659 E3.13451
G1 X113.766 Y110.191 E3.22691
G1 X113.811 Y110.135 E3.23035
G1 X113.828 Y110.114 E3.23166
G1 X113.917 Y110.003 E3.23845
G1 X114.708 Y109.02 E3.2988
G1 X115.143 Y108.48 E3.33191
G1 X115.16 Y108.498 E3.3331
G1 X115.196 Y108.535 E3.33556
G1 X115.289 Y108.63 E3.34193
G1 X115.306 Y108.649 E3.34316
G1 X116.653 Y110.035 E3.43555
G1 X116.72 Y110.01 E3.43897
G1 X116.745 Y110 E3.44028
G1 X116.878 Y109.948 E3.44707
G1 X118.055 Y109.492 E3.50742
G1 X118.706 Y109.24 E3.54079
G1 X118.712 Y109.264 E3.54199
G1 X118.724 Y109.314 E3.54445
G1 X118.756 Y109.443 E3.55082
G1 X118.763 Y109.468 E3.55205
G1 X119.23 Y111.344 E3.64446
G1 X119.301 Y111.355 E3.6479
G1 X119.329 Y111.359 E3.64921
G1 X119.469 Y111.381 E3.656
G1 X120.716 Y111.574 E3.71635
G1 X121.406 Y111.681 E3.74972
G1 X121.399 Y111.705 E3.75092
G1 X121.385 Y111.755 E3.75338
G1 X121.348 Y111.883 E3.75975
G1 X121.341 Y111.908 E3.76098
G1 X120.809 Y113.766 E3.85339
G1 X120.865 Y113.811 E3.85683
G1 X120.886 Y113.828 E3.85814
G1 X120.997 Y113.917 E3.86493
G1 X121.98 Y114.708 E3.92528
G1 X122.524 Y115.146 E3.95865
G1 X122.506 Y115.163 E3.95985
G1 X122.469 Y115.199 E3.96231
G1 X122.373 Y115.292 E3.96868
G1 X122.355 Y115.31 E3.96991
G1 X120.964 Y116.653 E4.06232
G1 X120.99 Y116.72 E4.06576
G1 X121 Y116.745 E4.06707
G1 X121.052 Y116.878 E4.07386
G1 X121.508 Y118.055 E4.13421
G1 X121.76 Y118.706 E4.16758
G1 X121.736 Y118.712 E4.16878
G1 X121.686 Y118.724 E4.17124
G1 X121.557 Y118.756 E4.17761
G1 X121.532 Y118.763 E4.17884
G1 X119.656 Y119.23 E4.27125
G1 X119.645 Y119.301 E4.27469
G1 X119.641 Y119.329 E4.276
G1 X119.619 Y119.469 E4.28279
G1 X119.426 Y120.716 E4.34314
G1 X119.319 Y121.406 E4.37651
G1 X119.295 Y121.399 E4.37771
G1 X119.245 Y121.385 E4.38017
G1 X119.117 Y121.348 E4.38654
G1 X119.092 Y121.341 E4.38777
G1 X117.234 Y120.809 E4.48018
G1 X117.189 Y120.865 E4.48362
G1 X117.172 Y120.886 E4.48493
;TYPE:Overhang perimeter
;WIDTH:0.389872
;HEIGHT:0.389872
G1 F1500
M204 S250
G1 X117.083 Y120.997 E4.49197
G1 X116.292 Y121.98 E4.55463
G1 X115.854 Y122.524 E4.58928
G1 X115.837 Y122.506 E4.59053
G1 X115.801 Y122.469 E4.59308
G1 X115.708 Y122.373 E4.5997
;TYPE:External perimeter
;WIDTH:0.428
;HEIGHT:0.32
G1 F1442
M204 S500
G1 X115.69 Y122.355 E4.60093
G1 X114.347 Y120.964 E4.69333
G1 X114.28 Y120.99 E4.69677
G1 X114.255 Y121 E4.69808
G1 X114.122 Y121.052 E4.70487
G1 X112.945 Y121.508 E4.76522
G1 X112.294 Y121.76 E4.79859
G1 X112.288 Y121.736 E4.7998
G1 X112.276 Y121.686 E4.80225
G1 X112.244 Y121.557 E4.80863
G1 X112.237 Y121.532 E4.80986
G1 X111.77 Y119.656 E4.90226
G1 X111.699 Y119.645 E4.9057
G1 X111.671 Y119.641 E4.90701
G1 X111.531 Y119.619 E4.9138
G1 X110.284 Y119.426 E4.97415
G1 X109.594 Y119.319 E5.00752
G1 X109.601 Y119.295 E5.00872
G1 X109.615 Y119.245 E5.01118
G1 X109.652 Y119.117 E5.01756
G1 X109.659 Y119.092 E5.01878
G1 X110.175 Y117.292 E5.10832
;WIPE_START
G1 X110.399 Y116.892 F9000
;WIPE_END
G92 E0
G1 E-4.2 F3000
;WIPE_START
G1 F7200
G1 X110.239 Y117.016 E-4.27991
G1 X110.129 Y116.927 E-4.33613
G1 X109.145 Y116.136 E-4.83587
G1 X108.778 Y115.84 E-5.02239
G1 X108.784 Y115.834 E-5.02588
G1 X110.27 Y114.399 E-5.8436
G1 X110.209 Y114.243 E-5.91
;WIPE_END
G1 E-6 F3000
G1 X110.21 Y113.375 F9000
G1 E0 F3000
;TYPE:Solid infill
;WIDTH:0.482635
G1 F1442
G1 X111.022 Y112.564 E0.06305
G1 X110.241 Y112.758 E0.10724
G1 X110.047 Y112.953 E0.12236
G92 E0
G1 E-4.2 F3000
;WIPE_START
G1 F7200
G1 X110.241 Y112.758 E-4.30894
G1 X111.022 Y112.564 E-4.62731
G1 X110.21 Y113.375 E-5.08151
;WIPE_END
G1 E-6 F3000
; acceleration to travel
M204 S1500
G1 X112.332 Y110.735 F9000
; decel to extrusion
M204 S500
G1 X112.606 Y110.394
; end travel
G1 E0 F3000
G1 F1442
G1 X112.194 Y110.806 E0.03198
G1 X112.087 Y111.499 E0.07053
G1 X112.917 Y110.668 E0.13505
G1 X113.372 Y110.799 E0.16107
G1 X110.512 Y113.66 E0.38336
G1 X110.675 Y114.082 E0.40824
G1 X115.212 Y109.545 E0.76075
G1 X115.5 Y109.843 E0.78351
G1 X109.53 Y115.813 E1.24746
G1 X109.854 Y116.074 E1.27035
G1 X115.789 Y110.14 E1.7315
G1 X116.077 Y110.437 E1.75426
G1 X110.179 Y116.335 E2.2126
G1 X110.504 Y116.596 E2.2355
G1 X116.366 Y110.734 E2.69104
G1 X116.476 Y110.847 E2.69968
G1 X117.069 Y110.617 E2.73465
G1 X110.828 Y116.858 E3.2196
G1 X110.984 Y116.983 E3.23057
G1 X110.861 Y117.41 E3.255
G1 X118.025 Y110.246 E3.8117
G1 X118.224 Y110.169 E3.82338
G1 X118.316 Y110.541 E3.84443
G1 X110.626 Y118.231 E4.44202
G1 X110.476 Y118.755 E4.47193
G1 X110.66 Y118.783 E4.48216
G1 X118.433 Y111.01 E5.0862
G1 X118.55 Y111.479 E5.11275
G1 X111.167 Y118.862 E5.68647
G1 X111.674 Y118.94 E5.71467
G1 X118.667 Y111.947 E6.25807
G1 X118.67 Y111.958 E6.25865
G1 X119.166 Y112.035 E6.28623
G1 X112.181 Y119.019 E6.82896
G1 X112.33 Y119.042 E6.83725
G1 X112.413 Y119.373 E6.85599
G1 X119.673 Y112.113 E7.42014
G1 X120.18 Y112.192 E7.44833
G1 X112.53 Y119.842 E8.0428
G1 X112.647 Y120.311 E8.06935
G1 X120.448 Y112.509 E8.67559
G1 X120.213 Y113.33 E8.72252
G1 X112.764 Y120.78 E9.30139
G1 X112.776 Y120.831 E9.30427
G1 X113.629 Y120.5 E9.35451
G1 X120.069 Y114.06 E9.85497
G1 X120.394 Y114.321 E9.87786
G1 X114.544 Y120.171 E10.33243
G1 X114.832 Y120.469 E10.3552
G1 X120.719 Y114.582 E10.81263
G1 X121.043 Y114.843 E10.83553
G1 X115.12 Y120.767 E11.29583
G1 X115.407 Y121.065 E11.31859
G1 X121.368 Y115.104 E11.78175
G1 X121.478 Y115.193 E11.78955
G1 X120.153 Y116.474 E11.89083
G1 X120.273 Y116.785 E11.90916
G1 X115.569 Y121.489 E12.27468
G92 E0
G1 E-4.2 F3000
;WIPE_START
G1 F7200
G1 X118.624 Y118.434 E-5.91
;WIPE_END
G1 E-6 F3000
; acceleration to travel
M204 S1500
G1 X118.293 Y120.321 F9000
; decel to extrusion
M204 S500
G1 X118.25 Y120.565
; end travel
G1 E0 F3000
G1 F1442
G1 X118.84 Y119.975 E0.0458
G1 X118.947 Y119.282 E0.08434
G1 X117.939 Y120.29 E0.16268
G1 X117.484 Y120.16 E0.1887
G1 X120.437 Y117.207 E0.41815
G1 X120.6 Y117.629 E0.44302
G1 X119.732 Y118.498 E0.51051
G1 X120.512 Y118.303 E0.55471
G1 X120.902 Y117.914 E0.58497
M106 S170.85
;LAYER_CHANGE
;Z:0.84
;HEIGHT:0.32
;BEFORE_LAYER_CHANGE
;0.84


G92 E0
G1 E-4.2 F3000
;WIPE_START
G1 F7200
G1 X120.512 Y118.303 E-4.41799
G1 X119.732 Y118.498 E-4.73636
G1 X120.6 Y117.629 E-5.22256
G1 X120.437 Y117.207 E-5.40177
G1 X119.529 Y118.115 E-5.91
;WIPE_END
G1 E-6 F3000
; stop printing object Christmas_Tree_Twist_1.stl id:0 copy 0
M486 S-1
G1 Z0.79 F9000
;AFTER_LAYER_CHANGE
;0.84
; printing object Christmas_Tree_Twist_1.stl id:0 copy 0
M486 S0
G1 X119.59 Y118.841
G1 E0 F3000
;TYPE:Internal perimeter
;WIDTH:0.476
G1 F1081
G1 X119.451 Y119.85 E0.05522
G1 X119.347 Y120.917 E0.11332
G1 X119.157 Y120.868 E0.12393
G1 X118.22 Y120.672 E0.17586
G1 X117.372 Y120.438 E0.22352
G1 X116.746 Y121.243 E0.27874
G1 X116.123 Y122.115 E0.33683
G1 X115.983 Y121.978 E0.34744
G1 X115.269 Y121.339 E0.39937
G1 X114.652 Y120.712 E0.44703
G1 X113.708 Y121.096 E0.50225
G1 X112.732 Y121.54 E0.56035
G1 X112.68 Y121.352 E0.57096
G1 X112.381 Y120.441 E0.62289
G1 X112.159 Y119.59 E0.67055
