; generated by SuperSlicer 2.4 on 2023-02-16 at 16:38:59 UTC

; 

; external perimeters extrusion width = 0.43mm
; perimeters extrusion width = 0.48mm
; infill extrusion width = 0.46mm
; solid infill extrusion width = 0.48mm
; top infill extrusion width = 0.46mm
; first layer extrusion width = 0.58mm

; object:{"name":"Christmas_Tree_Inset_3","id":"Christmas_Tree_Inset_3.stl id:0 copy 0","object_center":[115.500000,115.500000,0.000000],"boundingbox_center":[115.500000,115.500000,13.195996],"boundingbox_size":[18.036286,18.036286,26.391992]}
; Total objects to print: 1
M486 T1
; plater:{"center":[115.500000,115.500000,0.000000],"boundingbox_center":[115.500000,115.500000,13.195996],"boundingbox_size":[18.036286,18.036286,26.391992]}

;TYPE:Custom
G90 ; use absolute coordinates
M83 ; extruder relative mode
M140 S60 ; set final bed temp
M104 S150 ; set temporary nozzle temp to prevent oozing during homing and auto bed leveling
G4 S10 ; allow partial nozzle warmup
G28 ; home all axis
;G29 ; auto bed levelling
G1 Z10 F240
G1 X2 Y10 F3000
G1 Z0 F240
M104 S210 ; set final nozzle temp
M190 S60 ; wait for bed temp to stabilize
M109 S210 ; wait for nozzle temp to stabilize
G1 Z0.28 F240
G92 E0
G1 Y100 E7.1 F1500 ; prime the nozzle
G1 X2.3 F5000
G92 E0
G1 Y10 E10 F1200 ; prime the nozzle
G92 E0
;start
M107
G21 ; set units to millimeters
G90 ; use absolute coordinates
M82 ; use absolute distances for extrusion
G92 E0
; Filament gcode
;_TOOLCHANGE 0
M107
;LAYER_CHANGE
;Z:0.2
;HEIGHT:0.2
;BEFORE_LAYER_CHANGE
;0.2


G1 E-6 F3000
G1 Z0.15 F9000
;AFTER_LAYER_CHANGE
;0.2
G92 E0
M204 S500
G1 X108.573 Y108.573
G1 E6 F3000
;TYPE:Skirt
;WIDTH:0.48
G1 F1051
G1 X107.484 Y109.662 E6.05599
G1 X106.802 Y110.595 E6.09798
G1 X106.436 Y111.477 E6.13267
G1 X105.639 Y114.453 E6.24464
G1 X105.514 Y115.399 E6.27932
G1 X105.639 Y116.547 E6.32131
G1 X106.436 Y119.523 E6.43329
G1 X106.903 Y120.58 E6.47528
G1 X107.484 Y121.338 E6.50996
G1 X109.662 Y123.516 E6.62194
G1 X110.595 Y124.198 E6.66393
G1 X111.477 Y124.564 E6.69861
G1 X114.453 Y125.361 E6.81059
G1 X115.399 Y125.486 E6.84527
G1 X116.547 Y125.361 E6.88726
G1 X119.523 Y124.564 E6.99923
G1 X120.58 Y124.097 E7.04122
G1 X121.338 Y123.516 E7.07591
G1 X123.516 Y121.338 E7.18788
G1 X124.198 Y120.405 E7.22987
G1 X124.564 Y119.523 E7.26456
G1 X125.361 Y116.547 E7.37653
G1 X125.486 Y115.601 E7.41121
G1 X125.361 Y114.453 E7.45321
G1 X124.564 Y111.477 E7.56518
G1 X124.097 Y110.42 E7.60717
G1 X123.516 Y109.662 E7.64185
G1 X121.338 Y107.484 E7.75383
G1 X120.581 Y106.903 E7.78851
G1 X119.524 Y106.436 E7.83048
G1 X116.548 Y105.639 E7.94245
G1 X115.595 Y105.514 E7.97738
G1 X114.453 Y105.639 E8.01916
G1 X111.477 Y106.436 E8.13113
G1 X110.42 Y106.903 E8.17312
G1 X109.662 Y107.484 E8.20781
G1 X108.616 Y108.531 E8.26161
G1 X108.925 Y108.84 F9000
G1 F1051
G1 X107.793 Y109.971 E8.31978
G1 X107.18 Y110.813 E8.35762
G1 X106.859 Y111.59 E8.38816
G1 X106.061 Y114.566 E8.50014
G1 X105.951 Y115.399 E8.53067
G1 X106.061 Y116.434 E8.56852
G1 X106.859 Y119.41 E8.68049
G1 X107.281 Y120.362 E8.71834
G1 X107.793 Y121.029 E8.74887
G1 X109.971 Y123.207 E8.86085
G1 X110.813 Y123.82 E8.89869
G1 X111.59 Y124.141 E8.92923
G1 X114.566 Y124.939 E9.0412
G1 X115.399 Y125.049 E9.07174
G1 X116.434 Y124.939 E9.10959
G1 X119.41 Y124.141 E9.22156
G1 X120.362 Y123.719 E9.2594
G1 X121.029 Y123.207 E9.28994
G1 X123.207 Y121.029 E9.40192
G1 X123.82 Y120.187 E9.43976
G1 X124.141 Y119.41 E9.4703
G1 X124.939 Y116.434 E9.58227
G1 X125.049 Y115.601 E9.61281
G1 X124.939 Y114.566 E9.65066
G1 X124.141 Y111.59 E9.76263
G1 X123.719 Y110.638 E9.80047
G1 X123.207 Y109.971 E9.83101
G1 X121.029 Y107.793 E9.94299
G1 X120.362 Y107.281 E9.97352
G1 X119.411 Y106.859 E10.01135
G1 X116.435 Y106.061 E10.12332
G1 X115.596 Y105.951 E10.15408
G1 X114.566 Y106.061 E10.19173
G1 X111.59 Y106.859 E10.3037
G1 X110.638 Y107.281 E10.34155
G1 X109.971 Y107.793 E10.37209
G1 X108.967 Y108.797 E10.42371
G92 E0
G1 E-4.2 F3000
;WIPE_START
G1 F7200
G1 X107.793 Y109.971 E-4.85733
G1 X107.18 Y110.813 E-5.26951
G1 X106.859 Y111.59 E-5.60211
G1 X106.657 Y112.341 E-5.91
;WIPE_END
G1 E-6 F3000
; printing object Christmas_Tree_Inset_3.stl id:0 copy 0
M486 S0
; acceleration to travel
M204 S1500
G1 X111.958 Y112.577 F9000
; decel to extrusion
M204 S500
G1 X112.605 Y112.605
; end travel
G1 E0 F3000
;TYPE:Internal perimeter
;WIDTH:0.576
G1 F1051
G1 X112.882 Y111.15 E0.06568
G1 X113.014 Y111.194 E0.07183
G1 X113.042 Y111.058 E0.07798
G1 X114.44 Y111.546 E0.14365
G1 X115.408 Y110.424 E0.20933
G1 X115.5 Y110.527 E0.21548
G1 X115.592 Y110.423 E0.22164
G1 X116.559 Y111.546 E0.28732
G1 X117.958 Y111.058 E0.353
G1 X117.986 Y111.194 E0.35915
G1 X118.118 Y111.15 E0.3653
G1 X118.395 Y112.605 E0.43098
G1 X119.85 Y112.882 E0.49665
G1 X119.806 Y113.014 E0.50281
G1 X119.942 Y113.042 E0.50896
G1 X119.454 Y114.44 E0.57463
G1 X120.576 Y115.408 E0.64031
G1 X120.473 Y115.5 E0.64646
G1 X120.576 Y115.592 E0.65261
G1 X119.454 Y116.56 E0.71829
G1 X119.942 Y117.958 E0.78396
G1 X119.806 Y117.986 E0.79012
G1 X119.85 Y118.118 E0.79627
G1 X118.395 Y118.395 E0.86194
G1 X118.118 Y119.85 E0.92762
G1 X117.986 Y119.806 E0.93377
G1 X117.958 Y119.942 E0.93992
G1 X116.56 Y119.454 E1.00559
G1 X115.592 Y120.576 E1.07127
G1 X115.5 Y120.473 E1.07742
G1 X115.408 Y120.576 E1.08357
G1 X114.44 Y119.454 E1.14925
G1 X113.042 Y119.942 E1.21492
G1 X113.014 Y119.806 E1.22108
G1 X112.882 Y119.85 E1.22723
G1 X112.605 Y118.395 E1.2929
G1 X111.15 Y118.118 E1.35858
G1 X111.194 Y117.986 E1.36473
G1 X111.058 Y117.958 E1.37088
G1 X111.546 Y116.56 E1.43656
G1 X110.424 Y115.592 E1.50223
G1 X110.527 Y115.5 E1.50838
G1 X110.424 Y115.408 E1.51454
G1 X111.546 Y114.44 E1.58021
G1 X111.058 Y113.042 E1.64589
G1 X111.194 Y113.014 E1.65204
G1 X111.15 Y112.882 E1.65819
G1 X112.546 Y112.616 E1.7212
G1 X112.146 Y112.146 F9000
;TYPE:External perimeter
G1 F1051
G1 X112.469 Y110.446 E1.7979
G1 X112.609 Y110.493 E1.80445
G1 X112.639 Y110.348 E1.81099
G1 X114.272 Y110.918 E1.88769
G1 X115.402 Y109.607 E1.96438
G1 X115.5 Y109.718 E1.97093
G1 X115.598 Y109.607 E1.97749
G1 X115.655 Y109.672 E1.98132
G1 X116.728 Y110.918 E2.05419
G1 X118.361 Y110.348 E2.13088
G1 X118.391 Y110.493 E2.13743
G1 X118.531 Y110.446 E2.14398
G1 X118.854 Y112.146 E2.22067
G1 X120.554 Y112.469 E2.29737
G1 X120.507 Y112.609 E2.30392
G1 X120.652 Y112.639 E2.31047
G1 X120.082 Y114.272 E2.38716
G1 X121.393 Y115.402 E2.46385
G1 X121.282 Y115.5 E2.4704
G1 X121.393 Y115.598 E2.47695
G1 X120.082 Y116.728 E2.55364
G1 X120.652 Y118.361 E2.63033
G1 X120.507 Y118.391 E2.63688
G1 X120.554 Y118.531 E2.64343
G1 X118.854 Y118.854 E2.72012
G1 X118.531 Y120.554 E2.79682
G1 X118.391 Y120.507 E2.80337
G1 X118.361 Y120.652 E2.80991
G1 X116.728 Y120.082 E2.88661
G1 X115.598 Y121.393 E2.9633
G1 X115.5 Y121.282 E2.96985
G1 X115.402 Y121.393 E2.9764
G1 X114.272 Y120.082 E3.05309
G1 X112.639 Y120.652 E3.12978
G1 X112.609 Y120.507 E3.13633
G1 X112.469 Y120.554 E3.14288
G1 X112.146 Y118.854 E3.21957
G1 X110.446 Y118.531 E3.29627
G1 X110.493 Y118.391 E3.30282
G1 X110.348 Y118.361 E3.30936
G1 X110.918 Y116.728 E3.38606
G1 X109.607 Y115.598 E3.46275
G1 X109.718 Y115.5 E3.4693
G1 X109.607 Y115.402 E3.47585
G1 X110.918 Y114.272 E3.55254
G1 X110.348 Y112.639 E3.62923
G1 X110.493 Y112.609 E3.63578
G1 X110.446 Y112.469 E3.64233
G1 X112.087 Y112.157 E3.71636
;WIPE_START
G1 X112.545 Y112.171 F9000
;WIPE_END
G92 E0
G1 E-4.2 F3000
;WIPE_START
G1 F7200
G1 X112.623 Y110.708 E-4.77987
G1 X112.76 Y110.753 E-4.83704
G1 X112.789 Y110.612 E-4.8942
G1 X114.335 Y111.152 E-5.54244
G1 X114.941 Y110.448 E-5.91
;WIPE_END
G1 E-6 F3000
; acceleration to travel
M204 S1500
G1 X118.974 Y113.539 F9000
; decel to extrusion
M204 S500
G1 X119.466 Y113.917
; end travel
G1 E0 F3000
;TYPE:Solid infill
;WIDTH:0.568384
G1 F1051
G1 X118.591 Y113.042 E0.05414
G1 X118.059 Y112.941 E0.07781
G1 X117.958 Y112.409 E0.10149
G1 X117.264 Y111.715 E0.1444
G1 X116.701 Y111.912 E0.1705
G1 X119.088 Y114.299 E0.31816
G1 X118.996 Y114.563 E0.33041
G1 X119.981 Y115.412 E0.38728
G1 X119.882 Y115.5 E0.39307
G1 X119.981 Y115.588 E0.39885
G1 X119.785 Y115.756 E0.41013
G1 X115.244 Y111.215 E0.69106
G1 X114.892 Y111.623 E0.71463
G1 X119.377 Y116.108 E0.99207
G1 X118.996 Y116.437 E1.01409
G1 X119.023 Y116.513 E1.01765
G1 X114.487 Y111.977 E1.29823
G1 X113.336 Y111.576 E1.35155
G1 X113.334 Y111.585 E1.35195
G1 X119.416 Y117.666 E1.72814
G1 X119.295 Y117.691 E1.73353
G1 X119.336 Y117.816 E1.73931
G1 X118.891 Y117.901 E1.75917
G1 X113.099 Y112.109 E2.11743
G1 X112.977 Y112.748 E2.14586
G1 X118.252 Y118.023 E2.47213
G1 X118.059 Y118.059 E2.48071
G1 X117.974 Y118.505 E2.50056
G1 X112.495 Y113.026 E2.8395
G1 X111.856 Y113.147 E2.86793
G1 X117.853 Y119.144 E3.23887
G1 X117.816 Y119.337 E3.24746
G1 X117.691 Y119.295 E3.25325
G1 X117.664 Y119.424 E3.25903
G1 X117.218 Y119.269 E3.2797
G1 X111.731 Y113.782 E3.6191
G1 X112.004 Y114.563 E3.6553
G1 X111.869 Y114.68 E3.66309
G1 X116.32 Y119.131 E3.93843
G1 X115.969 Y119.539 E3.962
G1 X111.461 Y115.031 E4.24083
G1 X111.053 Y115.383 E4.2644
G1 X115.617 Y119.947 E4.54671
G1 X115.588 Y119.981 E4.54865
G1 X115.5 Y119.882 E4.55444
G1 X115.412 Y119.981 E4.56022
G1 X114.563 Y118.996 E4.61709
G1 X114.076 Y119.166 E4.63967
G1 X111.834 Y116.924 E4.77835
G1 X111.637 Y117.488 E4.80445
G1 X112.037 Y117.887 E4.82918
G1 X112.941 Y118.059 E4.86941
G1 X113.113 Y118.963 E4.90964
G1 X113.694 Y119.544 E4.9456
M106 S84.15
;LAYER_CHANGE
;Z:0.52
;HEIGHT:0.32
;BEFORE_LAYER_CHANGE
;0.52


G92 E0
G1 E-4.2 F3000
;WIPE_START
G1 F7200
G1 X113.113 Y118.963 E-4.52539
G1 X112.941 Y118.059 E-4.88947
G1 X112.037 Y117.887 E-5.25355
G1 X111.637 Y117.488 E-5.47739
G1 X111.834 Y116.924 E-5.71357
G1 X112.185 Y117.275 E-5.91
;WIPE_END
G1 E-6 F3000
; stop printing object Christmas_Tree_Inset_3.stl id:0 copy 0
M486 S-1
G1 Z0.47 F9000
;AFTER_LAYER_CHANGE
;0.52
; printing object Christmas_Tree_Inset_3.stl id:0 copy 0
M486 S0
G1 X110.913 Y116.767
G1 E0 F3000
;TYPE:Internal perimeter
;WIDTH:0.476
G1 F1146
G1 X110.93 Y116.724 E0.00246
G1 X109.789 Y115.827 E0.0811
G1 X110.136 Y115.5 E0.10691
G1 X109.789 Y115.173 E0.13273
G1 X110.93 Y114.275 E0.21139
G1 X110.391 Y112.928 E0.29003
G1 X110.854 Y112.818 E0.31584
G1 X110.718 Y112.361 E0.34166
G1 X112.155 Y112.154 E0.42032
G1 X112.361 Y110.718 E0.49897
G1 X112.818 Y110.854 E0.52477
G1 X112.928 Y110.391 E0.55059
G1 X114.276 Y110.93 E0.62925
G1 X115.173 Y109.789 E0.7079
G1 X115.5 Y110.136 E0.7337
G1 X115.829 Y109.787 E0.75969
G1 X116.723 Y110.93 E0.83836
G1 X118.072 Y110.391 E0.91708
G1 X118.182 Y110.854 E0.94289
G1 X118.639 Y110.718 E0.9687
G1 X118.846 Y112.155 E1.04737
G1 X120.282 Y112.361 E1.12601
G1 X120.146 Y112.818 E1.15182
G1 X120.609 Y112.928 E1.17763
G1 X120.07 Y114.276 E1.2563
G1 X121.211 Y115.173 E1.33494
G1 X120.864 Y115.5 E1.36075
G1 X121.211 Y115.827 E1.38657
G1 X120.07 Y116.725 E1.46523
G1 X120.609 Y118.072 E1.54387
G1 X120.146 Y118.182 E1.56968
G1 X120.282 Y118.639 E1.5955
G1 X118.845 Y118.846 E1.67416
G1 X118.639 Y120.282 E1.7528
G1 X118.182 Y120.146 E1.77861
G1 X118.072 Y120.609 E1.80443
G1 X116.724 Y120.07 E1.88309
G1 X115.827 Y121.211 E1.96173
G1 X115.5 Y120.864 E1.98754
G1 X115.173 Y121.211 E2.01336
G1 X114.275 Y120.07 E2.09202
G1 X112.928 Y120.609 E2.17067
G1 X112.818 Y120.146 E2.19647
G1 X112.361 Y120.282 E2.22229
G1 X112.154 Y118.845 E2.30095
G1 X110.718 Y118.639 E2.3796
G1 X110.854 Y118.182 E2.4054
G1 X110.391 Y118.072 E2.43122
G1 X110.891 Y116.822 E2.50417
M204 S250
G1 X110.459 Y116.851 F9000
;TYPE:Overhang perimeter
;WIDTH:0.389872
;HEIGHT:0.389872
G1 F1500
G1 X109.59 Y116.167 E2.55903
G1 X109.192 Y115.854 E2.58417
G1 X109.209 Y115.838 E2.5853
G1 X109.246 Y115.803 E2.58785
G1 X109.343 Y115.711 E2.59448
G1 X109.362 Y115.694 E2.59576
G1 X109.567 Y115.5 E2.60975
G1 X109.362 Y115.306 E2.62374
G1 X109.343 Y115.289 E2.62502
G1 X109.246 Y115.197 E2.63164
G1 X109.209 Y115.162 E2.6342
G1 X109.192 Y115.146 E2.63533
G1 X109.592 Y114.832 E2.66058
G1 X110.459 Y114.149 E2.71534
G1 X110.049 Y113.123 E2.7702
G1 X109.861 Y112.653 E2.79534
G1 X109.883 Y112.647 E2.79647
G1 X109.933 Y112.635 E2.79902
G1 X110.063 Y112.605 E2.80565
G1 X110.088 Y112.599 E2.80693
G1 X110.362 Y112.534 E2.82092
G1 X110.281 Y112.263 E2.83491
G1 X110.274 Y112.239 E2.83619
G1 X110.236 Y112.111 E2.84281
G1 X110.221 Y112.062 E2.84537
G1 X110.214 Y112.04 E2.8465
G1 X110.718 Y111.967 E2.87175
G1 X111.81 Y111.81 E2.92651
G1 X111.968 Y110.716 E2.98137
G1 X112.04 Y110.214 E3.00651
G1 X112.062 Y110.221 E3.00764
G1 X112.111 Y110.236 E3.0102
G1 X112.239 Y110.274 E3.01682
G1 X112.263 Y110.281 E3.0181
G1 X112.534 Y110.362 E3.03209
G1 X112.599 Y110.088 E3.04608
G1 X112.605 Y110.063 E3.04736
G1 X112.635 Y109.933 E3.05399
G1 X112.647 Y109.883 E3.05654
G1 X112.653 Y109.861 E3.05767
G1 X113.125 Y110.049 E3.08292
G1 X114.149 Y110.459 E3.13769
G1 X114.833 Y109.59 E3.19254
G1 X115.146 Y109.192 E3.21768
G1 X115.162 Y109.209 E3.21881
G1 X115.197 Y109.246 E3.22137
G1 X115.289 Y109.343 E3.22799
G1 X115.306 Y109.362 E3.22927
G1 X115.5 Y109.567 E3.24326
G1 X115.694 Y109.362 E3.25728
G1 X115.711 Y109.343 E3.25855
G1 X115.803 Y109.246 E3.26518
G1 X115.838 Y109.209 E3.26773
G1 X115.857 Y109.189 E3.26907
G1 X116.206 Y109.635 E3.29716
G1 X116.85 Y110.459 E3.34911
G1 X117.877 Y110.049 E3.404
G1 X118.347 Y109.861 E3.42914
G1 X118.353 Y109.883 E3.43027
G1 X118.365 Y109.933 E3.43282
G1 X118.395 Y110.063 E3.43945
G1 X118.401 Y110.088 E3.44073
G1 X118.466 Y110.362 E3.45472
G1 X118.737 Y110.281 E3.46871
G1 X118.761 Y110.274 E3.46999
G1 X118.889 Y110.236 E3.47661
G1 X118.938 Y110.221 E3.47917
G1 X118.96 Y110.214 E3.4803
G1 X119.033 Y110.718 E3.50555
G1 X119.19 Y111.81 E3.56031
G1 X120.284 Y111.968 E3.61517
G1 X120.786 Y112.04 E3.64031
G1 X120.779 Y112.062 E3.64144
G1 X120.764 Y112.111 E3.644
G1 X120.726 Y112.239 E3.65062
G1 X120.719 Y112.263 E3.6519
G1 X120.638 Y112.534 E3.66589
G1 X120.912 Y112.599 E3.67988
G1 X120.937 Y112.605 E3.68116
G1 X121.067 Y112.635 E3.68778
G1 X121.117 Y112.647 E3.69034
G1 X121.139 Y112.653 E3.69147
G1 X120.951 Y113.125 E3.71672
G1 X120.541 Y114.149 E3.77148
G1 X121.41 Y114.833 E3.82634
G1 X121.808 Y115.146 E3.85148
G1 X121.791 Y115.162 E3.85261
G1 X121.754 Y115.197 E3.85517
G1 X121.657 Y115.289 E3.86179
G1 X121.638 Y115.306 E3.86307
G1 X121.433 Y115.5 E3.87706
G1 X121.638 Y115.694 E3.89105
G1 X121.657 Y115.711 E3.89233
G1 X121.754 Y115.803 E3.89896
G1 X121.791 Y115.838 E3.90151
G1 X121.808 Y115.854 E3.90264
G1 X121.408 Y116.168 E3.92789
G1 X120.541 Y116.851 E3.98266
G1 X120.951 Y117.877 E4.03751
G1 X121.139 Y118.347 E4.06265
G1 X121.117 Y118.353 E4.06378
G1 X121.067 Y118.365 E4.06634
G1 X120.937 Y118.395 E4.07296
G1 X120.912 Y118.401 E4.07424
G1 X120.638 Y118.466 E4.08823
G1 X120.719 Y118.737 E4.10222
G1 X120.726 Y118.761 E4.1035
G1 X120.764 Y118.889 E4.11013
G1 X120.779 Y118.938 E4.11268
G1 X120.786 Y118.96 E4.11382
G1 X120.282 Y119.033 E4.13907
G1 X119.19 Y119.19 E4.19383
G1 X119.032 Y120.284 E4.24868
G1 X118.96 Y120.786 E4.27383
G1 X118.938 Y120.779 E4.27496
G1 X118.889 Y120.764 E4.27751
G1 X118.761 Y120.726 E4.28414
G1 X118.737 Y120.719 E4.28541
G1 X118.466 Y120.638 E4.29941
G1 X118.401 Y120.912 E4.3134
G1 X118.395 Y120.937 E4.31467
G1 X118.365 Y121.067 E4.3213
G1 X118.353 Y121.117 E4.32386
G1 X118.347 Y121.139 E4.32499
G1 X117.875 Y120.951 E4.35024
G1 X116.851 Y120.541 E4.405
G1 X116.167 Y121.41 E4.45986
G1 X115.854 Y121.808 E4.485
G1 X115.838 Y121.791 E4.48613
G1 X115.803 Y121.754 E4.48868
G1 X115.711 Y121.657 E4.49531
G1 X115.694 Y121.638 E4.49659
G1 X115.5 Y121.433 E4.51058
G1 X115.306 Y121.638 E4.52457
G1 X115.289 Y121.657 E4.52585
G1 X115.197 Y121.754 E4.53247
G1 X115.162 Y121.791 E4.53503
G1 X115.146 Y121.808 E4.53616
G1 X114.832 Y121.408 E4.56141
G1 X114.149 Y120.541 E4.61617
G1 X113.123 Y120.951 E4.67103
G1 X112.653 Y121.139 E4.69617
G1 X112.647 Y121.117 E4.6973
G1 X112.635 Y121.067 E4.69985
G1 X112.605 Y120.937 E4.70648
G1 X112.599 Y120.912 E4.70776
G1 X112.534 Y120.638 E4.72175
G1 X112.263 Y120.719 E4.73574
G1 X112.239 Y120.726 E4.73702
G1 X112.111 Y120.764 E4.74364
G1 X112.062 Y120.779 E4.7462
G1 X112.04 Y120.786 E4.74733
