; generated by SuperSlicer 2.4 on 2023-02-16 at 16:46:28 UTC

; 

; external perimeters extrusion width = 0.43mm
; perimeters extrusion width = 0.48mm
; infill extrusion width = 0.46mm
; solid infill extrusion width = 0.48mm
; top infill extrusion width = 0.46mm
; first layer extrusion width = 0.58mm

; object:{"name":"D4","id":"D4.stl id:0 copy 0","object_center":[116.899480,110.417325,0.000000],"boundingbox_center":[116.899480,110.417325,9.797959],"boundingbox_size":[22.829043,23.473054,19.595919]}
; Total objects to print: 1
M486 T1
; plater:{"center":[116.899480,110.417325,0.000000],"boundingbox_center":[116.899480,110.417325,9.797959],"boundingbox_size":[22.829043,23.473054,19.595919]}

;TYPE:Custom
G90 ; use absolute coordinates
M83 ; extruder relative mode
M140 S60 ; set final bed temp
M104 S150 ; set temporary nozzle temp to prevent oozing during homing and auto bed leveling
G4 S10 ; allow partial nozzle warmup
G28 ; home all axis
;G29 ; auto bed levelling
G1 Z10 F240
G1 X2 Y10 F3000
G1 Z0 F240
M104 S210 ; set final nozzle temp
M190 S60 ; wait for bed temp to stabilize
M109 S210 ; wait for nozzle temp to stabilize
G1 Z0.28 F240
G92 E0
G1 Y100 E7.1 F1500 ; prime the nozzle
G1 X2.3 F5000
G92 E0
G1 Y10 E10 F1200 ; prime the nozzle
G92 E0
;start
M107
G21 ; set units to millimeters
G90 ; use absolute coordinates
M82 ; use absolute distances for extrusion
G92 E0
; Filament gcode
;_TOOLCHANGE 0
M107
;LAYER_CHANGE
;Z:0.2
;HEIGHT:0.2
;BEFORE_LAYER_CHANGE
;0.2


G1 E-6 F3000
G1 Z0.15 F9000
;AFTER_LAYER_CHANGE
;0.2
G92 E0
M204 S500
G1 X102.671 Y104.171
G1 E6 F3000
;TYPE:Skirt
;WIDTH:0.48
G1 F1200
G1 X102.113 Y105.775 E6.06172
G1 X102.339 Y107.459 E6.12345
G1 X103.302 Y108.858 E6.18517
G1 X120.781 Y124.612 E7.04037
G1 X123.062 Y125.548 E7.12996
G1 X124.73 Y125.23 E7.19168
G1 X126.074 Y124.192 E7.25341
G1 X126.804 Y122.658 E7.31513
G1 X131.708 Y99.644 E8.17033
G1 X131.379 Y97.201 E8.25991
G1 X130.269 Y95.915 E8.32164
G1 X128.698 Y95.27 E8.38336
G1 X127.005 Y95.405 E8.44509
G1 X104.622 Y102.665 E9.30029
G1 X102.718 Y104.135 E9.38769
G1 X103.143 Y104.321 F9000
G1 F1200
G1 X102.574 Y105.622 E9.43931
G1 X102.713 Y107.208 E9.49717
G1 X103.595 Y108.533 E9.55503
G1 X121.074 Y124.287 E10.41023
G1 X122.784 Y125.084 E10.47879
G1 X124.366 Y124.907 E10.53665
G1 X125.67 Y123.994 E10.59451
G1 X126.377 Y122.567 E10.65238
G1 X131.281 Y99.553 E11.50757
G1 X131.116 Y97.673 E11.57613
G1 X130.172 Y96.392 E11.63399
G1 X128.729 Y95.719 E11.69186
G1 X127.14 Y95.82 E11.74972
G1 X104.757 Y103.081 E12.60492
G1 X103.212 Y104.163 E12.67347
G1 X103.167 Y104.266 E12.67754
G92 E0
G1 E-4.2 F3000
;WIPE_START
G1 F7200
G1 X102.574 Y105.622 E-4.78592
G1 X102.713 Y107.208 E-5.41613
G1 X103.404 Y108.246 E-5.91
;WIPE_END
G1 E-6 F3000
; printing object D4.stl id:0 copy 0
M486 S0
; acceleration to travel
M204 S1500
G1 X106.933 Y106.678 F9000
; decel to extrusion
M204 S500
G1 X107.364 Y106.486
; end travel
G1 E0 F3000
;TYPE:Internal perimeter
;WIDTH:0.576
G1 F1200
G1 X127.028 Y100.108 E0.9163
G1 X122.72 Y120.326 E1.8326
G1 X107.409 Y106.526 E2.74624
G1 X106.313 Y106.262 F9000
;TYPE:External perimeter
G1 F1200
G1 X127.747 Y99.31 E3.74505
G1 X123.051 Y121.348 E4.74386
G1 X106.358 Y106.302 E5.74002
;WIPE_START
G1 X106.713 Y106.276 F9000
;WIPE_END
G92 E0
G1 E-4.2 F3000
;WIPE_START
G1 F7200
G1 X110.826 Y104.955 E-5.91
;WIPE_END
G1 E-6 F3000
; acceleration to travel
M204 S1500
G1 X124.905 Y101.631 F9000
; decel to extrusion
M204 S500
G1 X126.625 Y101.225
; end travel
G1 E0 F3000
;TYPE:Solid infill
;WIDTH:0.576132
G1 F1200
G1 X126.192 Y100.792 E0.02716
G1 X125.618 Y100.978 E0.0539
G1 X126.297 Y101.656 E0.09646
G1 X126.163 Y102.283 E0.12486
G1 X125.044 Y101.164 E0.19503
G1 X124.47 Y101.35 E0.22177
G1 X126.03 Y102.909 E0.31955
G1 X125.896 Y103.536 E0.34795
G1 X123.896 Y101.536 E0.47333
G1 X123.323 Y101.722 E0.50008
G1 X125.763 Y104.162 E0.65307
G1 X125.629 Y104.789 E0.68147
G1 X122.749 Y101.908 E0.86208
G1 X122.175 Y102.095 E0.88882
G1 X125.496 Y105.415 E1.09704
G1 X125.362 Y106.042 E1.12543
G1 X121.601 Y102.281 E1.36126
G1 X121.027 Y102.467 E1.388
G1 X125.229 Y106.668 E1.65144
G1 X125.095 Y107.295 E1.67983
G1 X120.453 Y102.653 E1.97088
G1 X119.88 Y102.839 E1.99762
G1 X124.962 Y107.921 E2.31627
G1 X124.828 Y108.548 E2.34467
G1 X119.306 Y103.025 E2.69093
G1 X118.732 Y103.211 E2.71768
G1 X124.695 Y109.174 E3.09155
G1 X124.561 Y109.801 E3.11995
G1 X118.158 Y103.397 E3.52143
G1 X117.584 Y103.584 E3.54818
G1 X124.428 Y110.427 E3.97727
G1 X124.294 Y111.054 E4.00566
G1 X117.01 Y103.77 E4.46236
G1 X116.437 Y103.956 E4.48911
G1 X124.161 Y111.68 E4.97342
G1 X124.027 Y112.306 E5.00182
G1 X115.863 Y104.142 E5.51373
G1 X115.289 Y104.328 E5.54048
G1 X123.894 Y112.933 E6.08001
G1 X123.76 Y113.559 E6.10841
G1 X114.715 Y104.514 E6.67554
G1 X114.141 Y104.7 E6.70229
G1 X123.627 Y114.186 E7.29704
G1 X123.493 Y114.812 E7.32543
G1 X113.568 Y104.886 E7.94779
G1 X112.994 Y105.073 E7.97454
G1 X123.36 Y115.439 E8.6245
G1 X123.226 Y116.065 E8.6529
G1 X112.42 Y105.259 E9.33048
G1 X111.846 Y105.445 E9.35722
G1 X123.093 Y116.692 E10.06241
G1 X122.959 Y117.318 E10.0908
G1 X111.272 Y105.631 E10.8236
G1 X110.698 Y105.817 E10.85034
G1 X122.826 Y117.945 E11.61075
G1 X122.692 Y118.571 E11.63915
G1 X110.125 Y106.003 E12.42716
G1 X109.551 Y106.189 E12.4539
G1 X122.559 Y119.198 E13.26953
G1 X122.478 Y119.58 E13.28686
G1 X119.476 Y116.875 E13.46601
G1 X108.977 Y106.376 E14.1243
G1 X108.403 Y106.562 E14.15105
G1 X114.928 Y113.086 E14.56014
M106 S84.15
;LAYER_CHANGE
;Z:0.52
;HEIGHT:0.32
;BEFORE_LAYER_CHANGE
;0.52


G92 E0
G1 E-4.2 F3000
;WIPE_START
G1 F7200
G1 X111.873 Y110.032 E-5.91
;WIPE_END
G1 E-6 F3000
; stop printing object D4.stl id:0 copy 0
M486 S-1
G1 Z0.47 F9000
;AFTER_LAYER_CHANGE
;0.52
G92 E0
; printing object D4.stl id:0 copy 0
M486 S0
; acceleration to travel
M204 S1500
G1 X107.483 Y106.807
; decel to extrusion
M204 S500
G1 X106.916 Y106.391
; end travel
G1 E6 F3000
;TYPE:Internal perimeter
;WIDTH:0.476
G1 F2400
G1 X127.335 Y99.767 E7.16327
G1 X122.861 Y120.762 E8.32654
G1 X106.96 Y106.431 E9.48656
G1 X106.153 Y106.228 F9000
;TYPE:External perimeter
;WIDTH:0.428
G1 F1500
G1 X127.857 Y99.188 E10.57737
G1 X123.102 Y121.505 E11.66817
G1 X106.197 Y106.268 E12.75611
;WIPE_START
G1 X106.552 Y106.242 F9000
;WIPE_END
G1 X108.293 Y106.075
;TYPE:Solid infill
;WIDTH:0.483866
G1 F2400
G1 X107.688 Y106.68 E12.80323
G1 X107.996 Y106.957 E12.82607
G1 X108.882 Y106.071 E12.89514
G1 X109.749 Y105.789 E12.94535
G1 X108.304 Y107.235 E13.05795
G1 X108.612 Y107.513 E13.0808
G1 X110.616 Y105.508 E13.23695
G1 X111.483 Y105.227 E13.28716
G1 X108.92 Y107.79 E13.48684
G1 X109.228 Y108.068 E13.50969
G1 X112.35 Y104.946 E13.75292
G1 X113.217 Y104.665 E13.80313
G1 X109.536 Y108.346 E14.0899
G1 X109.844 Y108.623 E14.11274
G1 X114.084 Y104.383 E14.44305
G1 X114.951 Y104.102 E14.49326
G1 X110.152 Y108.901 E14.86711
G1 X110.461 Y109.179 E14.88996
G1 X115.818 Y103.821 E15.30735
G1 X116.685 Y103.54 E15.35756
G1 X110.769 Y109.456 E15.81849
G1 X111.077 Y109.734 E15.84133
G1 X117.552 Y103.258 E16.3458
G1 X118.419 Y102.977 E16.39601
G1 X111.385 Y110.012 E16.94402
G1 X111.693 Y110.289 E16.96687
G1 X119.286 Y102.696 E17.55842
G1 X120.153 Y102.415 E17.60863
G1 X112.001 Y110.567 E18.24372
G1 X112.309 Y110.845 E18.26657
G1 X121.02 Y102.134 E18.9452
G1 X121.887 Y101.852 E18.99541
G1 X112.617 Y111.122 E19.71758
G1 X112.925 Y111.4 E19.74043
G1 X122.754 Y101.571 E20.50615
G1 X123.621 Y101.29 E20.55635
G1 X113.233 Y111.678 E21.36561
G1 X113.541 Y111.955 E21.38846
G1 X124.488 Y101.009 E22.24125
G1 X125.355 Y100.727 E22.29146
G1 X113.849 Y112.233 E23.18779
G1 X114.158 Y112.511 E23.21064
G1 X126.222 Y100.446 E24.15052
G1 X126.93 Y100.217 E24.1915
G1 X126.901 Y100.353 E24.1992
G1 X114.466 Y112.788 E25.16794
G1 X114.774 Y113.066 E25.19078
G1 X126.742 Y101.098 E26.12316
G1 X126.583 Y101.842 E26.16509
G1 X115.082 Y113.344 E27.0611
G1 X115.39 Y113.621 E27.08395
G1 X126.425 Y102.587 E27.94361
G1 X126.266 Y103.331 E27.98554
G1 X115.698 Y113.899 E28.80884
G1 X116.006 Y114.177 E28.83169
G1 X126.108 Y104.075 E29.61864
G1 X125.949 Y104.82 E29.66056
G1 X116.314 Y114.454 E30.41115
G1 X116.622 Y114.732 E30.434
G1 X125.79 Y105.564 E31.14824
G1 X125.632 Y106.308 E31.19016
G1 X116.93 Y115.01 E31.86804
G1 X117.238 Y115.287 E31.89088
G1 X125.473 Y107.053 E32.5324
G1 X125.314 Y107.797 E32.57433
G1 X117.546 Y115.565 E33.17949
G1 X117.855 Y115.843 E33.20234
G1 X125.156 Y108.541 E33.77114
G1 X124.997 Y109.286 E33.81307
G1 X118.163 Y116.121 E34.34552
G1 X118.471 Y116.398 E34.36836
G1 X124.839 Y110.03 E34.86446
G1 X124.68 Y110.775 E34.90638
G1 X118.779 Y116.676 E35.36611
G1 X119.087 Y116.954 E35.38896
G1 X124.521 Y111.519 E35.81234
G1 X124.363 Y112.263 E35.85426
G1 X119.395 Y117.231 E36.24128
G1 X119.703 Y117.509 E36.26413
G1 X124.204 Y113.008 E36.61479
G1 X124.046 Y113.752 E36.65672
G1 X120.011 Y117.787 E36.97103
G1 X120.319 Y118.064 E36.99387
G1 X123.887 Y114.496 E37.27182
G1 X123.728 Y115.241 E37.31375
G1 X120.627 Y118.342 E37.55534
G1 X120.935 Y118.62 E37.57819
G1 X123.57 Y115.985 E37.78342
G1 X123.411 Y116.73 E37.82535
G1 X121.243 Y118.897 E37.99422
G1 X121.552 Y119.175 E38.01707
G1 X123.253 Y117.474 E38.14959
G1 X123.094 Y118.218 E38.19152
G1 X121.86 Y119.453 E38.28768
G1 X122.168 Y119.73 E38.31053
G1 X122.935 Y118.963 E38.37033
G1 X122.777 Y119.707 E38.41226
G1 X122.35 Y120.134 E38.44553
M106 S170.85
;LAYER_CHANGE
;Z:0.84
;HEIGHT:0.32
;BEFORE_LAYER_CHANGE
;0.84


G92 E0
G1 E-4.2 F3000
;WIPE_START
G1 F7200
G1 X122.777 Y119.707 E-4.43909
G1 X122.935 Y118.963 E-4.74035
G1 X122.168 Y119.73 E-5.1701
G1 X121.86 Y119.453 E-5.33427
G1 X122.888 Y118.424 E-5.91
;WIPE_END
G1 E-6 F3000
; stop printing object D4.stl id:0 copy 0
M486 S-1
G1 Z0.79 F9000
;AFTER_LAYER_CHANGE
;0.84
G92 E0
; printing object D4.stl id:0 copy 0
M486 S0
; acceleration to travel
M204 S1500
G1 X122.802 Y120.304
; decel to extrusion
M204 S500
G1 X122.791 Y120.547
; end travel
G1 E6 F3000
;TYPE:Internal perimeter
;WIDTH:0.476
G1 F1873
G1 X107.137 Y106.438 E7.14203
G1 X127.183 Y99.936 E8.28406
G1 X122.804 Y120.488 E9.42285
G1 X123.032 Y121.289 F9000
;TYPE:External perimeter
;WIDTH:0.428
G1 F1500
G1 X106.374 Y106.275 E10.49492
G1 X127.706 Y99.356 E11.56699
G1 X123.045 Y121.231 E12.63619
;WIPE_START
G1 X122.844 Y120.936 F9000
;WIPE_END
G92 E0
G1 E-4.2 F3000
;WIPE_START
G1 F7200
G1 X119.644 Y118.035 E-5.91
;WIPE_END
G1 E-6 F3000
; acceleration to travel
M204 S1500
G1 X126.046 Y102.768 F9000
; decel to extrusion
M204 S500
G1 X126.873 Y100.796
; end travel
G1 E0 F3000
;TYPE:Solid infill
;WIDTH:0.48486
G1 F1873
G1 X126.539 Y100.462 E0.02606
G1 X126.096 Y100.606 E0.05173
G1 X126.62 Y101.129 E0.09257
G1 X126.517 Y101.612 E0.11982
G1 X125.654 Y100.749 E0.18716
G1 X125.212 Y100.893 E0.21283
G1 X126.414 Y102.095 E0.30666
G1 X126.311 Y102.578 E0.33391
G1 X124.77 Y101.036 E0.45423
G1 X124.327 Y101.18 E0.4799
G1 X126.208 Y103.061 E0.62672
G1 X126.105 Y103.543 E0.65398
G1 X123.885 Y101.323 E0.82729
G1 X123.443 Y101.467 E0.85296
G1 X126.002 Y104.026 E1.05277
G1 X125.899 Y104.509 E1.08002
G1 X123 Y101.61 E1.30633
G1 X122.558 Y101.754 E1.332
G1 X125.797 Y104.992 E1.5848
G1 X125.694 Y105.475 E1.61205
G1 X122.116 Y101.897 E1.89135
G1 X121.674 Y102.041 E1.91702
G1 X125.591 Y105.958 E2.22281
G1 X125.488 Y106.441 E2.25006
G1 X121.231 Y102.184 E2.58235
G1 X120.789 Y102.327 E2.60802
G1 X125.385 Y106.923 E2.9668
G1 X125.282 Y107.406 E2.99406
G1 X120.347 Y102.471 E3.37934
G1 X119.904 Y102.614 E3.405
G1 X125.179 Y107.889 E3.81678
G1 X125.076 Y108.372 E3.84403
G1 X119.462 Y102.758 E4.2823
G1 X119.02 Y102.901 E4.30797
G1 X124.973 Y108.855 E4.77273
G1 X124.871 Y109.338 E4.79999
G1 X118.577 Y103.045 E5.29125
G1 X118.135 Y103.188 E5.31691
G1 X124.768 Y109.821 E5.83467
G1 X124.665 Y110.304 E5.86192
G1 X117.693 Y103.332 E6.40617
G1 X117.251 Y103.475 E6.43184
G1 X124.562 Y110.786 E7.00259
G1 X124.459 Y111.269 E7.02984
G1 X116.808 Y103.619 E7.62708
G1 X116.366 Y103.762 E7.65275
G1 X124.356 Y111.752 E8.27648
G1 X124.253 Y112.235 E8.30374
G1 X115.924 Y103.906 E8.95397
G1 X115.481 Y104.049 E8.97964
G1 X124.15 Y112.718 E9.65636
G1 X124.047 Y113.201 E9.68362
G1 X115.039 Y104.193 E10.38684
G1 X114.597 Y104.336 E10.41251
G1 X123.945 Y113.684 E11.14223
G1 X123.842 Y114.167 E11.16948
G1 X114.155 Y104.479 E11.92569
G1 X113.712 Y104.623 E11.95136
G1 X123.739 Y114.649 E12.73407
G1 X123.636 Y115.132 E12.76132
G1 X113.27 Y104.766 E13.57053
G1 X112.828 Y104.91 E13.59619
G1 X123.533 Y115.615 E14.43189
G1 X123.43 Y116.098 E14.45915
G1 X112.385 Y105.053 E15.32134
G1 X111.943 Y105.197 E15.34701
G1 X123.327 Y116.581 E16.2357
G1 X123.224 Y117.064 E16.26295
G1 X111.501 Y105.34 E17.17814
G1 X111.059 Y105.484 E17.2038
G1 X123.121 Y117.547 E18.14548
G1 X123.019 Y118.03 E18.17274
G1 X110.616 Y105.627 E19.14091
G1 X110.174 Y105.771 E19.16658
G1 X122.916 Y118.512 E20.16125
G1 X122.813 Y118.995 E20.18851
G1 X109.732 Y105.914 E21.20967
G1 X109.289 Y106.058 E21.23534
G1 X122.71 Y119.478 E22.283
G1 X122.607 Y119.961 E22.31025
G1 X108.847 Y106.201 E23.38441
G1 X108.405 Y106.345 E23.41008
G1 X116.803 Y114.743 E24.06568
G1 X110.868 Y109.393 E24.50673
G1 X107.821 Y106.347 E24.74457
G92 E0
G1 E-4.2 F3000
;WIPE_START
G1 F7200
G1 X110.868 Y109.393 E-5.90553
G1 X110.876 Y109.401 E-5.91
;WIPE_END
G1 E-6 F3000
; acceleration to travel
M204 S1500
G1 X116.312 Y114.241 F9000
; decel to extrusion
M204 S500
G1 X116.992 Y114.846
; end travel
G1 E0 F3000
;TYPE:Gap fill
;WIDTH:0.359325
G1 F1800
G1 X117.043 Y114.895 E0.00274
G1 X117.095 Y114.943 E0.00548
G1 X117.618 Y115.44 E0.0334
;WIDTH:0.305082
G1 X118.142 Y115.938 E0.05611
;WIDTH:0.258279
G1 X118.666 Y116.435 E0.07432
;WIDTH:0.211476
G1 X119.189 Y116.932 E0.08804
;WIDTH:0.164673
G1 X119.713 Y117.429 E0.09726
G1 X119.748 Y117.462 E0.09787
M106 S255
;LAYER_CHANGE
;Z:1.16
;HEIGHT:0.32
;BEFORE_LAYER_CHANGE
;1.16


G92 E0
G1 E-4.2 F3000
;WIPE_START
G1 F7200
G1 X119.713 Y117.429 E-4.219
G1 X119.189 Y116.932 E-4.50481
;WIPE_END
G1 E-6 F3000
; stop printing object D4.stl id:0 copy 0
M486 S-1
G1 Z1.11 F9000
;AFTER_LAYER_CHANGE
;1.16
G92 E0
; printing object D4.stl id:0 copy 0
M486 S0
; acceleration to travel
M204 S1500
G1 X122.317 Y119.943
; decel to extrusion
M204 S500
G1 X122.721 Y120.332
; end travel
G1 E6 F3000
;TYPE:Internal perimeter
;WIDTH:0.476
G1 F1801
G1 X107.358 Y106.485 E7.12079
G1 X127.032 Y100.104 E8.24159
G1 X122.734 Y120.273 E9.35913
G1 X122.962 Y121.074 F9000
;TYPE:External perimeter
;WIDTH:0.428
G1 F1500
G1 X106.595 Y106.322 E10.41247
G1 X127.554 Y99.524 E11.4658
G1 X122.975 Y121.015 E12.51627
;WIPE_START
G1 X122.775 Y120.721 F9000
;WIPE_END
G1 X122.21 Y119.704
;TYPE:Solid infill
;WIDTH:0.484018
G1 F1801
G1 X122.637 Y119.277 E12.54955
G1 X122.796 Y118.532 E12.59149
G1 X122.028 Y119.3 E12.65131
G1 X121.72 Y119.022 E12.67417
G1 X122.954 Y117.788 E12.77036
G1 X123.113 Y117.043 E12.8123
G1 X121.412 Y118.744 E12.94486
G1 X121.104 Y118.467 E12.96772
G1 X123.272 Y116.299 E13.13665
G1 X123.43 Y115.555 E13.17858
G1 X120.796 Y118.189 E13.38388
G1 X120.488 Y117.911 E13.40674
G1 X123.589 Y114.81 E13.64841
G1 X123.747 Y114.066 E13.69034
G1 X120.18 Y117.634 E13.96838
G1 X119.871 Y117.356 E13.99123
G1 X123.906 Y113.322 E14.30564
G1 X124.065 Y112.577 E14.34758
G1 X119.563 Y117.078 E14.69835
G1 X119.255 Y116.801 E14.7212
G1 X124.223 Y111.833 E15.10834
G1 X124.382 Y111.088 E15.15028
G1 X118.947 Y116.523 E15.57379
G1 X118.639 Y116.245 E15.59665
G1 X124.54 Y110.344 E16.05653
G1 X124.699 Y109.6 E16.09846
G1 X118.331 Y115.968 E16.59471
G1 X118.023 Y115.69 E16.61756
G1 X124.858 Y108.855 E17.15018
G1 X125.016 Y108.111 E17.19212
G1 X117.715 Y115.412 E17.7611
G1 X117.407 Y115.135 E17.78396
G1 X125.175 Y107.367 E18.38931
G1 X125.333 Y106.622 E18.43125
G1 X117.099 Y114.857 E19.07297
G1 X116.791 Y114.579 E19.09582
G1 X125.492 Y105.878 E19.77391
G1 X125.651 Y105.134 E19.81585
G1 X116.483 Y114.302 E20.5303
G1 X116.174 Y114.024 E20.55316
G1 X125.809 Y104.389 E21.30398
G1 X125.968 Y103.645 E21.34592
G1 X115.866 Y113.746 E22.13312
G1 X115.558 Y113.469 E22.15597
G1 X126.126 Y102.9 E22.97953
G1 X126.285 Y102.156 E23.02147
