; generated by SuperSlicer 2.4 on 2023-02-16 at 16:49:31 UTC

; 

; external perimeters extrusion width = 0.43mm
; perimeters extrusion width = 0.48mm
; infill extrusion width = 0.46mm
; solid infill extrusion width = 0.48mm
; top infill extrusion width = 0.46mm
; first layer extrusion width = 0.58mm

; object:{"name":"D8","id":"D8.stl id:0 copy 0","object_center":[116.573261,107.270363,0.000000],"boundingbox_center":[116.573261,107.270363,7.543264],"boundingbox_size":[19.670425,19.670425,15.086528]}
; Total objects to print: 1
M486 T1
; plater:{"center":[116.573261,107.270363,0.000000],"boundingbox_center":[116.573261,107.270363,7.543264],"boundingbox_size":[19.670425,19.670425,15.086528]}

;TYPE:Custom
G90 ; use absolute coordinates
M83 ; extruder relative mode
M140 S60 ; set final bed temp
M104 S150 ; set temporary nozzle temp to prevent oozing during homing and auto bed leveling
G4 S10 ; allow partial nozzle warmup
G28 ; home all axis
;G29 ; auto bed levelling
G1 Z10 F240
G1 X2 Y10 F3000
G1 Z0 F240
M104 S210 ; set final nozzle temp
M190 S60 ; wait for bed temp to stabilize
M109 S210 ; wait for nozzle temp to stabilize
G1 Z0.28 F240
G92 E0
G1 Y100 E7.1 F1500 ; prime the nozzle
G1 X2.3 F5000
G92 E0
G1 Y10 E10 F1200 ; prime the nozzle
G92 E0
;start
M107
G21 ; set units to millimeters
G90 ; use absolute coordinates
M82 ; use absolute distances for extrusion
G92 E0
; Filament gcode
;_TOOLCHANGE 0
M107
;LAYER_CHANGE
;Z:0.2
;HEIGHT:0.2
;BEFORE_LAYER_CHANGE
;0.2


G1 E-6 F3000
G1 Z0.15 F9000
;AFTER_LAYER_CHANGE
;0.2
G92 E0
M204 S500
G1 X105.573 Y96.959
G1 E6 F3000
;TYPE:Skirt
;WIDTH:0.48
G1 F1200
G1 X104.884 Y98.512 E6.06172
G1 X104.972 Y100.208 E6.12345
G1 X110.225 Y118.036 E6.7989
G1 X111.599 Y119.956 E6.88472
G1 X113.172 Y120.596 E6.94644
G1 X114.865 Y120.455 E7.00817
G1 X116.312 Y119.566 E7.06989
G1 X128.868 Y106.996 E7.71561
G1 X129.91 Y104.857 E7.80208
G1 X129.72 Y103.169 E7.86381
G1 X128.787 Y101.75 E7.92553
G1 X127.313 Y100.905 E7.98726
G1 X109.51 Y95.669 E8.66168
G1 X108.547 Y95.522 E8.69709
G1 X106.888 Y95.885 E8.75882
G1 X105.619 Y96.921 E8.81836
G1 X106.02 Y97.122 F9000
G1 F1200
G1 X105.334 Y98.494 E8.87411
G1 X105.391 Y100.085 E8.93197
G1 X110.643 Y117.91 E9.60732
G1 X111.618 Y119.415 E9.67251
G1 X113.042 Y120.127 E9.73037
G1 X114.634 Y120.07 E9.78824
G1 X116.002 Y119.257 E9.8461
G1 X128.559 Y106.687 E10.49181
G1 X129.426 Y105.098 E10.55759
G1 X129.371 Y103.507 E10.61546
G1 X128.559 Y102.137 E10.67332
G1 X127.19 Y101.324 E10.73118
G1 X123 Y100.092 E10.88991
G1 X109.387 Y96.089 E11.4056
G1 X107.353 Y96.161 E11.47956
G1 X106.047 Y97.069 E11.53735
G92 E0
G1 E-4.2 F3000
;WIPE_START
G1 F7200
G1 X105.334 Y98.494 E-4.83083
G1 X105.391 Y100.085 E-5.46104
G1 X105.712 Y101.173 E-5.91
;WIPE_END
G1 E-6 F3000
; printing object D8.stl id:0 copy 0
M486 S0
; acceleration to travel
M204 S1500
G1 X109.265 Y100.48 F9000
; decel to extrusion
M204 S500
G1 X109.699 Y100.396
; end travel
G1 E0 F3000
;TYPE:Internal perimeter
;WIDTH:0.576
G1 F1200
G1 X124.719 Y104.821 E0.69407
G1 X114.124 Y115.416 E1.3582
G1 X109.716 Y100.453 E2.04961
G1 X108.904 Y99.601 F9000
;TYPE:External perimeter
G1 F1200
G1 X125.738 Y104.562 E2.82751
G1 X113.865 Y116.436 E3.57183
G1 X108.921 Y99.659 E4.34707
;WIPE_START
G1 X109.23 Y99.834 F9000
;WIPE_END
G92 E0
G1 E-4.2 F3000
;WIPE_START
G1 F7200
G1 X113.369 Y101.072 E-5.91
;WIPE_END
G1 E-6 F3000
; acceleration to travel
M204 S1500
G1 X122.731 Y104.962 F9000
; decel to extrusion
M204 S500
G1 X123.875 Y105.437
; end travel
G1 E0 F3000
;TYPE:Solid infill
;WIDTH:0.573288
G1 F1200
G1 X123.229 Y104.791 E0.0403
G1 X122.151 Y104.474 E0.08986
G1 X123.331 Y105.654 E0.16348
G1 X122.951 Y106.034 E0.18719
G1 X121.074 Y104.156 E0.30433
G1 X119.997 Y103.839 E0.35388
G1 X122.571 Y106.414 E0.51454
G1 X122.192 Y106.794 E0.53824
G1 X118.919 Y103.521 E0.74241
G1 X117.842 Y103.204 E0.79197
G1 X121.812 Y107.174 E1.03965
G1 X121.432 Y107.554 E1.06336
G1 X116.764 Y102.886 E1.35455
G1 X115.687 Y102.569 E1.40411
G1 X121.052 Y107.934 E1.73882
G1 X120.672 Y108.314 E1.76253
G1 X114.609 Y102.252 E2.14075
G1 X113.532 Y101.934 E2.19031
G1 X120.292 Y108.694 E2.61205
G1 X119.912 Y109.074 E2.63575
G1 X112.455 Y101.617 E3.10101
G1 X111.377 Y101.299 E3.15056
G1 X119.532 Y109.454 E3.65933
G1 X119.152 Y109.834 E3.68304
G1 X110.3 Y100.982 E4.23532
G1 X110.278 Y100.975 E4.2363
G1 X110.59 Y102.032 E4.28488
G1 X118.772 Y110.214 E4.79536
G1 X118.392 Y110.594 E4.81907
G1 X110.907 Y103.109 E5.28604
G1 X111.225 Y104.186 E5.33559
G1 X118.012 Y110.974 E5.75905
G1 X117.632 Y111.354 E5.78276
G1 X111.542 Y105.264 E6.1627
G1 X111.859 Y106.341 E6.21226
G1 X117.252 Y111.734 E6.54869
G1 X116.872 Y112.114 E6.5724
G1 X112.177 Y107.419 E6.86531
G1 X112.494 Y108.496 E6.91487
G1 X116.492 Y112.494 E7.16427
G1 X116.112 Y112.873 E7.18798
G1 X112.812 Y109.573 E7.39387
G1 X113.129 Y110.651 E7.44342
G1 X115.732 Y113.253 E7.6058
G1 X115.352 Y113.633 E7.62951
G1 X113.447 Y111.728 E7.74838
G1 X113.764 Y112.806 E7.79793
G1 X114.972 Y114.013 E7.87328
G1 X114.592 Y114.393 E7.89699
G1 X113.74 Y113.542 E7.95013
M106 S84.15
;LAYER_CHANGE
;Z:0.52
;HEIGHT:0.32
;BEFORE_LAYER_CHANGE
;0.52


G92 E0
G1 E-4.2 F3000
;WIPE_START
G1 F7200
G1 X114.592 Y114.393 E-4.67685
G1 X114.972 Y114.013 E-4.88956
G1 X113.764 Y112.806 E-5.56564
G1 X113.518 Y111.971 E-5.91
;WIPE_END
G1 E-6 F3000
; stop printing object D8.stl id:0 copy 0
M486 S-1
G1 Z0.47 F9000
;AFTER_LAYER_CHANGE
;0.52
; printing object D8.stl id:0 copy 0
M486 S0
G1 X112.75 Y112.197
G1 E0 F3000
;TYPE:Internal perimeter
;WIDTH:0.476
G1 F1800
G1 X109.104 Y99.801 E0.70023
G1 X125.526 Y104.631 E1.62787
G1 X113.934 Y116.223 E2.51627
G1 X112.767 Y112.255 E2.74043
M204 S250
G1 X112.392 Y112.365 F9000
;TYPE:Overhang perimeter
;WIDTH:0.428
G1 F1500
G1 X110.248 Y105.073 E3.10381
G1 X108.579 Y99.4 E3.38645
G1 X108.703 Y99.276 E3.39484
G1 X114.652 Y101.026 E3.69125
G1 X126.07 Y104.384 E4.26024
G1 X126.081 Y104.42 E4.26203
G1 X126.11 Y104.519 E4.26694
G1 X126.128 Y104.581 E4.27003
G1 X113.884 Y116.825 E5.09784
G1 X113.822 Y116.807 E5.10093
G1 X113.723 Y116.778 E5.10584
G1 X113.687 Y116.768 E5.10763
G1 X112.409 Y112.422 E5.32414
G92 E0
G1 E-4.2 F3000
;WIPE_START
G1 F7200
M204 S500
G1 X111.19 Y108.278 E-5.91
;WIPE_END
G1 E-6 F3000
; acceleration to travel
M204 S1500
G1 X113.62 Y114.925 F9000
; decel to extrusion
M204 S500
G1 X113.934 Y115.784
; end travel
G1 E0 F3000
;TYPE:Solid infill
;WIDTH:0.483633
G1 F1800
G1 X124.943 Y104.775 E0.85723
G1 X124.49 Y104.642 E0.88321
G1 X113.944 Y115.188 E1.7044
G1 X113.811 Y114.735 E1.73038
G1 X124.038 Y104.508 E2.52668
G1 X123.585 Y104.375 E2.55266
G1 X113.678 Y114.282 E3.32409
G1 X113.545 Y113.83 E3.35006
G1 X123.133 Y104.242 E4.09661
G1 X122.68 Y104.109 E4.12259
G1 X113.412 Y113.377 E4.84426
G1 X113.279 Y112.924 E4.87024
G1 X122.227 Y103.976 E5.56703
G1 X121.775 Y103.843 E5.59301
G1 X113.146 Y112.472 E6.26492
G1 X113.013 Y112.019 E6.2909
G1 X121.322 Y103.71 E6.93793
G1 X120.869 Y103.577 E6.96391
G1 X112.879 Y111.567 E7.58607
G1 X112.746 Y111.114 E7.61204
G1 X120.417 Y103.443 E8.20932
G1 X119.964 Y103.31 E8.2353
G1 X112.613 Y110.661 E8.8077
G1 X112.48 Y110.209 E8.83367
G1 X119.512 Y103.177 E9.38119
G1 X119.059 Y103.044 E9.40717
G1 X112.347 Y109.756 E9.92981
G1 X112.214 Y109.303 E9.95579
G1 X118.606 Y102.911 E10.45355
G1 X118.154 Y102.778 E10.47953
G1 X112.081 Y108.851 E10.95241
G1 X111.948 Y108.398 E10.97839
G1 X117.701 Y102.645 E11.42639
G1 X117.248 Y102.512 E11.45237
G1 X111.814 Y107.945 E11.87549
G1 X111.681 Y107.493 E11.90147
G1 X116.796 Y102.378 E12.29972
G1 X116.343 Y102.245 E12.32569
G1 X111.548 Y107.04 E12.69906
G1 X111.415 Y106.588 E12.72504
G1 X115.89 Y102.112 E13.07353
G1 X115.438 Y101.979 E13.0995
G1 X111.282 Y106.135 E13.42311
G1 X111.149 Y105.682 E13.44909
G1 X114.985 Y101.846 E13.74782
G1 X114.533 Y101.713 E13.7738
G1 X111.016 Y105.23 E14.04765
G1 X110.883 Y104.777 E14.07363
G1 X114.08 Y101.58 E14.3226
G1 X113.627 Y101.446 E14.34858
G1 X110.749 Y104.324 E14.57267
G1 X110.616 Y103.872 E14.59865
G1 X113.175 Y101.313 E14.79787
G1 X112.722 Y101.18 E14.82385
G1 X110.483 Y103.419 E14.99818
G1 X110.35 Y102.967 E15.02416
G1 X112.269 Y101.047 E15.17362
G1 X111.817 Y100.914 E15.1996
G1 X110.217 Y102.514 E15.32418
G1 X110.084 Y102.061 E15.35015
G1 X111.364 Y100.781 E15.44985
G1 X110.912 Y100.648 E15.47583
G1 X109.951 Y101.609 E15.55065
G1 X109.818 Y101.156 E15.57663
G1 X110.459 Y100.515 E15.62657
G1 X110.006 Y100.381 E15.65255
G1 X109.684 Y100.703 E15.67762
G1 X109.551 Y100.251 E15.70359
G1 X109.697 Y100.105 E15.71495
M106 S170.85
;LAYER_CHANGE
;Z:0.84
;HEIGHT:0.32
;BEFORE_LAYER_CHANGE
;0.84


G92 E0
G1 E-4.2 F3000
;WIPE_START
G1 F7200
G1 X109.551 Y100.251 E-4.28164
G1 X109.684 Y100.703 E-4.46839
G1 X110.006 Y100.381 E-4.64858
G1 X110.459 Y100.515 E-4.83534
G1 X109.818 Y101.156 E-5.19439
G1 X109.951 Y101.609 E-5.38114
G1 X110.895 Y100.664 E-5.91
;WIPE_END
G1 E-6 F3000
; stop printing object D8.stl id:0 copy 0
M486 S-1
G1 Z0.79 F9000
;AFTER_LAYER_CHANGE
;0.84
G92 E0
; printing object D8.stl id:0 copy 0
M486 S0
; acceleration to travel
M204 S1500
G1 X109.178 Y99.769
; decel to extrusion
M204 S500
G1 X108.957 Y99.654
; end travel
G1 E6 F3000
;TYPE:Internal perimeter
;WIDTH:0.476
G1 F1237
G1 X125.761 Y104.596 E6.94924
G1 X113.899 Y116.458 E7.85834
G1 X108.973 Y99.711 E8.80433
G1 X108.939 Y99.242 F9000
;TYPE:External perimeter
;WIDTH:0.428
G1 F1237
G1 X125.923 Y104.237 E9.65067
G1 X126.093 Y104.816 E9.67952
G1 X114.119 Y116.791 E10.48908
G1 X113.54 Y116.62 E10.51792
G1 X108.545 Y99.636 E11.36427
G1 X108.896 Y99.284 E11.38804
;WIPE_START
G1 X109.163 Y99.573 F9000
;WIPE_END
G92 E0
G1 E-4.2 F3000
;WIPE_START
G1 F7200
G1 X113.311 Y100.779 E-5.91
;WIPE_END
G1 E-6 F3000
; acceleration to travel
M204 S1500
G1 X123.761 Y104.58 F9000
; decel to extrusion
M204 S500
G1 X125.111 Y105.071
; end travel
G1 E0 F3000
;TYPE:Solid infill
;WIDTH:0.483899
G1 F1237
G1 X124.614 Y104.574 E0.03874
G1 X123.784 Y104.33 E0.08639
G1 X124.692 Y105.238 E0.15716
G1 X124.399 Y105.531 E0.17997
G1 X122.954 Y104.086 E0.29257
G1 X122.124 Y103.842 E0.34022
G1 X124.106 Y105.824 E0.49465
G1 X123.813 Y106.117 E0.51747
G1 X121.294 Y103.598 E0.71373
G1 X120.464 Y103.353 E0.76138
G1 X123.52 Y106.41 E0.99948
G1 X123.228 Y106.702 E1.0223
G1 X119.635 Y103.109 E1.30222
G1 X118.805 Y102.865 E1.34988
G1 X122.935 Y106.995 E1.67164
G1 X122.642 Y107.288 E1.69446
G1 X117.975 Y102.621 E2.05805
G1 X117.145 Y102.377 E2.1057
G1 X122.349 Y107.581 E2.51113
G1 X122.056 Y107.874 E2.53395
G1 X116.315 Y102.133 E2.98121
G1 X115.485 Y101.889 E3.02886
G1 X121.763 Y108.167 E3.51796
G1 X121.47 Y108.46 E3.54077
G1 X114.656 Y101.645 E4.0717
G1 X113.826 Y101.401 E4.11935
G1 X121.177 Y108.753 E4.69211
G1 X120.885 Y109.045 E4.71493
G1 X112.996 Y101.157 E5.32953
G1 X112.166 Y100.913 E5.37718
G1 X120.592 Y109.338 E6.03361
G1 X120.299 Y109.631 E6.05642
G1 X111.336 Y100.669 E6.75468
G1 X110.507 Y100.425 E6.80234
G1 X120.006 Y109.924 E7.54243
G1 X119.713 Y110.217 E7.56525
G1 X109.677 Y100.181 E8.34717
G1 X109.403 Y100.1 E8.36289
G1 X109.567 Y100.656 E8.39483
G1 X119.42 Y110.51 E9.16252
G1 X119.127 Y110.803 E9.18533
G1 X109.811 Y101.486 E9.91119
G1 X110.055 Y102.316 E9.95884
G1 X118.834 Y111.096 E10.64287
G1 X118.542 Y111.388 E10.66569
G1 X110.299 Y103.146 E11.30788
G1 X110.543 Y103.976 E11.35553
G1 X118.249 Y111.681 E11.95589
G1 X117.956 Y111.974 E11.97871
G1 X110.787 Y104.805 E12.53723
G1 X111.031 Y105.635 E12.58488
G1 X117.663 Y112.267 E13.10157
G1 X117.37 Y112.56 E13.12439
G1 X111.275 Y106.465 E13.59925
G1 X111.519 Y107.295 E13.6469
G1 X117.077 Y112.853 E14.07993
G1 X116.784 Y113.146 E14.10274
G1 X111.763 Y108.125 E14.49394
G1 X112.007 Y108.954 E14.54159
G1 X116.491 Y113.439 E14.89095
G1 X116.198 Y113.731 E14.91376
G1 X112.251 Y109.784 E15.22129
G1 X112.495 Y110.614 E15.26894
G1 X115.906 Y114.024 E15.53463
G1 X115.613 Y114.317 E15.55745
G1 X112.739 Y111.444 E15.78131
G1 X112.983 Y112.274 E15.82896
G1 X115.32 Y114.61 E16.01099
G1 X115.027 Y114.903 E16.03381
G1 X113.228 Y113.104 E16.174
G1 X113.472 Y113.933 E16.22165
G1 X114.734 Y115.196 E16.32001
G1 X114.441 Y115.489 E16.34283
G1 X113.716 Y114.763 E16.39936
G1 X113.96 Y115.593 E16.44701
G1 X114.274 Y115.908 E16.47151
M106 S255
;LAYER_CHANGE
;Z:1.16
;HEIGHT:0.32
;BEFORE_LAYER_CHANGE
;1.16


G92 E0
G1 E-4.2 F3000
;WIPE_START
G1 F7200
G1 X113.96 Y115.593 E-4.37607
G1 X113.716 Y114.763 E-4.71846
G1 X114.441 Y115.489 E-5.12461
G1 X114.734 Y115.196 E-5.28856
G1 X113.624 Y114.086 E-5.91
;WIPE_END
G1 E-6 F3000
; stop printing object D8.stl id:0 copy 0
M486 S-1
G1 Z1.11 F9000
;AFTER_LAYER_CHANGE
;1.16
G92 E0
; printing object D8.stl id:0 copy 0
M486 S0
; acceleration to travel
M204 S1500
G1 X114.171 Y116.061
; decel to extrusion
M204 S500
G1 X114.242 Y116.316
; end travel
G1 E6 F3000
;TYPE:Internal perimeter
;WIDTH:0.476
G1 F1270
G1 X113.707 Y116.159 E6.03022
G1 X108.949 Y99.983 E6.94393
G1 X109.286 Y99.647 E6.96971
G1 X125.462 Y104.404 E7.88342
G1 X125.619 Y104.939 E7.91364
G1 X114.284 Y116.274 E8.78229
G1 X113.393 Y116.473 F9000
;TYPE:External perimeter
;WIDTH:0.428
G1 F1270
G1 X108.51 Y99.871 E9.60958
G1 X109.174 Y99.207 E9.65447
G1 X125.776 Y104.09 E10.48175
G1 X126.059 Y105.051 E10.52966
G1 X114.354 Y116.756 E11.32097
G1 X113.45 Y116.49 E11.366
;WIPE_START
G1 X113.559 Y116.109 F9000
;WIPE_END
G1 X113.865 Y116.254
;TYPE:Solid infill
;WIDTH:0.483321
G1 F1270
G1 X125.414 Y104.705 E12.2647
G1 X124.961 Y104.572 E12.29066
G1 X113.875 Y115.658 E13.15333
G1 X113.742 Y115.205 E13.17929
G1 X124.508 Y104.439 E14.0171
G1 X124.056 Y104.306 E14.04306
G1 X113.609 Y114.753 E14.85601
G1 X113.476 Y114.3 E14.88197
G1 X123.603 Y104.173 E15.67005
G1 X123.15 Y104.039 E15.69601
G1 X113.342 Y113.847 E16.45924
G1 X113.209 Y113.395 E16.4852
G1 X122.698 Y103.906 E17.22356
G1 X122.245 Y103.773 E17.24952
G1 X113.076 Y112.942 E17.96301
G1 X112.943 Y112.49 E17.98897
G1 X121.792 Y103.64 E18.67761
G1 X121.34 Y103.507 E18.70357
G1 X112.81 Y112.037 E19.36734
G1 X112.677 Y111.584 E19.3933
G1 X120.887 Y103.374 E20.03221
G1 X120.435 Y103.241 E20.05817
G1 X112.544 Y111.132 E20.67221
G1 X112.411 Y110.679 E20.69817
G1 X119.982 Y103.108 E21.28735
G1 X119.529 Y102.974 E21.31331
G1 X112.277 Y110.226 E21.87763
G1 X112.144 Y109.774 E21.90359
G1 X119.077 Y102.841 E22.44305
G1 X118.624 Y102.708 E22.46901
G1 X112.011 Y109.321 E22.98361
G1 X111.878 Y108.869 E23.00957
G1 X118.171 Y102.575 E23.4993
G1 X117.719 Y102.442 E23.52526
G1 X111.745 Y108.416 E23.99013
G1 X111.612 Y107.963 E24.01609
G1 X117.266 Y102.309 E24.45609
G1 X116.814 Y102.176 E24.48205
G1 X111.479 Y107.511 E24.8972
G1 X111.345 Y107.058 E24.92316
G1 X116.361 Y102.043 E25.31344
G1 X115.908 Y101.909 E25.3394
G1 X111.212 Y106.605 E25.70482
G1 X111.079 Y106.153 E25.73078
G1 X115.456 Y101.776 E26.07133
G1 X115.003 Y101.643 E26.09729
G1 X110.946 Y105.7 E26.41298
G1 X110.813 Y105.247 E26.43894
G1 X114.55 Y101.51 E26.72977
G1 X114.098 Y101.377 E26.75573
G1 X110.68 Y104.795 E27.0217
G1 X110.547 Y104.342 E27.04766
G1 X113.645 Y101.244 E27.28877
G1 X113.192 Y101.111 E27.31473
G1 X110.414 Y103.89 E27.53097
G1 X110.28 Y103.437 E27.55693
G1 X112.74 Y100.978 E27.74831
G1 X112.287 Y100.844 E27.77427
G1 X110.147 Y102.984 E27.94078
G1 X110.014 Y102.532 E27.96674
G1 X111.835 Y100.711 E28.1084
G1 X111.382 Y100.578 E28.13436
G1 X109.881 Y102.079 E28.25115
G1 X109.748 Y101.626 E28.27711
G1 X110.929 Y100.445 E28.36904
G1 X110.477 Y100.312 E28.395
G1 X109.615 Y101.174 E28.46206
G1 X109.482 Y100.721 E28.48802
G1 X110.024 Y100.179 E28.53022
G1 X109.571 Y100.046 E28.55618
G1 X109.205 Y100.412 E28.58469
;LAYER_CHANGE
;Z:1.48
;HEIGHT:0.32
;BEFORE_LAYER_CHANGE
;1.48


G92 E0
G1 E-4.2 F3000
;WIPE_START
G1 F7200
G1 X109.571 Y100.046 E-4.40504
G1 X110.024 Y100.179 E-4.59179
G1 X109.482 Y100.721 E-4.89538
G1 X109.615 Y101.174 E-5.08214
G1 X110.477 Y100.312 E-5.56459
G1 X110.929 Y100.445 E-5.75134
G1 X110.646 Y100.728 E-5.91
;WIPE_END
G1 E-6 F3000
; stop printing object D8.stl id:0 copy 0
M486 S-1
G1 Z1.43 F9000
;AFTER_LAYER_CHANGE
;1.48
; printing object D8.stl id:0 copy 0
M486 S0
G1 X109.521 Y99.612
G1 E0 F3000
;TYPE:Internal perimeter
