; generated by SuperSlicer 2.4 on 2023-02-16 at 16:43:11 UTC

; 

; external perimeters extrusion width = 0.43mm
; perimeters extrusion width = 0.48mm
; infill extrusion width = 0.46mm
; solid infill extrusion width = 0.48mm
; top infill extrusion width = 0.46mm
; first layer extrusion width = 0.58mm

; object:{"name":"Lampenhalterung v2","id":"Lampenhalterung v2.stl id:0 copy 0","object_center":[115.474034,115.600342,0.000000],"boundingbox_center":[115.474034,115.600342,15.000000],"boundingbox_size":[30.999236,39.149514,30.000000]}
; Total objects to print: 1
M486 T1
; plater:{"center":[115.474034,115.600342,0.000000],"boundingbox_center":[115.474034,115.600342,15.000000],"boundingbox_size":[30.999236,39.149514,30.000000]}

;TYPE:Custom
G90 ; use absolute coordinates
M83 ; extruder relative mode
M140 S60 ; set final bed temp
M104 S150 ; set temporary nozzle temp to prevent oozing during homing and auto bed leveling
G4 S10 ; allow partial nozzle warmup
G28 ; home all axis
;G29 ; auto bed levelling
G1 Z10 F240
G1 X2 Y10 F3000
G1 Z0 F240
M104 S210 ; set final nozzle temp
M190 S60 ; wait for bed temp to stabilize
M109 S210 ; wait for nozzle temp to stabilize
G1 Z0.28 F240
G92 E0
G1 Y100 E7.1 F1500 ; prime the nozzle
G1 X2.3 F5000
G92 E0
G1 Y10 E10 F1200 ; prime the nozzle
G92 E0
;start
M107
G21 ; set units to millimeters
G90 ; use absolute coordinates
M82 ; use absolute distances for extrusion
G92 E0
; Filament gcode
;_TOOLCHANGE 0
M107
;LAYER_CHANGE
;Z:0.2
;HEIGHT:0.2
;BEFORE_LAYER_CHANGE
;0.2


G1 E-6 F3000
G1 Z0.15 F9000
;AFTER_LAYER_CHANGE
;0.2
G92 E0
M204 S500
G1 X101.344 Y98.94
G1 E6 F3000
;TYPE:Skirt
;WIDTH:0.48
G1 F1200
G1 X100.22 Y100.244 E6.06256
G1 X99.453 Y101.434 E6.11403
G1 X98.777 Y102.683 E6.16563
G1 X98.198 Y103.98 E6.21724
G1 X97.719 Y105.317 E6.26884
G1 X97.114 Y107.839 E6.36311
G1 X96.926 Y109.306 E6.41688
G1 X96.858 Y110.91 E6.47521
G1 X97.05 Y113.602 E6.57329
G1 X100.15 Y135.524 E7.37797
G1 X100.65 Y136.846 E7.42934
G1 X101.829 Y137.917 E7.4872
G1 X103.376 Y138.292 E7.54506
G1 X128.174 Y137.991 E8.44638
G1 X129.542 Y137.667 E8.49744
G1 X130.757 Y136.639 E8.55531
G1 X131.331 Y135.154 E8.61317
G1 X134.065 Y111.889 E9.46451
G1 X134.051 Y109.676 E9.54495
G1 X133.793 Y107.602 E9.62089
G1 X133.437 Y106.02 E9.67982
G1 X132.82 Y104.155 E9.75122
G1 X132.248 Y102.84 E9.80336
G1 X131.576 Y101.572 E9.8555
G1 X130.357 Y99.73 E9.93576
G1 X129.064 Y98.351 E10.00449
G1 X127.972 Y97.381 E10.05755
G1 X126.811 Y96.496 E10.11061
G1 X125.588 Y95.699 E10.16366
G1 X124.309 Y94.996 E10.21672
G1 X122.981 Y94.389 E10.26978
G1 X121.612 Y93.883 E10.32283
G1 X119.015 Y93.225 E10.42019
G1 X117.57 Y93.017 E10.47325
G1 X116.113 Y92.917 E10.5263
G1 X114.401 Y92.938 E10.58853
G1 X112.937 Y93.075 E10.64199
G1 X111.487 Y93.322 E10.69545
G1 X110.059 Y93.676 E10.74891
G1 X108.662 Y94.137 E10.80237
G1 X107.303 Y94.7 E10.85583
G1 X105.991 Y95.364 E10.90929
G1 X104.731 Y96.125 E10.96276
G1 X103.533 Y96.978 E11.01622
G1 X102.401 Y97.918 E11.06968
G1 X101.387 Y98.898 E11.12096
G92 E0
G1 E-4.2 F3000
;WIPE_START
G1 F7200
G1 X100.22 Y100.244 E-4.90506
G1 X99.453 Y101.434 E-5.46557
G1 X98.918 Y102.422 E-5.91
;WIPE_END
G1 E-6 F3000
; printing object Lampenhalterung v2.stl id:0 copy 0
M486 S0
; acceleration to travel
M204 S1500
G1 X107.107 Y104.418 F9000
; decel to extrusion
M204 S500
G1 X108.107 Y104.661
; end travel
G1 E0 F3000
;TYPE:Internal perimeter
;WIDTH:0.576
G1 F1200
G1 X107.814 Y105.003 E0.01994
G1 X107.247 Y105.822 E0.06411
G1 X106.767 Y106.695 E0.10827
G1 X106.383 Y107.602 E0.1519
G1 X106.218 Y108.097 E0.17504
G1 X105.979 Y109.052 E0.21867
G1 X105.837 Y110.038 E0.26283
G1 X105.798 Y111.033 E0.30699
G1 X105.862 Y112.028 E0.35116
G1 X106.027 Y113.01 E0.39531
G1 X106.292 Y113.97 E0.43948
G1 X106.655 Y114.898 E0.48364
G1 X107.111 Y115.784 E0.5278
G1 X107.656 Y116.618 E0.57196
G1 X108.284 Y117.392 E0.61612
G1 X108.988 Y118.097 E0.66028
G1 X109.761 Y118.725 E0.70444
G1 X110.594 Y119.271 E0.7486
G1 X111.468 Y119.723 E0.79223
G1 X111.949 Y119.927 E0.81538
G1 X112.883 Y120.239 E0.85901
G1 X113.855 Y120.456 E0.90317
G1 X114.845 Y120.572 E0.94733
G1 X115.841 Y120.585 E0.99149
G1 X116.833 Y120.496 E1.03565
G1 X117.811 Y120.306 E1.07981
G1 X118.764 Y120.016 E1.12397
G1 X119.682 Y119.629 E1.16813
G1 X120.556 Y119.15 E1.21229
G1 X121.366 Y118.591 E1.25593
G1 X121.771 Y118.262 E1.27907
G1 X122.486 Y117.585 E1.3227
G1 X123.134 Y116.828 E1.36686
G1 X123.701 Y116.009 E1.41102
G1 X124.182 Y115.136 E1.45518
G1 X124.565 Y114.23 E1.49881
G1 X124.73 Y113.735 E1.52196
G1 X124.969 Y112.78 E1.56559
G1 X125.111 Y111.794 E1.60975
G1 X125.149 Y110.81 E1.65338
G1 X125.13 Y110.288 E1.67653
G1 X125.017 Y109.31 E1.72016
G1 X124.801 Y108.338 E1.76432
G1 X124.486 Y107.392 E1.80848
G1 X124.076 Y106.484 E1.85264
G1 X123.575 Y105.623 E1.8968
G1 X122.988 Y104.818 E1.94096
G1 X122.321 Y104.078 E1.98512
G1 X121.582 Y103.41 E2.02928
G1 X120.778 Y102.822 E2.07344
G1 X119.918 Y102.32 E2.1176
G1 X119.01 Y101.908 E2.16176
G1 X118.065 Y101.592 E2.20592
G1 X117.093 Y101.375 E2.25009
G1 X116.104 Y101.26 E2.29425
G1 X115.107 Y101.246 E2.33841
G1 X114.611 Y101.29 E2.36049
G1 X114.127 Y101.334 E2.38204
G1 X113.612 Y101.421 E2.40518
G1 X112.657 Y101.658 E2.44881
G1 X111.72 Y101.997 E2.49297
G1 X110.823 Y102.43 E2.53714
G1 X109.975 Y102.953 E2.5813
G1 X109.185 Y103.561 E2.62546
G1 X108.463 Y104.247 E2.66962
G1 X108.146 Y104.616 E2.69117
G1 X108.515 Y105.011 F9000
;TYPE:External perimeter
G1 F1200
G1 X108.24 Y105.332 E2.70989
G1 X107.704 Y106.105 E2.7516
G1 X107.251 Y106.93 E2.7933
G1 X106.886 Y107.792 E2.83478
G1 X106.734 Y108.247 E2.85609
G1 X106.507 Y109.155 E2.89757
G1 X106.373 Y110.087 E2.93927
G1 X106.336 Y111.027 E2.98098
G1 X106.396 Y111.966 E3.02269
G1 X106.552 Y112.894 E3.06439
G1 X106.803 Y113.8 E3.1061
G1 X107.145 Y114.677 E3.1478
G1 X107.576 Y115.513 E3.18951
G1 X108.091 Y116.301 E3.23121
G1 X108.684 Y117.031 E3.27292
G1 X109.348 Y117.697 E3.31462
G1 X110.078 Y118.291 E3.35633
G1 X110.865 Y118.807 E3.39803
G1 X111.697 Y119.237 E3.43951
G1 X112.139 Y119.424 E3.46082
G1 X113.027 Y119.72 E3.5023
G1 X113.945 Y119.925 E3.54401
G1 X114.88 Y120.035 E3.58571
G1 X115.82 Y120.048 E3.62742
G1 X116.757 Y119.964 E3.66912
G1 X117.681 Y119.784 E3.71083
G1 X118.581 Y119.51 E3.75253
G1 X119.448 Y119.145 E3.79424
G1 X120.273 Y118.692 E3.83594
G1 X121.043 Y118.161 E3.87742
G1 X121.417 Y117.858 E3.89873
G1 X122.096 Y117.214 E3.94021
G1 X122.708 Y116.5 E3.98192
G1 X123.244 Y115.726 E4.02362
G1 X123.697 Y114.902 E4.06533
G1 X124.062 Y114.04 E4.10681
G1 X124.214 Y113.584 E4.12811
G1 X124.441 Y112.676 E4.16959
G1 X124.575 Y111.745 E4.2113
G1 X124.612 Y110.81 E4.25278
G1 X124.593 Y110.329 E4.27409
G1 X124.486 Y109.4 E4.31557
G1 X124.282 Y108.481 E4.35727
G1 X123.985 Y107.588 E4.39898
G1 X123.598 Y106.731 E4.44068
G1 X123.125 Y105.918 E4.48239
G1 X122.57 Y105.158 E4.52409
G1 X121.941 Y104.458 E4.5658
G1 X121.242 Y103.828 E4.6075
G1 X120.483 Y103.272 E4.64921
G1 X119.671 Y102.798 E4.69091
G1 X118.814 Y102.409 E4.73262
G1 X117.921 Y102.111 E4.77432
G1 X117.003 Y101.906 E4.81603
G1 X116.069 Y101.796 E4.85774
G1 X115.128 Y101.784 E4.89944
G1 X114.659 Y101.826 E4.92029
G1 X114.196 Y101.867 E4.94092
G1 X113.722 Y101.947 E4.96223
G1 X112.814 Y102.173 E5.00371
G1 X111.929 Y102.493 E5.04541
G1 X111.081 Y102.902 E5.08712
G1 X110.281 Y103.396 E5.12882
G1 X109.535 Y103.97 E5.17053
G1 X108.852 Y104.617 E5.21223
G1 X108.554 Y104.966 E5.23256
;WIPE_START
G1 X108.122 Y104.937 F9000
;WIPE_END
G92 E0
G1 E-4.2 F3000
;WIPE_START
G1 F7200
G1 X107.534 Y106 E-4.68055
G1 X107.07 Y106.842 E-5.06113
G1 X106.699 Y107.721 E-5.43872
G1 X106.542 Y108.191 E-5.63507
G1 X106.373 Y108.865 E-5.91
;WIPE_END
G1 E-6 F3000
; acceleration to travel
M204 S1500
G1 X125.021 Y131.225 F9000
; decel to extrusion
M204 S500
G1 X127.3 Y133.957
; end travel
G1 E0 F3000
;TYPE:Internal perimeter
G1 F1200
G1 X104.152 Y134.239 E1.02611
G1 X103.978 Y119.898 E1.66179
G1 X103.162 Y118.715 E1.72551
G1 X102.883 Y118.255 E1.74937
G1 X102.356 Y117.266 E1.79903
G1 X101.91 Y116.247 E1.84831
G1 X101.543 Y115.198 E1.89758
G1 X101.258 Y114.124 E1.94685
G1 X101.054 Y113.031 E1.99612
G1 X100.935 Y111.926 E2.0454
G1 X100.9 Y110.815 E2.09467
G1 X100.951 Y109.696 E2.14433
G1 X101.007 Y109.151 E2.16858
G1 X101.083 Y108.61 E2.19283
G1 X101.303 Y107.511 E2.2425
G1 X101.604 Y106.441 E2.29177
G1 X101.985 Y105.397 E2.34104
G1 X102.445 Y104.385 E2.39031
G1 X102.981 Y103.411 E2.43958
G1 X103.569 Y102.511 E2.48725
G1 X104.327 Y101.671 E2.53738
G1 X105.171 Y100.864 E2.58914
G1 X106.074 Y100.123 E2.64091
G1 X107.03 Y99.452 E2.69268
G1 X108.033 Y98.855 E2.74444
G1 X109.079 Y98.334 E2.79621
G1 X110.16 Y97.893 E2.84797
G1 X111.271 Y97.534 E2.89974
G1 X112.407 Y97.26 E2.95151
G1 X113.559 Y97.071 E3.00327
G1 X114.723 Y96.97 E3.05504
G1 X115.892 Y96.955 E3.1069
G1 X116.267 Y96.979 E3.12351
G1 X117.049 Y97.027 E3.15827
G1 X118.197 Y97.185 E3.20964
G1 X119.331 Y97.428 E3.26102
G1 X120.443 Y97.755 E3.31239
G1 X121.527 Y98.163 E3.36377
G1 X122.579 Y98.651 E3.41514
G1 X123.591 Y99.216 E3.46652
G1 X124.558 Y99.854 E3.51789
G1 X125.476 Y100.563 E3.56927
G1 X126.337 Y101.338 E3.62064
G1 X127.12 Y102.154 E3.67076
G1 X127.419 Y102.565 E3.69328
G1 X128.03 Y103.517 E3.74346
G1 X128.563 Y104.506 E3.79324
G1 X129.018 Y105.533 E3.84302
G1 X129.395 Y106.6 E3.8932
G1 X129.546 Y107.123 E3.9173
G1 X129.798 Y108.226 E3.96748
G1 X129.964 Y109.346 E4.01766
G1 X130.013 Y109.897 E4.04216
G1 X130.041 Y110.449 E4.06666
G1 X130.033 Y111.581 E4.11684
G1 X129.938 Y112.709 E4.16702
G1 X129.859 Y113.256 E4.19152
G1 X129.76 Y113.8 E4.21602
G1 X129.491 Y114.908 E4.2666
G1 X129.332 Y115.429 E4.2907
G1 X128.936 Y116.499 E4.34128
G1 X128.719 Y116.997 E4.36538
G1 X128.202 Y118.015 E4.41596
G1 X127.929 Y118.485 E4.44006
G1 X127.126 Y119.696 E4.50445
G1 X127.299 Y133.897 E5.134
G1 X127.844 Y134.488 F9000
;TYPE:External perimeter
G1 F1200
G1 X103.621 Y134.782 E6.20774
G1 X103.443 Y120.069 E6.85999
G1 X102.711 Y119.007 E6.91714
G1 X102.415 Y118.521 E6.94236
G1 X101.872 Y117.5 E6.99362
G1 X101.41 Y116.444 E7.04471
G1 X101.029 Y115.356 E7.0958
G1 X100.733 Y114.242 E7.14689
G1 X100.522 Y113.109 E7.19798
G1 X100.399 Y111.963 E7.24907
G1 X100.363 Y110.811 E7.30016
G1 X100.415 Y109.656 E7.35141
G1 X100.473 Y109.086 E7.3768
G1 X100.553 Y108.519 E7.40219
G1 X100.78 Y107.385 E7.45344
G1 X101.092 Y106.276 E7.50453
G1 X101.488 Y105.193 E7.55562
G1 X101.965 Y104.144 E7.60671
G1 X102.52 Y103.134 E7.6578
G1 X103.142 Y102.182 E7.70822
G1 X103.941 Y101.296 E7.76108
G1 X104.815 Y100.462 E7.81464
G1 X105.749 Y99.695 E7.86819
G1 X106.738 Y99.001 E7.92174
G1 X107.776 Y98.383 E7.9753
G1 X108.857 Y97.844 E8.02885
G1 X109.976 Y97.388 E8.0824
G1 X111.126 Y97.017 E8.13596
G1 X112.3 Y96.733 E8.18951
G1 X113.492 Y96.538 E8.24307
G1 X114.696 Y96.433 E8.29662
G1 X115.906 Y96.418 E8.35026
G1 X116.3 Y96.442 E8.36776
G1 X117.103 Y96.492 E8.4034
G1 X118.29 Y96.656 E8.45655
G1 X119.463 Y96.907 E8.5097
G1 X120.613 Y97.245 E8.56285
G1 X121.736 Y97.667 E8.616
G1 X122.823 Y98.172 E8.66915
G1 X123.87 Y98.756 E8.7223
G1 X124.871 Y99.417 E8.77544
G1 X125.82 Y100.15 E8.82859
G1 X126.712 Y100.951 E8.88174
G1 X127.533 Y101.808 E8.93436
G1 X127.862 Y102.261 E8.95918
G1 X128.494 Y103.244 E9.01097
G1 X129.046 Y104.27 E9.06258
G1 X129.517 Y105.334 E9.1142
G1 X129.907 Y106.436 E9.16599
G1 X130.067 Y106.988 E9.19147
G1 X130.326 Y108.127 E9.24326
G1 X130.497 Y109.283 E9.29504
G1 X130.549 Y109.859 E9.32069
G1 X130.578 Y110.437 E9.34634
G1 X130.57 Y111.605 E9.39813
G1 X130.472 Y112.77 E9.44991
G1 X130.39 Y113.342 E9.47556
G1 X130.286 Y113.912 E9.50121
G1 X130.009 Y115.05 E9.55316
G1 X129.841 Y115.6 E9.57865
G1 X129.435 Y116.7 E9.6306
G1 X129.205 Y117.227 E9.65608
G1 X128.675 Y118.272 E9.70803
G1 X128.385 Y118.768 E9.73351
G1 X127.666 Y119.854 E9.79126
G1 X127.843 Y134.428 E10.43729
;WIPE_START
G1 X127.495 Y134.292 F9000
;WIPE_END
G92 E0
G1 E-4.2 F3000
;WIPE_START
G1 F7200
G1 X123.175 Y134.345 E-5.91
;WIPE_END
G1 E-6 F3000
; acceleration to travel
M204 S1500
G1 X124.195 Y103.641 F9000
; decel to extrusion
M204 S500
G1 X124.319 Y99.89
; end travel
G1 E0 F3000
;TYPE:Solid infill
;WIDTH:0.571408
G1 F1200
G1 X126.411 Y101.981 E0.13007
G1 X126.818 Y102.406 E0.15596
G1 X127.095 Y102.786 E0.17662
G1 X127.692 Y103.716 E0.22524
G1 X128.049 Y104.379 E0.25834
G1 X123.011 Y99.342 E0.57162
G1 X122.4 Y99.001 E0.60238
G1 X121.486 Y98.577 E0.64669
G1 X128.688 Y105.778 E1.09455
G1 X129.019 Y106.713 E1.13814
G1 X129.07 Y106.92 E1.14751
G1 X120.26 Y98.11 E1.69538
G1 X119.234 Y97.809 E1.74238
G1 X119.189 Y97.799 E1.74441
G1 X129.32 Y107.93 E2.37444
G1 X129.412 Y108.299 E2.39113
G1 X129.483 Y108.853 E2.4157
G1 X118.222 Y97.592 E3.11599
G1 X118.129 Y97.572 E3.12014
G1 X117.332 Y97.462 E3.15552
G1 X129.595 Y109.725 E3.91811
G1 X129.621 Y109.924 E3.92693
G1 X129.628 Y110.518 E3.95303
G1 X116.496 Y97.386 E4.76966
G1 X116.253 Y97.371 E4.78036
G1 X115.718 Y97.368 E4.8039
G1 X120.634 Y102.284 E5.1096
G1 X120.993 Y102.494 E5.12791
G1 X121.83 Y103.106 E5.1735
G1 X122.599 Y103.801 E5.21909
G1 X123.293 Y104.571 E5.26467
G1 X123.904 Y105.409 E5.31026
G1 X124.107 Y105.756 E5.32796
G1 X129.637 Y111.287 E5.67188
G1 X129.64 Y111.563 E5.68402
G1 X129.595 Y112.004 E5.70354
G1 X124.859 Y107.268 E5.99805
G1 X125.18 Y108.233 E6.04275
G1 X125.213 Y108.382 E6.04948
G1 X129.523 Y112.693 E6.31754
G1 X129.472 Y113.193 E6.33964
G1 X129.434 Y113.363 E6.34731
G1 X125.415 Y109.345 E6.59718
G1 X125.515 Y110.205 E6.63522
G1 X129.295 Y113.985 E6.87029
G1 X129.156 Y114.606 E6.89828
G1 X125.535 Y110.985 E7.12347
G1 X125.506 Y111.716 E7.15565
G1 X128.978 Y115.188 E7.37154
G1 X128.782 Y115.751 E7.39778
G1 X125.421 Y112.391 E7.60674
G1 X125.355 Y112.855 E7.62737
G1 X125.309 Y113.039 E7.63567
G1 X128.585 Y116.315 E7.83941
G1 X128.574 Y116.348 E7.84097
G1 X128.34 Y116.83 E7.8645
G1 X125.157 Y113.646 E8.06248
G1 X125.107 Y113.845 E8.07146
G1 X124.979 Y114.228 E8.08926
G1 X128.092 Y117.342 E8.28288
G1 X127.86 Y117.823 E8.30637
G1 X127.842 Y117.851 E8.30784
G1 X124.762 Y114.771 E8.49936
G1 X124.536 Y115.305 E8.52486
G1 X127.545 Y118.314 E8.71197
G1 X127.248 Y118.778 E8.73617
G1 X124.267 Y115.796 E8.92159
G1 X124.035 Y116.216 E8.94268
G1 X123.991 Y116.28 E8.94611
G1 X126.952 Y119.241 E9.13022
G1 X126.733 Y119.583 E9.14807
G1 X126.735 Y119.784 E9.15694
G1 X123.68 Y116.729 E9.34693
G1 X123.445 Y117.068 E9.36507
G1 X123.359 Y117.168 E9.37087
G1 X126.744 Y120.554 E9.58138
G1 X126.754 Y121.323 E9.61521
G1 X123.008 Y117.578 E9.84813
G1 X122.77 Y117.855 E9.86422
G1 X122.645 Y117.974 E9.87181
G1 X126.763 Y122.092 E10.12791
G1 X126.773 Y122.862 E10.16174
G1 X122.255 Y118.344 E10.44268
G1 X122.03 Y118.557 E10.45629
G1 X121.852 Y118.701 E10.46637
G1 X126.782 Y123.631 E10.77292
G1 X126.791 Y124.4 E10.80675
G1 X121.421 Y119.03 E11.14072
G1 X120.971 Y119.34 E11.16474
G1 X126.801 Y125.17 E11.52724
G1 X126.81 Y125.939 E11.56107
G1 X120.5 Y119.629 E11.95349
G1 X120.009 Y119.898 E11.9781
G1 X126.819 Y126.708 E12.40163
G1 X126.829 Y127.477 E12.43546
G1 X119.488 Y120.137 E12.89195
G1 X118.953 Y120.362 E12.91747
G1 X126.838 Y128.247 E13.40781
G1 X126.847 Y129.016 E13.44164
G1 X118.375 Y120.544 E13.96848
G1 X117.906 Y120.687 E13.99006
G1 X117.782 Y120.711 E13.9956
G1 X126.857 Y129.785 E14.5599
G1 X126.866 Y130.555 E14.59373
G1 X117.146 Y120.835 E15.19817
G1 X116.888 Y120.885 E15.20973
G1 X116.474 Y120.922 E15.22803
G1 X126.875 Y131.324 E15.87487
G1 X126.885 Y132.093 E15.9087
G1 X115.768 Y120.977 E16.60001
G1 X114.998 Y120.966 E16.63389
G1 X126.894 Y132.863 E17.37369
G1 X126.903 Y133.57 E17.40478
G1 X126.842 Y133.57 E17.40745
G1 X114.158 Y120.886 E18.19624
G1 X113.789 Y120.843 E18.21255
G1 X113.23 Y120.718 E18.23776
G1 X126.091 Y133.58 E19.03756
G1 X125.34 Y133.589 E19.07058
G1 X111.783 Y120.032 E19.91365
G92 E0
G1 E-4.2 F3000
;WIPE_START
G1 F7200
G1 X114.838 Y123.086 E-5.91
;WIPE_END
G1 E-6 F3000
; acceleration to travel
M204 S1500
G1 X119.063 Y104.286 F9000
; decel to extrusion
M204 S500
G1 X119.58 Y101.989
; end travel
G1 E0 F3000
G1 F1200
G1 X114.953 Y97.363 E0.28768
G1 X114.739 Y97.362 E0.29713
G1 X114.236 Y97.406 E0.31931
