; generated by SuperSlicer 2.4 on 2023-02-16 at 16:37:58 UTC

; 

; external perimeters extrusion width = 0.43mm
; perimeters extrusion width = 0.48mm
; infill extrusion width = 0.46mm
; solid infill extrusion width = 0.48mm
; top infill extrusion width = 0.46mm
; first layer extrusion width = 0.58mm

; object:{"name":"PART_9A","id":"PART_9A.stl id:0 copy 0","object_center":[114.864414,110.651947,0.000000],"boundingbox_center":[114.864414,110.651947,7.620000],"boundingbox_size":[22.860000,10.160000,15.240000]}
; Total objects to print: 1
M486 T1
; plater:{"center":[114.864414,110.651947,0.000000],"boundingbox_center":[114.864414,110.651947,7.620000],"boundingbox_size":[22.860000,10.160000,15.240000]}

;TYPE:Custom
G90 ; use absolute coordinates
M83 ; extruder relative mode
M140 S60 ; set final bed temp
M104 S150 ; set temporary nozzle temp to prevent oozing during homing and auto bed leveling
G4 S10 ; allow partial nozzle warmup
G28 ; home all axis
;G29 ; auto bed levelling
G1 Z10 F240
G1 X2 Y10 F3000
G1 Z0 F240
M104 S210 ; set final nozzle temp
M190 S60 ; wait for bed temp to stabilize
M109 S210 ; wait for nozzle temp to stabilize
G1 Z0.28 F240
G92 E0
G1 Y100 E7.1 F1500 ; prime the nozzle
G1 X2.3 F5000
G92 E0
G1 Y10 E10 F1200 ; prime the nozzle
G92 E0
;start
M107
G21 ; set units to millimeters
G90 ; use absolute coordinates
M82 ; use absolute distances for extrusion
G92 E0
; Filament gcode
;_TOOLCHANGE 0
M107
;LAYER_CHANGE
;Z:0.2
;HEIGHT:0.2
;BEFORE_LAYER_CHANGE
;0.2


G1 E-6 F3000
G1 Z0.15 F9000
;AFTER_LAYER_CHANGE
;0.2
G92 E0
M204 S500
G1 X101.372 Y102.725
G1 E6 F3000
;TYPE:Skirt
;WIDTH:0.48
G1 F1200
G1 X100.273 Y104.02 E6.06172
G1 X99.879 Y105.672 E6.12345
G1 X99.879 Y115.632 E6.48543
G1 X100.587 Y117.795 E6.56814
G1 X101.882 Y118.893 E6.62986
G1 X103.534 Y119.288 E6.69159
G1 X126.194 Y119.288 E7.51512
G1 X128.357 Y118.579 E7.59783
G1 X129.456 Y117.284 E7.65956
G1 X129.85 Y115.632 E7.72128
G1 X129.85 Y105.672 E8.08326
G1 X129.142 Y103.509 E8.16597
G1 X127.846 Y102.411 E8.22769
G1 X126.194 Y102.016 E8.28942
G1 X103.534 Y102.016 E9.11296
G1 X101.429 Y102.706 E9.19348
G1 X101.753 Y103.008 F9000
G1 F1200
G1 X100.71 Y104.129 E9.24915
G1 X100.316 Y105.672 E9.30701
G1 X100.316 Y115.632 E9.66899
G1 X100.827 Y117.372 E9.73489
G1 X101.992 Y118.457 E9.79275
G1 X103.534 Y118.85 E9.85061
G1 X126.194 Y118.85 E10.67415
G1 X127.934 Y118.34 E10.74005
G1 X129.019 Y117.175 E10.79791
G1 X129.413 Y115.632 E10.85578
G1 X129.413 Y105.672 E11.21775
G1 X128.902 Y103.932 E11.28365
G1 X127.737 Y102.847 E11.34151
G1 X126.194 Y102.453 E11.39938
G1 X103.534 Y102.453 E12.22292
G1 X101.794 Y102.964 E12.28883
G92 E0
G1 E-4.2 F3000
;WIPE_START
G1 F7200
G1 X100.71 Y104.129 E-4.83004
G1 X100.316 Y105.672 E-5.46025
G1 X100.316 Y106.808 E-5.91
;WIPE_END
G1 E-6 F3000
; printing object PART_9A.stl id:0 copy 0
M486 S0
; acceleration to travel
M204 S1500
G1 X103.92 Y106.531 F9000
; decel to extrusion
M204 S500
G1 X104.36 Y106.497
; end travel
G1 E0 F3000
;TYPE:Internal perimeter
;WIDTH:0.576
G1 F1200
G1 X125.369 Y106.497 E0.93125
G1 X125.369 Y114.807 E1.29957
G1 X104.36 Y114.807 E2.23082
G1 X104.36 Y106.557 E2.59647
G1 X103.822 Y105.96 F9000
;TYPE:External perimeter
G1 F1200
G1 X125.906 Y105.96 E3.57536
G1 X125.906 Y115.344 E3.99131
G1 X103.822 Y115.344 E4.9702
G1 X103.822 Y106.02 E5.3835
;WIPE_START
G1 X104.169 Y106.16 F9000
;WIPE_END
G92 E0
G1 E-4.2 F3000
;WIPE_START
G1 F7200
G1 X108.489 Y106.16 E-5.91
;WIPE_END
G1 E-6 F3000
; acceleration to travel
M204 S1500
G1 X122.42 Y106.604 F9000
; decel to extrusion
M204 S500
G1 X124.122 Y106.659
; end travel
G1 E0 F3000
;TYPE:Solid infill
;WIDTH:0.574726
G1 F1200
G1 X124.977 Y107.514 E0.05349
G1 X124.977 Y108.274 E0.0871
G1 X123.593 Y106.89 E0.17367
G1 X122.833 Y106.89 E0.20728
G1 X124.977 Y109.034 E0.34139
G1 X124.977 Y109.794 E0.375
G1 X122.073 Y106.89 E0.55664
G1 X121.313 Y106.89 E0.59025
G1 X124.977 Y110.554 E0.81942
G1 X124.977 Y111.313 E0.85303
G1 X120.553 Y106.89 E1.12974
G1 X119.793 Y106.89 E1.16335
G1 X124.977 Y112.073 E1.48758
G1 X124.977 Y112.833 E1.5212
G1 X119.033 Y106.89 E1.89297
G1 X118.273 Y106.89 E1.92658
G1 X124.977 Y113.593 E2.34588
G1 X124.977 Y114.353 E2.37949
G1 X117.513 Y106.89 E2.84633
G1 X116.753 Y106.89 E2.87994
G1 X124.278 Y114.414 E3.3506
G1 X123.518 Y114.414 E3.38421
G1 X115.993 Y106.89 E3.85486
G1 X115.233 Y106.89 E3.88847
G1 X122.758 Y114.414 E4.35912
G1 X121.998 Y114.414 E4.39274
G1 X114.473 Y106.89 E4.86339
G1 X113.713 Y106.89 E4.897
G1 X121.238 Y114.414 E5.36765
G1 X120.478 Y114.414 E5.40126
G1 X112.953 Y106.89 E5.87192
G1 X112.193 Y106.89 E5.90553
G1 X119.718 Y114.414 E6.37618
G1 X118.958 Y114.414 E6.40979
G1 X111.433 Y106.89 E6.88044
G1 X110.673 Y106.89 E6.91406
G1 X118.198 Y114.414 E7.38471
G1 X117.438 Y114.414 E7.41832
G1 X109.913 Y106.89 E7.88897
G1 X109.154 Y106.89 E7.92258
G1 X116.678 Y114.414 E8.39324
G1 X115.918 Y114.414 E8.42685
G1 X108.394 Y106.89 E8.8975
G1 X107.634 Y106.89 E8.93111
G1 X115.158 Y114.414 E9.40176
G1 X114.398 Y114.414 E9.43538
G1 X106.874 Y106.89 E9.90603
G1 X106.114 Y106.89 E9.93964
G1 X113.638 Y114.414 E10.41029
G1 X112.878 Y114.414 E10.4439
G1 X105.354 Y106.89 E10.91456
G1 X104.752 Y106.89 E10.94117
G1 X104.752 Y107.048 E10.94817
G1 X112.118 Y114.414 E11.40892
G1 X111.359 Y114.414 E11.44253
G1 X104.752 Y107.808 E11.85575
G1 X104.752 Y108.568 E11.88936
G1 X110.599 Y114.414 E12.25505
G1 X109.839 Y114.414 E12.28866
G1 X104.752 Y109.328 E12.60681
G1 X104.752 Y110.088 E12.64042
G1 X109.079 Y114.414 E12.91104
G1 X108.319 Y114.414 E12.94465
G1 X104.752 Y110.848 E13.16774
G1 X104.752 Y111.608 E13.20135
G1 X107.559 Y114.414 E13.3769
G1 X106.799 Y114.414 E13.41051
G1 X104.752 Y112.368 E13.53853
G1 X104.752 Y113.128 E13.57214
G1 X106.039 Y114.414 E13.65263
G1 X105.279 Y114.414 E13.68624
G1 X104.521 Y113.656 E13.73365
M106 S84.15
;LAYER_CHANGE
;Z:0.52
;HEIGHT:0.32
;BEFORE_LAYER_CHANGE
;0.52


G92 E0
G1 E-4.2 F3000
;WIPE_START
G1 F7200
G1 X105.279 Y114.414 E-4.62427
G1 X106.039 Y114.414 E-4.92509
G1 X104.752 Y113.128 E-5.64543
G1 X104.752 Y112.459 E-5.91
;WIPE_END
G1 E-6 F3000
; stop printing object PART_9A.stl id:0 copy 0
M486 S-1
G1 Z0.47 F9000
;AFTER_LAYER_CHANGE
;0.52
G92 E0
; printing object PART_9A.stl id:0 copy 0
M486 S0
; acceleration to travel
M204 S1500
G1 X104.12 Y114.822
; decel to extrusion
M204 S500
G1 X104.039 Y115.128
; end travel
G1 E6 F3000
;TYPE:Internal perimeter
;WIDTH:0.476
G1 F2400
G1 X104.039 Y106.176 E6.4851
G1 X125.69 Y106.176 E7.65842
G1 X125.69 Y115.128 E8.14352
G1 X104.099 Y115.128 E9.31359
G1 X103.648 Y115.518 F9000
;TYPE:External perimeter
;WIDTH:0.428
G1 F1500
G1 X103.648 Y105.786 E9.77883
G1 X126.08 Y105.786 E10.85119
G1 X126.08 Y115.518 E11.31643
G1 X103.708 Y115.518 E12.38593
;WIPE_START
G1 X103.848 Y115.172 F9000
;WIPE_END
G92 E0
G1 E-4.2 F3000
;WIPE_START
G1 F7200
G1 X103.848 Y110.852 E-5.91
;WIPE_END
G1 E-6 F3000
; acceleration to travel
M204 S1500
G1 X104.127 Y107.323 F9000
; decel to extrusion
M204 S500
G1 X104.163 Y106.867
; end travel
G1 E0 F3000
;TYPE:Solid infill
;WIDTH:0.483826
G1 F2400
G1 X104.552 Y106.478 E0.03028
G1 X105.137 Y106.478 E0.06254
G1 X104.341 Y107.275 E0.12457
G1 X104.341 Y107.861 E0.15684
G1 X105.723 Y106.478 E0.2645
G1 X106.309 Y106.478 E0.29676
G1 X104.341 Y108.446 E0.45005
G1 X104.341 Y109.032 E0.48231
G1 X106.895 Y106.478 E0.68123
G1 X107.48 Y106.478 E0.7135
G1 X104.341 Y109.618 E0.95805
G1 X104.341 Y110.204 E0.99031
G1 X108.066 Y106.478 E1.28049
G1 X108.652 Y106.478 E1.31275
G1 X104.341 Y110.789 E1.64856
G1 X104.341 Y111.375 E1.68082
G1 X109.238 Y106.478 E2.06226
G1 X109.823 Y106.478 E2.09452
G1 X104.341 Y111.961 E2.52159
G1 X104.341 Y112.547 E2.55385
G1 X110.409 Y106.478 E3.02655
G1 X110.995 Y106.478 E3.05881
G1 X104.341 Y113.132 E3.57714
G1 X104.341 Y113.718 E3.6094
G1 X111.581 Y106.478 E4.17335
G1 X112.166 Y106.478 E4.20562
G1 X104.341 Y114.304 E4.8152
G1 X104.341 Y114.825 E4.84392
G1 X104.405 Y114.825 E4.84746
G1 X112.752 Y106.478 E5.49767
G1 X113.338 Y106.478 E5.52993
G1 X104.991 Y114.825 E6.18014
G1 X105.577 Y114.825 E6.2124
G1 X113.924 Y106.478 E6.86261
G1 X114.509 Y106.478 E6.89487
G1 X106.163 Y114.825 E7.54508
G1 X106.748 Y114.825 E7.57734
G1 X115.095 Y106.478 E8.22755
G1 X115.681 Y106.478 E8.25981
G1 X107.334 Y114.825 E8.91002
G1 X107.92 Y114.825 E8.94228
G1 X116.267 Y106.478 E9.59249
G1 X116.852 Y106.478 E9.62475
G1 X108.506 Y114.825 E10.27496
G1 X109.091 Y114.825 E10.30722
G1 X117.438 Y106.478 E10.95743
G1 X118.024 Y106.478 E10.98969
G1 X109.677 Y114.825 E11.6399
G1 X110.263 Y114.825 E11.67216
G1 X118.61 Y106.478 E12.32237
G1 X119.195 Y106.478 E12.35463
G1 X110.849 Y114.825 E13.00484
G1 X111.434 Y114.825 E13.0371
G1 X119.781 Y106.478 E13.68731
G1 X120.367 Y106.478 E13.71957
G1 X112.02 Y114.825 E14.36978
G1 X112.606 Y114.825 E14.40204
G1 X120.953 Y106.478 E15.05225
G1 X121.539 Y106.478 E15.08451
G1 X113.192 Y114.825 E15.73472
G1 X113.777 Y114.825 E15.76698
G1 X122.124 Y106.478 E16.41719
G1 X122.71 Y106.478 E16.44945
G1 X114.363 Y114.825 E17.09966
G1 X114.949 Y114.825 E17.13192
G1 X123.296 Y106.478 E17.78213
G1 X123.882 Y106.478 E17.81439
G1 X115.535 Y114.825 E18.4646
G1 X116.12 Y114.825 E18.49686
G1 X124.467 Y106.478 E19.14707
G1 X125.053 Y106.478 E19.17933
G1 X116.706 Y114.825 E19.82954
G1 X117.292 Y114.825 E19.8618
G1 X125.388 Y106.729 E20.49246
G1 X125.388 Y107.315 E20.52472
G1 X117.878 Y114.825 E21.10975
G1 X118.463 Y114.825 E21.14201
G1 X125.388 Y107.901 E21.68141
G1 X125.388 Y108.487 E21.71367
G1 X119.049 Y114.825 E22.20744
G1 X119.635 Y114.825 E22.23971
G1 X125.388 Y109.072 E22.68785
G1 X125.388 Y109.658 E22.72011
G1 X120.221 Y114.825 E23.12262
G1 X120.806 Y114.825 E23.15488
G1 X125.388 Y110.244 E23.51176
G1 X125.388 Y110.83 E23.54403
G1 X121.392 Y114.825 E23.85528
G1 X121.978 Y114.825 E23.88755
G1 X125.388 Y111.416 E24.15317
G1 X125.388 Y112.001 E24.18543
G1 X122.564 Y114.825 E24.40542
G1 X123.15 Y114.825 E24.43769
G1 X125.388 Y112.587 E24.61205
G1 X125.388 Y113.173 E24.64432
G1 X123.735 Y114.825 E24.77305
G1 X124.321 Y114.825 E24.80531
G1 X125.388 Y113.759 E24.88842
G1 X125.388 Y114.344 E24.92068
G1 X124.729 Y115.004 E24.97203
M106 S170.85
;LAYER_CHANGE
;Z:0.84
;HEIGHT:0.32
;BEFORE_LAYER_CHANGE
;0.84


G92 E0
G1 E-4.2 F3000
;WIPE_START
G1 F7200
G1 X125.388 Y114.344 E-4.56901
G1 X125.388 Y113.759 E-4.80087
G1 X124.321 Y114.825 E-5.39808
G1 X123.735 Y114.825 E-5.62995
G1 X124.236 Y114.325 E-5.91
;WIPE_END
G1 E-6 F3000
; stop printing object PART_9A.stl id:0 copy 0
M486 S-1
G1 Z0.79 F9000
;AFTER_LAYER_CHANGE
;0.84
; printing object PART_9A.stl id:0 copy 0
M486 S0
G1 X125.69 Y115.128
G1 E0 F3000
;TYPE:Internal perimeter
;WIDTH:0.476
G1 F1827
G1 X104.039 Y115.128 E1.17332
G1 X104.039 Y106.176 E1.65842
G1 X125.69 Y106.176 E2.83174
G1 X125.69 Y115.068 E3.31359
G1 X126.08 Y115.518 F9000
;TYPE:External perimeter
;WIDTH:0.428
G1 F1500
G1 X103.648 Y115.518 E4.38596
G1 X103.648 Y105.786 E4.85119
G1 X126.08 Y105.786 E5.92356
G1 X126.08 Y115.458 E6.38593
;WIPE_START
G1 X125.734 Y115.318 F9000
;WIPE_END
G92 E0
G1 E-4.2 F3000
;WIPE_START
G1 F7200
G1 X121.414 Y115.318 E-5.91
;WIPE_END
G1 E-6 F3000
; acceleration to travel
M204 S1500
G1 X125.091 Y108.074 F9000
; decel to extrusion
M204 S500
G1 X125.566 Y107.138
; end travel
G1 E0 F3000
;TYPE:Solid infill
;WIDTH:0.483826
G1 F1827
G1 X124.907 Y106.478 E0.05135
G1 X124.321 Y106.478 E0.08361
G1 X125.388 Y107.545 E0.16672
G1 X125.388 Y108.131 E0.19898
G1 X123.735 Y106.478 E0.32772
G1 X123.15 Y106.478 E0.35998
G1 X125.388 Y108.717 E0.53434
G1 X125.388 Y109.303 E0.56661
G1 X122.564 Y106.478 E0.7866
G1 X121.978 Y106.478 E0.81887
G1 X125.388 Y109.888 E1.08449
G1 X125.388 Y110.474 E1.11675
G1 X121.392 Y106.478 E1.428
G1 X120.806 Y106.478 E1.46027
G1 X125.388 Y111.06 E1.81715
G1 X125.388 Y111.646 E1.84941
G1 X120.221 Y106.478 E2.25192
G1 X119.635 Y106.478 E2.28419
G1 X125.388 Y112.231 E2.73233
G1 X125.388 Y112.817 E2.76459
G1 X119.049 Y106.478 E3.25836
G1 X118.463 Y106.478 E3.29062
G1 X125.388 Y113.403 E3.83002
G1 X125.388 Y113.989 E3.86229
G1 X117.878 Y106.478 E4.44731
G1 X117.292 Y106.478 E4.47958
G1 X125.388 Y114.574 E5.11023
G1 X125.388 Y114.825 E5.12406
G1 X125.053 Y114.825 E5.1425
G1 X116.706 Y106.478 E5.7927
G1 X116.12 Y106.478 E5.82497
G1 X124.467 Y114.825 E6.47517
G1 X123.882 Y114.825 E6.50744
G1 X115.535 Y106.478 E7.15764
G1 X114.949 Y106.478 E7.18991
G1 X123.296 Y114.825 E7.84011
G1 X122.71 Y114.825 E7.87238
G1 X114.363 Y106.478 E8.52258
G1 X113.777 Y106.478 E8.55485
G1 X122.124 Y114.825 E9.20505
G1 X121.539 Y114.825 E9.23732
G1 X113.192 Y106.478 E9.88752
G1 X112.606 Y106.478 E9.91979
G1 X120.953 Y114.825 E10.56999
G1 X120.367 Y114.825 E10.60226
G1 X112.02 Y106.478 E11.25246
G1 X111.434 Y106.478 E11.28473
G1 X119.781 Y114.825 E11.93493
G1 X119.195 Y114.825 E11.9672
G1 X110.849 Y106.478 E12.6174
G1 X110.263 Y106.478 E12.64967
G1 X118.61 Y114.825 E13.29987
G1 X118.024 Y114.825 E13.33213
G1 X109.677 Y106.478 E13.98234
G1 X109.091 Y106.478 E14.0146
G1 X117.438 Y114.825 E14.66481
G1 X116.852 Y114.825 E14.69707
G1 X108.506 Y106.478 E15.34728
G1 X107.92 Y106.478 E15.37954
G1 X116.267 Y114.825 E16.02975
G1 X115.681 Y114.825 E16.06201
G1 X107.334 Y106.478 E16.71222
G1 X106.748 Y106.478 E16.74448
G1 X115.095 Y114.825 E17.39469
G1 X114.509 Y114.825 E17.42695
G1 X106.163 Y106.478 E18.07716
G1 X105.577 Y106.478 E18.10942
G1 X113.924 Y114.825 E18.75963
G1 X113.338 Y114.825 E18.79189
G1 X104.991 Y106.478 E19.4421
G1 X104.405 Y106.478 E19.47436
G1 X112.752 Y114.825 E20.12457
G1 X112.166 Y114.825 E20.15683
G1 X104.341 Y107 E20.76642
G1 X104.341 Y107.586 E20.79868
G1 X111.581 Y114.825 E21.36263
G1 X110.995 Y114.825 E21.3949
G1 X104.341 Y108.172 E21.91322
G1 X104.341 Y108.757 E21.94549
G1 X110.409 Y114.825 E22.41818
G1 X109.823 Y114.825 E22.45044
G1 X104.341 Y109.343 E22.87751
G1 X104.341 Y109.929 E22.90977
G1 X109.238 Y114.825 E23.29121
G1 X108.652 Y114.825 E23.32347
G1 X104.341 Y110.515 E23.65928
G1 X104.341 Y111.1 E23.69155
G1 X108.066 Y114.825 E23.98172
G1 X107.48 Y114.825 E24.01399
G1 X104.341 Y111.686 E24.25854
G1 X104.341 Y112.272 E24.2908
G1 X106.895 Y114.825 E24.48972
G1 X106.309 Y114.825 E24.52198
G1 X104.341 Y112.858 E24.67527
G1 X104.341 Y113.443 E24.70754
G1 X105.723 Y114.825 E24.8152
G1 X105.137 Y114.825 E24.84746
G1 X104.341 Y114.029 E24.90949
G1 X104.341 Y114.615 E24.94176
G1 X104.73 Y115.004 E24.97203
M106 S255
;LAYER_CHANGE
;Z:1.16
;HEIGHT:0.32
;BEFORE_LAYER_CHANGE
;1.16


G92 E0
G1 E-4.2 F3000
;WIPE_START
G1 F7200
G1 X104.341 Y114.615 E-4.41757
G1 X104.341 Y114.029 E-4.64943
G1 X105.137 Y114.825 E-5.0952
G1 X105.723 Y114.825 E-5.32706
G1 X104.682 Y113.784 E-5.91
;WIPE_END
G1 E-6 F3000
; stop printing object PART_9A.stl id:0 copy 0
M486 S-1
G1 Z1.11 F9000
;AFTER_LAYER_CHANGE
;1.16
; printing object PART_9A.stl id:0 copy 0
M486 S0
G1 X104.039 Y115.128
G1 E0 F3000
;TYPE:Internal perimeter
;WIDTH:0.476
G1 F1826
G1 X104.039 Y106.176 E0.4851
G1 X125.69 Y106.176 E1.65842
G1 X125.69 Y115.128 E2.14352
G1 X104.099 Y115.128 E3.31359
G1 X103.648 Y115.518 F9000
;TYPE:External perimeter
;WIDTH:0.428
G1 F1500
G1 X103.648 Y105.786 E3.77883
G1 X126.08 Y105.786 E4.85119
G1 X126.08 Y115.518 E5.31643
G1 X103.708 Y115.518 E6.38593
;WIPE_START
G1 X103.848 Y115.172 F9000
;WIPE_END
G92 E0
G1 E-4.2 F3000
;WIPE_START
G1 F7200
G1 X103.848 Y110.852 E-5.91
;WIPE_END
G1 E-6 F3000
; acceleration to travel
M204 S1500
G1 X104.127 Y107.323 F9000
; decel to extrusion
M204 S500
G1 X104.163 Y106.867
; end travel
G1 E0 F3000
;TYPE:Solid infill
;WIDTH:0.483826
G1 F1826
G1 X104.552 Y106.478 E0.03028
G1 X105.137 Y106.478 E0.06254
G1 X104.341 Y107.275 E0.12457
G1 X104.341 Y107.861 E0.15684
G1 X105.723 Y106.478 E0.2645
G1 X106.309 Y106.478 E0.29676
G1 X104.341 Y108.446 E0.45005
G1 X104.341 Y109.032 E0.48231
G1 X106.895 Y106.478 E0.68123
G1 X107.48 Y106.478 E0.7135
G1 X104.341 Y109.618 E0.95805
G1 X104.341 Y110.204 E0.99031
G1 X108.066 Y106.478 E1.28049
G1 X108.652 Y106.478 E1.31275
G1 X104.341 Y110.789 E1.64856
G1 X104.341 Y111.375 E1.68082
G1 X109.238 Y106.478 E2.06226
G1 X109.823 Y106.478 E2.09452
G1 X104.341 Y111.961 E2.52159
G1 X104.341 Y112.547 E2.55385
