; generated by SuperSlicer 2.4 on 2023-02-16 at 16:35:59 UTC

; 

; external perimeters extrusion width = 0.43mm
; perimeters extrusion width = 0.48mm
; infill extrusion width = 0.46mm
; solid infill extrusion width = 0.48mm
; top infill extrusion width = 0.46mm
; first layer extrusion width = 0.58mm

; object:{"name":"stringing-test","id":"stringing-test.stl id:0 copy 0","object_center":[115.331526,110.881112,0.000000],"boundingbox_center":[115.331526,110.881112,7.658881],"boundingbox_size":[30.047401,16.442290,15.317762]}
; Total objects to print: 1
M486 T1
; plater:{"center":[115.331526,110.881112,0.000000],"boundingbox_center":[115.331526,110.881112,7.658881],"boundingbox_size":[30.047401,16.442290,15.317762]}

;TYPE:Custom
G90 ; use absolute coordinates
M83 ; extruder relative mode
M140 S60 ; set final bed temp
M104 S150 ; set temporary nozzle temp to prevent oozing during homing and auto bed leveling
G4 S10 ; allow partial nozzle warmup
G28 ; home all axis
;G29 ; auto bed levelling
G1 Z10 F240
G1 X2 Y10 F3000
G1 Z0 F240
M104 S210 ; set final nozzle temp
M190 S60 ; wait for bed temp to stabilize
M109 S210 ; wait for nozzle temp to stabilize
G1 Z0.28 F240
G92 E0
G1 Y100 E7.1 F1500 ; prime the nozzle
G1 X2.3 F5000
G92 E0
G1 Y10 E10 F1200 ; prime the nozzle
G92 E0
;start
M107
G21 ; set units to millimeters
G90 ; use absolute coordinates
M82 ; use absolute distances for extrusion
G92 E0
; Filament gcode
;_TOOLCHANGE 0
M107
;LAYER_CHANGE
;Z:0.2
;HEIGHT:0.2
;BEFORE_LAYER_CHANGE
;0.2


G1 E-1.5 F3000
G1 Z0.15 F9000
;AFTER_LAYER_CHANGE
;0.2
G92 E0
G1 Z1.15
M204 S500
G1 X100.1 Y100.066
G1 Z0.15
G1 E1.5 F3000
;TYPE:Skirt
;WIDTH:0.48
G1 F1200
G1 X99.132 Y101.462 E1.56172
G1 X97.031 Y106.85 E1.77192
G1 X96.906 Y109.122 E1.85462
G1 X97.714 Y110.616 E1.91635
G1 X99.109 Y111.584 E1.97807
G1 X126.797 Y122.379 E3.05811
G1 X129.069 Y122.504 E3.14081
G1 X130.563 Y121.696 E3.20254
G1 X131.531 Y120.301 E3.26426
G1 X133.632 Y114.912 E3.47445
G1 X133.757 Y112.64 E3.55716
G1 X132.949 Y111.146 E3.61888
G1 X131.554 Y110.178 E3.68061
G1 X103.866 Y99.384 E4.76064
G1 X101.594 Y99.258 E4.84335
G1 X100.153 Y100.037 E4.90289
G1 X100.467 Y100.326 F9000
G1 F1200
G1 X99.539 Y101.62 E4.96076
G1 X97.439 Y107.009 E5.17095
G1 X97.283 Y108.815 E5.23684
G1 X97.974 Y110.249 E5.29471
G1 X99.268 Y111.177 E5.35257
G1 X126.956 Y121.971 E6.4326
G1 X128.762 Y122.128 E6.4985
G1 X130.196 Y121.436 E6.55636
G1 X131.124 Y120.142 E6.61422
G1 X133.224 Y114.753 E6.82442
G1 X133.381 Y112.947 E6.89031
G1 X132.689 Y111.513 E6.94818
G1 X131.395 Y110.586 E7.00604
G1 X103.707 Y99.791 E8.08607
G1 X101.901 Y99.635 E8.15197
G1 X100.521 Y100.3 E8.20765
G92 E0
G1 E-1.05 F3000
;WIPE_START
G1 F7200
G1 X99.877 Y101.167 E-1.4775
;WIPE_END
G1 E-1.5 F3000
G1 Z1.15 F9000
; printing object stringing-test.stl id:0 copy 0
M486 S0
; acceleration to travel
M204 S1500
G1 X102.394 Y102.945
; decel to extrusion
M204 S500
G1 X102.702 Y103.162
; end travel
G1 Z0.15
G1 E0 F3000
;TYPE:External perimeter
;WIDTH:0.576
G1 F1200
G1 X102.805 Y103.203 E0.0049
G1 X129.853 Y113.748 E1.29172
G1 X127.961 Y118.6 E1.52255
G1 X100.81 Y108.014 E2.81426
G1 X102.68 Y103.218 E3.04243
;WIPE_START
G1 X102.952 Y103.475 F9000
;WIPE_END
G92 E0
G1 E-1.05 F3000
;WIPE_START
G1 F7200
G1 X103.958 Y103.867 E-1.4775
;WIPE_END
G1 E-1.5 F3000
G1 Z1.15 F9000
; acceleration to travel
M204 S1500
G1 X125.256 Y112.133
; decel to extrusion
M204 S500
G1 X127.858 Y113.143
; end travel
G1 Z0.15
G1 E0 F3000
;TYPE:Solid infill
;WIDTH:0.573458
G1 F1200
G1 X129.16 Y114.445 E0.08127
G1 X128.947 Y114.992 E0.10717
G1 X127.019 Y113.064 E0.22751
G1 X125.773 Y112.578 E0.28651
G1 X128.734 Y115.539 E0.47127
G1 X128.52 Y116.086 E0.49717
G1 X124.527 Y112.093 E0.74637
G1 X123.282 Y111.607 E0.80537
G1 X128.307 Y116.633 E1.119
G1 X128.094 Y117.179 E1.1449
G1 X122.036 Y111.121 E1.52297
G1 X120.791 Y110.636 E1.58196
G1 X127.881 Y117.726 E2.02446
G1 X127.738 Y118.092 E2.04179
G1 X127.326 Y117.931 E2.06132
G1 X119.545 Y110.15 E2.54692
G1 X118.299 Y109.665 E2.60591
G1 X126.08 Y117.445 E3.09151
G1 X124.835 Y116.96 E3.15051
G1 X117.054 Y109.179 E3.63611
G1 X115.808 Y108.693 E3.69511
G1 X123.589 Y116.474 E4.18071
G1 X122.343 Y115.989 E4.23971
G1 X114.563 Y108.208 E4.72531
G1 X113.317 Y107.722 E4.7843
G1 X121.098 Y115.503 E5.2699
G1 X119.852 Y115.017 E5.3289
G1 X112.071 Y107.236 E5.8145
G1 X110.826 Y106.751 E5.8735
G1 X118.607 Y114.532 E6.3591
G1 X117.361 Y114.046 E6.4181
G1 X109.58 Y106.265 E6.9037
G1 X108.335 Y105.78 E6.96269
G1 X116.116 Y113.56 E7.44829
G1 X114.87 Y113.075 E7.50729
G1 X107.089 Y105.294 E7.99289
G1 X105.844 Y104.808 E8.05189
G1 X113.624 Y112.589 E8.53749
G1 X112.379 Y112.104 E8.59649
G1 X104.598 Y104.323 E9.08209
G1 X103.352 Y103.837 E9.14108
G1 X111.133 Y111.618 E9.62668
G1 X109.888 Y111.132 E9.68568
G1 X102.785 Y104.029 E10.12896
G1 X102.572 Y104.576 E10.15486
G1 X108.642 Y110.647 E10.53371
G1 X107.396 Y110.161 E10.59271
G1 X102.358 Y105.123 E10.90712
G1 X102.145 Y105.67 E10.93302
G1 X106.151 Y109.675 E11.183
G1 X104.905 Y109.19 E11.242
G1 X101.932 Y106.217 E11.42755
G1 X101.719 Y106.763 E11.45345
G1 X103.66 Y108.704 E11.57457
G1 X102.414 Y108.218 E11.63357
G1 X101.327 Y107.132 E11.70139
M106 S84.15
;LAYER_CHANGE
;Z:0.52
;HEIGHT:0.32
;BEFORE_LAYER_CHANGE
;0.52


G92 E0
G1 E-1.05 F3000
;WIPE_START
G1 F7200
G1 X102.091 Y107.895 E-1.4775
;WIPE_END
G1 E-1.5 F3000
G1 Z1.15 F9000
; stop printing object stringing-test.stl id:0 copy 0
M486 S-1
;AFTER_LAYER_CHANGE
;0.52
G92 E0
G1 Z1.47
; printing object stringing-test.stl id:0 copy 0
M486 S0
; acceleration to travel
M204 S1500
G1 X122.09 Y113.902
; decel to extrusion
M204 S500
G1 X124.558 Y114.644
; end travel
G1 Z0.47
G1 E1.5 F3000
;TYPE:External perimeter
;WIDTH:0.428
G1 F900
M106 S255
G1 X124.492 Y114.944 E1.51471
G1 X124.472 Y115.251 E1.52942
G1 X124.499 Y115.558 E1.54413
G1 X124.572 Y115.856 E1.55883
G1 X124.69 Y116.14 E1.57354
G1 X124.851 Y116.403 E1.58825
G1 X125.049 Y116.638 E1.60296
G1 X125.281 Y116.84 E1.61767
G1 X125.541 Y117.004 E1.63238
G1 X125.823 Y117.127 E1.64709
G1 X126.121 Y117.205 E1.66179
G1 X126.427 Y117.237 E1.6765
G1 X126.734 Y117.222 E1.69121
G1 X127.036 Y117.16 E1.70592
G1 X127.324 Y117.052 E1.72063
G1 X127.593 Y116.902 E1.73534
G1 X127.835 Y116.713 E1.75005
G1 X128.046 Y116.489 E1.76475
G1 X128.22 Y116.235 E1.77946
G1 X128.354 Y115.958 E1.79417
G1 X128.443 Y115.664 E1.80888
G1 X128.486 Y115.359 E1.82359
G1 X128.483 Y115.051 E1.8383
G1 X128.433 Y114.748 E1.85301
G1 X128.336 Y114.456 E1.86771
G1 X128.197 Y114.182 E1.88242
G1 X128.017 Y113.932 E1.89713
G1 X127.801 Y113.713 E1.91184
G1 X127.554 Y113.529 E1.92655
G1 X127.282 Y113.385 E1.94126
G1 X126.991 Y113.284 E1.95597
G1 X126.689 Y113.229 E1.97068
G1 X126.381 Y113.221 E1.98538
G1 X126.076 Y113.26 E2.00009
G1 X125.78 Y113.345 E2.0148
G1 X125.501 Y113.474 E2.02951
G1 X125.245 Y113.644 E2.04422
G1 X125.017 Y113.851 E2.05893
G1 X124.824 Y114.091 E2.07363
G1 X124.67 Y114.357 E2.08834
G1 X124.58 Y114.588 E2.10018
M106 S84.15
;WIPE_START
G1 X124.171 Y114.744 F9000
;WIPE_END
G1 X124.287 Y114.558
G1 F900
M106 S255
G1 X124.34 Y114.393 E2.10845
G1 X124.467 Y114.121 E2.12282
G1 X124.629 Y113.867 E2.1372
G1 X124.822 Y113.637 E2.15157
G1 X125.044 Y113.434 E2.16594
G1 X125.29 Y113.262 E2.18032
G1 X125.557 Y113.123 E2.19469
G1 X125.84 Y113.021 E2.20907
G1 X126.133 Y112.956 E2.22344
G1 X126.433 Y112.93 E2.23781
G1 X126.733 Y112.943 E2.25219
G1 X127.029 Y112.996 E2.26656
G1 X127.316 Y113.087 E2.28093
G1 X127.588 Y113.214 E2.29531
G1 X127.842 Y113.376 E2.30968
G1 X128.072 Y113.569 E2.32406
G1 X128.275 Y113.791 E2.33843
G1 X128.447 Y114.037 E2.3528
G1 X128.586 Y114.304 E2.36718
G1 X128.688 Y114.587 E2.38155
G1 X128.753 Y114.88 E2.39592
G1 X128.779 Y115.18 E2.4103
G1 X128.766 Y115.48 E2.42467
G1 X128.713 Y115.776 E2.43904
G1 X128.623 Y116.063 E2.45342
G1 X128.495 Y116.336 E2.46779
G1 X128.334 Y116.589 E2.48217
G1 X128.14 Y116.819 E2.49654
G1 X127.918 Y117.022 E2.51091
G1 X127.672 Y117.194 E2.52529
G1 X127.405 Y117.333 E2.53966
G1 X127.122 Y117.435 E2.55403
G1 X126.829 Y117.5 E2.56841
G1 X126.529 Y117.526 E2.58278
G1 X126.229 Y117.513 E2.59715
G1 X125.933 Y117.46 E2.61153
G1 X125.646 Y117.37 E2.6259
G1 X125.374 Y117.242 E2.64028
G1 X125.12 Y117.081 E2.65465
G1 X124.89 Y116.887 E2.66902
G1 X124.687 Y116.665 E2.6834
G1 X124.515 Y116.419 E2.69777
G1 X124.376 Y116.152 E2.71214
G1 X124.274 Y115.869 E2.72652
G1 X124.209 Y115.576 E2.74089
G1 X124.183 Y115.276 E2.75527
G1 X124.196 Y114.976 E2.76964
G1 X124.249 Y114.68 E2.78401
G1 X124.269 Y114.615 E2.78725
M106 S84.15
;WIPE_START
G1 X124.678 Y114.472 F9000
;WIPE_END
G92 E0
G1 E-1.05 F3000
;WIPE_START
G1 F7200
G1 X124.642 Y114.217 E-1.1517
G1 X124.79 Y113.986 E-1.26034
G1 X124.967 Y113.776 E-1.36897
G1 X125.169 Y113.591 E-1.4775
;WIPE_END
G1 E-1.5 F3000
G1 Z1.47 F9000
; acceleration to travel
M204 S1500
G1 X108.154 Y107.959
; decel to extrusion
M204 S500
G1 X106.054 Y107.264
; end travel
G1 Z0.47
G1 E0 F3000
G1 F900
M106 S255
G1 X106.144 Y106.97 E0.01471
G1 X106.187 Y106.665 E0.02942
G1 X106.184 Y106.357 E0.04413
G1 X106.133 Y106.054 E0.05884
G1 X106.037 Y105.762 E0.07355
G1 X105.898 Y105.488 E0.08825
G1 X105.718 Y105.238 E0.10296
G1 X105.502 Y105.019 E0.11767
G1 X105.255 Y104.835 E0.13238
G1 X104.983 Y104.691 E0.14709
G1 X104.692 Y104.59 E0.1618
G1 X104.39 Y104.535 E0.17651
G1 X104.082 Y104.527 E0.19121
G1 X103.777 Y104.566 E0.20592
G1 X103.481 Y104.651 E0.22063
G1 X103.202 Y104.78 E0.23534
G1 X102.946 Y104.95 E0.25005
G1 X102.718 Y105.157 E0.26476
G1 X102.525 Y105.397 E0.27947
G1 X102.371 Y105.663 E0.29417
G1 X102.259 Y105.95 E0.30888
G1 X102.192 Y106.25 E0.32359
G1 X102.172 Y106.557 E0.3383
G1 X102.199 Y106.863 E0.35301
G1 X102.273 Y107.162 E0.36772
G1 X102.391 Y107.446 E0.38243
G1 X102.551 Y107.709 E0.39714
G1 X102.75 Y107.944 E0.41184
G1 X102.982 Y108.146 E0.42655
G1 X103.242 Y108.31 E0.44126
G1 X103.524 Y108.433 E0.45597
G1 X103.822 Y108.511 E0.47068
G1 X104.128 Y108.543 E0.48539
G1 X104.435 Y108.528 E0.5001
G1 X104.737 Y108.466 E0.5148
G1 X105.025 Y108.358 E0.52951
G1 X105.294 Y108.208 E0.54422
G1 X105.536 Y108.019 E0.55893
G1 X105.747 Y107.795 E0.57364
G1 X105.921 Y107.541 E0.58835
G1 X106.028 Y107.318 E0.60018
M106 S84.15
;WIPE_START
G1 X106.448 Y107.194 F9000
;WIPE_END
G1 X106.329 Y107.351
G1 F900
M106 S255
G1 X106.324 Y107.369 E0.60109
G1 X106.196 Y107.642 E0.61546
G1 X106.034 Y107.895 E0.62984
G1 X105.841 Y108.125 E0.64421
G1 X105.619 Y108.328 E0.65858
G1 X105.373 Y108.5 E0.67296
G1 X105.106 Y108.639 E0.68733
G1 X104.823 Y108.741 E0.70171
G1 X104.53 Y108.806 E0.71608
G1 X104.23 Y108.832 E0.73045
G1 X103.93 Y108.819 E0.74483
G1 X103.634 Y108.766 E0.7592
G1 X103.347 Y108.676 E0.77357
G1 X103.075 Y108.548 E0.78795
G1 X102.821 Y108.387 E0.80232
G1 X102.591 Y108.193 E0.8167
G1 X102.388 Y107.971 E0.83107
G1 X102.216 Y107.725 E0.84544
G1 X102.077 Y107.458 E0.85982
G1 X101.975 Y107.175 E0.87419
G1 X101.91 Y106.882 E0.88856
G1 X101.884 Y106.582 E0.90294
G1 X101.897 Y106.282 E0.91731
G1 X101.95 Y105.986 E0.93168
G1 X102.04 Y105.699 E0.94606
G1 X102.168 Y105.427 E0.96043
G1 X102.329 Y105.173 E0.97481
G1 X102.523 Y104.943 E0.98918
G1 X102.745 Y104.74 E1.00355
G1 X102.991 Y104.568 E1.01793
G1 X103.258 Y104.429 E1.0323
G1 X103.541 Y104.327 E1.04667
G1 X103.834 Y104.262 E1.06105
G1 X104.134 Y104.236 E1.07542
G1 X104.434 Y104.249 E1.08979
G1 X104.73 Y104.302 E1.10417
G1 X105.017 Y104.393 E1.11854
G1 X105.289 Y104.52 E1.13292
G1 X105.543 Y104.682 E1.14729
G1 X105.773 Y104.875 E1.16166
G1 X105.976 Y105.097 E1.17604
G1 X106.148 Y105.343 E1.19041
G1 X106.287 Y105.61 E1.20478
G1 X106.389 Y105.893 E1.21916
G1 X106.454 Y106.186 E1.23353
G1 X106.48 Y106.486 E1.24791
G1 X106.467 Y106.786 E1.26228
G1 X106.414 Y107.082 E1.27665
G1 X106.347 Y107.294 E1.28725
M106 S84.15
;WIPE_START
G1 X105.939 Y107.437 F9000
;WIPE_END
M106 S170.85
;LAYER_CHANGE
;Z:0.84
;HEIGHT:0.32
;BEFORE_LAYER_CHANGE
;0.84


G92 E0
G1 E-1.05 F3000
;WIPE_START
G1 F7200
G1 X105.873 Y107.776 E-1.18669
G1 X105.696 Y107.986 E-1.29533
G1 X105.494 Y108.172 E-1.40397
G1 X105.342 Y108.278 E-1.4775
;WIPE_END
G1 E-1.5 F3000
G1 Z1.47 F9000
; stop printing object stringing-test.stl id:0 copy 0
M486 S-1
;AFTER_LAYER_CHANGE
;0.84
G92 E0
G1 Z1.79
; printing object stringing-test.stl id:0 copy 0
M486 S0
; acceleration to travel
M204 S1500
G1 X122.447 Y113.944
; decel to extrusion
M204 S500
G1 X124.558 Y114.644
; end travel
G1 Z0.79
G1 E1.5 F3000
G1 F900
M106 S255
G1 X124.492 Y114.944 E1.51471
G1 X124.472 Y115.251 E1.52942
G1 X124.499 Y115.557 E1.54413
G1 X124.572 Y115.856 E1.55883
G1 X124.69 Y116.14 E1.57354
G1 X124.851 Y116.403 E1.58825
G1 X125.049 Y116.638 E1.60296
G1 X125.281 Y116.84 E1.61767
G1 X125.541 Y117.004 E1.63238
G1 X125.823 Y117.127 E1.64709
G1 X126.121 Y117.205 E1.6618
G1 X126.427 Y117.237 E1.6765
G1 X126.734 Y117.222 E1.69121
G1 X127.036 Y117.16 E1.70592
G1 X127.324 Y117.052 E1.72063
G1 X127.593 Y116.902 E1.73534
G1 X127.835 Y116.713 E1.75005
G1 X128.046 Y116.489 E1.76476
G1 X128.22 Y116.235 E1.77946
G1 X128.353 Y115.958 E1.79417
G1 X128.443 Y115.664 E1.80888
G1 X128.486 Y115.359 E1.82359
G1 X128.483 Y115.052 E1.8383
G1 X128.433 Y114.748 E1.85301
G1 X128.336 Y114.456 E1.86772
G1 X128.197 Y114.182 E1.88242
G1 X128.017 Y113.932 E1.89713
G1 X127.801 Y113.713 E1.91184
G1 X127.554 Y113.529 E1.92655
G1 X127.282 Y113.385 E1.94126
G1 X126.992 Y113.284 E1.95597
G1 X126.689 Y113.229 E1.97068
G1 X126.381 Y113.221 E1.98538
G1 X126.076 Y113.26 E2.00009
G1 X125.78 Y113.345 E2.0148
G1 X125.501 Y113.474 E2.02951
G1 X125.245 Y113.644 E2.04422
G1 X125.017 Y113.851 E2.05893
G1 X124.824 Y114.091 E2.07364
G1 X124.67 Y114.357 E2.08835
G1 X124.58 Y114.588 E2.10019
M106 S170.85
;WIPE_START
G1 X124.171 Y114.744 F9000
;WIPE_END
G1 X124.287 Y114.558
G1 F900
M106 S255
G1 X124.339 Y114.393 E2.10845
G1 X124.467 Y114.121 E2.12282
G1 X124.629 Y113.867 E2.13719
G1 X124.822 Y113.637 E2.15157
G1 X125.044 Y113.434 E2.16594
G1 X125.29 Y113.262 E2.18031
G1 X125.557 Y113.123 E2.19469
G1 X125.84 Y113.021 E2.20906
G1 X126.133 Y112.956 E2.22344
G1 X126.433 Y112.93 E2.23781
G1 X126.733 Y112.943 E2.25218
G1 X127.029 Y112.996 E2.26656
G1 X127.316 Y113.087 E2.28093
G1 X127.588 Y113.214 E2.2953
G1 X127.842 Y113.376 E2.30968
G1 X128.072 Y113.569 E2.32405
G1 X128.275 Y113.791 E2.33842
G1 X128.447 Y114.037 E2.3528
G1 X128.586 Y114.304 E2.36717
G1 X128.688 Y114.587 E2.38155
G1 X128.753 Y114.88 E2.39592
G1 X128.779 Y115.18 E2.41029
G1 X128.766 Y115.48 E2.42467
G1 X128.713 Y115.776 E2.43904
G1 X128.623 Y116.063 E2.45341
G1 X128.495 Y116.335 E2.46779
G1 X128.334 Y116.589 E2.48216
G1 X128.14 Y116.819 E2.49654
G1 X127.918 Y117.022 E2.51091
G1 X127.672 Y117.194 E2.52528
G1 X127.405 Y117.333 E2.53966
G1 X127.122 Y117.435 E2.55403
G1 X126.829 Y117.5 E2.5684
G1 X126.529 Y117.526 E2.58278
G1 X126.229 Y117.513 E2.59715
G1 X125.933 Y117.46 E2.61153
G1 X125.646 Y117.37 E2.6259
G1 X125.374 Y117.242 E2.64027
G1 X125.12 Y117.081 E2.65465
G1 X124.89 Y116.887 E2.66902
G1 X124.687 Y116.665 E2.68339
G1 X124.515 Y116.419 E2.69777
G1 X124.376 Y116.152 E2.71214
G1 X124.274 Y115.869 E2.72651
G1 X124.209 Y115.576 E2.74089
G1 X124.183 Y115.276 E2.75526
G1 X124.196 Y114.976 E2.76964
G1 X124.249 Y114.68 E2.78401
G1 X124.269 Y114.615 E2.78725
M106 S170.85
;WIPE_START
G1 X124.678 Y114.472 F9000
;WIPE_END
G92 E0
G1 E-1.05 F3000
;WIPE_START
G1 F7200
G1 X124.642 Y114.217 E-1.15166
G1 X124.79 Y113.986 E-1.26029
G1 X124.967 Y113.776 E-1.36893
G1 X125.169 Y113.591 E-1.4775
;WIPE_END
G1 E-1.5 F3000
G1 Z1.79 F9000
; acceleration to travel
M204 S1500
G1 X108.154 Y107.959
; decel to extrusion
M204 S500
G1 X106.054 Y107.264
; end travel
G1 Z0.79
G1 E0 F3000
G1 F900
M106 S255
G1 X106.144 Y106.97 E0.01471
G1 X106.187 Y106.665 E0.02942
G1 X106.184 Y106.358 E0.04413
G1 X106.133 Y106.054 E0.05883
G1 X106.037 Y105.762 E0.07354
G1 X105.898 Y105.488 E0.08825
G1 X105.718 Y105.238 E0.10296
G1 X105.502 Y105.019 E0.11767
G1 X105.255 Y104.835 E0.13238
G1 X104.983 Y104.691 E0.14709
G1 X104.692 Y104.59 E0.16179
G1 X104.39 Y104.535 E0.1765
G1 X104.082 Y104.527 E0.19121
G1 X103.777 Y104.566 E0.20592
G1 X103.481 Y104.651 E0.22063
