; generated by SuperSlicer 2.4 on 2023-02-16 at 16:32:16 UTC

; 

; external perimeters extrusion width = 0.43mm
; perimeters extrusion width = 0.48mm
; infill extrusion width = 0.46mm
; solid infill extrusion width = 0.48mm
; top infill extrusion width = 0.46mm
; first layer extrusion width = 0.58mm

; object:{"name":"Stringing_Testingfff","id":"Stringing_Testingfff.stl id:0 copy 0","object_center":[116.967328,116.110964,0.000000],"boundingbox_center":[116.967328,116.110964,11.449080],"boundingbox_size":[29.643773,23.908649,22.898160]}
; Total objects to print: 1
M486 T1
; plater:{"center":[116.967328,116.110964,0.000000],"boundingbox_center":[116.967328,116.110964,11.449080],"boundingbox_size":[29.643773,23.908649,22.898160]}

;TYPE:Custom
G90 ; use absolute coordinates
M83 ; extruder relative mode
M140 S60 ; set final bed temp
M104 S150 ; set temporary nozzle temp to prevent oozing during homing and auto bed leveling
G4 S10 ; allow partial nozzle warmup
G28 ; home all axis
;G29 ; auto bed levelling
G1 Z10 F240
G1 X2 Y10 F3000
G1 Z0 F240
M104 S210 ; set final nozzle temp
M190 S60 ; wait for bed temp to stabilize
M109 S210 ; wait for nozzle temp to stabilize
G1 Z0.28 F240
G92 E0
G1 Y100 E7.1 F1500 ; prime the nozzle
G1 X2.3 F5000
G92 E0
G1 Y10 E10 F1200 ; prime the nozzle
G92 E0
;start
M107
G21 ; set units to millimeters
G90 ; use absolute coordinates
M82 ; use absolute distances for extrusion
G92 E0
; Filament gcode
;_TOOLCHANGE 0
M107
;LAYER_CHANGE
;Z:0.2
;HEIGHT:0.2
;BEFORE_LAYER_CHANGE
;0.2


G1 E-6 F3000
G1 Z0.15 F9000
;AFTER_LAYER_CHANGE
;0.2
G92 E0
M204 S500
G1 X105.911 Y101.831
G1 E6 F3000
;TYPE:Skirt
;WIDTH:0.48
G1 F1200
G1 X105.097 Y103.322 E6.06172
G1 X100.373 Y120.734 E6.71741
G1 X100.491 Y123.007 E6.80011
G1 X101.453 Y124.406 E6.86184
G1 X102.944 Y125.219 E6.92356
G1 X125.985 Y131.471 E7.79123
G1 X128.258 Y131.353 E7.87394
G1 X129.657 Y130.391 E7.93566
G1 X130.471 Y128.9 E7.99738
G1 X135.195 Y111.488 E8.65307
G1 X135.077 Y109.215 E8.73577
G1 X134.115 Y107.816 E8.7975
G1 X132.624 Y107.003 E8.85922
G1 X109.96 Y100.854 E9.71267
G1 X109.583 Y100.751 E9.72689
G1 X107.31 Y100.869 E9.8096
G1 X105.96 Y101.797 E9.86914
G1 X106.303 Y102.051 F9000
G1 F1200
G1 X105.519 Y103.437 E9.927
G1 X100.795 Y120.848 E10.58269
G1 X100.832 Y122.661 E10.64858
G1 X101.673 Y124.013 E10.70644
G1 X103.059 Y124.797 E10.76431
G1 X126.1 Y131.049 E11.63197
G1 X127.912 Y131.011 E11.69787
G1 X129.265 Y130.171 E11.75573
G1 X130.049 Y128.785 E11.81359
G1 X134.773 Y111.373 E12.46928
G1 X134.735 Y109.561 E12.53517
G1 X133.895 Y108.208 E12.59304
G1 X132.509 Y107.424 E12.6509
G1 X109.846 Y101.276 E13.50434
G1 X109.468 Y101.173 E13.51856
G1 X107.655 Y101.21 E13.58446
G1 X106.354 Y102.019 E13.64014
G92 E0
G1 E-4.2 F3000
;WIPE_START
G1 F7200
G1 X105.519 Y103.437 E-4.85116
G1 X104.819 Y106.018 E-5.91
;WIPE_END
G1 E-6 F3000
; printing object Stringing_Testingfff.stl id:0 copy 0
M486 S0
; acceleration to travel
M204 S1500
G1 X108.758 Y116.462 F9000
; decel to extrusion
M204 S500
G1 X109.24 Y117.738
; end travel
G1 E0 F3000
;TYPE:Internal perimeter
;WIDTH:0.576
G1 F1200
G1 X109.403 Y117.765 E0.00734
G1 X109.558 Y117.824 E0.01468
G1 X109.698 Y117.913 E0.02203
G1 X109.817 Y118.028 E0.02937
G1 X109.911 Y118.164 E0.03671
G1 X109.976 Y118.316 E0.04405
G1 X110.009 Y118.479 E0.05139
G1 X110.01 Y118.644 E0.05873
G1 X109.977 Y118.807 E0.06608
G1 X109.913 Y118.959 E0.07342
G1 X109.806 Y119.116 E0.08185
G1 X109.763 Y119.161 E0.0846
G1 X109.61 Y119.274 E0.09303
G1 X109.46 Y119.344 E0.10037
G1 X109.299 Y119.383 E0.10771
G1 X109.133 Y119.389 E0.11506
G1 X108.97 Y119.362 E0.1224
G1 X108.815 Y119.303 E0.12974
G1 X108.675 Y119.214 E0.13708
G1 X108.556 Y119.099 E0.14442
G1 X108.462 Y118.963 E0.15176
G1 X108.397 Y118.811 E0.15911
G1 X108.363 Y118.648 E0.16645
G1 X108.363 Y118.483 E0.17379
G1 X108.396 Y118.32 E0.18113
G1 X108.46 Y118.168 E0.18847
G1 X108.567 Y118.011 E0.1969
G1 X108.61 Y117.966 E0.19966
G1 X108.763 Y117.853 E0.20809
G1 X108.913 Y117.783 E0.21543
G1 X109.074 Y117.744 E0.22277
G1 X109.18 Y117.74 E0.22745
G92 E0
G1 E-4.2 F3000
;WIPE_START
G1 F7200
G1 X109.403 Y117.765 E-4.28897
G1 X109.558 Y117.824 E-4.35452
G1 X109.698 Y117.913 E-4.42009
G1 X109.817 Y118.028 E-4.48565
G1 X109.911 Y118.164 E-4.55121
G1 X109.976 Y118.316 E-4.61678
G1 X110.009 Y118.479 E-4.68234
G1 X110.01 Y118.644 E-4.7479
G1 X109.977 Y118.807 E-4.81346
G1 X109.913 Y118.959 E-4.87903
G1 X109.806 Y119.116 E-4.95429
G1 X109.763 Y119.161 E-4.9789
G1 X109.61 Y119.274 E-5.05417
G1 X109.46 Y119.344 E-5.11973
G1 X109.299 Y119.383 E-5.18529
G1 X109.133 Y119.389 E-5.25086
G1 X108.97 Y119.362 E-5.31642
G1 X108.815 Y119.303 E-5.38198
G1 X108.675 Y119.214 E-5.44755
G1 X108.556 Y119.099 E-5.5131
G1 X108.462 Y118.963 E-5.57866
G1 X108.397 Y118.811 E-5.64423
G1 X108.363 Y118.648 E-5.7098
G1 X108.363 Y118.483 E-5.77536
G1 X108.396 Y118.32 E-5.84092
G1 X108.46 Y118.168 E-5.90648
G1 X108.465 Y118.16 E-5.91
;WIPE_END
G1 E-6 F3000
; acceleration to travel
M204 S1500
G1 X122.188 Y122.043 F9000
; decel to extrusion
M204 S500
G1 X123.865 Y122.517
; end travel
G1 E0 F3000
G1 F1200
G1 X123.939 Y122.342 E0.00843
G1 X123.972 Y122.29 E0.01118
G1 X124.099 Y122.148 E0.01961
G1 X124.232 Y122.05 E0.02696
G1 X124.383 Y121.98 E0.0343
G1 X124.544 Y121.941 E0.04164
G1 X124.709 Y121.935 E0.04898
G1 X124.872 Y121.962 E0.05632
G1 X125.027 Y122.021 E0.06366
G1 X125.167 Y122.11 E0.07101
G1 X125.286 Y122.225 E0.07835
G1 X125.38 Y122.361 E0.08569
G1 X125.445 Y122.514 E0.09303
G1 X125.484 Y122.7 E0.10146
G1 X125.486 Y122.762 E0.10421
G1 X125.461 Y122.95 E0.11264
G1 X125.407 Y123.107 E0.11998
G1 X125.323 Y123.25 E0.12733
G1 X125.212 Y123.373 E0.13467
G1 X125.079 Y123.471 E0.14201
G1 X124.929 Y123.542 E0.14935
G1 X124.768 Y123.58 E0.15669
G1 X124.603 Y123.586 E0.16404
G1 X124.439 Y123.559 E0.17138
G1 X124.284 Y123.5 E0.17872
G1 X124.145 Y123.411 E0.18606
G1 X124.025 Y123.296 E0.1934
G1 X123.931 Y123.16 E0.20074
G1 X123.866 Y123.008 E0.20809
G1 X123.833 Y122.845 E0.21543
G1 X123.832 Y122.68 E0.22277
G1 X123.853 Y122.576 E0.22745
G92 E0
G1 E-4.2 F3000
;WIPE_START
G1 F7200
G1 X123.939 Y122.342 E-4.29866
G1 X123.972 Y122.29 E-4.32327
G1 X124.099 Y122.148 E-4.39853
G1 X124.232 Y122.05 E-4.4641
G1 X124.383 Y121.98 E-4.52966
G1 X124.544 Y121.941 E-4.59522
G1 X124.709 Y121.935 E-4.66078
G1 X124.872 Y121.962 E-4.72635
G1 X125.027 Y122.021 E-4.79191
G1 X125.167 Y122.11 E-4.85747
G1 X125.286 Y122.225 E-4.92303
G1 X125.38 Y122.361 E-4.9886
G1 X125.445 Y122.514 E-5.05416
G1 X125.484 Y122.7 E-5.12943
G1 X125.486 Y122.762 E-5.15403
G1 X125.461 Y122.95 E-5.22931
G1 X125.407 Y123.107 E-5.29486
G1 X125.323 Y123.25 E-5.36043
G1 X125.212 Y123.373 E-5.42599
G1 X125.079 Y123.471 E-5.49156
G1 X124.929 Y123.542 E-5.55712
G1 X124.768 Y123.58 E-5.62268
G1 X124.603 Y123.586 E-5.68824
G1 X124.439 Y123.559 E-5.7538
G1 X124.284 Y123.5 E-5.81937
G1 X124.145 Y123.411 E-5.88493
G1 X124.099 Y123.367 E-5.91
;WIPE_END
G1 E-6 F3000
; acceleration to travel
M204 S1500
G1 X114.27 Y110.797 F9000
; decel to extrusion
M204 S500
G1 X113.069 Y109.262
; end travel
G1 E0 F3000
G1 F1200
G1 X124.507 Y112.365 E0.52534
G1 X128.078 Y113.334 E0.68937
G1 X127.641 Y114.945 E0.76337
G1 X124.869 Y114.193 E0.89069
G1 X112.632 Y110.873 E1.45273
G1 X113.053 Y109.319 E1.52407
G92 E0
G1 E-4.2 F3000
;WIPE_START
G1 F7200
G1 X117.228 Y110.43 E-5.91
;WIPE_END
G1 E-6 F3000
; acceleration to travel
M204 S1500
G1 X109.831 Y105.288 F9000
; decel to extrusion
M204 S500
G1 X108.928 Y104.66
; end travel
G1 E0 F3000
;TYPE:External perimeter
G1 F1200
G1 X131.313 Y110.733 E1.02813
G1 X126.74 Y127.589 E1.80229
G1 X104.255 Y121.489 E2.835
G1 X108.828 Y104.633 E3.60916
G1 X108.87 Y104.644 E3.61108
;WIPE_START
G1 X109.03 Y105.046 F9000
;WIPE_END
G92 E0
G1 E-4.2 F3000
;WIPE_START
G1 F7200
G1 X113.206 Y106.151 E-5.91
;WIPE_END
G1 E-6 F3000
; acceleration to travel
M204 S1500
G1 X110.201 Y117.264 F9000
; decel to extrusion
M204 S500
G1 X109.833 Y118.621
; end travel
G1 E0 F3000
;TYPE:Solid infill
;WIDTH:0.604606
G1 F1200
G1 X109.429 Y118.217 E0.0266
G1 X109.298 Y118.151 E0.03342
G1 X109.128 Y118.14 E0.04133
G1 X108.956 Y118.201 E0.04981
G1 X108.873 Y118.268 E0.0548
G1 X108.818 Y118.366 E0.06004
G1 X109.56 Y119.108 E0.10881
G92 E0
G1 E-4.2 F3000
;WIPE_START
G1 F7200
G1 X108.818 Y118.366 E-4.61496
G1 X108.873 Y118.268 E-4.65953
G1 X108.956 Y118.201 E-4.70197
G1 X109.128 Y118.14 E-4.77408
G1 X109.298 Y118.151 E-4.84142
G1 X109.429 Y118.217 E-4.89946
G1 X109.833 Y118.621 E-5.12573
;WIPE_END
G1 E-6 F3000
; acceleration to travel
M204 S1500
G1 X123.626 Y122.368 F9000
; decel to extrusion
M204 S500
G1 X125.311 Y122.826
; end travel
G1 E0 F3000
;WIDTH:0.601242
G1 F1200
G1 X124.899 Y122.414 E0.02695
G1 X124.768 Y122.348 E0.03373
G1 X124.598 Y122.337 E0.0416
G1 X124.439 Y122.393 E0.04941
G1 X124.294 Y122.526 E0.05848
G1 X124.28 Y122.556 E0.06001
G1 X125.026 Y123.302 E0.10881
G92 E0
G1 E-4.2 F3000
;WIPE_START
G1 F7200
G1 X124.28 Y122.556 E-4.61753
G1 X124.294 Y122.526 E-4.63056
G1 X124.439 Y122.393 E-4.70819
G1 X124.598 Y122.337 E-4.77497
G1 X124.768 Y122.348 E-4.84232
G1 X124.899 Y122.414 E-4.90036
G1 X125.311 Y122.826 E-5.1309
;WIPE_END
G1 E-6 F3000
; acceleration to travel
M204 S1500
G1 X126.27 Y114.107 F9000
; decel to extrusion
M204 S500
G1 X126.387 Y113.042
; end travel
G1 E0 F3000
;WIDTH:0.558315
G1 F1200
G1 X127.46 Y114.115 E0.06518
G1 X127.365 Y114.464 E0.08072
G1 X126.931 Y114.346 E0.10004
G1 X125.673 Y113.088 E0.1765
G1 X124.63 Y112.805 E0.22293
G1 X125.888 Y114.063 E0.29938
G1 X124.845 Y113.78 E0.34581
G1 X123.587 Y112.522 E0.42227
G1 X122.544 Y112.239 E0.4687
G1 X123.802 Y113.497 E0.54515
G1 X122.76 Y113.214 E0.59158
G1 X121.501 Y111.956 E0.66804
G1 X120.458 Y111.673 E0.71447
G1 X121.717 Y112.931 E0.79092
G1 X120.674 Y112.648 E0.83735
G1 X119.415 Y111.39 E0.91381
G1 X118.373 Y111.107 E0.96023
G1 X119.631 Y112.365 E1.03669
G1 X118.588 Y112.082 E1.08312
G1 X117.33 Y110.824 E1.15957
G1 X116.287 Y110.541 E1.206
G1 X117.545 Y111.799 E1.28246
G1 X116.502 Y111.516 E1.32889
G1 X115.244 Y110.258 E1.40534
G1 X114.201 Y109.975 E1.45177
G1 X115.459 Y111.233 E1.52823
G1 X114.416 Y110.951 E1.57466
G1 X113.315 Y109.85 E1.64154
G1 X113.153 Y110.448 E1.66815
G1 X113.702 Y110.996 E1.70149
G92 E0
G1 E-4.2 F3000
;WIPE_START
G1 F7200
G1 X113.153 Y110.448 E-4.5071
G1 X113.315 Y109.85 E-4.75228
G1 X114.416 Y110.951 E-5.36847
G1 X115.459 Y111.233 E-5.79622
G1 X115.256 Y111.03 E-5.91
;WIPE_END
G1 E-6 F3000
; acceleration to travel
M204 S1500
G1 X129.182 Y111.629 F9000
; decel to extrusion
M204 S500
G1 X130.883 Y111.703
; end travel
G1 E0 F3000
;WIDTH:0.571895
G1 F1200
G1 X129.951 Y110.77 E0.05804
G1 X128.908 Y110.487 E0.1056
G1 X130.533 Y112.112 E0.20673
G1 X130.37 Y112.71 E0.23399
G1 X127.865 Y110.204 E0.38994
G1 X126.822 Y109.921 E0.4375
G1 X130.208 Y113.308 E0.64826
G1 X130.046 Y113.905 E0.67552
G1 X125.779 Y109.638 E0.9411
G1 X124.736 Y109.355 E0.98866
G1 X129.884 Y114.503 E1.30906
G1 X129.722 Y115.101 E1.33632
G1 X128.372 Y113.751 E1.42034
G1 X128.209 Y114.349 E1.4476
G1 X129.56 Y115.699 E1.53163
G1 X129.397 Y116.296 E1.55889
G1 X128.047 Y114.946 E1.64292
G1 X127.917 Y115.426 E1.66481
G1 X127.712 Y115.371 E1.67418
G1 X129.235 Y116.894 E1.769
G1 X129.073 Y117.492 E1.79626
G1 X126.669 Y115.088 E1.9459
G1 X125.626 Y114.805 E1.99346
G1 X128.911 Y118.09 E2.19792
G1 X128.749 Y118.687 E2.22517
G1 X124.583 Y114.522 E2.48445
G1 X123.54 Y114.239 E2.53201
G1 X128.586 Y119.285 E2.8461
G1 X128.424 Y119.883 E2.87335
G1 X122.497 Y113.956 E3.24226
G1 X121.454 Y113.673 E3.28982
G1 X128.262 Y120.481 E3.71354
G1 X128.1 Y121.079 E3.7408
G1 X120.411 Y113.39 E4.21934
G1 X119.368 Y113.107 E4.26689
G1 X127.938 Y121.676 E4.80025
G1 X127.776 Y122.274 E4.82751
G1 X118.325 Y112.824 E5.41568
G1 X117.282 Y112.541 E5.46323
G1 X127.613 Y122.872 E6.10622
G1 X127.451 Y123.47 E6.13348
G1 X116.24 Y112.258 E6.83128
G1 X115.197 Y111.975 E6.87884
G1 X124.769 Y121.547 E7.4746
G1 X124.976 Y121.582 E7.48383
G1 X125.204 Y121.669 E7.4946
G1 X125.411 Y121.8 E7.50536
G1 X125.587 Y121.97 E7.51612
G1 X125.726 Y122.171 E7.52688
G1 X125.822 Y122.396 E7.53765
G1 X125.875 Y122.653 E7.54921
G1 X127.289 Y124.067 E7.63724
G1 X127.127 Y124.665 E7.66449
G1 X125.754 Y123.292 E7.74997
G1 X125.641 Y123.483 E7.75972
G1 X125.477 Y123.665 E7.77048
G1 X125.414 Y123.712 E7.77398
G1 X126.965 Y125.263 E7.87052
G1 X126.802 Y125.861 E7.89777
G1 X124.686 Y123.745 E8.02949
G1 X124.301 Y121.84 F9000
G1 F1200
G1 X113.825 Y111.364 E8.68151
G92 E0
G1 E-4.2 F3000
;WIPE_START
G1 F7200
G1 X116.88 Y114.418 E-5.91
;WIPE_END
G1 E-6 F3000
; acceleration to travel
M204 S1500
G1 X126.504 Y113.207 F9000
; decel to extrusion
M204 S500
G1 X127.68 Y113.059
; end travel
G1 E0 F3000
G1 F1200
G1 X123.693 Y109.072 E0.24811
G1 X122.65 Y108.789 E0.29567
G1 X126.308 Y112.447 E0.52333
G1 X125.265 Y112.164 E0.57089
G1 X121.607 Y108.506 E0.79855
G1 X120.564 Y108.223 E0.84611
G1 X124.222 Y111.881 E1.07377
G1 X123.179 Y111.598 E1.12132
G1 X119.522 Y107.94 E1.34899
G1 X118.479 Y107.657 E1.39654
G1 X122.136 Y111.315 E1.6242
G1 X121.094 Y111.032 E1.67176
G1 X117.436 Y107.375 E1.89942
G1 X116.393 Y107.092 E1.94698
G1 X120.051 Y110.749 E2.17464
G1 X119.008 Y110.466 E2.2222
G1 X115.35 Y106.809 E2.44986
G1 X114.307 Y106.526 E2.49742
G1 X117.965 Y110.183 E2.72508
G1 X116.922 Y109.901 E2.77264
G1 X113.264 Y106.243 E3.0003
G1 X112.221 Y105.96 E3.04786
G1 X115.879 Y109.618 E3.27552
G1 X114.836 Y109.335 E3.32307
G1 X111.178 Y105.677 E3.55074
G1 X110.135 Y105.394 E3.59829
G1 X113.793 Y109.052 E3.82595
G1 X112.793 Y108.78 E3.87157
G1 X112.786 Y108.805 E3.87268
G1 X109.102 Y105.121 E4.10198
G1 X108.94 Y105.718 E4.12924
G1 X112.624 Y109.402 E4.35854
G1 X112.462 Y110 E4.3858
G1 X108.778 Y106.316 E4.6151
G1 X108.615 Y106.914 E4.64236
G1 X112.3 Y110.598 E4.87165
G1 X112.15 Y111.149 E4.89676
G1 X113.111 Y111.409 E4.94057
G1 X123.703 Y122.002 E5.59985
G1 X123.659 Y122.052 E5.6028
G1 X123.59 Y122.16 E5.60842
G1 X123.488 Y122.401 E5.61997
G1 X123.464 Y122.522 E5.6254
G1 X108.453 Y107.512 E6.55965
G1 X108.291 Y108.109 E6.58691
G1 X126.64 Y126.459 E7.72895
G1 X126.478 Y127.056 E7.75621
G1 X108.129 Y108.707 E8.89825
G1 X107.967 Y109.305 E8.92551
G1 X125.511 Y126.849 E10.01747
G1 X124.468 Y126.566 E10.06502
G1 X107.805 Y109.903 E11.10217
G1 X107.642 Y110.5 E11.12943
G1 X123.425 Y126.284 E12.11175
G1 X122.383 Y126.001 E12.15931
G1 X107.48 Y111.098 E13.08682
G1 X107.318 Y111.696 E13.11408
G1 X121.34 Y125.718 E13.98678
G1 X120.297 Y125.435 E14.03434
G1 X107.156 Y112.294 E14.85222
G1 X106.994 Y112.892 E14.87947
G1 X119.254 Y125.152 E15.64254
G1 X118.211 Y124.869 E15.6901
G1 X106.831 Y113.489 E16.39834
G1 X106.669 Y114.087 E16.4256
G1 X117.168 Y124.586 E17.07903
G1 X116.125 Y124.303 E17.12659
G1 X110.402 Y118.58 E17.48279
G1 X110.402 Y118.438 E17.48902
G1 X110.352 Y118.199 E17.49978
G1 X110.256 Y117.974 E17.51055
G1 X110.117 Y117.773 E17.52131
G1 X109.941 Y117.603 E17.53207
G1 X109.735 Y117.472 E17.54283
G1 X109.506 Y117.385 E17.5536
G1 X109.265 Y117.344 E17.56436
G1 X109.17 Y117.348 E17.56854
G1 X106.507 Y114.685 E17.73428
G1 X106.345 Y115.283 E17.76154
G1 X108.571 Y117.509 E17.90012
G1 X108.35 Y117.67 E17.91216
G1 X108.262 Y117.762 E17.91778
G1 X108.182 Y117.879 E17.92403
G1 X105.994 Y115.692 E18.06016
G92 E0
G1 E-4.2 F3000
;WIPE_START
G1 F7200
G1 X108.182 Y117.879 E-5.42444
G1 X108.262 Y117.762 E-5.48058
G1 X108.35 Y117.67 E-5.5312
G1 X108.571 Y117.509 E-5.63945
G1 X108.088 Y117.026 E-5.91
;WIPE_END
G1 E-6 F3000
; acceleration to travel
M204 S1500
G1 X109.853 Y118.79 F9000
; decel to extrusion
M204 S500
G1 X110.068 Y119.006
; end travel
G1 E0 F3000
G1 F1200
G1 X115.082 Y124.02 E0.31206
G1 X114.039 Y123.737 E0.35962
G1 X109.706 Y119.404 E0.62932
G92 E0
G1 E-4.2 F3000
;WIPE_START
G1 F7200
G1 X112.761 Y122.458 E-5.91
;WIPE_END
G1 E-6 F3000
; acceleration to travel
M204 S1500
G1 X106.587 Y116.961 F9000
; decel to extrusion
M204 S500
G1 X105.832 Y116.29
; end travel
G1 E0 F3000
G1 F1200
G1 X107.973 Y118.431 E0.13326
G1 X107.971 Y118.689 E0.14461
G1 X108.021 Y118.928 E0.15537
G1 X108.117 Y119.153 E0.16613
G1 X108.255 Y119.354 E0.17689
