; generated by SuperSlicer 2.4 on 2023-02-16 at 16:45:07 UTC

; 

; external perimeters extrusion width = 0.43mm
; perimeters extrusion width = 0.48mm
; infill extrusion width = 0.46mm
; solid infill extrusion width = 0.48mm
; top infill extrusion width = 0.46mm
; first layer extrusion width = 0.58mm

; object:{"name":"Stringing_sdfTest","id":"Stringing_sdfTest.stl id:0 copy 0","object_center":[115.500000,115.500000,0.000000],"boundingbox_center":[115.500000,115.500000,8.665097],"boundingbox_size":[29.852055,29.852055,17.330193]}
; Total objects to print: 1
M486 T1
; plater:{"center":[115.500000,115.500000,0.000000],"boundingbox_center":[115.500000,115.500000,8.665097],"boundingbox_size":[29.852055,29.852055,17.330193]}

;TYPE:Custom
G90 ; use absolute coordinates
M83 ; extruder relative mode
M140 S60 ; set final bed temp
M104 S150 ; set temporary nozzle temp to prevent oozing during homing and auto bed leveling
G4 S10 ; allow partial nozzle warmup
G28 ; home all axis
;G29 ; auto bed levelling
G1 Z10 F240
G1 X2 Y10 F3000
G1 Z0 F240
M104 S210 ; set final nozzle temp
M190 S60 ; wait for bed temp to stabilize
M109 S210 ; wait for nozzle temp to stabilize
G1 Z0.28 F240
G92 E0
G1 Y100 E7.1 F1500 ; prime the nozzle
G1 X2.3 F5000
G92 E0
G1 Y10 E10 F1200 ; prime the nozzle
G92 E0
;start
M107
G21 ; set units to millimeters
G90 ; use absolute coordinates
M82 ; use absolute distances for extrusion
G92 E0
; Filament gcode
;_TOOLCHANGE 0
M107
;LAYER_CHANGE
;Z:0.2
;HEIGHT:0.2
;BEFORE_LAYER_CHANGE
;0.2


G1 E-6 F3000
G1 Z0.15 F9000
;AFTER_LAYER_CHANGE
;0.2
G92 E0
M204 S500
G1 X100.307 Y98.907
G1 E6 F3000
;TYPE:Skirt
;WIDTH:0.48
G1 F1200
G1 X99.785 Y100.411 E6.05786
G1 X97.475 Y127.737 E7.05452
G1 X97.837 Y129.513 E7.12041
G1 X98.907 Y130.693 E7.17828
G1 X100.411 Y131.215 E7.23614
G1 X127.737 Y133.525 E8.23279
G1 X129.513 Y133.163 E8.29869
G1 X130.693 Y132.093 E8.35655
G1 X131.215 Y130.589 E8.41442
G1 X133.525 Y103.263 E9.41107
G1 X133.163 Y101.487 E9.47697
G1 X132.093 Y100.307 E9.53483
G1 X130.589 Y99.785 E9.59269
G1 X105.621 Y97.674 E10.50335
G1 X103.263 Y97.475 E10.58935
G1 X101.487 Y97.837 E10.65525
G1 X100.352 Y98.867 E10.71093
G92 E0
G1 E-4.2 F3000
;WIPE_START
G1 F7200
G1 X99.785 Y100.411 E-4.85116
G1 X99.56 Y103.076 E-5.91
;WIPE_END
G1 E-6 F3000
; printing object Stringing_sdfTest.stl id:0 copy 0
M486 S0
; acceleration to travel
M204 S1500
G1 X103.289 Y101.738 F9000
; decel to extrusion
M204 S500
G1 X103.745 Y101.574
; end travel
G1 E0 F3000
;TYPE:Internal perimeter
;WIDTH:0.576
G1 F1200
G1 X129.426 Y103.745 E1.14239
G1 X127.255 Y129.426 E2.28478
G1 X101.574 Y127.255 E3.42717
G1 X103.74 Y101.634 E4.5669
G1 X103.255 Y100.993 F9000
;TYPE:External perimeter
G1 F1200
G1 X103.851 Y101.044 E4.59343
G1 X130.007 Y103.255 E5.75693
G1 X127.745 Y130.007 E6.94696
G1 X100.993 Y127.745 E8.13698
G1 X103.25 Y101.053 E9.32435
;WIPE_START
G1 X103.583 Y101.222 F9000
;WIPE_END
G92 E0
G1 E-4.2 F3000
;WIPE_START
G1 F7200
G1 X103.834 Y101.243 E-4.2998
G1 X107.888 Y101.586 E-5.91
;WIPE_END
G1 E-6 F3000
; acceleration to travel
M204 S1500
G1 X125.868 Y103.552 F9000
; decel to extrusion
M204 S500
G1 X128.065 Y103.792
; end travel
G1 E0 F3000
;TYPE:Solid infill
;WIDTH:0.577681
G1 F1200
G1 X128.953 Y104.68 E0.05585
G1 X128.894 Y105.381 E0.08711
G1 X127.488 Y103.975 E0.17549
G1 X126.658 Y103.905 E0.21253
G1 X128.835 Y106.081 E0.34938
G1 X128.776 Y106.782 E0.38064
G1 X125.828 Y103.834 E0.56596
G1 X124.998 Y103.764 E0.60299
G1 X128.716 Y107.483 E0.83678
G1 X128.657 Y108.184 E0.86804
G1 X124.168 Y103.694 E1.15029
G1 X123.338 Y103.624 E1.18732
G1 X128.598 Y108.884 E1.51803
G1 X128.539 Y109.585 E1.5493
G1 X122.507 Y103.554 E1.92848
G1 X121.677 Y103.484 E1.96551
G1 X128.479 Y110.286 E2.39316
G1 X128.42 Y110.986 E2.42442
G1 X120.847 Y103.413 E2.90053
G1 X120.017 Y103.343 E2.93756
G1 X128.361 Y111.687 E3.46214
G1 X128.302 Y112.388 E3.4934
G1 X119.187 Y103.273 E4.06644
G1 X118.357 Y103.203 E4.10348
G1 X128.242 Y113.089 E4.72498
G1 X128.183 Y113.789 E4.75625
G1 X117.527 Y103.133 E5.42622
G1 X116.696 Y103.063 E5.46325
G1 X128.124 Y114.49 E6.18169
G1 X128.065 Y115.191 E6.21295
G1 X115.866 Y102.992 E6.97986
G1 X115.036 Y102.922 E7.01689
G1 X128.006 Y115.892 E7.83226
G1 X127.946 Y116.592 E7.86352
G1 X114.206 Y102.852 E8.72736
G1 X113.376 Y102.782 E8.76439
G1 X127.887 Y117.293 E9.67669
G1 X127.828 Y117.994 E9.70795
G1 X112.546 Y102.712 E10.66872
G1 X111.716 Y102.641 E10.70576
G1 X127.769 Y118.694 E11.71499
G1 X127.709 Y119.395 E11.74625
G1 X110.885 Y102.571 E12.80395
G1 X110.055 Y102.501 E12.84098
G1 X127.65 Y120.096 E13.94714
G1 X127.591 Y120.797 E13.9784
G1 X109.225 Y102.431 E15.13303
G1 X108.395 Y102.361 E15.17007
G1 X127.532 Y121.497 E16.37316
G1 X127.472 Y122.198 E16.40442
G1 X107.565 Y102.291 E17.65598
G1 X106.735 Y102.22 E17.69302
G1 X127.413 Y122.899 E18.99304
G1 X127.354 Y123.599 E19.0243
G1 X105.905 Y102.15 E20.37279
G1 X105.075 Y102.08 E20.40983
G1 X127.295 Y124.3 E21.80679
G1 X127.235 Y125.001 E21.83805
G1 X104.244 Y102.01 E23.28347
G1 X104.103 Y101.998 E23.28979
G1 X104.054 Y102.579 E23.31571
G1 X127.176 Y125.702 E24.7694
G1 X127.117 Y126.402 E24.80066
G1 X103.994 Y103.28 E26.25435
G1 X103.935 Y103.981 E26.28561
G1 X127.058 Y127.103 E27.7393
G1 X126.998 Y127.804 E27.77056
G1 X103.876 Y104.681 E29.22425
G1 X103.817 Y105.382 E29.25551
G1 X126.939 Y128.504 E30.7092
G1 X126.897 Y129.002 E30.7314
G1 X126.657 Y128.982 E30.74214
G1 X103.758 Y106.083 E32.18177
G1 X103.698 Y106.783 E32.21304
G1 X125.826 Y128.912 E33.60421
G1 X124.996 Y128.841 E33.64124
G1 X103.639 Y107.484 E34.98395
G1 X103.58 Y108.185 E35.01521
G1 X124.166 Y128.771 E36.30945
G1 X123.336 Y128.701 E36.34649
G1 X103.521 Y108.886 E37.59227
G1 X103.461 Y109.586 E37.62353
G1 X122.506 Y128.631 E38.82084
G1 X121.676 Y128.561 E38.85787
G1 X103.402 Y110.287 E40.00672
G1 X103.343 Y110.988 E40.03798
G1 X120.846 Y128.491 E41.13836
G1 X120.015 Y128.42 E41.1754
G1 X103.284 Y111.688 E42.22731
G1 X103.224 Y112.389 E42.25857
G1 X119.185 Y128.35 E43.26202
G1 X118.355 Y128.28 E43.29905
G1 X103.165 Y113.09 E44.25404
G1 X103.106 Y113.791 E44.2853
G1 X117.525 Y128.21 E45.19182
G1 X116.695 Y128.14 E45.22885
G1 X103.047 Y114.491 E46.0869
G1 X102.987 Y115.192 E46.11816
G1 X115.865 Y128.069 E46.92775
G1 X115.035 Y127.999 E46.96479
G1 X102.928 Y115.893 E47.72591
G1 X102.869 Y116.594 E47.75717
G1 X114.205 Y127.929 E48.46982
G1 X113.374 Y127.859 E48.50686
G1 X102.81 Y117.294 E49.17105
G1 X102.75 Y117.995 E49.20231
G1 X112.544 Y127.789 E49.81803
G1 X111.714 Y127.719 E49.85507
G1 X102.691 Y118.696 E50.42233
G1 X102.632 Y119.396 E50.45359
G1 X110.884 Y127.648 E50.97238
G1 X110.054 Y127.578 E51.00942
G1 X102.573 Y120.097 E51.47974
G1 X102.514 Y120.798 E51.51101
G1 X109.224 Y127.508 E51.93287
G1 X108.394 Y127.438 E51.9699
G1 X102.454 Y121.499 E52.3433
G1 X102.395 Y122.199 E52.37456
G1 X107.563 Y127.368 E52.69949
G1 X106.733 Y127.297 E52.73653
G1 X102.336 Y122.9 E53.01299
G1 X102.277 Y123.601 E53.04425
G1 X105.903 Y127.227 E53.27225
G1 X105.073 Y127.157 E53.30929
G1 X102.217 Y124.301 E53.48882
G1 X102.158 Y125.002 E53.52008
G1 X104.243 Y127.087 E53.65115
G1 X103.413 Y127.017 E53.68819
G1 X102.099 Y125.703 E53.77079
G1 X102.04 Y126.404 E53.80205
G1 X102.836 Y127.2 E53.85211
M106 S84.15
;LAYER_CHANGE
;Z:0.52
;HEIGHT:0.32
;BEFORE_LAYER_CHANGE
;0.52


G92 E0
G1 E-4.2 F3000
;WIPE_START
G1 F7200
G1 X102.04 Y126.404 E-4.64576
G1 X102.099 Y125.703 E-4.92412
G1 X103.413 Y127.017 E-5.65963
G1 X104.043 Y127.07 E-5.91
;WIPE_END
G1 E-6 F3000
; stop printing object Stringing_sdfTest.stl id:0 copy 0
M486 S-1
G1 Z0.47 F9000
;AFTER_LAYER_CHANGE
;0.52
G92 E0
; printing object Stringing_sdfTest.stl id:0 copy 0
M486 S0
; acceleration to travel
M204 S1500
G1 X101.549 Y127.493
; decel to extrusion
M204 S500
G1 X101.227 Y127.548
; end travel
G1 E6 F3000
;TYPE:Internal perimeter
;WIDTH:0.476
G1 F2400
G1 X103.452 Y101.227 E7.43145
G1 X129.773 Y103.452 E8.86291
G1 X127.548 Y129.773 E10.29436
G1 X101.287 Y127.553 E11.72256
G1 X100.805 Y127.904 F9000
;TYPE:External perimeter
;WIDTH:0.428
G1 F1500
G1 X103.096 Y100.805 E13.02264
G1 X130.195 Y103.096 E14.32272
G1 X127.904 Y130.195 E15.62279
G1 X100.865 Y127.909 E16.92
;WIPE_START
G1 X101.034 Y127.576 F9000
;WIPE_END
G92 E0
G1 E-4.2 F3000
;WIPE_START
G1 F7200
G1 X101.398 Y123.271 E-5.91
;WIPE_END
G1 E-6 F3000
; acceleration to travel
M204 S1500
G1 X123.772 Y128.852 F9000
; decel to extrusion
M204 S500
G1 X126.662 Y129.574
; end travel
G1 E0 F3000
;TYPE:Solid infill
;WIDTH:0.483963
G1 F2400
G1 X127.317 Y128.919 E0.05098
G1 X127.371 Y128.279 E0.08636
G1 X126.287 Y129.363 E0.1708
G1 X125.747 Y129.317 E0.20066
G1 X127.425 Y127.64 E0.3314
G1 X127.479 Y127 E0.36678
G1 X125.207 Y129.272 E0.54381
G1 X124.667 Y129.226 E0.57367
G1 X127.533 Y126.36 E0.79701
G1 X127.587 Y125.72 E0.83239
G1 X124.127 Y129.18 E1.10202
G1 X123.587 Y129.135 E1.13189
G1 X127.641 Y125.08 E1.44782
G1 X127.695 Y124.44 E1.4832
G1 X123.047 Y129.089 E1.84543
G1 X122.506 Y129.043 E1.8753
G1 X127.749 Y123.8 E2.28383
G1 X127.804 Y123.161 E2.31921
G1 X121.966 Y128.998 E2.77404
G1 X121.426 Y128.952 E2.8039
G1 X127.858 Y122.521 E3.30503
G1 X127.912 Y121.881 E3.34041
G1 X120.886 Y128.906 E3.88784
G1 X120.346 Y128.861 E3.91771
G1 X127.966 Y121.241 E4.51143
G1 X128.02 Y120.601 E4.54681
G1 X119.806 Y128.815 E5.18684
G1 X119.266 Y128.77 E5.21671
G1 X128.074 Y119.961 E5.90303
G1 X128.128 Y119.322 E5.93841
G1 X118.726 Y128.724 E6.67104
G1 X118.186 Y128.678 E6.7009
G1 X128.182 Y118.682 E7.47983
G1 X128.236 Y118.042 E7.51521
G1 X117.646 Y128.633 E8.34043
G1 X117.105 Y128.587 E8.3703
G1 X128.29 Y117.402 E9.24182
G1 X128.344 Y116.762 E9.2772
G1 X116.565 Y128.541 E10.19503
G1 X116.025 Y128.496 E10.22489
G1 X128.399 Y116.122 E11.18901
G1 X128.453 Y115.482 E11.22439
G1 X115.485 Y128.45 E12.23481
G1 X114.945 Y128.404 E12.26468
G1 X128.507 Y114.843 E13.3214
G1 X128.561 Y114.203 E13.35678
G1 X114.405 Y128.359 E14.4598
G1 X113.865 Y128.313 E14.48966
G1 X128.615 Y113.563 E15.63898
G1 X128.669 Y112.923 E15.67436
G1 X113.325 Y128.267 E16.86998
G1 X112.785 Y128.222 E16.89985
G1 X128.723 Y112.283 E18.14176
G1 X128.777 Y111.643 E18.17714
G1 X112.245 Y128.176 E19.46536
G1 X111.704 Y128.13 E19.49523
G1 X128.831 Y111.003 E20.82974
G1 X128.885 Y110.364 E20.86512
G1 X111.164 Y128.085 E22.24594
G1 X110.624 Y128.039 E22.2758
G1 X128.939 Y109.724 E23.70292
G1 X128.994 Y109.084 E23.7383
G1 X110.084 Y127.993 E25.21171
G1 X109.544 Y127.948 E25.24158
G1 X129.048 Y108.444 E26.76129
G1 X129.102 Y107.804 E26.79667
G1 X109.004 Y127.902 E28.36268
G1 X108.464 Y127.856 E28.39255
G1 X129.156 Y107.164 E30.00486
G1 X129.21 Y106.525 E30.04024
G1 X107.924 Y127.811 E31.69885
G1 X107.384 Y127.765 E31.72872
G1 X129.264 Y105.885 E33.43363
G1 X129.318 Y105.245 E33.46901
G1 X106.844 Y127.719 E35.22022
G1 X106.303 Y127.674 E35.25008
G1 X129.372 Y104.605 E37.04759
G1 X129.426 Y103.965 E37.08297
G1 X105.763 Y127.628 E38.92678
G1 X105.223 Y127.582 E38.95664
G1 X129.107 Y103.699 E40.81762
G1 X128.566 Y103.653 E40.84749
G1 X104.683 Y127.537 E42.70847
G1 X104.143 Y127.491 E42.73833
G1 X128.026 Y103.608 E44.59931
G1 X127.486 Y103.562 E44.62918
G1 X103.603 Y127.445 E46.49016
G1 X103.063 Y127.4 E46.52002
G1 X126.946 Y103.516 E48.38101
G1 X126.406 Y103.471 E48.41087
G1 X102.523 Y127.354 E50.27185
G1 X101.983 Y127.308 E50.30171
G1 X125.866 Y103.425 E52.1627
G1 X125.326 Y103.379 E52.19256
G1 X101.565 Y127.141 E54.04402
G1 X101.619 Y126.501 E54.0794
G1 X124.786 Y103.334 E55.88456
G1 X124.246 Y103.288 E55.91442
G1 X101.673 Y125.861 E57.67328
G1 X101.727 Y125.221 E57.70866
G1 X123.706 Y103.243 E59.42122
G1 X123.165 Y103.197 E59.45108
G1 X101.781 Y124.581 E61.11734
G1 X101.835 Y123.941 E61.15272
G1 X122.625 Y103.151 E62.77268
G1 X122.085 Y103.106 E62.80255
G1 X101.889 Y123.301 E64.37621
G1 X101.943 Y122.662 E64.41159
G1 X121.545 Y103.06 E65.93895
G1 X121.005 Y103.014 E65.96882
G1 X101.998 Y122.022 E67.44988
G1 X102.052 Y121.382 E67.48526
G1 X120.465 Y102.969 E68.92003
G1 X119.925 Y102.923 E68.94989
G1 X102.106 Y120.742 E70.33835
G1 X102.16 Y120.102 E70.37373
G1 X119.385 Y102.877 E71.7159
G1 X118.845 Y102.832 E71.74576
G1 X102.214 Y119.462 E73.04163
G1 X102.268 Y118.823 E73.07701
G1 X118.305 Y102.786 E74.32658
G1 X117.764 Y102.74 E74.35644
G1 X102.322 Y118.183 E75.55971
G1 X102.376 Y117.543 E75.59509
G1 X117.224 Y102.695 E76.75206
G1 X116.684 Y102.649 E76.78192
G1 X102.43 Y116.903 E77.89259
G1 X102.484 Y116.263 E77.92797
G1 X116.144 Y102.603 E78.99234
G1 X115.604 Y102.558 E79.02221
G1 X102.538 Y115.623 E80.04028
G1 X102.593 Y114.983 E80.07566
G1 X115.064 Y102.512 E81.04743
G1 X114.524 Y102.466 E81.07729
G1 X102.647 Y114.344 E82.00277
G1 X102.701 Y113.704 E82.03815
G1 X113.984 Y102.421 E82.91732
G1 X113.444 Y102.375 E82.94718
G1 X102.755 Y113.064 E83.78006
G1 X102.809 Y112.424 E83.81544
G1 X112.904 Y102.329 E84.60201
G1 X112.363 Y102.284 E84.63188
G1 X102.863 Y111.784 E85.37215
G1 X102.917 Y111.144 E85.40753
G1 X111.823 Y102.238 E86.10151
G1 X111.283 Y102.192 E86.13137
G1 X102.971 Y110.504 E86.77905
G1 X103.025 Y109.865 E86.81443
G1 X110.743 Y102.147 E87.4158
G1 X110.203 Y102.101 E87.44567
G1 X103.079 Y109.225 E88.00075
G1 X103.133 Y108.585 E88.03613
G1 X109.663 Y102.055 E88.54491
G1 X109.123 Y102.01 E88.57477
G1 X103.188 Y107.945 E89.03725
G1 X103.242 Y107.305 E89.07263
G1 X108.583 Y101.964 E89.48881
G1 X108.043 Y101.918 E89.51867
G1 X103.296 Y106.665 E89.88856
G1 X103.35 Y106.026 E89.92394
G1 X107.503 Y101.873 E90.24752
G1 X106.962 Y101.827 E90.27738
G1 X103.404 Y105.386 E90.55466
G1 X103.458 Y104.746 E90.59004
G1 X106.422 Y101.781 E90.82103
G1 X105.882 Y101.736 E90.85089
G1 X103.512 Y104.106 E91.03558
G1 X103.566 Y103.466 E91.07096
G1 X105.342 Y101.69 E91.20934
G1 X104.802 Y101.644 E91.2392
G1 X103.62 Y102.826 E91.33129
G1 X103.674 Y102.186 E91.36667
G1 X104.427 Y101.434 E91.4253
M106 S170.85
;LAYER_CHANGE
;Z:0.84
;HEIGHT:0.32
;BEFORE_LAYER_CHANGE
;0.84


G92 E0
G1 E-4.2 F3000
;WIPE_START
G1 F7200
G1 X103.674 Y102.186 E-4.6212
G1 X103.62 Y102.826 E-4.87537
G1 X104.802 Y101.644 E-5.53694
G1 X105.342 Y101.69 E-5.75149
G1 X105.059 Y101.973 E-5.91
;WIPE_END
G1 E-6 F3000
; stop printing object Stringing_sdfTest.stl id:0 copy 0
M486 S-1
G1 Z0.79 F9000
;AFTER_LAYER_CHANGE
;0.84
G92 E0
; printing object Stringing_sdfTest.stl id:0 copy 0
M486 S0
; acceleration to travel
M204 S1500
G1 X107.408 Y117.15
; decel to extrusion
M204 S500
G1 X107.706 Y119.074
; end travel
G1 E6 F3000
;TYPE:Internal perimeter
;WIDTH:0.476
G1 F2076.3712
G1 X108.122 Y119.073 E6.02254
G1 X108.532 Y119.145 E6.04511
G1 X108.917 Y119.284 E6.0673
G1 X109.283 Y119.494 E6.09017
G1 X109.598 Y119.758 E6.11244
G1 X109.866 Y120.074 E6.13491
G1 X110.078 Y120.44 E6.1578
G1 X110.219 Y120.825 E6.18006
G1 X110.293 Y121.238 E6.20276
G1 X110.293 Y121.653 E6.22526
G1 X110.222 Y122.06 E6.24763
G1 X110.082 Y122.451 E6.27014
G1 X109.875 Y122.81 E6.29261
G1 X109.608 Y123.131 E6.31524
G1 X109.291 Y123.398 E6.33771
G1 X108.931 Y123.608 E6.36028
G1 X108.54 Y123.751 E6.38282
G1 X108.132 Y123.825 E6.40528
G1 X107.717 Y123.825 E6.42782
G1 X107.306 Y123.755 E6.45039
G1 X106.915 Y123.614 E6.4729
G1 X106.556 Y123.408 E6.49533
G1 X106.236 Y123.14 E6.51794
G1 X105.968 Y122.822 E6.54049
G1 X105.758 Y122.462 E6.56309
G1 X105.615 Y122.073 E6.58553
G1 X105.542 Y121.664 E6.60804
G1 X105.541 Y121.248 E6.6306
G1 X105.611 Y120.838 E6.65314
G1 X105.752 Y120.448 E6.6756
G1 X105.959 Y120.087 E6.69814
G1 X106.226 Y119.768 E6.72071
G1 X106.543 Y119.5 E6.74318
G1 X106.909 Y119.288 E6.76611
G1 X107.292 Y119.147 E6.78826
G1 X107.647 Y119.084 E6.80776
G92 E0
G1 E-4.2 F3000
;WIPE_START
G1 F7200
G1 X108.122 Y119.073 E-4.3881
G1 X108.532 Y119.145 E-4.55291
G1 X108.917 Y119.284 E-4.71502
G1 X109.283 Y119.494 E-4.88204
G1 X109.598 Y119.758 E-5.04473
G1 X109.866 Y120.074 E-5.20885
G1 X110.078 Y120.44 E-5.37607
G1 X110.219 Y120.825 E-5.53865
G1 X110.293 Y121.238 E-5.70448
G1 X110.293 Y121.653 E-5.8688
G1 X110.275 Y121.756 E-5.91
;WIPE_END
G1 E-6 F3000
; acceleration to travel
M204 S1500
G1 X107.72 Y107.704 F9000
; decel to extrusion
M204 S500
G1 X107.396 Y105.923
; end travel
G1 E0 F3000
